calib/LUT LIBRARY/a beach preset v5.7.cube
TITLE "a beach preset v5.7"
LUT_3D_SIZE 33
0.009034 0.013944 0.011207
0.013094 0.015946 0.013288
0.042996 0.018922 0.015302
0.071534 0.019521 0.017526
0.109965 0.014995 0.020012
0.131553 0.012862 0.019045
0.159216 0.009572 0.016809
0.182552 0.008257 0.019026
0.210798 0.005460 0.021568
0.233713 0.003549 0.021876
0.255202 0.003000 0.024174
0.284523 0.007231 0.030979
0.310132 0.008007 0.033008
0.334619 0.008257 0.035107
0.364001 0.010021 0.042236
0.391576 0.012716 0.048309
0.419905 0.017056 0.055995
0.446490 0.021357 0.061997
0.470918 0.025277 0.066300
0.493608 0.029036 0.069742
0.515005 0.032816 0.072904
0.535316 0.036829 0.076198
0.554500 0.041204 0.079880
0.572437 0.046058 0.084178
0.588987 0.051379 0.089159
0.604036 0.056947 0.094578
0.617473 0.062446 0.100054
0.629201 0.067608 0.105261
0.639113 0.072195 0.109923
0.647129 0.076054 0.113862
0.653162 0.079040 0.116918
0.657167 0.081082 0.119011
0.659096 0.082101 0.120058
0.011678 0.021192 0.013749
0.017126 0.025957 0.015934
0.053862 0.027075 0.018872
0.079873 0.031259 0.022386
0.102220 0.036226 0.026545
0.127395 0.034602 0.025990
0.161666 0.014518 0.018921
0.183539 0.010353 0.020012
0.209342 0.007489 0.022232
0.233931 0.004005 0.022533
0.259945 0.006142 0.025156
0.288454 0.014005 0.034321
0.313144 0.014447 0.036703
0.338002 0.013374 0.038008
0.364917 0.013727 0.042493
0.390454 0.015678 0.046294
0.419968 0.020683 0.055750
0.446778 0.025029 0.062135
0.471070 0.028684 0.066283
0.493614 0.032106 0.069504
0.514968 0.035544 0.072487
0.535325 0.039258 0.075641
0.554588 0.043360 0.079168
0.572604 0.048005 0.083351
0.589226 0.053250 0.088372
0.604335 0.058796 0.093879
0.617835 0.064295 0.099442
0.629615 0.069441 0.104696
0.639580 0.074024 0.109397
0.647631 0.077862 0.113345
0.653700 0.080849 0.116423
0.657720 0.082875 0.118514
0.659665 0.083900 0.119575
0.015366 0.047055 0.016072
0.023483 0.052539 0.016815
0.054967 0.058479 0.017265
0.088551 0.043311 0.023723
0.109799 0.047008 0.028765
0.131016 0.048728 0.030349
0.161907 0.049659 0.028012
0.188740 0.050472 0.029629
0.221410 0.047939 0.033339
0.246332 0.039905 0.036851
0.269488 0.036877 0.038704
0.294857 0.034411 0.041110
0.319659 0.030761 0.042451
0.344083 0.027717 0.043513
0.371222 0.027678 0.049107
0.396593 0.028539 0.053574
0.422740 0.030997 0.059103
0.447929 0.033963 0.063790
0.471437 0.036586 0.067050
0.493598 0.039104 0.069669
0.514859 0.041742 0.072267
0.535289 0.044777 0.075115
0.554677 0.048243 0.078278
0.572835 0.052384 0.082162
0.589577 0.057388 0.087185
0.604805 0.062819 0.092795
0.618413 0.068223 0.098428
0.630300 0.073295 0.103726
0.640350 0.077802 0.108437
0.648478 0.081597 0.112403
0.654596 0.084538 0.115478
0.658658 0.086551 0.117584
0.660616 0.087556 0.118639
0.014653 0.088574 0.010993
0.028194 0.090770 0.012842
0.059162 0.101565 0.014511
0.093324 0.104960 0.016733
0.123124 0.083495 0.026460
0.142286 0.066626 0.032508
0.168815 0.060762 0.031701
0.193862 0.066177 0.034028
0.219291 0.069620 0.037185
0.248363 0.067868 0.040644
0.270984 0.071099 0.045287
0.298585 0.064298 0.048976
0.326725 0.057916 0.050056
0.350693 0.052667 0.051493
0.376477 0.049808 0.055713
0.401576 0.048513 0.059636
0.425631 0.048358 0.063218
0.449128 0.048946 0.066360
0.471711 0.049802 0.068713
0.493454 0.050948 0.070787
0.514648 0.052407 0.073034
0.535143 0.054320 0.075429
0.554672 0.056772 0.078073
0.573013 0.060051 0.081464
0.589941 0.064528 0.086328
0.605351 0.069565 0.091842
0.619142 0.074663 0.097390
0.631188 0.079482 0.102599
0.641383 0.083809 0.107255
0.649617 0.087461 0.111172
0.655823 0.090320 0.114234
0.659933 0.092268 0.116321
0.661926 0.093256 0.117382
0.015443 0.116980 0.010181
0.028833 0.122142 0.012226
0.067619 0.132023 0.014829
0.096957 0.141643 0.016866
0.129541 0.145589 0.019461
0.162847 0.143195 0.023761
0.185408 0.101683 0.032758
0.204812 0.080501 0.036689
0.224782 0.081937 0.039403
0.249428 0.086141 0.044332
0.275251 0.089632 0.049449
0.298932 0.091407 0.053536
0.334840 0.086028 0.052464
0.353103 0.079834 0.054802
0.378855 0.075684 0.059731
0.403523 0.072771 0.062853
0.426518 0.070281 0.065856
0.449164 0.068816 0.068558
0.471288 0.067933 0.070686
0.492905 0.067493 0.072601
0.514114 0.067542 0.074591
0.534713 0.068175 0.076673
0.554416 0.069524 0.079029
0.572983 0.071853 0.082130
0.590183 0.075357 0.086450
0.605879 0.079580 0.091466
0.619933 0.084031 0.096624
0.632220 0.088372 0.101569
0.642607 0.092337 0.106036
0.651001 0.095744 0.109847
0.657316 0.098424 0.112833
0.661507 0.100277 0.114893
0.663532 0.101205 0.115930
0.016514 0.145200 0.010993
0.031685 0.152915 0.013385
0.065948 0.161391 0.015446
0.104113 0.171601 0.017531
0.132265 0.178518 0.019580
0.164641 0.181303 0.021445
0.195539 0.181394 0.020944
0.225280 0.157326 0.019694
0.240736 0.106691 0.038500
0.259500 0.103691 0.044553
0.281273 0.106042 0.048600
0.303039 0.110068 0.052372
0.330664 0.103833 0.055644
0.351644 0.104051 0.057903
0.379872 0.101192 0.062411
0.403914 0.098132 0.063558
0.425383 0.093937 0.066430
0.447765 0.091527 0.069547
0.469856 0.089535 0.071978
0.491571 0.087773 0.074096
0.512974 0.086474 0.076104
0.533817 0.085833 0.078103
0.553805 0.086063 0.080358
0.572690 0.087354 0.083253
0.590259 0.089762 0.087058
0.606329 0.092960 0.091487
0.620739 0.096562 0.096154
0.633330 0.100223 0.100719
0.643977 0.103682 0.104931
0.652566 0.106706 0.108559
0.659031 0.109133 0.111444
0.663312 0.110813 0.113433
0.665393 0.111672 0.114452
0.016675 0.175335 0.010303
0.036140 0.181468 0.013662
0.058042 0.189551 0.015444
0.108701 0.198193 0.017638
0.135116 0.205302 0.018948
0.164417 0.209528 0.019230
0.196495 0.209531 0.017382
0.232398 0.205448 0.012790
0.255285 0.180203 0.026894
0.276204 0.144061 0.037289
0.295261 0.125120 0.047320
0.312827 0.128749 0.050860
0.333165 0.132118 0.052935
0.356758 0.122675 0.058053
0.381365 0.125548 0.064156
0.403005 0.122103 0.065297
0.422788 0.117357 0.065950
0.445609 0.115655 0.069554
0.467841 0.113221 0.072349
0.489557 0.110653 0.074758
0.511239 0.108262 0.076934
0.532450 0.106494 0.078986
0.552834 0.105706 0.081246
0.572152 0.106031 0.084053
0.590180 0.107413 0.087541
0.606711 0.109608 0.091555
0.621542 0.112298 0.095808
0.634505 0.115197 0.100036
0.645452 0.118031 0.103975
0.654282 0.120588 0.107419
0.660915 0.122665 0.110167
0.665314 0.124133 0.112087
0.667448 0.124874 0.113061
0.032291 0.206754 0.021446
0.039433 0.205964 0.012244
0.059165 0.215890 0.012178
0.096338 0.225692 0.012750
0.139069 0.231299 0.014648
0.164753 0.237420 0.014254
0.197213 0.240944 0.013118
0.230513 0.242639 0.010194
0.269018 0.243652 0.007141
0.299125 0.228160 0.005608
0.311579 0.196565 0.032780
0.326911 0.172826 0.045706
0.341683 0.145579 0.053115
0.364976 0.150802 0.055324
0.386804 0.153221 0.063410
0.406682 0.148921 0.066974
0.425504 0.144907 0.068572
0.445326 0.141513 0.070050
0.466771 0.137861 0.072518
0.487428 0.135340 0.074650
0.509269 0.132045 0.076788
0.530836 0.129291 0.078786
0.551643 0.127745 0.081081
0.571461 0.127352 0.083960
0.590034 0.127943 0.087426
0.607093 0.129293 0.091303
0.622405 0.131162 0.095370
0.635771 0.133300 0.099389
0.647052 0.135489 0.103150
0.656134 0.137510 0.106435
0.662958 0.139198 0.109077
0.667475 0.140393 0.110914
0.669676 0.141011 0.111861
0.044152 0.238446 0.028842
0.049554 0.238711 0.018382
0.066083 0.245919 0.006293
0.086854 0.259260 0.004894
0.131515 0.262577 0.006870
0.168534 0.265820 0.007698
0.196410 0.272684 0.007047
0.230670 0.274424 0.006814
0.268693 0.272139 0.005990
0.299034 0.273891 0.006720
0.320459 0.253975 0.020959
0.341011 0.233763 0.030466
0.360111 0.206094 0.044843
0.378982 0.194520 0.052476
0.397106 0.188012 0.058627
0.414431 0.181269 0.063448
0.431219 0.172489 0.067587
0.448762 0.166531 0.069587
0.467647 0.163246 0.071692
0.485879 0.161872 0.073608
0.507896 0.157016 0.075450
0.529518 0.153328 0.077040
0.550537 0.151479 0.079323
0.570836 0.150795 0.082517
0.590001 0.150940 0.086316
0.607639 0.151718 0.090421
0.623451 0.152938 0.094587
0.637233 0.154428 0.098626
0.648836 0.156002 0.102343
0.658171 0.157505 0.105576
0.665170 0.158773 0.108151
0.669809 0.159692 0.109950
0.672067 0.160157 0.110865
0.056629 0.271007 0.037134
0.061822 0.271819 0.026269
0.074084 0.275080 0.003353
0.094649 0.286137 0.003112
0.116067 0.298274 0.002971
0.164192 0.298125 0.004026
0.198230 0.299831 0.004221
0.224927 0.305282 0.003799
0.266874 0.305616 0.003539
0.290442 0.304835 0.003651
0.323606 0.297169 0.013081
0.351338 0.286521 0.018714
0.375923 0.269962 0.027256
0.394657 0.249106 0.038716
0.410931 0.229966 0.048676
0.426208 0.218653 0.055088
0.440945 0.208252 0.060627
0.454823 0.196294 0.065209
0.473572 0.187824 0.068983
0.489776 0.183568 0.071350
0.509403 0.180736 0.072747
0.529512 0.177617 0.073288
0.550008 0.176403 0.075475
0.570633 0.175944 0.079353
0.590396 0.176038 0.083935
0.608611 0.176551 0.088656
0.624902 0.177365 0.093256
0.639049 0.178359 0.097558
0.650933 0.179431 0.101433
0.660469 0.180458 0.104732
0.667618 0.181343 0.107341
0.672348 0.181978 0.109138
0.674659 0.182307 0.110059
0.068638 0.303165 0.046686
0.073454 0.304195 0.037840
0.084321 0.307274 0.021368
0.103765 0.314906 0.002709
0.120963 0.324760 0.002663
0.142542 0.334571 0.002692
0.198734 0.329296 0.003221
0.225346 0.332004 0.003188
0.259869 0.335077 0.003069
0.288783 0.335568 0.003016
0.324456 0.333188 0.008166
0.355614 0.328272 0.011124
0.385045 0.318365 0.015059
0.409668 0.307301 0.020379
0.429197 0.293914 0.026609
0.443483 0.272514 0.038881
0.456278 0.254460 0.049573
0.469173 0.238296 0.057533
0.483734 0.223929 0.063456
0.497844 0.211014 0.067566
0.514499 0.206811 0.068588
0.531790 0.203554 0.067224
0.550647 0.202716 0.069261
0.571422 0.202598 0.074391
0.591711 0.202959 0.080214
0.610405 0.203524 0.085918
0.627047 0.204169 0.091238
0.641445 0.204856 0.096061
0.653497 0.205541 0.100277
0.663155 0.206187 0.103802
0.670382 0.206728 0.106534
0.675169 0.207122 0.108408
0.677503 0.207311 0.109352
0.079459 0.334365 0.056221
0.083285 0.335095 0.048384
0.091400 0.336682 0.033395
0.104671 0.339589 0.014024
0.125170 0.348803 0.002582
0.143821 0.358609 0.002558
0.172210 0.367965 0.002664
0.226850 0.361164 0.002715
0.257982 0.363063 0.002754
0.284267 0.363654 0.002784
0.322652 0.366608 0.005200
0.356041 0.364266 0.006849
0.388243 0.359937 0.008888
0.416510 0.351898 0.012358
0.440341 0.339594 0.015689
0.459767 0.325939 0.022135
0.472073 0.304332 0.036189
0.484551 0.284668 0.047071
0.497594 0.267898 0.054443
0.510476 0.252621 0.059346
0.524418 0.241574 0.060747
0.539096 0.233035 0.059063
0.553702 0.229835 0.061359
0.574236 0.230427 0.068246
0.594705 0.231577 0.075487
0.613529 0.232497 0.082319
0.630237 0.233172 0.088548
0.644653 0.233682 0.094064
0.656706 0.234096 0.098799
0.666349 0.234431 0.102674
0.673567 0.234698 0.105643
0.678342 0.234873 0.107645
0.680679 0.234956 0.108658
0.089307 0.364816 0.065724
0.091973 0.365543 0.058589
0.097273 0.367006 0.044619
0.105349 0.369122 0.024904
0.119428 0.370179 0.002633
0.146702 0.379910 0.002493
0.170684 0.392837 0.002551
0.200080 0.399437 0.002677
0.257394 0.393903 0.002475
0.281338 0.399569 0.002533
0.321949 0.400901 0.002772
0.352613 0.397991 0.004177
0.387236 0.395175 0.005779
0.419093 0.392510 0.007993
0.446869 0.386682 0.009777
0.468817 0.372169 0.015445
0.485091 0.353385 0.025705
0.499406 0.334184 0.035891
0.512686 0.315978 0.043936
0.524894 0.298127 0.049792
0.536617 0.280733 0.052730
0.548118 0.263004 0.053237
0.560929 0.257659 0.055789
0.580529 0.260408 0.062628
0.600242 0.262495 0.070502
0.618485 0.263690 0.078217
0.634767 0.264339 0.085328
0.648874 0.264685 0.091621
0.660690 0.264853 0.096964
0.670160 0.264931 0.101298
0.677249 0.264953 0.104570
0.681947 0.264953 0.106769
0.684242 0.264931 0.107864
0.098669 0.394467 0.075274
0.100132 0.395402 0.068673
0.102012 0.397566 0.055386
0.100001 0.402216 0.034790
0.075420 0.414539 0.002641
0.133537 0.413802 0.002556
0.173943 0.417972 0.002556
0.193145 0.427870 0.002513
0.239716 0.431087 0.002866
0.282280 0.425990 0.003057
0.327966 0.422753 0.002516
0.346591 0.429774 0.002271
0.382102 0.429904 0.003701
0.417101 0.426200 0.005078
0.447463 0.420552 0.006602
0.474454 0.412565 0.009983
0.494764 0.398908 0.017619
0.512256 0.382995 0.025538
0.527362 0.365509 0.033249
0.540064 0.346815 0.040204
0.551443 0.327887 0.045383
0.562797 0.310476 0.048878
0.575522 0.300326 0.052634
0.591571 0.297501 0.058443
0.608762 0.297366 0.065969
0.625449 0.297611 0.074056
0.640742 0.297757 0.081854
0.654173 0.297740 0.088860
0.665508 0.297603 0.094833
0.674626 0.297399 0.099650
0.681473 0.297195 0.103279
0.686013 0.297021 0.105693
0.688238 0.296915 0.106901
0.108195 0.423089 0.084973
0.109067 0.424100 0.078911
0.110068 0.426316 0.066716
0.109421 0.430264 0.048292
0.105742 0.436361 0.024236
0.117199 0.439434 0.002322
0.172242 0.443773 0.002560
0.197620 0.451621 0.002524
0.220717 0.461397 0.002467
0.267388 0.457131 0.002877
0.314288 0.454675 0.002449
0.360442 0.456382 0.002197
0.373260 0.461265 0.002226
0.410013 0.457805 0.003694
0.444577 0.454260 0.005240
0.474177 0.448316 0.007902
0.499044 0.438935 0.012553
0.520720 0.427129 0.018073
0.539388 0.412770 0.024247
0.553826 0.395513 0.031388
0.565976 0.376892 0.038171
0.577649 0.359568 0.043852
0.590079 0.346693 0.049028
0.604086 0.339383 0.054875
0.618996 0.335863 0.062053
0.633906 0.334229 0.070208
0.647920 0.333342 0.078421
0.660429 0.332691 0.085987
0.671085 0.332099 0.092498
0.679712 0.331557 0.097778
0.686211 0.331088 0.101743
0.690537 0.330744 0.104387
0.692653 0.330542 0.105699
0.118113 0.450575 0.094850
0.118695 0.451575 0.089280
0.119103 0.453711 0.077992
0.117245 0.457483 0.060585
0.107833 0.464175 0.036197
0.074464 0.478479 0.002813
0.142665 0.469123 0.002640
0.201197 0.472445 0.002487
0.225194 0.480604 0.002520
0.253617 0.490479 0.002467
0.297339 0.479476 0.001933
0.344394 0.483964 0.002429
0.372637 0.488876 0.002500
0.404655 0.485821 0.003197
0.442121 0.485433 0.004119
0.472194 0.481070 0.005985
0.500084 0.474500 0.008993
0.524925 0.466413 0.012933
0.546478 0.455297 0.017998
0.564147 0.441168 0.024341
0.578152 0.424139 0.031621
0.590698 0.407255 0.038566
0.603116 0.393014 0.044982
0.616095 0.382819 0.051423
0.629543 0.376540 0.058677
0.643018 0.372954 0.066861
0.655808 0.370779 0.075274
0.667330 0.369253 0.083177
0.677226 0.368055 0.090085
0.685282 0.367072 0.095722
0.691382 0.366302 0.099982
0.695448 0.365753 0.102817
0.697445 0.365459 0.104234
0.128516 0.476892 0.104917
0.129116 0.477805 0.099856
0.129655 0.479684 0.089521
0.128049 0.482817 0.073160
0.118190 0.487822 0.048093
0.079017 0.496004 0.003097
0.097806 0.506143 0.003002
0.203381 0.494061 0.002375
0.226149 0.503478 0.002525
0.255280 0.508542 0.002516
0.290285 0.517420 0.002824
0.344590 0.508452 0.002326
0.366460 0.498173 0.002412
0.387700 0.507014 0.002801
0.434893 0.511753 0.003485
0.467533 0.510859 0.004424
0.497509 0.506602 0.006607
0.525349 0.501131 0.009580
0.550184 0.493453 0.013515
0.571323 0.483152 0.018759
0.587306 0.468122 0.026019
0.601115 0.452381 0.033603
0.613980 0.438025 0.041033
0.626691 0.426551 0.048322
0.639432 0.418436 0.055926
0.651967 0.413106 0.064111
0.663790 0.409544 0.072526
0.674449 0.407006 0.080555
0.683630 0.405077 0.087667
0.691136 0.403586 0.093539
0.696834 0.402459 0.097996
0.700646 0.401694 0.100983
0.702515 0.401286 0.102470
0.139288 0.502050 0.115118
0.140215 0.502847 0.110643
0.141755 0.504407 0.101610
0.143122 0.506834 0.087787
0.143061 0.510244 0.068857
0.141963 0.514594 0.045643
0.160465 0.518660 0.031274
0.201089 0.518888 0.017975
0.228413 0.523907 0.002423
0.250484 0.529418 0.002514
0.292099 0.536375 0.002501
0.321684 0.540471 0.002462
0.356845 0.533451 0.002534
0.393741 0.522528 0.002676
0.429910 0.533862 0.003085
0.460829 0.537146 0.003655
0.494150 0.537108 0.005077
0.524045 0.533271 0.007257
0.550839 0.527341 0.010414
0.574163 0.519271 0.014925
0.592499 0.507270 0.021663
0.608231 0.493837 0.029312
0.622156 0.480514 0.037410
0.635255 0.468977 0.045462
0.647905 0.460011 0.053532
0.660020 0.453496 0.061799
0.671275 0.448805 0.070139
0.681338 0.445330 0.078121
0.689981 0.442691 0.085271
0.697040 0.440671 0.091227
0.702407 0.439184 0.095791
0.705994 0.438182 0.098855
0.707756 0.437667 0.100394
0.150128 0.526078 0.125283
0.151435 0.526763 0.121380
0.154019 0.528050 0.113595
0.157762 0.529941 0.101977
0.162863 0.532402 0.086812
0.170870 0.535236 0.069198
0.186863 0.537893 0.052118
0.210289 0.539686 0.034147
0.232336 0.542057 0.014806
0.251587 0.545115 0.002666
0.292723 0.551683 0.002520
0.322527 0.565946 0.002471
0.347676 0.565454 0.002435
0.386897 0.562257 0.002615
0.427432 0.559775 0.002797
0.457897 0.563591 0.003186
0.492275 0.567339 0.003794
0.522136 0.563545 0.005270
0.549026 0.558064 0.007952
0.572962 0.551804 0.011978
0.593944 0.542613 0.018113
0.611991 0.531594 0.025690
0.627585 0.519997 0.034096
0.641652 0.509277 0.042663
0.654715 0.500300 0.051150
0.666861 0.493247 0.059576
0.677925 0.487826 0.067863
0.687702 0.483648 0.075738
0.696032 0.480404 0.082807
0.702808 0.477917 0.088743
0.707940 0.476081 0.093315
0.711370 0.474861 0.096409
0.713047 0.474230 0.097959
0.160691 0.548979 0.135216
0.162311 0.549585 0.131809
0.165615 0.550669 0.125055
0.170716 0.552218 0.115074
0.177929 0.554169 0.102149
0.188081 0.556395 0.086871
0.202390 0.558673 0.070093
0.220234 0.560866 0.051748
0.238950 0.563384 0.032332
0.258205 0.566872 0.015397
0.285611 0.573180 0.007627
0.323514 0.582243 0.002744
0.355533 0.597237 0.002890
0.381016 0.597211 0.002715
0.415240 0.592550 0.002504
0.451959 0.591957 0.002888
0.487488 0.592373 0.003027
0.519946 0.590611 0.003090
0.546009 0.585352 0.005290
0.569318 0.582675 0.008328
0.593569 0.575905 0.014095
0.614019 0.566954 0.021783
0.631242 0.557066 0.030549
0.646377 0.547479 0.039571
0.660077 0.538991 0.048450
0.672534 0.531895 0.057077
0.683696 0.526133 0.065378
0.693439 0.521499 0.073154
0.701670 0.517810 0.080116
0.708317 0.514931 0.085969
0.713331 0.512798 0.090505
0.716665 0.511368 0.093580
0.718296 0.510639 0.095132
0.170744 0.570740 0.144756
0.172550 0.571288 0.141754
0.176280 0.572245 0.135822
0.182026 0.573586 0.127064
0.190015 0.575281 0.115678
0.200556 0.577261 0.101974
0.213902 0.579468 0.086308
0.229606 0.581915 0.068874
0.246661 0.584857 0.050151
0.264705 0.588802 0.031492
0.285150 0.594649 0.014846
0.308984 0.603233 0.002664
0.352972 0.609470 0.002647
0.382835 0.615685 0.002524
0.410088 0.622074 0.002505
0.444000 0.618548 0.002825
0.478780 0.616799 0.002777
0.511828 0.614604 0.002618
0.543386 0.606496 0.002297
0.560494 0.614238 0.002430
0.592996 0.608087 0.008806
0.615737 0.600667 0.017126
0.634049 0.592260 0.026505
0.650008 0.583858 0.036025
0.664353 0.576097 0.045257
0.677262 0.569276 0.054085
0.688700 0.563452 0.062432
0.698594 0.558578 0.070156
0.706882 0.554574 0.077021
0.713532 0.551393 0.082796
0.718516 0.548998 0.087272
0.721821 0.547391 0.090324
0.723430 0.546562 0.091860
0.180118 0.591300 0.153784
0.182037 0.591823 0.151112
0.185965 0.592699 0.145835
0.191991 0.593930 0.138034
0.200200 0.595493 0.127838
0.210706 0.597384 0.115431
0.223478 0.599599 0.101021
0.238231 0.602212 0.084815
0.254447 0.605395 0.067154
0.271797 0.609439 0.048658
0.290511 0.614642 0.030217
0.312100 0.620914 0.013477
0.346825 0.627310 0.002665
0.379483 0.637469 0.002477
0.407475 0.642858 0.002783
0.435992 0.650272 0.002880
0.471332 0.646498 0.002639
0.503772 0.643501 0.002494
0.536528 0.633043 0.002502
0.567599 0.619510 0.002730
0.597555 0.637674 0.002664
0.618036 0.632387 0.012340
0.636314 0.625703 0.022361
0.652837 0.618637 0.032220
0.667834 0.611762 0.041641
0.681286 0.605386 0.050565
0.693121 0.599672 0.058938
0.703278 0.594684 0.066622
0.711728 0.590461 0.073427
0.718462 0.587024 0.079137
0.723486 0.584405 0.083575
0.726801 0.582624 0.086598
0.728415 0.581711 0.088128
0.188755 0.610597 0.162218
0.190708 0.611102 0.159815
0.194729 0.611942 0.155072
0.200831 0.613109 0.148046
0.209069 0.614618 0.138830
0.219431 0.616475 0.127543
0.231858 0.618725 0.114335
0.246125 0.621440 0.099382
0.261949 0.624767 0.082935
0.279073 0.628897 0.065364
0.297536 0.634049 0.047198
0.318097 0.640391 0.029292
0.343831 0.648079 0.013211
0.379567 0.655953 0.002792
0.400511 0.662443 0.002877
0.442380 0.673928 0.002620
0.466723 0.683121 0.002518
0.499766 0.675352 0.002489
0.529358 0.668839 0.002716
0.562364 0.663811 0.003464
0.592890 0.665667 0.005044
0.617314 0.661970 0.009857
0.637143 0.657630 0.019123
0.654817 0.652158 0.028614
0.670711 0.646238 0.037812
0.684835 0.640348 0.046621
0.697149 0.634775 0.054923
0.707634 0.629711 0.062558
0.716294 0.625283 0.069313
0.723158 0.621606 0.074991
0.728251 0.618755 0.079401
0.731604 0.616806 0.082417
0.733231 0.615797 0.083937
0.196601 0.628531 0.170001
0.198575 0.629041 0.167820
0.202602 0.629859 0.163517
0.208715 0.631005 0.157137
0.216891 0.632486 0.148745
0.227123 0.634346 0.138432
0.239309 0.636626 0.126312
0.253316 0.639419 0.112532
0.268933 0.642837 0.097288
0.286006 0.647040 0.080847
0.304480 0.652188 0.063561
0.324604 0.658406 0.045908
0.347042 0.665577 0.028544
0.371967 0.672537 0.012760
0.395934 0.676701 0.002662
0.426547 0.687381 0.002754
0.478333 0.701500 0.002397
0.499912 0.710055 0.002390
0.527377 0.702827 0.002803
0.558648 0.698745 0.003863
0.589036 0.696634 0.005886
0.615006 0.693577 0.010114
0.637036 0.689873 0.017225
0.656302 0.685225 0.025421
0.673292 0.679923 0.033929
0.688167 0.674340 0.042379
0.700991 0.668806 0.050502
0.711810 0.663585 0.058041
0.720686 0.658902 0.064752
0.727678 0.654930 0.070404
0.732846 0.651819 0.074813
0.736235 0.649669 0.077825
0.737880 0.648560 0.079353
0.203668 0.645017 0.177093
0.205623 0.645528 0.175096
0.209649 0.646349 0.171162
0.215715 0.647482 0.165323
0.223830 0.648967 0.157632
0.233930 0.650834 0.148159
0.245961 0.653154 0.136999
0.259788 0.656001 0.124273
0.275292 0.659495 0.110141
0.292322 0.663765 0.094810
0.310808 0.668966 0.078539
0.330718 0.675234 0.061640
0.352010 0.682668 0.044483
0.374093 0.691312 0.027647
0.394967 0.701856 0.012637
0.411369 0.716209 0.003597
0.462131 0.722654 0.003714
0.490483 0.731906 0.002361
0.524682 0.733573 0.002776
0.556146 0.730491 0.003873
0.586317 0.728239 0.005815
0.613404 0.725590 0.009568
0.637189 0.722269 0.015262
0.657913 0.718045 0.022257
0.675958 0.713019 0.029969
0.691552 0.707483 0.037946
0.704839 0.701776 0.045805
0.715947 0.696237 0.053212
0.724991 0.691160 0.059862
0.732078 0.686799 0.065500
0.737292 0.683346 0.069908
0.740705 0.680955 0.072934
0.742358 0.679713 0.074465
0.209933 0.659943 0.183461
0.211887 0.660472 0.181620
0.215873 0.661292 0.177993
0.221907 0.662436 0.172611
0.229937 0.663924 0.165513
0.239947 0.665816 0.156762
0.251845 0.668165 0.146434
0.265561 0.671068 0.134633
0.280965 0.674621 0.121491
0.297963 0.678961 0.107179
0.316435 0.684224 0.091901
0.336290 0.690568 0.075902
0.357337 0.698137 0.059459
0.379189 0.707084 0.042958
0.401255 0.717556 0.027154
0.424355 0.729127 0.013816
0.459449 0.740724 0.007846
0.496339 0.749411 0.002145
0.522707 0.765271 0.002454
0.554688 0.760108 0.003703
0.585330 0.759605 0.005100
0.613263 0.757479 0.008318
0.638221 0.754531 0.013017
0.660058 0.750557 0.019030
0.678999 0.745547 0.025986
0.695200 0.739766 0.033451
0.708849 0.733619 0.041003
0.720144 0.727522 0.048241
0.729273 0.721865 0.054816
0.736385 0.716963 0.060429
0.741602 0.713070 0.064845
0.745006 0.710363 0.067881
0.746656 0.708965 0.069425
0.215427 0.673223 0.189086
0.217351 0.673758 0.187372
0.221322 0.674596 0.184003
0.227296 0.675744 0.179002
0.235275 0.677254 0.172406
0.245190 0.679162 0.164265
0.257005 0.681550 0.154648
0.270618 0.684493 0.143642
0.285960 0.688106 0.131364
0.302912 0.692502 0.117956
0.321388 0.697831 0.103593
0.341260 0.704234 0.088483
0.362398 0.711875 0.072879
0.384605 0.720890 0.057113
0.407832 0.731377 0.041741
0.432840 0.743245 0.027819
0.462418 0.756443 0.017239
0.494304 0.769910 0.009179
0.524442 0.781418 0.005792
0.556460 0.786115 0.004641
0.588243 0.789957 0.004885
0.615173 0.788490 0.007017
0.640270 0.786258 0.010772
0.662875 0.782558 0.015899
0.682565 0.777355 0.022129
0.699232 0.771031 0.029075
0.713088 0.764122 0.036288
0.724435 0.757190 0.043333
0.733534 0.750720 0.049810
