calib/LUT LIBRARY/a beach preset v5.7.cube
TITLE "a beach preset v5.7"
LUT_3D_SIZE 9
0.009034 0.013944 0.011207
0.109965 0.014995 0.020012
0.210798 0.005460 0.021568
0.310132 0.008007 0.033008
0.419905 0.017056 0.055995
0.515005 0.032816 0.072904
0.588987 0.051379 0.089159
0.639113 0.072195 0.109923
0.659096 0.082101 0.120058
0.015443 0.116980 0.010181
0.129541 0.145589 0.019461
0.224782 0.081937 0.039403
0.334840 0.086028 0.052464
0.426518 0.070281 0.065856
0.514114 0.067542 0.074591
0.590183 0.075357 0.086450
0.642607 0.092337 0.106036
0.663532 0.101205 0.115930
0.044152 0.238446 0.028842
0.131515 0.262577 0.006870
0.268693 0.272139 0.005990
0.360111 0.206094 0.044843
0.431219 0.172489 0.067587
0.507896 0.157016 0.075450
0.590001 0.150940 0.086316
0.648836 0.156002 0.102343
0.672067 0.160157 0.110865
0.089307 0.364816 0.065724
0.119428 0.370179 0.002633
0.257394 0.393903 0.002475
0.387236 0.395175 0.005779
0.485091 0.353385 0.025705
0.536617 0.280733 0.052730
0.600242 0.262495 0.070502
0.660690 0.264853 0.096964
0.684242 0.264931 0.107864
0.128516 0.476892 0.104917
0.118190 0.487822 0.048093
0.226149 0.503478 0.002525
0.366460 0.498173 0.002412
0.497509 0.506602 0.006607
0.587306 0.468122 0.026019
0.639432 0.418436 0.055926
0.683630 0.405077 0.087667
0.702515 0.401286 0.102470
0.170744 0.570740 0.144756
0.190015 0.575281 0.115678
0.246661 0.584857 0.050151
0.352972 0.609470 0.002647
0.478780 0.616799 0.002777
0.592996 0.608087 0.008806
0.664353 0.576097 0.045257
0.706882 0.554574 0.077021
0.723430 0.546562 0.091860
0.203668 0.645017 0.177093
0.223830 0.648967 0.157632
0.275292 0.659495 0.110141
0.352010 0.682668 0.044483
0.462131 0.722654 0.003714
0.586317 0.728239 0.005815
0.675958 0.713019 0.029969
0.724991 0.691160 0.059862
0.742358 0.679713 0.074465
0.224075 0.694450 0.198026
0.243668 0.698599 0.183249
0.293874 0.709722 0.146789
0.370631 0.733874 0.094226
0.470464 0.780482 0.039059
0.592080 0.846647 0.006638
0.691279 0.837039 0.015677
0.741639 0.801055 0.040807
0.757933 0.781608 0.055203
0.232184 0.713617 0.206356
0.251529 0.717943 0.193217
0.301306 0.729419 0.160802
0.378221 0.753907 0.113780
0.478303 0.799475 0.062153
0.595151 0.865999 0.022144
0.701314 0.898596 0.012764
0.750606 0.853407 0.031778
0.765486 0.827277 0.045310
0.020373 0.055340 0.101449
0.100129 0.044160 0.093262
0.227333 0.053538 0.104545
0.349920 0.023480 0.094199
0.439729 0.011020 0.092135
0.524512 0.017826 0.087278
0.597544 0.037367 0.098950
0.646963 0.063590 0.124058
0.666593 0.075640 0.136051
0.002573 0.125691 0.129556
0.136736 0.134463 0.135999
0.242216 0.129476 0.126112
0.363123 0.092540 0.116219
0.449629 0.051412 0.098069
0.529782 0.021018 0.084986
0.604647 0.030933 0.077089
0.654931 0.069659 0.110998
0.674455 0.085911 0.126824
0.011874 0.243455 0.138076
0.106459 0.267212 0.123990
0.279246 0.280251 0.128321
0.363422 0.207584 0.140068
0.443379 0.184451 0.131207
0.516654 0.149368 0.104351
0.601418 0.122243 0.097350
0.664542 0.123952 0.106363
0.687956 0.132644 0.117193
0.069064 0.366308 0.133468
0.100875 0.373174 0.086555
0.268866 0.399051 0.097491
0.395906 0.406803 0.093257
0.499760 0.328135 0.102451
0.532050 0.271621 0.100569
0.597968 0.250497 0.092048
0.672220 0.245293 0.111637
0.698653 0.242588 0.120261
0.117396 0.476918 0.152367
0.138360 0.483257 0.109784
0.220682 0.506441 0.011405
0.382714 0.518947 0.026324
0.514739 0.520106 0.023894
0.631964 0.509369 0.033141
0.662219 0.389990 0.035460
0.696899 0.394247 0.102172
0.715018 0.390217 0.120911
0.161573 0.570954 0.180063
0.182315 0.575637 0.153298
0.243334 0.586346 0.082213
0.346335 0.600599 0.003599
0.480852 0.619418 0.004115
0.606850 0.618361 0.014879
0.684056 0.579886 0.058137
0.723139 0.553798 0.094437
0.736689 0.544383 0.112413
0.196271 0.645371 0.205587
0.216384 0.649342 0.187187
0.269325 0.659498 0.139721
0.349325 0.680328 0.065548
0.457537 0.713286 0.002420
0.586324 0.733721 0.003479
0.692767 0.720913 0.027782
0.740819 0.697246 0.072650
0.756705 0.684314 0.092014
0.218179 0.694880 0.223081
0.237694 0.698900 0.208954
0.288246 0.709498 0.173118
0.366402 0.732439 0.118084
0.467229 0.777881 0.051533
0.587694 0.852536 0.002510
0.724527 0.869211 0.002226
0.762203 0.820390 0.041739
0.774590 0.793847 0.065101
0.226887 0.714077 0.230196
0.246161 0.718233 0.217587
0.296049 0.729136 0.185890
0.373713 0.752411 0.138055
0.475147 0.795980 0.081380
0.596713 0.863860 0.030633
0.726503 0.935967 0.006288
0.776573 0.886266 0.027278
0.784285 0.845359 0.050037
0.042630 0.115767 0.216810
0.114937 0.113472 0.210557
0.217392 0.120177 0.214929
0.334887 0.111351 0.214800
0.443981 0.082742 0.199718
0.534846 0.059581 0.178751
0.609094 0.054731 0.168199
0.659728 0.066869 0.178650
0.679594 0.075717 0.187287
0.001607 0.133447 0.229324
0.110941 0.155014 0.233321
0.227210 0.152180 0.226304
0.334734 0.151681 0.236577
0.451662 0.096097 0.209081
0.550624 0.037646 0.165125
0.630502 0.001140 0.105675
0.679536 0.043316 0.143307
0.695821 0.066407 0.165998
0.006299 0.244487 0.265442
0.012465 0.258850 0.273616
0.285521 0.284348 0.285380
0.382551 0.259775 0.253692
0.478519 0.220071 0.227350
0.560680 0.161052 0.190130
0.639051 0.081542 0.142610
0.726579 0.001469 0.100786
0.736171 0.052316 0.126491
0.037948 0.366947 0.259734
0.002496 0.386192 0.257356
0.238435 0.409460 0.248761
0.414869 0.417674 0.257505
0.488980 0.333089 0.244975
0.550352 0.293619 0.213796
0.623510 0.246062 0.176944
0.706210 0.200368 0.154966
0.740572 0.175172 0.149959
0.087363 0.476682 0.254235
0.084353 0.485944 0.234826
0.183530 0.512791 0.198049
0.397354 0.527409 0.223265
0.521432 0.538076 0.224718
0.632969 0.473593 0.208979
0.658949 0.387318 0.175239
0.720372 0.372289 0.167569
0.745320 0.362655 0.171888
0.137775 0.570272 0.261583
0.151036 0.576059 0.243766
0.211199 0.590538 0.196839
0.340602 0.609007 0.141202
0.493244 0.625051 0.156233
0.627480 0.635905 0.167204
0.736662 0.604866 0.148107
0.765925 0.556344 0.160380
0.767570 0.538877 0.172685
0.178325 0.644561 0.273963
0.196211 0.648756 0.259617
0.248896 0.659095 0.220727
0.336830 0.677758 0.146371
0.438227 0.709267 0.036880
0.582682 0.726659 0.043955
0.722913 0.725113 0.034871
0.779130 0.709214 0.124431
0.790334 0.692906 0.149018
0.204203 0.694025 0.284275
0.222828 0.697869 0.272369
0.272804 0.707686 0.240967
0.353393 0.728303 0.188179
0.458602 0.767992 0.109385
0.581002 0.831930 0.004921
0.714403 0.852765 0.007040
0.803801 0.846675 0.054225
0.812967 0.817285 0.103518
0.214419 0.713204 0.288759
0.233100 0.717076 0.277850
0.282363 0.726983 0.249567
0.361176 0.747902 0.204312
0.465992 0.786641 0.144115
0.591806 0.847907 0.075833
0.731505 0.928287 0.016725
0.830539 0.953792 0.013691
0.826945 0.882843 0.071474
0.072674 0.174947 0.337767
0.123241 0.177612 0.337017
0.221779 0.181784 0.335822
0.330482 0.177180 0.332285
0.437953 0.158740 0.321609
0.534589 0.132596 0.303570
0.613382 0.111988 0.287317
0.667244 0.104392 0.281483
0.688615 0.103960 0.281319
0.019631 0.183278 0.340960
0.082088 0.190002 0.344164
0.219125 0.205004 0.341005
0.330565 0.201080 0.334335
0.436767 0.185988 0.328409
0.540341 0.145276 0.302706
0.622985 0.107243 0.274180
0.682050 0.093660 0.261973
0.704930 0.093746 0.261453
0.004583 0.252073 0.370914
0.007814 0.282805 0.376492
0.236490 0.270234 0.363323
0.370461 0.290153 0.362855
0.464794 0.265346 0.359539
0.566872 0.199342 0.310056
0.638624 0.102726 0.252226
0.724648 0.060592 0.218253
0.752944 0.061192 0.208643
0.022819 0.365586 0.379334
0.006027 0.360732 0.398163
0.095742 0.386771 0.412250
0.436879 0.434071 0.434320
0.518844 0.393030 0.387343
0.597133 0.325385 0.333364
0.673310 0.240916 0.272865
0.760557 0.132839 0.220471
0.799617 0.114408 0.194505
0.060790 0.472955 0.371660
0.043647 0.480669 0.376011
0.003669 0.526119 0.372688
0.365572 0.536545 0.379652
0.539202 0.557136 0.390706
0.615437 0.456771 0.355069
0.655744 0.395694 0.308367
0.750734 0.350908 0.265787
0.791543 0.321672 0.247513
0.109783 0.567023 0.366797
0.109387 0.573259 0.360576
0.110939 0.592914 0.340854
0.300146 0.618965 0.327566
0.519857 0.644593 0.355758
0.646504 0.651414 0.359442
0.753982 0.598409 0.326582
0.805348 0.559268 0.281210
0.806182 0.528471 0.273207
0.154460 0.641829 0.367815
0.166388 0.646081 0.359730
0.206963 0.657091 0.337690
0.305387 0.675431 0.300439
0.441563 0.705505 0.254513
0.590394 0.725139 0.261486
0.713981 0.725829 0.264260
0.826034 0.719472 0.262454
0.833731 0.699734 0.263318
0.184488 0.691590 0.370860
0.200486 0.695164 0.362764
0.245962 0.704168 0.341051
0.327555 0.722610 0.304693
0.443405 0.756437 0.253326
0.580043 0.809258 0.187854
0.716552 0.847893 0.161723
0.848197 0.847478 0.198793
0.861104 0.837992 0.212115
0.196445 0.710866 0.372463
0.213377 0.714360 0.364563
0.259583 0.723096 0.343605
0.337945 0.741489 0.309413
0.447569 0.775395 0.262357
0.580468 0.829920 0.202383
0.723854 0.908251 0.119228
0.863350 0.981684 0.042979
0.878972 0.926875 0.152051
0.104879 0.218515 0.450775
0.141435 0.220317 0.451200
0.225841 0.223402 0.450422
0.331120 0.221631 0.446847
0.437405 0.210681 0.438840
0.534930 0.191548 0.426286
0.615697 0.170929 0.412696
0.670880 0.156790 0.403096
0.692778 0.151852 0.399185
0.069854 0.231423 0.454116
0.103354 0.233684 0.455936
0.207372 0.242195 0.455471
0.327939 0.245076 0.451676
0.437466 0.235351 0.442654
0.536504 0.212944 0.428299
0.621359 0.183132 0.409599
0.680344 0.161462 0.394789
0.703890 0.154120 0.388774
0.013525 0.268955 0.465851
0.002071 0.272862 0.464025
0.164721 0.290235 0.472984
0.334612 0.309223 0.468663
0.449951 0.302406 0.456620
0.534558 0.282298 0.441729
0.636097 0.221733 0.407984
0.707034 0.173731 0.375495
0.734840 0.161220 0.362491
0.018452 0.362959 0.480756
0.001913 0.382837 0.504497
0.080980 0.388810 0.507051
0.377515 0.396987 0.503756
0.511142 0.423744 0.507823
0.594066 0.422039 0.502007
0.665021 0.298004 0.421640
0.769890 0.157214 0.357188
0.792879 0.186398 0.321856
0.047061 0.467315 0.480234
0.031915 0.468012 0.490693
0.002338 0.461248 0.512631
0.321498 0.500377 0.537485
0.575855 0.571507 0.574624
0.635981 0.520485 0.512598
0.712390 0.431563 0.444433
0.788112 0.323771 0.369358
0.843194 0.259652 0.309058
0.088916 0.561298 0.474194
0.082481 0.564601 0.476336
0.057330 0.579892 0.483103
0.043171 0.633843 0.476967
0.503871 0.650458 0.508970
0.666490 0.671693 0.529501
0.737419 0.581084 0.478934
0.806530 0.545279 0.422017
0.843711 0.506589 0.391197
0.131812 0.637144 0.470039
0.136995 0.640455 0.467851
0.155085 0.650585 0.461658
0.214430 0.672513 0.450099
0.422344 0.711568 0.432228
0.609452 0.737351 0.462178
0.740300 0.745221 0.463003
0.876398 0.735516 0.461390
0.873913 0.701402 0.416933
0.163113 0.687672 0.468525
0.174807 0.690682 0.464722
0.209857 0.698511 0.454192
0.281668 0.715547 0.436962
0.406059 0.746701 0.415085
0.567570 0.795245 0.397164
0.714140 0.846034 0.377941
0.852006 0.854605 0.410861
0.898850 0.849289 0.390604
0.175983 0.707225 0.468037
0.189685 0.710201 0.463807
0.228787 0.717607 0.452175
0.301157 0.733818 0.433360
0.413145 0.764352 0.408566
0.557969 0.814022 0.379672
0.713469 0.884136 0.346579
0.873630 0.980139 0.334023
0.927292 0.964530 0.335362
0.136538 0.246454 0.550199
0.165283 0.247126 0.551014
0.236425 0.248924 0.551156
0.334392 0.248516 0.549196
0.439333 0.242507 0.544138
0.537350 0.230419 0.536043
0.618534 0.215507 0.526555
0.673693 0.203442 0.518552
0.695384 0.198651 0.514499
0.110768 0.261034 0.553240
0.136735 0.261891 0.554576
0.213792 0.266179 0.555441
0.324375 0.269296 0.553619
0.436890 0.265172 0.548135
0.538165 0.252312 0.538811
0.622019 0.233555 0.526911
0.679595 0.217114 0.516054
0.702408 0.210376 0.510617
0.055489 0.298254 0.561192
0.056051 0.295908 0.564327
0.137867 0.306446 0.568426
0.300802 0.322378 0.566440
0.436730 0.325303 0.560850
0.543538 0.312337 0.548545
0.631985 0.283983 0.530583
0.695683 0.254198 0.510895
0.721316 0.241995 0.500986
0.027806 0.367535 0.572245
0.001513 0.357047 0.579391
0.008348 0.366032 0.589219
0.286584 0.399284 0.588801
0.461441 0.422062 0.590136
0.572685 0.416198 0.576526
0.656047 0.373440 0.548608
0.727632 0.316656 0.510308
0.757863 0.294533 0.489630
0.044716 0.463916 0.575531
0.027089 0.461510 0.586593
0.001944 0.482773 0.597483
0.256443 0.497935 0.604631
0.501380 0.529509 0.632298
0.638968 0.559800 0.635725
0.703763 0.519489 0.594209
0.780737 0.409848 0.524576
0.818542 0.365222 0.480913
0.077926 0.556173 0.571379
0.067984 0.556176 0.577164
0.046351 0.557832 0.590968
0.080364 0.562094 0.617346
0.466447 0.625700 0.661920
0.707148 0.702202 0.704057
0.752076 0.648769 0.638450
0.824701 0.531053 0.548875
0.885633 0.487873 0.506954
0.115076 0.632133 0.566373
0.114769 0.633666 0.568557
0.117179 0.639026 0.573658
0.129274 0.656976 0.582803
0.242422 0.708183 0.592221
0.613089 0.751344 0.625919
0.771472 0.775112 0.645447
0.884896 0.721125 0.599484
0.911758 0.695131 0.564807
0.144245 0.683217 0.563070
0.150903 0.685355 0.563206
0.172137 0.691093 0.562783
0.221968 0.705552 0.561351
0.329278 0.734872 0.557998
0.518738 0.785026 0.558284
0.719051 0.849179 0.562395
0.848515 0.864212 0.569661
0.934652 0.852994 0.563364
0.156707 0.703029 0.561482
0.166089 0.705359 0.560865
0.194362 0.711182 0.558356
0.252981 0.725158 0.553952
0.357521 0.753292 0.547877
0.512452 0.801218 0.540895
0.691925 0.870798 0.527891
0.858572 0.955750 0.503199
0.941868 0.962685 0.513943
0.164620 0.262738 0.629530
0.189211 0.262693 0.630726
0.251137 0.263485 0.631641
0.340867 0.263414 0.631227
0.442299 0.260337 0.628701
0.539823 0.253455 0.623988
0.621043 0.244332 0.617980
0.675977 0.236484 0.612417
0.697383 0.233402 0.609124
0.145714 0.278713 0.632034
0.168756 0.278901 0.633579
0.231827 0.280768 0.635106
0.328074 0.282619 0.635036
0.436436 0.281120 0.632442
0.538503 0.274489 0.627102
0.622591 0.264045 0.619858
0.679430 0.254269 0.612874
0.701674 0.250147 0.608875
0.103113 0.319735 0.637985
0.115693 0.319679 0.641201
0.174202 0.323233 0.644858
0.291246 0.330866 0.645526
0.422128 0.334838 0.642772
0.536500 0.330071 0.635977
0.627153 0.316740 0.625465
0.688354 0.301698 0.614342
0.712617 0.294630 0.608166
0.063431 0.383716 0.647764
0.037057 0.381412 0.661069
0.046289 0.377106 0.670039
0.217131 0.398713 0.668861
0.405413 0.416016 0.664870
0.542245 0.418595 0.656904
0.641207 0.402877 0.641817
0.707934 0.378712 0.622985
0.735392 0.365724 0.612084
0.058402 0.467529 0.653060
0.030258 0.460262 0.674246
0.001613 0.464150 0.697130
0.110941 0.474347 0.703202
0.395857 0.512697 0.699701
0.569140 0.534383 0.695091
0.674824 0.524389 0.679453
0.745144 0.487034 0.648811
0.778552 0.460006 0.627227
0.078313 0.554698 0.650452
0.064371 0.553041 0.661319
0.022409 0.546380 0.686226
0.039718 0.563349 0.703306
0.334935 0.595987 0.732817
0.620781 0.655350 0.743455
0.753115 0.688452 0.756452
0.809166 0.639197 0.707258
0.857658 0.565467 0.656053
0.106532 0.628945 0.645865
0.101465 0.629402 0.652002
0.084929 0.631117 0.668902
0.067304 0.637352 0.691758
0.149212 0.658463 0.704367
0.507951 0.713801 0.738830
0.827679 0.821216 0.826366
0.867021 0.737794 0.729653
0.940710 0.691268 0.699056
0.130950 0.679596 0.642162
0.132827 0.681088 0.645812
0.138848 0.685119 0.655288
0.160765 0.696306 0.669953
0.238995 0.720595 0.680530
0.399477 0.768363 0.693400
0.673947 0.842641 0.710932
0.868561 0.876098 0.734370
0.959089 0.867411 0.715529
0.141875 0.699341 0.640094
0.146919 0.701154 0.642659
0.163221 0.705667 0.648399
0.203354 0.717595 0.656995
0.289117 0.743095 0.666615
0.435594 0.789082 0.676985
0.641011 0.860406 0.679725
0.849770 0.948257 0.660331
0.961751 0.968487 0.668810
0.184868 0.271304 0.682050
0.207313 0.270857 0.683540
0.263916 0.271070 0.684959
0.347569 0.271029 0.685536
0.445158 0.269455 0.684610
0.541338 0.265663 0.682008
0.622287 0.260400 0.678239
0.677076 0.255787 0.674409
0.698319 0.254181 0.671741
0.170683 0.288093 0.684217
0.192208 0.287850 0.685977
0.248612 0.288620 0.687951
0.335126 0.289615 0.688973
0.437467 0.289134 0.688157
0.538017 0.285886 0.685252
0.622128 0.280375 0.680827
0.678888 0.275067 0.676273
0.700939 0.273002 0.673263
0.138609 0.331243 0.688540
0.155564 0.331275 0.691427
0.207608 0.333056 0.695416
0.300346 0.336778 0.697854
0.416251 0.339662 0.697299
0.528852 0.338454 0.693498
0.621151 0.332760 0.687241
0.682858 0.325790 0.680619
0.706947 0.322519 0.676598
0.103234 0.395754 0.695471
0.108306 0.395551 0.702055
0.140872 0.397594 0.712046
0.236510 0.405217 0.718237
0.380303 0.414814 0.717851
0.516274 0.418685 0.712005
0.622991 0.414417 0.702719
0.693103 0.405420 0.692478
0.720700 0.400142 0.686482
0.084453 0.474518 0.701341
0.076313 0.473573 0.714323
0.069144 0.477562 0.742677
0.125762 0.486635 0.761820
0.322728 0.506025 0.762538
0.501880 0.518147 0.747262
0.632175 0.520408 0.734159
0.715657 0.510497 0.718906
0.748927 0.501799 0.709295
0.088566 0.556493 0.701776
0.080041 0.556601 0.713731
0.057388 0.560292 0.749594
0.053148 0.571334 0.784363
0.251583 0.594265 0.837772
0.478552 0.618960 0.800036
0.652405 0.643495 0.787164
0.758757 0.637052 0.766934
0.800296 0.621408 0.750512
0.105938 0.627976 0.698836
0.100710 0.628918 0.707354
0.079648 0.633822 0.734579
0.028673 0.653500 0.786578
0.077318 0.665866 0.810968
0.446458 0.722905 0.862315
0.658976 0.750152 0.846713
0.838748 0.782435 0.840934
0.883565 0.754287 0.812705
0.124367 0.677381 0.695523
0.123871 0.678822 0.701518
0.121417 0.683085 0.718273
0.118905 0.695926 0.750364
0.173135 0.717301 0.775518
0.267030 0.752232 0.810915
0.574429 0.810517 0.845453
0.923587 0.917668 0.918951
0.975368 0.903017 0.881964
0.133216 0.696745 0.693352
0.135512 0.698378 0.698117
0.143807 0.702479 0.709777
0.169337 0.713714 0.728831
0.233455 0.737713 0.753917
0.350741 0.780975 0.787726
0.545703 0.848653 0.822329
0.812581 0.936358 0.832151
0.987490 0.972082 0.854877
0.193335 0.274864 0.702274
0.214993 0.274280 0.703882
0.269557 0.274300 0.705493
0.350601 0.274260 0.706436
0.446182 0.273201 0.706097
0.541378 0.270535 0.704269
0.621967 0.266746 0.701331
0.676595 0.263423 0.698161
0.697748 0.262426 0.695738
0.181013 0.291857 0.704331
0.201984 0.291462 0.706180
0.256107 0.291909 0.708324
0.338805 0.292630 0.709757
0.438025 0.292449 0.709609
0.537244 0.290369 0.707595
0.621060 0.286648 0.704191
0.677747 0.283031 0.700521
0.699733 0.281779 0.697875
0.153110 0.335506 0.708000
0.171177 0.335489 0.710739
0.221791 0.336862 0.714758
0.306944 0.339533 0.717870
0.415302 0.341867 0.718351
0.525254 0.341690 0.715734
0.617605 0.338520 0.710954
0.679667 0.334354 0.705842
0.703825 0.332503 0.702551
0.120801 0.400164 0.713626
0.132219 0.400471 0.718589
0.171498 0.402872 0.727307
0.254481 0.408422 0.734996
0.376570 0.415249 0.737552
0.505818 0.419128 0.733689
0.613787 0.418115 0.726334
0.685718 0.413931 0.718685
0.713846 0.411384 0.714204
0.099017 0.477728 0.719036
0.101815 0.478310 0.727294
0.120762 0.481790 0.744431
0.185860 0.490502 0.763073
0.317843 0.503813 0.774549
0.476260 0.514148 0.768232
0.610755 0.518717 0.756560
0.700320 0.516676 0.745273
0.735407 0.513760 0.738887
0.096036 0.557605 0.720855
0.093630 0.558551 0.730404
0.094474 0.562647 0.753217
0.125208 0.573576 0.785165
0.234077 0.594705 0.824440
0.418248 0.614272 0.823543
0.602734 0.630581 0.807524
0.727236 0.636332 0.791890
0.774965 0.634342 0.782618
0.107500 0.627472 0.719152
0.104485 0.628777 0.727555
0.098192 0.633248 0.749484
0.101454 0.645453 0.785255
0.139052 0.668932 0.837254
0.266485 0.709563 0.902468
0.564921 0.738048 0.886091
0.765229 0.766549 0.864101
0.837826 0.769343 0.849780
0.122499 0.675975 0.716282
0.122027 0.677519 0.722884
0.121936 0.681834 0.739975
0.131622 0.693708 0.769164
0.171167 0.718139 0.811680
0.226918 0.767320 0.894691
0.453439 0.825905 0.968172
0.758151 0.888036 0.961236
0.917278 0.909383 0.934777
0.130112 0.695027 0.714158
0.131663 0.696689 0.719744
0.138066 0.700864 0.733472
0.159672 0.712203 0.756628
0.212525 0.736764 0.791470
0.305626 0.782354 0.846231
0.452793 0.855578 0.925703
0.707242 0.948015 0.997501
0.991840 0.998124 0.999399
