calib/LUT LIBRARY/a beach preset v5.7.cube
TITLE "a beach preset v5.7"
LUT_3D_SIZE 5
0.009034 0.013944 0.011207
0.210798 0.005460 0.021568
0.419905 0.017056 0.055995
0.588987 0.051379 0.089159
0.659096 0.082101 0.120058
0.044152 0.238446 0.028842
0.268693 0.272139 0.005990
0.431219 0.172489 0.067587
0.590001 0.150940 0.086316
0.672067 0.160157 0.110865
0.128516 0.476892 0.104917
0.226149 0.503478 0.002525
0.497509 0.506602 0.006607
0.639432 0.418436 0.055926
0.702515 0.401286 0.102470
0.203668 0.645017 0.177093
0.275292 0.659495 0.110141
0.462131 0.722654 0.003714
0.675958 0.713019 0.029969
0.742358 0.679713 0.074465
0.232184 0.713617 0.206356
0.301306 0.729419 0.160802
0.478303 0.799475 0.062153
0.701314 0.898596 0.012764
0.765486 0.827277 0.045310
0.042630 0.115767 0.216810
0.217392 0.120177 0.214929
0.443981 0.082742 0.199718
0.609094 0.054731 0.168199
0.679594 0.075717 0.187287
0.006299 0.244487 0.265442
0.285521 0.284348 0.285380
0.478519 0.220071 0.227350
0.639051 0.081542 0.142610
0.736171 0.052316 0.126491
0.087363 0.476682 0.254235
0.183530 0.512791 0.198049
0.521432 0.538076 0.224718
0.658949 0.387318 0.175239
0.745320 0.362655 0.171888
0.178325 0.644561 0.273963
0.248896 0.659095 0.220727
0.438227 0.709267 0.036880
0.722913 0.725113 0.034871
0.790334 0.692906 0.149018
0.214419 0.713204 0.288759
0.282363 0.726983 0.249567
0.465992 0.786641 0.144115
0.731505 0.928287 0.016725
0.826945 0.882843 0.071474
0.104879 0.218515 0.450775
0.225841 0.223402 0.450422
0.437405 0.210681 0.438840
0.615697 0.170929 0.412696
0.692778 0.151852 0.399185
0.013525 0.268955 0.465851
0.164721 0.290235 0.472984
0.449951 0.302406 0.456620
0.636097 0.221733 0.407984
0.734840 0.161220 0.362491
0.047061 0.467315 0.480234
0.002338 0.461248 0.512631
0.575855 0.571507 0.574624
0.712390 0.431563 0.444433
0.843194 0.259652 0.309058
0.131812 0.637144 0.470039
0.155085 0.650585 0.461658
0.422344 0.711568 0.432228
0.740300 0.745221 0.463003
0.873913 0.701402 0.416933
0.175983 0.707225 0.468037
0.228787 0.717607 0.452175
0.413145 0.764352 0.408566
0.713469 0.884136 0.346579
0.927292 0.964530 0.335362
0.164620 0.262738 0.629530
0.251137 0.263485 0.631641
0.442299 0.260337 0.628701
0.621043 0.244332 0.617980
0.697383 0.233402 0.609124
0.103113 0.319735 0.637985
0.174202 0.323233 0.644858
0.422128 0.334838 0.642772
0.627153 0.316740 0.625465
0.712617 0.294630 0.608166
0.058402 0.467529 0.653060
0.001613 0.464150 0.697130
0.395857 0.512697 0.699701
0.674824 0.524389 0.679453
0.778552 0.460006 0.627227
0.106532 0.628945 0.645865
0.084929 0.631117 0.668902
0.149212 0.658463 0.704367
0.827679 0.821216 0.826366
0.940710 0.691268 0.699056
0.141875 0.699341 0.640094
0.163221 0.705667 0.648399
0.289117 0.743095 0.666615
0.641011 0.860406 0.679725
0.961751 0.968487 0.668810
0.193335 0.274864 0.702274
0.269557 0.274300 0.705493
0.446182 0.273201 0.706097
0.621967 0.266746 0.701331
0.697748 0.262426 0.695738
0.153110 0.335506 0.708000
0.221791 0.336862 0.714758
0.415302 0.341867 0.718351
0.617605 0.338520 0.710954
0.703825 0.332503 0.702551
0.099017 0.477728 0.719036
0.120762 0.481790 0.744431
0.317843 0.503813 0.774549
0.610755 0.518717 0.756560
0.735407 0.513760 0.738887
0.107500 0.627472 0.719152
0.098192 0.633248 0.749484
0.139052 0.668932 0.837254
0.564921 0.738048 0.886091
0.837826 0.769343 0.849780
0.130112 0.695027 0.714158
0.138066 0.700864 0.733472
0.212525 0.736764 0.791470
0.452793 0.855578 0.925703
0.991840 0.998124 0.999399
