calib/LUT LIBRARY/a_beach_preset.cube
TITLE "a beach preset"
#LUMIXPHOTOSTYLE STD
LUT_3D_SIZE 33
0.001961 0.001961 0.000000
0.016692 0.001508 0.000000
0.041285 0.001634 0.000000
0.072157 0.001569 0.000588
0.105279 0.001508 0.002514
0.134641 0.001634 0.003813
0.163235 0.001569 0.003922
0.193333 0.001569 0.004020
0.220392 0.001569 0.005938
0.246667 0.001569 0.007843
0.274728 0.001525 0.008497
0.300251 0.001609 0.011362
0.327549 0.001569 0.013824
0.352269 0.001569 0.016246
0.375196 0.001569 0.018235
0.399608 0.001569 0.019608
0.422549 0.001569 0.020000
0.440448 0.001569 0.020728
0.460784 0.001569 0.020000
0.481765 0.001569 0.019706
0.500056 0.001120 0.019608
0.519118 0.000000 0.018431
0.539568 0.000000 0.015385
0.559695 0.000000 0.011765
0.581176 0.000000 0.007549
0.606435 0.000000 0.001106
0.631590 0.000000 0.000000
0.660294 0.000000 0.000000
0.696531 0.000000 0.000000
0.731707 0.002965 0.002487
0.773431 0.000000 0.000000
0.826797 0.000934 0.000467
0.871148 0.001401 0.001401
0.008279 0.022440 0.001852
0.025050 0.023449 0.002641
0.049446 0.022336 0.001876
0.077347 0.019942 0.007676
0.104902 0.022727 0.008111
0.134752 0.022028 0.009679
0.164951 0.020016 0.009804
0.189788 0.020507 0.011438
0.221443 0.016020 0.011181
0.250735 0.013317 0.012092
0.276844 0.009897 0.015126
0.302533 0.008497 0.018301
0.329739 0.005882 0.020507
0.353128 0.005229 0.022316
0.376716 0.005229 0.024183
0.401144 0.005229 0.025408
0.422800 0.005654 0.025718
0.440634 0.004839 0.026199
0.462255 0.005229 0.025490
0.482171 0.004925 0.024989
0.501377 0.003338 0.023863
0.520915 0.003268 0.021732
0.539535 0.003557 0.019973
0.560200 0.003004 0.016103
0.585202 0.005771 0.012431
0.606110 0.002098 0.004925
0.631623 0.000584 0.000751
0.663480 0.000000 0.000572
0.695212 0.000000 0.000000
0.732271 0.000654 0.000408
0.775720 0.000000 0.000000
0.823850 0.001761 0.001521
0.871678 0.000763 0.001416
0.012963 0.049129 0.004902
0.031863 0.049837 0.005882
0.055568 0.054458 0.004514
0.086096 0.052941 0.003654
0.107843 0.044501 0.009378
0.136438 0.040114 0.013317
0.164973 0.038681 0.014973
0.191573 0.037130 0.015686
0.221977 0.035131 0.017320
0.250342 0.033014 0.019152
0.276679 0.029370 0.022111
0.304575 0.026634 0.023775
0.330050 0.022800 0.025809
0.353525 0.018189 0.028285
0.377941 0.012990 0.028922
0.401003 0.008938 0.030825
0.422278 0.005507 0.031206
0.441503 0.005801 0.030964
0.461924 0.005654 0.030461
0.480431 0.008766 0.027912
0.501961 0.005229 0.028431
0.520657 0.005016 0.025992
0.539675 0.004172 0.023947
0.561683 0.003922 0.019690
0.583155 0.004724 0.015152
0.606425 0.003004 0.008010
0.633742 0.001961 0.001389
0.663566 0.001824 0.000821
0.694535 0.000584 0.000501
0.735621 0.000000 0.000000
0.776916 0.000000 0.000000
0.822398 0.002036 0.000980
0.874946 0.000654 0.000109
0.017211 0.080392 0.005447
0.041340 0.080229 0.009150
0.061161 0.083560 0.007617
0.089661 0.085561 0.002852
0.119363 0.085866 0.003840
0.143850 0.074421 0.009358
0.165814 0.064365 0.016113
0.193382 0.060703 0.019853
0.222460 0.059180 0.023886
0.248934 0.057460 0.026257
0.277206 0.055719 0.029330
0.305437 0.052674 0.031016
0.328815 0.049105 0.033930
0.355392 0.045261 0.034641
0.378659 0.038668 0.036753
0.400000 0.033375 0.037547
0.423366 0.025572 0.037500
0.442239 0.018382 0.037255
0.461905 0.011671 0.037255
0.482193 0.006963 0.035774
0.502712 0.006008 0.033292
0.520657 0.005746 0.031464
0.540441 0.004575 0.028758
0.562453 0.004673 0.024113
0.583311 0.004469 0.018422
0.607680 0.004493 0.011928
0.634543 0.003421 0.003254
0.663110 0.003192 0.001277
0.696650 0.002778 0.000654
0.735861 0.001307 0.000000
0.778745 0.002510 0.001176
0.823770 0.000400 0.000160
0.877560 0.000654 0.000000
0.020588 0.111874 0.005991
0.045928 0.111840 0.009653
0.069107 0.113377 0.010109
0.094285 0.114894 0.007426
0.125073 0.118481 0.002837
0.153580 0.120018 0.003739
0.179493 0.108905 0.006699
0.201634 0.093464 0.017402
0.224183 0.086648 0.027358
0.250000 0.083170 0.032598
0.278513 0.081944 0.037500
0.304669 0.080019 0.040803
0.329657 0.076634 0.043137
0.355529 0.073882 0.043843
0.376819 0.069455 0.044096
0.401389 0.062990 0.046814
0.424183 0.055964 0.047304
0.441587 0.048792 0.046876
0.461827 0.040384 0.045307
0.483874 0.030652 0.043537
0.501961 0.020611 0.041222
0.520901 0.010013 0.038548
0.541830 0.005556 0.035131
0.561879 0.005746 0.029822
0.584063 0.004756 0.024948
0.609345 0.005257 0.016604
0.633155 0.004902 0.008556
0.663997 0.004172 0.001836
0.699265 0.003922 0.001307
0.735014 0.003268 0.000654
0.778214 0.006972 0.002760
0.826783 0.001252 0.000000
0.875464 0.002756 0.001590
0.022658 0.143464 0.007952
0.049804 0.143529 0.011765
0.074936 0.145269 0.012617
0.100980 0.145915 0.011275
0.128500 0.149293 0.007296
0.156779 0.152774 0.003338
0.189951 0.154493 0.004003
0.216051 0.143548 0.006019
0.232202 0.127376 0.017195
0.256454 0.114461 0.029657
0.280255 0.110260 0.040766
0.303880 0.106133 0.046725
0.331046 0.103840 0.052042
0.355080 0.100713 0.052763
0.377889 0.095786 0.056070
0.401634 0.090931 0.056618
0.423712 0.085454 0.056635
0.440884 0.080184 0.055569
0.461765 0.071814 0.055065
0.480894 0.063566 0.052804
0.499291 0.055069 0.050563
0.520425 0.042484 0.047876
0.540173 0.029275 0.044049
0.561368 0.016437 0.039383
0.584069 0.005882 0.032271
0.612337 0.011928 0.024183
0.632958 0.004756 0.014435
0.665359 0.005229 0.002941
0.699020 0.005526 0.002050
0.734527 0.004263 0.000853
0.779248 0.005556 0.001144
0.828731 0.004722 0.000800
0.876253 0.003813 0.000871
0.027657 0.173891 0.012281
0.053529 0.174444 0.014510
0.082709 0.175686 0.017754
0.105057 0.176608 0.019195
0.132244 0.179884 0.014887
0.161070 0.182888 0.007914
0.192081 0.186652 0.004223
0.222367 0.187073 0.003123
0.250700 0.180392 0.005392
0.272247 0.163198 0.013876
0.288938 0.148502 0.028931
0.309524 0.137535 0.043978
0.331334 0.131103 0.053364
0.353667 0.126216 0.059477
0.377941 0.122409 0.063305
0.401307 0.118185 0.064744
0.421676 0.113012 0.066025
0.441426 0.108307 0.065811
0.462675 0.100840 0.065196
0.481412 0.095373 0.063294
0.500820 0.086560 0.061248
0.520998 0.077148 0.058681
0.540946 0.067589 0.055210
0.562068 0.055045 0.049840
0.584083 0.040215 0.043445
0.609314 0.024510 0.034244
0.635722 0.009626 0.023458
0.665988 0.007919 0.012217
0.698184 0.004866 0.002905
0.738025 0.006232 0.003151
0.780769 0.005807 0.001659
0.828235 0.005989 0.001426
0.877684 0.006723 0.003361
0.031456 0.201669 0.016187
0.062564 0.200965 0.019789
0.087492 0.201487 0.022177
0.110355 0.203554 0.025061
0.135823 0.205913 0.023965
0.162069 0.208654 0.018796
0.188982 0.211640 0.010893
0.219485 0.215196 0.004902
0.251251 0.216836 0.004260
0.280237 0.212449 0.004233
0.301754 0.196766 0.012453
0.317647 0.179350 0.027512
0.335201 0.163585 0.045938
0.354180 0.154799 0.058136
0.374510 0.148407 0.065441
0.397386 0.143231 0.071397
0.420791 0.138624 0.072518
0.438607 0.133333 0.072752
0.459252 0.126900 0.073039
0.479254 0.121189 0.073182
0.499053 0.114131 0.071467
0.518689 0.106740 0.068566
0.539785 0.097407 0.064832
0.559364 0.088776 0.059905
0.583149 0.076900 0.054044
0.608341 0.060753 0.045503
0.634415 0.044828 0.034618
0.665422 0.021786 0.020791
0.700654 0.008466 0.006349
0.738909 0.011275 0.004657
0.781450 0.004918 0.001369
0.832782 0.006740 0.002145
0.879167 0.005556 0.001471
0.039496 0.231933 0.019795
0.063866 0.230182 0.023810
0.089714 0.230341 0.027657
0.116078 0.232513 0.031373
0.140078 0.233333 0.032549
0.163936 0.236345 0.029482
0.191515 0.239287 0.021961
0.214496 0.239146 0.016737
0.249860 0.246779 0.003782
0.283422 0.249340 0.001640
0.314039 0.247686 0.001961
0.335994 0.233193 0.005182
0.352941 0.210766 0.024742
0.366118 0.193098 0.044627
0.380602 0.177451 0.060154
0.398788 0.167487 0.071444
0.417647 0.160314 0.076784
0.435714 0.155672 0.080952
0.457112 0.148877 0.081426
0.476000 0.144078 0.081804
0.496359 0.137745 0.081583
0.516720 0.131266 0.078788
0.536157 0.124314 0.075843
0.558263 0.116737 0.071639
0.585792 0.108325 0.062231
0.605569 0.097725 0.058275
0.632983 0.084944 0.047619
0.665954 0.066025 0.032442
0.698745 0.043373 0.017020
0.737045 0.011835 0.002031
0.782745 0.003993 0.000570
0.830616 0.004472 0.002270
0.880392 0.002428 0.001027
0.045938 0.263025 0.024276
0.072339 0.260574 0.028081
0.092624 0.262060 0.033551
0.121008 0.260744 0.037215
0.144538 0.263585 0.039916
0.171337 0.264242 0.040000
0.195922 0.268157 0.036314
0.222409 0.271919 0.027731
0.251836 0.275651 0.013904
0.282431 0.278431 0.003765
0.314496 0.281233 0.002241
0.347807 0.280499 0.002709
0.371686 0.268784 0.003451
0.387255 0.246989 0.017857
0.398788 0.224100 0.041711
0.410118 0.205647 0.058902
0.422479 0.191807 0.072199
0.438445 0.182423 0.080182
0.455942 0.174710 0.084594
0.476181 0.167277 0.081067
0.496148 0.162185 0.087255
0.515646 0.155822 0.086034
0.535084 0.150070 0.084944
0.559244 0.142997 0.081232
0.581272 0.135894 0.076190
0.605322 0.127591 0.069398
0.634664 0.116106 0.059524
0.664426 0.105162 0.047939
0.699370 0.090336 0.031583
0.740392 0.066809 0.011693
0.782930 0.039216 0.001077
0.830234 0.011891 0.001328
0.884687 0.005415 0.000467
0.055801 0.292157 0.029330
0.080724 0.291403 0.033183
0.099885 0.292445 0.036967
0.127181 0.292022 0.042934
0.153186 0.293505 0.047181
0.177661 0.294678 0.048599
0.202083 0.297365 0.047610
0.229412 0.300123 0.041054
0.256303 0.303501 0.031373
0.284007 0.305882 0.019240
0.315717 0.308497 0.007594
0.345580 0.308703 0.007430
0.376900 0.308395 0.007414
0.403064 0.297855 0.007414
0.419745 0.278844 0.016030
0.431495 0.257904 0.035110
0.442463 0.236642 0.055025
0.452941 0.221505 0.067299
0.466734 0.209939 0.075456
0.482650 0.197623 0.079620
0.500316 0.189184 0.085642
0.518594 0.182015 0.087018
0.538603 0.174632 0.087990
0.559836 0.166793 0.086464
0.581406 0.159094 0.082285
0.607598 0.151164 0.076471
0.635484 0.141619 0.068880
0.665247 0.131981 0.058418
0.701900 0.120711 0.043934
0.740351 0.109185 0.026557
0.785529 0.092958 0.008340
0.834804 0.073775 0.002757
0.886520 0.044118 0.001797
0.063317 0.321078 0.033578
0.084202 0.320616 0.037143
0.108316 0.319675 0.041312
0.132475 0.320650 0.046569
0.158318 0.322517 0.052119
0.183164 0.322650 0.055105
0.208088 0.325919 0.055515
0.234298 0.328416 0.052101
0.260086 0.330342 0.045597
0.287990 0.334559 0.034436
0.318912 0.338204 0.017521
0.347803 0.339419 0.008114
0.377941 0.340931 0.006556
0.406747 0.330334 0.008535
0.435565 0.332116 0.007978
0.452512 0.313297 0.009498
0.464326 0.288299 0.029665
0.472008 0.269912 0.047735
0.480576 0.249877 0.062745
0.491335 0.232005 0.074953
0.506085 0.220892 0.081001
0.521998 0.210539 0.087194
0.540860 0.200759 0.088931
0.561122 0.193036 0.089182
0.583771 0.186305 0.086335
0.609897 0.177902 0.082975
0.634956 0.169709 0.077485
0.666544 0.161765 0.068076
0.703289 0.152182 0.055598
0.741312 0.140095 0.040230
0.787059 0.129860 0.020672
0.839154 0.118873 0.004105
0.887173 0.105229 0.003840
0.068335 0.349520 0.036462
0.087843 0.349020 0.040241
0.110106 0.349261 0.045490
0.136010 0.349891 0.050918
0.161934 0.350710 0.056187
0.186029 0.353064 0.060662
0.213156 0.355661 0.062555
0.238810 0.358012 0.061731
0.261232 0.355630 0.056471
0.292410 0.364643 0.048197
0.319743 0.367275 0.035227
0.348775 0.369975 0.017892
0.379949 0.372739 0.006325
0.410007 0.371873 0.006491
0.440870 0.371752 0.005944
0.469007 0.364706 0.006199
0.485396 0.346247 0.008452
0.495588 0.325184 0.016605
0.503890 0.299284 0.039091
0.510345 0.277823 0.057674
0.518750 0.259252 0.070833
0.530657 0.242639 0.080672
0.545786 0.231648 0.084967
0.564093 0.221262 0.087684
0.586275 0.212524 0.088425
0.614461 0.205760 0.080699
0.636458 0.197426 0.082414
0.668564 0.190259 0.075016
0.703245 0.181880 0.065314
0.743566 0.173958 0.051654
0.789880 0.164516 0.033270
0.840724 0.154872 0.013937
0.889297 0.146732 0.004167
0.069608 0.377342 0.037473
0.087540 0.377293 0.041682
0.112969 0.378053 0.046508
0.133547 0.377326 0.051266
0.161835 0.378711 0.058263
0.189091 0.381533 0.064171
0.214667 0.382275 0.067529
0.239846 0.385434 0.068137
0.266667 0.389020 0.065526
0.294275 0.392471 0.059922
0.320938 0.396148 0.049370
0.351230 0.400000 0.031800
0.380941 0.402588 0.011843
0.409563 0.402614 0.005504
0.443137 0.405419 0.004064
0.472784 0.402431 0.004941
0.500210 0.397899 0.006092
0.517367 0.380392 0.008403
0.527914 0.354866 0.010410
0.534510 0.329882 0.030667
0.540196 0.305042 0.053501
0.547023 0.282068 0.069733
0.557882 0.267373 0.077176
0.572829 0.253361 0.083894
0.591196 0.243537 0.086275
0.614916 0.234454 0.087045
0.643347 0.226050 0.083754
0.672669 0.218888 0.078591
0.707003 0.212815 0.070588
0.749020 0.205062 0.059394
0.792311 0.197847 0.043214
0.840686 0.190546 0.026120
0.892437 0.181793 0.009617
0.072794 0.402941 0.038399
0.095143 0.401991 0.042474
0.115266 0.401961 0.047759
0.138542 0.402880 0.053125
0.166299 0.404596 0.060110
0.191106 0.405952 0.066317
0.216973 0.408211 0.070833
0.244118 0.411029 0.073775
0.269538 0.414216 0.073039
0.295098 0.417831 0.069118
0.322945 0.420984 0.061232
0.349331 0.424650 0.048677
0.379963 0.428676 0.028615
0.411077 0.431441 0.006605
0.440025 0.434174 0.005104
0.473284 0.434988 0.003799
0.505331 0.433333 0.004412
0.529692 0.430042 0.006022
0.549632 0.414277 0.007782
0.561520 0.388174 0.009314
0.567367 0.362255 0.016106
0.571936 0.335846 0.039951
0.579167 0.312010 0.060172
0.587675 0.293487 0.070588
0.601471 0.277819 0.077757
0.622488 0.264951 0.081373
0.645798 0.256653 0.080882
0.676654 0.249632 0.077880
0.713542 0.242708 0.071936
0.752319 0.240274 0.059633
0.796199 0.232459 0.051161
0.849877 0.227574 0.035417
0.893464 0.223448 0.023284
0.076797 0.431127 0.037010
0.093995 0.430025 0.040135
0.115809 0.429718 0.045037
0.141299 0.430515 0.051532
0.167157 0.431933 0.058894
0.192341 0.433211 0.065257
0.220833 0.435355 0.071875
0.241892 0.434111 0.070277
0.271554 0.439759 0.076078
0.299203 0.443934 0.074877
0.325490 0.447759 0.069748
0.352635 0.452022 0.060110
0.382598 0.456434 0.043505
0.412045 0.459664 0.022549
0.442586 0.463603 0.005147
0.475490 0.465502 0.003370
0.505042 0.466457 0.002451
0.532414 0.465502 0.003125
0.563542 0.462255 0.004963
0.584384 0.449020 0.006863
0.596078 0.425551 0.008211
0.603431 0.395588 0.010233
0.608824 0.369958 0.020938
0.615074 0.344792 0.042157
0.626499 0.323529 0.055742
0.638115 0.305951 0.065497
0.656434 0.292218 0.071078
0.685846 0.282537 0.070956
0.717577 0.275070 0.069818
0.755944 0.269547 0.063664
0.803431 0.265564 0.054167
0.852574 0.263787 0.042279
0.898448 0.259314 0.033987
0.075177 0.458073 0.033458
0.095505 0.457074 0.036983
0.114112 0.458492 0.040210
0.140282 0.457792 0.047334
0.165809 0.458762 0.054044
0.194669 0.460600 0.062194
0.221148 0.462255 0.069608
0.246324 0.464767 0.074877
0.274326 0.467953 0.078431
0.300070 0.471639 0.078221
0.326593 0.475429 0.075980
0.356066 0.479534 0.068811
0.384384 0.483894 0.056793
0.411826 0.488174 0.039706
0.444363 0.491973 0.013603
0.474930 0.495028 0.003922
0.505024 0.496691 0.002512
0.534559 0.498713 0.002451
0.564912 0.496526 0.002821
0.589100 0.487543 0.005133
0.619118 0.482843 0.005699
0.633437 0.460750 0.008531
0.642639 0.435668 0.007968
0.648897 0.404473 0.010172
0.656416 0.380323 0.016993
0.665870 0.357230 0.033824
0.682169 0.337194 0.047120
0.702591 0.322479 0.053641
0.730760 0.312194 0.055453
0.769669 0.305453 0.054167
0.810084 0.300420 0.049580
0.855730 0.298371 0.042309
0.904984 0.293627 0.037908
0.065132 0.484228 0.027195
0.082659 0.483333 0.029473
0.102129 0.483810 0.032101
0.124458 0.484555 0.038665
0.151348 0.485417 0.046078
0.178571 0.486765 0.053011
0.206863 0.488664 0.059926
0.237561 0.491054 0.066422
0.264496 0.493627 0.070168
0.290870 0.497181 0.071875
0.320697 0.500778 0.072456
0.345029 0.503612 0.066667
0.372917 0.506679 0.060662
0.403446 0.507308 0.046465
0.429584 0.512969 0.026625
0.459743 0.516912 0.005208
0.491728 0.520711 0.003922
0.522627 0.523810 0.003610
0.549914 0.525077 0.003715
0.586572 0.523411 0.004100
0.623778 0.527046 0.003050
0.647059 0.518197 0.003234
0.665931 0.498713 0.002941
0.678120 0.470962 0.003237
0.686275 0.447678 0.003234
0.695895 0.421446 0.003676
0.708434 0.396639 0.004606
0.726935 0.384727 0.014173
0.751409 0.368811 0.023284
0.781699 0.362023 0.027726
0.821210 0.353162 0.030655
0.863725 0.350797 0.031311
0.911438 0.349510 0.032435
0.066258 0.514052 0.017810
0.086937 0.513339 0.021320
0.104850 0.513657 0.026557
0.127083 0.513726 0.031801
0.155431 0.515157 0.040025
0.178328 0.516753 0.046990
0.208578 0.516850 0.055515
0.239522 0.519730 0.062868
0.265652 0.522650 0.066396
0.294179 0.525368 0.071140
0.323374 0.529599 0.073140
0.347781 0.533609 0.069625
0.375919 0.536397 0.065564
0.406321 0.534738 0.053263
0.431854 0.542346 0.039628
0.461949 0.545956 0.016360
0.494304 0.549580 0.003673
0.517165 0.551772 0.004541
0.550429 0.554963 0.003676
0.586679 0.558294 0.003299
0.617544 0.557688 0.003715
0.653738 0.559375 0.003431
0.685901 0.552630 0.002739
0.703130 0.535948 0.003165
0.718311 0.513122 0.002956
0.732088 0.484407 0.002054
0.741658 0.462883 0.001582
0.757230 0.439706 0.000919
0.777342 0.417678 0.000996
0.802408 0.407706 0.000963
0.834134 0.397404 0.002817
0.872794 0.387806 0.002635
0.912745 0.384314 0.010784
0.058896 0.543355 0.008061
0.081100 0.543083 0.010730
0.101852 0.543355 0.014161
0.127810 0.542723 0.020215
0.153786 0.545219 0.026787
0.181221 0.546147 0.034355
0.214140 0.546810 0.044849
0.240404 0.548841 0.052406
0.267176 0.549274 0.056073
0.299586 0.554101 0.066722
0.324571 0.557904 0.067279
0.352723 0.561438 0.066885
0.383043 0.564927 0.064678
0.408333 0.567953 0.056801
0.437800 0.571405 0.045806
0.469042 0.575421 0.026070
0.495023 0.577858 0.006817
0.521845 0.580337 0.006518
0.555095 0.582933 0.007180
0.581105 0.583720 0.009031
0.617012 0.585805 0.008616
0.653521 0.585584 0.008451
0.682112 0.583288 0.009593
0.714720 0.581386 0.007015
0.739685 0.566860 0.006131
0.752560 0.540142 0.005991
0.774261 0.526043 0.004971
0.791715 0.499586 0.004363
0.808929 0.480302 0.004103
0.831808 0.461220 0.002887
0.862027 0.444960 0.002596
0.896052 0.436798 0.001773
0.930719 0.427233 0.001743
0.046558 0.574218 0.007760
0.068057 0.573145 0.007446
0.095353 0.574268 0.008112
0.121127 0.575145 0.008064
0.148523 0.575974 0.010108
0.181552 0.575863 0.018117
0.211161 0.579246 0.027572
0.239326 0.579619 0.037724
0.272024 0.581442 0.048384
0.299367 0.584374 0.055385
0.326595 0.586634 0.060481
0.356863 0.590610 0.064347
0.383167 0.595173 0.061961
0.412091 0.599455 0.057843
0.442198 0.602375 0.050649
0.469985 0.605068 0.037104
0.498426 0.608782 0.017178
0.526035 0.611274 0.010621
0.559017 0.614250 0.010384
0.585355 0.616115 0.013542
0.621024 0.616776 0.012636
0.656835 0.618890 0.011654
0.686520 0.617279 0.013542
0.721078 0.616340 0.012527
0.750588 0.611342 0.012368
0.778128 0.603369 0.011047
0.801797 0.584150 0.008824
0.820711 0.563113 0.006924
0.840431 0.541397 0.003645
0.865120 0.519194 0.003204
0.887913 0.505765 0.004507
0.918900 0.488617 0.005120
0.954176 0.477197 0.007117
0.031518 0.603849 0.007335
0.055493 0.604566 0.008488
0.079501 0.604991 0.008140
0.107097 0.605634 0.007457
0.138194 0.606241 0.008340
0.168446 0.607481 0.008989
0.200331 0.609887 0.008893
0.233361 0.611047 0.017178
0.261900 0.612971 0.027511
0.292074 0.615631 0.038056
0.320784 0.618401 0.046817
0.348191 0.620436 0.051477
0.376526 0.624137 0.055123
0.404766 0.627572 0.054600
0.435736 0.630986 0.048826
0.465617 0.634300 0.039547
0.497708 0.637393 0.023419
0.522293 0.639578 0.015867
0.551671 0.642033 0.016349
0.586220 0.644227 0.016612
0.617919 0.646516 0.016652
0.651091 0.648716 0.017454
0.685170 0.649544 0.017343
0.714630 0.649291 0.016591
0.748246 0.649931 0.017730
0.781754 0.647495 0.017102
0.810075 0.639035 0.016169
0.837669 0.627230 0.014195
0.863021 0.609390 0.011599
0.884341 0.591715 0.008395
0.913560 0.576636 0.005358
0.941553 0.558743 0.002793
0.965069 0.546623 0.002469
0.029449 0.635516 0.005179
0.035509 0.635402 0.005050
0.061166 0.633987 0.005719
0.097542 0.635294 0.005855
0.129471 0.636364 0.006892
0.163922 0.636807 0.006162
0.201988 0.637945 0.007291
0.231209 0.639597 0.008388
0.265562 0.642364 0.009334
0.299475 0.644905 0.016791
0.328024 0.648326 0.025822
0.356973 0.651312 0.032809
0.387959 0.654791 0.037890
0.414973 0.657754 0.035888
0.443634 0.662138 0.032919
0.476056 0.666446 0.022922
0.503090 0.670113 0.009923
0.531787 0.672908 0.002706
0.565534 0.677327 0.002099
0.597104 0.681207 0.001810
0.627838 0.683458 0.001326
0.661143 0.687213 0.001326
0.692851 0.688326 0.001267
0.724993 0.689975 0.000939
0.755624 0.686842 0.001187
0.789899 0.690790 0.000951
0.823916 0.690251 0.001326
0.857423 0.683641 0.001232
0.881046 0.670826 0.001842
0.908313 0.655178 0.001602
0.936601 0.635458 0.002288
0.957843 0.618464 0.002179
0.983515 0.604866 0.002251
0.033088 0.666585 0.005556
0.034872 0.667029 0.005973
0.041432 0.667349 0.005342
0.085057 0.667275 0.006288
0.123374 0.667974 0.006225
0.164955 0.668845 0.006100
0.204124 0.669845 0.007437
0.237132 0.670956 0.007598
0.272365 0.673529 0.007966
0.305747 0.675321 0.009398
0.335076 0.677560 0.009524
0.366636 0.681544 0.011080
0.397972 0.685193 0.017850
0.427015 0.688640 0.022035
0.456645 0.692499 0.021662
0.488168 0.697295 0.014537
0.516402 0.700218 0.004918
0.544600 0.704824 0.002863
0.574983 0.708722 0.002096
0.601194 0.709974 0.001819
0.637535 0.716464 0.001556
0.670656 0.719878 0.001961
0.701774 0.722129 0.000747
0.736197 0.725490 0.000498
0.769574 0.725625 0.000473
0.801245 0.726050 0.000498
0.838220 0.728105 0.000498
0.871129 0.725828 0.000473
0.902770 0.721195 0.000498
0.933022 0.708746 0.000498
0.957527 0.690130 0.000598
0.978711 0.672101 0.000952
0.993791 0.653922 0.001471
0.033170 0.699837 0.004003
0.033885 0.700674 0.004044
0.037724 0.701022 0.003811
0.056457 0.700879 0.003719
0.105945 0.700778 0.003735
0.153279 0.701623 0.004733
0.192468 0.702272 0.004731
0.231248 0.704575 0.005104
0.268627 0.705882 0.007370
0.300840 0.708185 0.006723
0.335885 0.709928 0.006909
0.367884 0.713455 0.007911
0.396950 0.716589 0.007843
0.427807 0.720796 0.007784
0.460243 0.724544 0.007437
0.488515 0.727918 0.005789
0.519265 0.732524 0.003797
0.548407 0.735907 0.003860
0.578328 0.740076 0.003371
0.608715 0.744289 0.003486
0.642341 0.748713 0.003431
0.672652 0.751978 0.003371
0.705135 0.755556 0.003112
0.739767 0.758517 0.002390
0.770385 0.758688 0.001893
0.803860 0.761826 0.000551
0.840931 0.762377 0.000490
0.873959 0.762642 0.001445
0.908248 0.763585 0.000498
0.941515 0.757539 0.000473
0.967150 0.747144 0.000512
0.992760 0.733756 0.000483
0.995833 0.717484 0.000490
0.031539 0.736671 0.001836
0.035128 0.736924 0.002375
0.037488 0.736590 0.002526
0.036496 0.736116 0.002340
0.086091 0.736213 0.002512
0.139250 0.737255 0.002683
0.183442 0.738064 0.003175
0.226838 0.739828 0.003922
0.264097 0.741244 0.005139
0.300529 0.742982 0.005104
0.336887 0.745159 0.007292
0.369178 0.747644 0.008118
0.400311 0.751011 0.008030
0.432309 0.753527 0.008663
0.463364 0.757482 0.008394
0.493433 0.761158 0.006536
0.525490 0.765135 0.006189
0.552197 0.768695 0.006220
0.582011 0.772051 0.004980
0.613480 0.775980 0.005392
0.645301 0.779987 0.005882
0.675817 0.783567 0.004855
0.709306 0.787426 0.005353
0.740636 0.789317 0.005274
0.772992 0.792283 0.004048
0.808150 0.794301 0.003860
0.841244 0.794794 0.003110
0.874447 0.796648 0.001708
0.911581 0.796569 0.000184
0.945648 0.795872 0.001376
0.970700 0.793109 0.001737
0.997304 0.784436 0.002390
0.994608 0.772712 0.002859
0.026144 0.771615 0.001494
0.029515 0.770210 0.001307
0.024314 0.768200 0.001497
0.027311 0.768698 0.001120
0.043216 0.769176 0.001412
0.112228 0.768841 0.001569
0.169608 0.770098 0.002241
0.215922 0.772471 0.003686
0.252680 0.773268 0.003791
0.295098 0.776260 0.005112
0.331843 0.778431 0.006902
0.364563 0.780178 0.006061
0.401120 0.784454 0.007283
0.433910 0.788466 0.008612
0.463173 0.791515 0.006702
0.496849 0.795098 0.007843
0.527137 0.798275 0.008314
0.552727 0.800856 0.006988
0.586204 0.805602 0.007843
0.617020 0.810039 0.008784
0.646417 0.813904 0.006988
0.679972 0.818417 0.007843
0.711294 0.822431 0.008784
0.743102 0.825312 0.006916
0.777171 0.828641 0.007213
0.804412 0.832423 0.006653
0.843565 0.834652 0.004991
0.880392 0.837745 0.005252
