calib/LUT LIBRARY/a_beach_preset.cube
TITLE "a beach preset"
#LUMIXPHOTOSTYLE STD
LUT_3D_SIZE 5
0.001961 0.001961 0.000000
0.220392 0.001569 0.005938
0.422549 0.001569 0.020000
0.581176 0.000000 0.007549
0.871148 0.001401 0.001401
0.039496 0.231933 0.019795
0.249860 0.246779 0.003782
0.417647 0.160314 0.076784
0.585792 0.108325 0.062231
0.880392 0.002428 0.001027
0.075177 0.458073 0.033458
0.274326 0.467953 0.078431
0.505024 0.496691 0.002512
0.656416 0.380323 0.016993
0.904984 0.293627 0.037908
0.033170 0.699837 0.004003
0.268627 0.705882 0.007370
0.519265 0.732524 0.003797
0.770385 0.758688 0.001893
0.995833 0.717484 0.000490
0.052288 0.998431 0.000392
0.341176 0.998431 0.024202
0.616765 0.998431 0.260686
0.822157 0.998431 0.267745
0.990327 0.995948 0.002614
0.003361 0.046835 0.198992
0.212010 0.078431 0.211765
0.434827 0.071989 0.226144
0.623938 0.001307 0.156781
0.905991 0.001416 0.060784
0.007376 0.228011 0.253875
0.273084 0.280469 0.265903
0.480944 0.217034 0.231924
0.633198 0.124611 0.173360
0.913399 0.005474 0.071242
0.014297 0.486601 0.214542
0.259454 0.495098 0.243557
0.532414 0.523039 0.240319
0.662868 0.376532 0.202819
0.919363 0.289297 0.151634
0.020635 0.707843 0.082073
0.176684 0.712941 0.144385
0.517412 0.738275 0.220078
0.765606 0.757956 0.132498
0.995331 0.705789 0.009897
0.007320 0.998431 0.004967
0.244118 0.998431 0.162647
0.606863 0.998431 0.342941
0.823529 0.998431 0.369412
0.995009 0.997029 0.184433
0.009913 0.126688 0.408932
0.215500 0.155182 0.423903
0.438235 0.189788 0.435784
0.600374 0.200000 0.423249
0.920588 0.002397 0.407298
0.011681 0.261160 0.455319
0.220825 0.276133 0.468154
0.483946 0.317402 0.482047
0.641240 0.285642 0.448830
0.955392 0.005310 0.372631
0.018824 0.446667 0.481176
0.053215 0.475650 0.502462
0.611419 0.611446 0.611319
0.736863 0.450147 0.450196
0.987974 0.250523 0.315490
0.018585 0.722762 0.437084
0.033115 0.734477 0.404031
0.463077 0.757581 0.458437
0.763439 0.776109 0.471433
0.990973 0.659859 0.387347
0.000560 0.997087 0.173669
0.009897 0.997386 0.218021
0.514052 0.997386 0.472549
0.829167 0.996569 0.568873
0.992593 0.994553 0.490196
0.003446 0.205942 0.658348
0.148725 0.219118 0.673627
0.467227 0.262745 0.684930
0.681743 0.288192 0.688540
0.895294 0.281307 0.688627
0.013399 0.293709 0.687827
0.097090 0.300126 0.691145
0.479902 0.343321 0.702880
0.707032 0.376133 0.706356
0.913889 0.351797 0.699510
0.017087 0.482820 0.720542
0.026971 0.481873 0.726771
0.468207 0.514846 0.741807
0.750540 0.572949 0.747579
0.952288 0.503455 0.719048
0.016103 0.605423 0.699875
0.029074 0.621501 0.711697
0.073468 0.684865 0.751777
0.794534 0.828877 0.835235
0.974510 0.662353 0.677333
0.003268 0.998431 0.838431
0.024139 0.997647 0.804096
0.012549 0.997647 0.696022
0.787451 0.998431 0.770392
0.991111 0.997778 0.787190
0.287059 0.490588 1.000000
0.421160 0.515196 1.000000
0.627042 0.555964 1.000000
0.825023 0.601587 0.988235
0.983551 0.613943 0.983660
0.266500 0.532916 0.999499
0.404801 0.549493 1.000000
0.627264 0.587986 1.000000
0.825061 0.632659 0.991789
0.982925 0.644853 0.984395
0.059119 0.616352 1.000000
0.148467 0.628059 1.000000
0.547210 0.667330 1.000000
0.782277 0.715101 0.998116
0.972041 0.736456 0.991794
0.029902 0.755392 1.000000
0.048567 0.755656 1.000000
0.081341 0.763441 1.000000
0.791027 0.827783 1.000000
0.993137 0.869690 1.000000
0.010980 0.886797 0.998431
0.008715 0.890523 0.998257
0.014118 0.908431 0.998431
0.629194 0.959368 0.999129
0.984837 0.997386 0.997647
