calib/LUT LIBRARY/a_beach_preset.cube
TITLE "a beach preset"
#LUMIXPHOTOSTYLE STD
LUT_3D_SIZE 9
0.001961 0.001961 0.000000
0.105279 0.001508 0.002514
0.220392 0.001569 0.005938
0.327549 0.001569 0.013824
0.422549 0.001569 0.020000
0.500056 0.001120 0.019608
0.581176 0.000000 0.007549
0.696531 0.000000 0.000000
0.871148 0.001401 0.001401
0.020588 0.111874 0.005991
0.125073 0.118481 0.002837
0.224183 0.086648 0.027358
0.329657 0.076634 0.043137
0.424183 0.055964 0.047304
0.501961 0.020611 0.041222
0.584063 0.004756 0.024948
0.699265 0.003922 0.001307
0.875464 0.002756 0.001590
0.039496 0.231933 0.019795
0.140078 0.233333 0.032549
0.249860 0.246779 0.003782
0.352941 0.210766 0.024742
0.417647 0.160314 0.076784
0.496359 0.137745 0.081583
0.585792 0.108325 0.062231
0.698745 0.043373 0.017020
0.880392 0.002428 0.001027
0.068335 0.349520 0.036462
0.161934 0.350710 0.056187
0.261232 0.355630 0.056471
0.379949 0.372739 0.006325
0.485396 0.346247 0.008452
0.518750 0.259252 0.070833
0.586275 0.212524 0.088425
0.703245 0.181880 0.065314
0.889297 0.146732 0.004167
0.075177 0.458073 0.033458
0.165809 0.458762 0.054044
0.274326 0.467953 0.078431
0.384384 0.483894 0.056793
0.505024 0.496691 0.002512
0.619118 0.482843 0.005699
0.656416 0.380323 0.016993
0.730760 0.312194 0.055453
0.904984 0.293627 0.037908
0.046558 0.574218 0.007760
0.148523 0.575974 0.010108
0.272024 0.581442 0.048384
0.383167 0.595173 0.061961
0.498426 0.608782 0.017178
0.621024 0.616776 0.012636
0.750588 0.611342 0.012368
0.840431 0.541397 0.003645
0.954176 0.477197 0.007117
0.033170 0.699837 0.004003
0.105945 0.700778 0.003735
0.268627 0.705882 0.007370
0.396950 0.716589 0.007843
0.519265 0.732524 0.003797
0.642341 0.748713 0.003431
0.770385 0.758688 0.001893
0.908248 0.763585 0.000498
0.995833 0.717484 0.000490
0.022316 0.862091 0.001867
0.023529 0.853667 0.001743
0.247597 0.858055 0.002384
0.404902 0.865196 0.001751
0.536601 0.874219 0.001743
0.655902 0.886967 0.006228
0.782150 0.900338 0.000541
0.919898 0.911547 0.000000
0.995985 0.913819 0.000000
0.052288 0.998431 0.000392
0.183039 0.998431 0.000784
0.341176 0.998431 0.024202
0.487255 0.998431 0.180098
0.616765 0.998431 0.260686
0.721793 0.998431 0.288291
0.822157 0.998431 0.267745
0.920588 0.998431 0.188627
0.990327 0.995948 0.002614
0.003765 0.016471 0.086118
0.093922 0.025686 0.095098
0.212941 0.039510 0.115784
0.346106 0.001569 0.106779
0.438824 0.001569 0.093137
0.515098 0.001569 0.079118
0.596639 0.000784 0.061737
0.707255 0.000784 0.017157
0.884444 0.001046 0.001307
0.006443 0.105229 0.116713
0.124717 0.125601 0.125987
0.237098 0.117412 0.119373
0.341387 0.099580 0.112395
0.431586 0.073369 0.103672
0.511415 0.032913 0.089706
0.592003 0.014456 0.070973
0.707023 0.009340 0.026595
0.887675 0.008964 0.000654
0.008170 0.244526 0.123611
0.134516 0.243511 0.128976
0.248985 0.250292 0.126178
0.347549 0.213603 0.127328
0.429816 0.180019 0.130781
0.506964 0.150642 0.118053
0.594273 0.113850 0.099471
0.713788 0.042515 0.058077
0.889134 0.015523 0.001961
0.016993 0.359664 0.117554
0.146499 0.358613 0.133403
0.268908 0.366867 0.146859
0.387675 0.379972 0.120028
0.487885 0.338305 0.115336
0.518824 0.255529 0.136392
0.596292 0.218396 0.132549
0.719468 0.184664 0.102381
0.897292 0.137909 0.032773
0.019795 0.467414 0.108777
0.142824 0.467137 0.122196
0.272442 0.475579 0.145811
0.387745 0.492577 0.142577
0.510510 0.504627 0.096392
0.628501 0.493697 0.051050
0.660688 0.380199 0.091032
0.735137 0.313647 0.100471
0.903922 0.292250 0.084967
0.021102 0.577591 0.070308
0.120627 0.578510 0.088157
0.264417 0.582449 0.113147
0.392857 0.600770 0.138515
0.513255 0.618902 0.116706
0.636625 0.630742 0.016527
0.767273 0.624813 0.003565
0.837412 0.532078 0.008078
0.943697 0.463025 0.009897
0.023529 0.698786 0.005696
0.024090 0.699720 0.007283
0.247059 0.703992 0.011415
0.389996 0.715326 0.085314
0.514286 0.731933 0.101190
0.637185 0.746989 0.039216
0.766627 0.758623 0.002241
0.908754 0.766387 0.001471
0.998226 0.716060 0.001120
0.033147 0.864613 0.006536
0.030270 0.862561 0.005392
0.231740 0.863664 0.009069
0.400560 0.868067 0.029692
0.532475 0.875368 0.084375
0.655453 0.886397 0.101164
0.784454 0.896849 0.035994
0.916605 0.906127 0.018627
0.992991 0.907050 0.004255
0.014118 0.996863 0.003791
0.136471 0.996863 0.004706
0.325826 0.996863 0.099832
0.481569 0.997647 0.216961
0.614510 0.997647 0.289804
0.722647 0.997647 0.315686
0.822297 0.997647 0.300056
0.920686 0.997647 0.232647
0.995711 0.996324 0.000613
0.003361 0.046835 0.198992
0.107096 0.062278 0.207003
0.212010 0.078431 0.211765
0.314052 0.107271 0.223611
0.434827 0.071989 0.226144
0.534314 0.001961 0.193954
0.623938 0.001307 0.156781
0.734360 0.000654 0.121008
0.905991 0.001416 0.060784
0.004304 0.134672 0.229268
0.113155 0.141176 0.231658
0.232442 0.157433 0.232870
0.329258 0.169166 0.239831
0.452478 0.111159 0.224242
0.544670 0.022959 0.188235
0.625867 0.014857 0.155279
0.736827 0.006774 0.120642
0.910084 0.005602 0.057049
0.007376 0.228011 0.253875
0.030208 0.241544 0.260723
0.273084 0.280469 0.265903
0.387289 0.254091 0.257674
0.480944 0.217034 0.231924
0.554965 0.177546 0.204428
0.633198 0.124611 0.173360
0.742892 0.018750 0.133701
0.913399 0.005474 0.071242
0.012854 0.378867 0.249818
0.028059 0.384314 0.241259
0.257904 0.391544 0.249694
0.392974 0.402015 0.254303
0.488594 0.350566 0.239492
0.549076 0.292717 0.223081
0.632953 0.254726 0.195435
0.749627 0.205302 0.157194
0.920625 0.147712 0.104067
0.014297 0.486601 0.214542
0.027574 0.490135 0.217341
0.259454 0.495098 0.243557
0.403370 0.510049 0.261703
0.532414 0.523039 0.240319
0.633964 0.487745 0.220518
0.662868 0.376532 0.202819
0.756556 0.318382 0.180147
0.919363 0.289297 0.151634
0.018464 0.590114 0.170670
0.025551 0.590686 0.178125
0.222979 0.597317 0.205091
0.380821 0.610846 0.234314
0.507230 0.628738 0.237500
0.637289 0.638321 0.205504
0.769063 0.627762 0.166885
0.840196 0.530637 0.129473
0.950163 0.468056 0.125327
0.020635 0.707843 0.082073
0.027451 0.709333 0.099686
0.176684 0.712941 0.144385
0.378992 0.722339 0.194328
0.517412 0.738275 0.220078
0.640756 0.752241 0.208123
0.765606 0.757956 0.132498
0.909882 0.760863 0.025804
0.995331 0.705789 0.009897
0.010420 0.868683 0.005490
0.013133 0.868217 0.003557
0.090566 0.869478 0.006955
0.368127 0.872925 0.118231
0.526767 0.880803 0.192886
0.651307 0.890196 0.214869
0.781560 0.903045 0.183479
0.913178 0.914638 0.061742
0.993277 0.917759 0.003025
0.007320 0.998431 0.004967
0.007843 0.998431 0.026569
0.244118 0.998431 0.162647
0.454678 0.998431 0.265994
0.606863 0.998431 0.342941
0.722843 0.998431 0.375784
0.823529 0.998431 0.369412
0.919412 0.998431 0.321569
0.995009 0.997029 0.184433
0.005359 0.089281 0.307582
0.095882 0.101961 0.315686
0.225546 0.126162 0.321569
0.326863 0.139902 0.325588
0.415490 0.153529 0.325098
0.500616 0.163473 0.325490
0.618431 0.018922 0.304608
0.751471 0.000784 0.262353
0.926667 0.003791 0.217124
0.005968 0.158142 0.329156
0.096214 0.166531 0.335294
0.234796 0.185310 0.340056
0.339683 0.200249 0.342297
0.423732 0.205612 0.335362
0.514286 0.194024 0.330408
0.633276 0.060669 0.297982
0.759500 0.008654 0.256592
0.932481 0.009037 0.208099
0.008905 0.259150 0.361520
0.024930 0.263305 0.366667
0.246506 0.271859 0.369290
0.382659 0.297181 0.380147
0.468767 0.289776 0.370658
0.571385 0.234681 0.343321
0.672700 0.126878 0.289653
0.783053 0.011275 0.236345
0.945425 0.002859 0.185294
0.011765 0.339297 0.377941
0.014485 0.349842 0.383618
0.163137 0.381961 0.403379
0.428996 0.429649 0.425134
0.539911 0.393042 0.394560
0.615380 0.335049 0.347488
0.689398 0.266667 0.296045
0.791777 0.187223 0.243517
0.953922 0.038644 0.188971
0.012138 0.492344 0.402428
0.014815 0.500405 0.398942
0.044547 0.520098 0.383762
0.413185 0.539283 0.402705
0.560535 0.552505 0.405291
0.639153 0.477498 0.367134
0.685193 0.384652 0.320284
0.787924 0.325117 0.273203
0.954412 0.278513 0.228431
0.005801 0.597222 0.329739
0.015074 0.601838 0.322672
0.041387 0.616176 0.323669
0.374510 0.627328 0.360601
0.539154 0.643689 0.386703
0.665212 0.650791 0.366414
0.773496 0.609128 0.327181
0.833211 0.490380 0.268627
0.965441 0.432598 0.245261
0.011928 0.718791 0.230310
0.022181 0.718321 0.230821
0.043137 0.723426 0.250568
0.322549 0.730086 0.299632
0.518750 0.745098 0.345098
0.648880 0.758543 0.349860
0.761558 0.768020 0.307042
0.918995 0.754718 0.267770
0.994608 0.679248 0.229330
0.011983 0.872985 0.053885
0.018614 0.871306 0.078763
0.042956 0.872459 0.154268
0.270970 0.874510 0.237418
0.499089 0.881359 0.309638
0.631495 0.890686 0.334007
0.769771 0.899455 0.338126
0.915603 0.905606 0.293897
0.988744 0.902905 0.229121
0.016885 0.998693 0.060131
0.018301 0.998693 0.115313
0.028676 0.998693 0.218301
0.376389 0.998693 0.323039
0.583193 0.998693 0.410644
0.712827 0.998693 0.452451
0.821977 0.998693 0.458742
0.918301 0.998693 0.429599
0.991503 0.997821 0.340523
0.009913 0.126688 0.408932
0.066993 0.137337 0.416667
0.215500 0.155182 0.423903
0.337337 0.181536 0.431454
0.438235 0.189788 0.435784
0.518464 0.192157 0.427778
0.600374 0.200000 0.423249
0.726389 0.112745 0.420098
0.920588 0.002397 0.407298
0.003697 0.177703 0.430812
0.061275 0.182271 0.432108
0.215139 0.196443 0.436844
0.343680 0.221694 0.443137
0.438889 0.231618 0.445588
0.512449 0.231464 0.432467
0.597997 0.231122 0.424280
0.733497 0.128268 0.418627
0.921887 0.008373 0.398622
0.011681 0.261160 0.455319
0.019914 0.264277 0.459436
0.220825 0.276133 0.468154
0.373435 0.302277 0.477230
0.483946 0.317402 0.482047
0.558418 0.307505 0.466802
0.641240 0.285642 0.448830
0.776164 0.142402 0.415502
0.955392 0.005310 0.372631
0.012801 0.373659 0.470810
0.017831 0.379841 0.477451
0.153922 0.393028 0.496460
0.378956 0.417564 0.512345
0.521140 0.441728 0.520711
0.592810 0.422059 0.494717
0.686478 0.340565 0.451133
0.816789 0.200735 0.392402
0.979884 0.042919 0.328758
0.018824 0.446667 0.481176
0.021872 0.455896 0.487545
0.053215 0.475650 0.502462
0.279672 0.527923 0.536709
0.611419 0.611446 0.611319
0.657696 0.539951 0.524510
0.736863 0.450147 0.450196
0.839547 0.347749 0.374814
0.987974 0.250523 0.315490
0.015155 0.588900 0.508940
0.015885 0.598511 0.509059
0.033382 0.622549 0.509265
0.075559 0.651975 0.499696
0.534326 0.671283 0.531993
0.671716 0.674118 0.533333
0.755174 0.598693 0.469989
0.845570 0.503053 0.399504
0.986863 0.443268 0.355490
0.018585 0.722762 0.437084
0.019056 0.725656 0.425463
0.033115 0.734477 0.404031
0.055453 0.747978 0.400613
0.463077 0.757581 0.458437
0.632081 0.771024 0.493192
0.763439 0.776109 0.471433
0.904225 0.751726 0.438166
0.990973 0.659859 0.387347
0.013539 0.881046 0.301774
0.012121 0.879287 0.287629
0.022376 0.883660 0.275509
0.020728 0.888375 0.306653
0.420463 0.888342 0.403066
0.644064 0.894046 0.471729
0.783314 0.903729 0.484352
0.920927 0.912371 0.452763
0.992904 0.909430 0.418301
0.000560 0.997087 0.173669
0.000000 0.997386 0.164542
0.009897 0.997386 0.218021
0.022631 0.997386 0.353840
0.514052 0.997386 0.472549
0.708590 0.997386 0.545472
0.829167 0.996569 0.568873
0.924428 0.994771 0.550163
0.992593 0.994553 0.490196
0.006499 0.164706 0.515966
0.006699 0.172141 0.524837
0.192892 0.182598 0.532108
0.332213 0.204762 0.540430
0.453350 0.231373 0.548121
0.549673 0.235948 0.550408
0.631279 0.230345 0.537442
0.731699 0.223693 0.538562
0.877124 0.193028 0.558606
0.007003 0.206909 0.529132
0.013297 0.210110 0.533517
0.188678 0.219292 0.540101
0.331102 0.242664 0.547870
0.457230 0.269179 0.555821
0.554228 0.274265 0.557047
0.636204 0.266176 0.543978
0.738051 0.255821 0.542708
0.886683 0.216095 0.560458
0.015313 0.267320 0.553501
0.017927 0.269538 0.557563
0.181753 0.278671 0.563665
0.345938 0.300420 0.573599
0.486625 0.329412 0.581933
0.585924 0.336345 0.583964
0.664506 0.320928 0.565186
0.756443 0.298179 0.553291
0.914006 0.227358 0.561158
0.015313 0.372362 0.580859
0.017787 0.372549 0.582353
0.087315 0.378471 0.592557
0.341457 0.396429 0.605952
0.516317 0.433473 0.617927
0.623922 0.447765 0.620863
0.697968 0.420677 0.595865
0.787255 0.373669 0.567717
0.953781 0.228665 0.545845
0.023436 0.472269 0.592063
0.027731 0.477521 0.597269
0.037055 0.494038 0.613285
0.279342 0.519888 0.640406
0.539146 0.559524 0.661975
0.675059 0.586667 0.669804
0.735472 0.540891 0.631230
0.845938 0.418207 0.561975
0.989449 0.195705 0.485994
0.021382 0.518114 0.592810
0.021882 0.524627 0.597490
0.028922 0.546639 0.614636
0.043850 0.585312 0.642638
0.437098 0.650118 0.682667
0.725233 0.726390 0.731469
0.774349 0.623144 0.631887
0.888471 0.517961 0.535137
0.993557 0.414472 0.453595
0.030204 0.674593 0.624197
0.031778 0.684719 0.628668
0.049412 0.701176 0.628403
0.052878 0.739152 0.629222
0.095605 0.768966 0.604057
0.660846 0.782598 0.645833
0.809741 0.789690 0.654143
0.912373 0.712103 0.577485
0.995425 0.619935 0.516340
0.017021 0.867584 0.604088
0.015625 0.870466 0.593076
0.021226 0.878618 0.566013
0.034331 0.886550 0.518817
0.061703 0.890135 0.499081
0.581801 0.892341 0.582966
0.760154 0.898109 0.622689
0.905453 0.903860 0.609007
0.985621 0.892810 0.591993
0.006405 0.997386 0.497647
0.008415 0.997386 0.483333
0.011193 0.997386 0.456944
0.015033 0.997386 0.441363
0.033987 0.997386 0.489297
0.639052 0.997386 0.614542
0.819701 0.996078 0.675070
0.920507 0.995425 0.677859
0.995534 0.994989 0.639978
0.003446 0.205942 0.658348
0.002465 0.211989 0.669804
0.148725 0.219118 0.673627
0.324118 0.235588 0.678725
0.467227 0.262745 0.684930
0.588333 0.289118 0.686569
0.681743 0.288192 0.688540
0.780168 0.277647 0.678319
0.895294 0.281307 0.688627
0.006629 0.233240 0.668254
0.013687 0.235448 0.670588
0.143203 0.245163 0.674837
0.321499 0.258613 0.680532
0.467436 0.285582 0.686121
0.585403 0.311329 0.690414
0.684944 0.313796 0.690966
0.775779 0.304268 0.682353
0.899907 0.306349 0.694024
0.013399 0.293709 0.687827
0.020895 0.294792 0.687929
0.097090 0.300126 0.691145
0.320352 0.316227 0.696146
0.479902 0.343321 0.702880
0.606894 0.372296 0.706515
0.707032 0.376133 0.706356
0.793382 0.356434 0.690686
0.913889 0.351797 0.699510
0.019795 0.384967 0.705229
0.021875 0.382537 0.705453
0.036433 0.384820 0.708665
0.281068 0.400473 0.713252
0.464890 0.428002 0.718137
0.604491 0.463251 0.723593
0.701555 0.468763 0.717918
0.786581 0.444301 0.700000
0.920670 0.430474 0.708660
0.017087 0.482820 0.720542
0.019188 0.482003 0.722129
0.026971 0.481873 0.726771
0.142507 0.485714 0.734524
0.468207 0.514846 0.741807
0.647549 0.560994 0.749370
0.750540 0.572949 0.747579
0.829762 0.532913 0.723249
0.952288 0.503455 0.719048
0.017075 0.567892 0.714461
0.016850 0.571752 0.718260
0.028689 0.582938 0.726316
0.045316 0.598693 0.740927
0.332108 0.630576 0.759559
0.588100 0.673158 0.772955
0.751323 0.703828 0.782571
0.822794 0.654902 0.744608
0.979820 0.576879 0.714869
0.016103 0.605423 0.699875
0.016176 0.609988 0.703676
0.029074 0.621501 0.711697
0.048179 0.644133 0.727233
0.073468 0.684865 0.751777
0.495876 0.749831 0.783435
0.794534 0.828877 0.835235
0.877512 0.742096 0.749020
0.974510 0.662353 0.677333
0.011111 0.811485 0.780766
0.011073 0.819531 0.782853
0.014474 0.831444 0.782602
0.023244 0.859679 0.783743
0.032449 0.897270 0.769319
0.057213 0.915686 0.722759
0.741307 0.909150 0.766536
0.904575 0.921184 0.782391
0.987488 0.884687 0.747152
0.003268 0.998431 0.838431
0.002353 0.998431 0.828347
0.024139 0.997647 0.804096
0.008627 0.997647 0.755196
0.012549 0.997647 0.696022
0.271275 0.999216 0.679314
0.787451 0.998431 0.770392
0.926835 0.997871 0.805490
0.991111 0.997778 0.787190
0.002277 0.298166 0.850474
0.004804 0.299118 0.849314
0.161793 0.305994 0.848627
0.349608 0.320882 0.848922
0.504902 0.346667 0.847549
0.634510 0.380392 0.847059
0.745588 0.403922 0.843039
0.840392 0.399020 0.839216
0.936471 0.402876 0.839216
0.006454 0.317892 0.848529
0.013156 0.319292 0.848640
0.136849 0.327586 0.848749
0.338725 0.341973 0.849449
0.496268 0.367805 0.848640
0.624814 0.402569 0.847667
0.728283 0.427748 0.845692
0.829222 0.426376 0.842695
0.938562 0.431699 0.843627
0.021351 0.360639 0.858315
0.024463 0.361967 0.857516
0.087069 0.369528 0.858029
0.333497 0.382843 0.857680
0.499035 0.410084 0.856085
0.633170 0.443682 0.854194
0.726999 0.465711 0.850327
0.830688 0.466791 0.845814
0.932898 0.468119 0.846042
0.027778 0.420180 0.868546
0.030478 0.420915 0.867423
0.052829 0.426723 0.867059
0.296507 0.439461 0.866238
0.497902 0.467286 0.864327
0.645627 0.502085 0.859944
0.764706 0.529412 0.855086
0.856966 0.528655 0.853457
0.954167 0.523448 0.852533
0.034395 0.508007 0.881863
0.037010 0.506924 0.882414
0.047432 0.507127 0.881730
0.088573 0.510548 0.878499
0.450797 0.534191 0.874081
0.641556 0.571410 0.870398
0.775254 0.603516 0.866126
0.868627 0.605086 0.862255
0.965686 0.594608 0.861683
0.027638 0.616713 0.886275
0.027077 0.616247 0.889200
0.045404 0.613235 0.891176
0.058012 0.611156 0.892022
0.255275 0.618612 0.888827
0.602303 0.651727 0.883847
0.783773 0.694997 0.881880
0.884469 0.705198 0.878494
0.978513 0.688480 0.876062
0.016748 0.695752 0.877042
0.014277 0.698039 0.878431
0.034314 0.702101 0.881022
0.057047 0.710723 0.886642
0.077819 0.727083 0.892034
0.430930 0.751803 0.898672
0.769980 0.789182 0.900338
0.912868 0.819179 0.903309
0.990605 0.792810 0.892647
0.003758 0.773448 0.895016
0.003431 0.773407 0.893995
0.013072 0.778328 0.896113
0.030190 0.785683 0.900031
0.042647 0.802574 0.904902
0.059512 0.831166 0.908222
0.592034 0.878615 0.912745
0.900429 0.944485 0.944424
0.952369 0.899918 0.902043
0.003813 0.993464 0.998693
0.000000 0.995180 0.998203
0.003922 0.996078 0.997292
0.011029 0.996732 0.996160
0.016993 0.998039 0.988807
0.015033 0.998039 0.960317
0.534477 0.998611 0.898529
0.932843 0.997386 0.922386
0.980046 0.995848 0.931603
0.287059 0.490588 1.000000
0.339706 0.503023 1.000000
0.421160 0.515196 1.000000
0.521475 0.533707 1.000000
0.627042 0.555964 1.000000
0.731209 0.579493 0.995997
0.825023 0.601587 0.988235
0.903840 0.611928 0.983333
0.983551 0.613943 0.983660
0.289111 0.507301 1.000000
0.331556 0.513358 1.000000
0.413626 0.525490 1.000000
0.517647 0.543555 1.000000
0.627574 0.568321 1.000000
0.729902 0.593015 0.996201
0.822059 0.614146 0.990126
0.901532 0.622059 0.984007
0.981454 0.622549 0.983088
0.266500 0.532916 0.999499
0.315219 0.537940 1.000000
0.404801 0.549493 1.000000
0.512543 0.565640 1.000000
0.627264 0.587986 1.000000
0.731913 0.611562 0.998107
0.825061 0.632659 0.991789
0.909555 0.643635 0.984314
0.982925 0.644853 0.984395
0.133484 0.572021 1.000000
0.219221 0.579343 1.000000
0.331282 0.589261 1.000000
0.462469 0.607125 1.000000
0.585860 0.629716 1.000000
0.700091 0.653032 0.999216
0.800436 0.674564 0.995534
0.893068 0.686993 0.988567
0.981772 0.689325 0.988163
0.059119 0.616352 1.000000
0.068054 0.621478 1.000000
0.148467 0.628059 1.000000
0.387075 0.644131 1.000000
0.547210 0.667330 1.000000
0.682740 0.691687 0.999613
0.782277 0.715101 0.998116
0.886335 0.734419 0.992097
0.972041 0.736456 0.991794
0.037337 0.663889 1.000000
0.037115 0.666317 1.000000
0.057591 0.672717 1.000000
0.073100 0.684804 1.000000
0.457003 0.707493 1.000000
0.677145 0.736887 1.000000
0.821478 0.766697 0.999940
0.924580 0.787955 0.998669
0.992239 0.792810 0.997876
0.029902 0.755392 1.000000
0.031879 0.755408 1.000000
0.048567 0.755656 1.000000
0.068289 0.755984 1.000000
0.081341 0.763441 1.000000
0.535907 0.793015 1.000000
0.791027 0.827783 1.000000
0.928083 0.857812 0.999494
0.993137 0.869690 1.000000
0.020261 0.834096 0.998802
0.019264 0.835225 0.998830
0.021390 0.838574 0.998859
0.029882 0.844471 0.998902
0.030392 0.856162 0.999300
0.232228 0.873868 0.999430
0.683276 0.898885 0.999385
0.923094 0.933479 0.999492
0.996359 0.949113 0.999346
0.010980 0.886797 0.998431
0.007157 0.887059 0.998431
0.008715 0.890523 0.998257
0.010055 0.896933 0.998592
0.014118 0.908431 0.998431
0.016792 0.929110 0.999095
0.629194 0.959368 0.999129
0.939118 0.991275 0.999216
0.984837 0.997386 0.997647
