calib/LUT LIBRARY/a_green_shady_beach_v1.cube
TITLE "a green shady beach v1.0"
#LUMIXPHOTOSTYLE STD
LUT_3D_SIZE 5
0.017012 0.029996 0.021295
0.227416 0.068079 0.030878
0.412387 0.174095 0.065044
0.736585 0.942916 0.002848
0.580904 0.747137 0.784157
0.039477 0.213763 0.008422
0.237149 0.240257 0.019426
0.396596 0.169173 0.068990
0.668897 0.895582 0.002113
0.836632 0.950534 0.001892
0.114296 0.454952 0.002242
0.213800 0.495357 0.001982
0.499539 0.511243 0.002992
0.642434 0.721737 0.031599
0.217953 0.346101 0.058786
0.444936 0.648810 0.857802
0.000000 0.491188 0.902231
0.480257 0.737860 0.002202
0.534345 0.810124 0.947371
0.133917 0.391609 0.012207
0.925490 0.901961 0.913725
0.247176 0.055140 0.031432
0.618563 0.894700 0.001681
0.736355 0.934027 0.052549
0.765764 0.926888 0.971907
0.003216 0.198649 0.230360
0.196529 0.102784 0.114475
0.399469 0.101024 0.185151
0.664348 0.887937 0.002162
0.835864 0.943562 0.001923
0.011786 0.163976 0.188527
0.264430 0.264151 0.260695
0.513970 0.330753 0.161918
0.644496 0.488147 0.103542
0.001533 0.232898 0.205539
0.483991 0.621300 0.216791
0.156427 0.491973 0.188866
0.518111 0.515378 0.188330
0.731077 0.538229 0.117426
0.002647 0.287318 0.283360
0.845136 0.788083 0.004150
0.223415 0.547350 0.128399
0.447604 0.740162 0.001578
0.758527 0.736198 0.004353
0.855519 0.672344 0.223776
0.887783 0.866297 0.003300
0.229470 0.067924 0.115926
0.614687 0.852555 0.002904
0.752165 0.914193 0.002535
0.896410 0.938321 0.001964
0.346748 0.572526 0.329082
0.149536 0.273243 0.382410
0.403456 0.121471 0.204695
0.678269 0.885414 0.069568
0.766944 0.892499 0.233272
0.001816 0.378321 0.382093
0.162816 0.288679 0.437549
0.394858 0.347166 0.375863
0.683035 0.449905 0.375993
0.002382 0.372281 0.454537
0.001438 0.311572 0.357249
0.001765 0.429365 0.502766
0.580162 0.574703 0.575638
0.773526 0.598866 0.379145
0.895438 0.752194 0.355917
0.849673 0.644444 0.572549
0.001871 0.599485 0.496864
0.395454 0.719404 0.398652
0.756054 0.754951 0.437401
0.858773 0.688621 0.373648
0.909485 0.891027 0.607665
0.923055 0.944828 0.317781
0.575917 0.818716 0.216156
0.721000 0.889634 0.258644
0.922934 0.954488 0.219632
0.901733 0.920802 0.672818
0.111194 0.462464 0.480985
0.477012 0.719071 0.575315
0.575734 0.836349 0.509852
0.757599 0.885127 0.576246
0.000362 0.496453 0.575212
0.005614 0.533643 0.631931
0.385177 0.416602 0.596415
0.637691 0.516149 0.540506
0.008006 0.480124 0.604753
0.000426 0.445103 0.563303
0.003798 0.389911 0.655689
0.424791 0.522294 0.711684
0.697968 0.652926 0.682938
0.840184 0.628585 0.530998
0.001675 0.433127 0.519067
0.053836 0.286477 0.052149
0.032547 0.625354 0.702630
0.818924 0.813889 0.820072
0.903693 0.744539 0.661829
0.000000 0.345098 0.709804
0.000568 0.481423 0.889215
0.146398 0.722397 0.667221
0.670666 0.862329 0.698288
0.902571 0.921231 0.678716
0.020059 0.158820 0.012454
0.271220 0.111207 0.043986
0.390569 0.261738 0.152962
0.493910 0.807228 0.739605
0.741773 0.887986 0.756325
0.004507 0.558609 0.646547
0.198147 0.291548 0.002644
0.529798 0.442086 0.001993
0.598754 0.824893 0.690447
0.511564 0.775407 0.759536
0.000000 0.345098 0.709804
0.001273 0.417043 0.807927
0.350782 0.632384 0.443292
0.702734 0.724193 0.711949
0.085894 0.417241 0.759311
0.039749 0.214044 0.008365
0.099053 0.387311 0.003525
0.000606 0.608927 0.816680
0.540518 0.813290 0.947450
0.892374 0.872618 0.890799
0.035938 0.303658 0.158091
0.110432 0.346282 0.003219
0.104846 0.681673 0.736281
0.451065 0.785873 0.928236
0.934518 0.984597 0.995425
