calib/LUT LIBRARY/a_green_shady_beach_v1.cube
TITLE "a green shady beach v1.0"
#LUMIXPHOTOSTYLE STD
LUT_3D_SIZE 33
0.017012 0.029996 0.021295
0.017012 0.029996 0.021295
0.042535 0.030307 0.022377
0.085430 0.034316 0.025818
0.119345 0.045053 0.024337
0.146493 0.050053 0.020834
0.181692 0.053637 0.022670
0.210579 0.060945 0.026665
0.227416 0.068079 0.030878
0.248382 0.057588 0.032040
0.267821 0.089865 0.040389
0.297733 0.120435 0.049505
0.318510 0.130813 0.053739
0.335168 0.136344 0.056945
0.349297 0.141799 0.060057
0.392552 0.166810 0.068231
0.412387 0.174095 0.065044
0.487125 0.427877 0.042642
0.598521 0.802407 0.010263
0.632651 0.905060 0.001681
0.639818 0.910329 0.001681
0.648152 0.916457 0.001681
0.664048 0.922291 0.001905
0.698429 0.929795 0.002344
0.736585 0.942916 0.002848
0.758485 0.948430 0.003774
0.767180 0.933839 0.242543
0.759159 0.918531 0.612102
0.663135 0.849053 0.890203
0.580904 0.747137 0.784157
0.580904 0.747137 0.784157
0.580904 0.747137 0.784157
0.580904 0.747137 0.784157
0.017012 0.029996 0.021295
0.017012 0.029996 0.021295
0.035897 0.032357 0.024355
0.056514 0.034440 0.028235
0.091894 0.039150 0.028939
0.132249 0.047564 0.023409
0.161284 0.050781 0.022745
0.195482 0.058132 0.025122
0.218042 0.066679 0.029244
0.237979 0.066379 0.032273
0.257186 0.076905 0.036775
0.286197 0.111437 0.046457
0.308940 0.127357 0.052144
0.329405 0.133995 0.055798
0.347726 0.138287 0.060017
0.373218 0.153536 0.064942
0.404323 0.171597 0.067077
0.413927 0.175204 0.064645
0.469225 0.362286 0.048603
0.594690 0.780553 0.012833
0.636559 0.893480 0.003635
0.647828 0.899635 0.003673
0.659176 0.904870 0.003822
0.688982 0.903496 0.003247
0.719312 0.905663 0.002079
0.759889 0.929668 0.002480
0.785613 0.945725 0.001807
0.803586 0.957169 0.001267
0.277363 0.371796 0.067293
0.018009 0.093744 0.104065
0.018009 0.093744 0.104065
0.018009 0.093744 0.104065
0.018009 0.093744 0.104065
0.017012 0.029996 0.021295
0.036984 0.101183 0.019499
0.038983 0.047065 0.024968
0.057043 0.037519 0.025311
0.115708 0.046368 0.025635
0.137241 0.049850 0.023371
0.159761 0.051804 0.024618
0.189140 0.057855 0.025634
0.212536 0.066896 0.029094
0.232154 0.074801 0.034398
0.255274 0.077768 0.038262
0.280189 0.103474 0.046040
0.304085 0.119618 0.051402
0.325511 0.127741 0.055051
0.348636 0.133306 0.060641
0.360802 0.142119 0.063366
0.397445 0.169467 0.068812
0.413725 0.174510 0.064706
0.413725 0.174510 0.064706
0.472415 0.380649 0.046243
0.553002 0.651193 0.022249
0.611464 0.834116 0.006459
0.635462 0.893765 0.001894
0.665693 0.893702 0.001888
0.707430 0.897324 0.001904
0.747400 0.908830 0.002230
0.786087 0.943565 0.002881
0.811891 0.961290 0.001066
0.669671 0.792054 0.028777
0.250145 0.364786 0.102801
0.250145 0.364786 0.102801
0.250145 0.364786 0.102801
0.250145 0.364786 0.102801
0.023423 0.056715 0.026328
0.032517 0.096271 0.020311
0.061609 0.110523 0.017121
0.071468 0.088139 0.020757
0.091120 0.059810 0.025755
0.137573 0.056748 0.024085
0.172274 0.056016 0.025617
0.195070 0.060651 0.026542
0.213570 0.068655 0.029421
0.231810 0.077392 0.035448
0.254476 0.080360 0.039572
0.279183 0.102831 0.046855
0.301702 0.115827 0.051406
0.322947 0.123443 0.054727
0.346009 0.130159 0.060205
0.361661 0.141322 0.064258
0.387806 0.162045 0.068461
0.405791 0.171204 0.066816
0.422711 0.182144 0.068170
0.454553 0.272885 0.061713
0.510217 0.476926 0.041579
0.583870 0.742920 0.014780
0.626954 0.884494 0.000670
0.645383 0.889392 0.001103
0.697443 0.897419 0.002196
0.738322 0.902577 0.002504
0.780983 0.930697 0.002541
0.810829 0.947627 0.001729
0.837907 0.949210 0.001389
0.636040 0.742106 0.042208
0.636040 0.742106 0.042208
0.636040 0.742106 0.042208
0.636040 0.742106 0.042208
0.024677 0.105227 0.018060
0.032413 0.121175 0.016646
0.066305 0.153919 0.013565
0.084381 0.124218 0.014959
0.112423 0.124849 0.014787
0.132812 0.085985 0.023751
0.150506 0.065958 0.035452
0.196600 0.065470 0.028890
0.221222 0.072405 0.031337
0.236443 0.074766 0.033867
0.256255 0.082668 0.039468
0.279391 0.103378 0.046743
0.301092 0.115290 0.051370
0.321669 0.122459 0.054657
0.343586 0.130667 0.060050
0.362274 0.142535 0.065050
0.383328 0.158784 0.068807
0.399720 0.168024 0.068342
0.422696 0.183189 0.069955
0.457585 0.236223 0.071158
0.490718 0.363183 0.058013
0.563625 0.654414 0.025447
0.620805 0.868879 0.001229
0.632979 0.884003 0.000308
0.686928 0.897709 0.002282
0.731746 0.902635 0.002512
0.773588 0.921738 0.002560
0.807734 0.942082 0.001827
0.837658 0.952050 0.001106
0.800873 0.902906 0.010667
0.800873 0.902906 0.010667
0.800873 0.902906 0.010667
0.800873 0.902906 0.010667
0.024482 0.138332 0.015570
0.033887 0.146463 0.014993
0.058677 0.165139 0.013212
0.090950 0.165211 0.011551
0.114976 0.149703 0.011657
0.146337 0.152912 0.010913
0.162721 0.127786 0.024082
0.187526 0.087394 0.037813
0.213161 0.082250 0.033760
0.241053 0.078679 0.035319
0.260548 0.087136 0.039156
0.281372 0.106331 0.045983
0.302285 0.117866 0.051187
0.322095 0.123567 0.054575
0.343548 0.130214 0.059854
0.361864 0.142259 0.064964
0.382068 0.158021 0.068876
0.397296 0.166648 0.068905
0.419013 0.181008 0.070100
0.460167 0.220721 0.075777
0.475059 0.285604 0.068386
0.542318 0.561259 0.036631
0.611033 0.821222 0.007006
0.636141 0.884706 0.000572
0.677640 0.897059 0.002249
0.726442 0.903110 0.002393
0.766863 0.917235 0.002547
0.802128 0.936312 0.001966
0.832929 0.949733 0.001817
0.848736 0.955021 0.000587
0.848736 0.955021 0.000587
0.848736 0.955021 0.000587
0.848736 0.955021 0.000587
0.017797 0.167788 0.010888
0.035759 0.170298 0.012565
0.055352 0.184645 0.012113
0.087233 0.202749 0.007058
0.113111 0.183709 0.009372
0.140218 0.176027 0.011337
0.168030 0.175310 0.008679
0.188619 0.160668 0.019048
0.204004 0.109112 0.041739
0.236082 0.102711 0.040551
0.261600 0.101436 0.042054
0.284963 0.111150 0.046286
0.305462 0.124894 0.051396
0.323916 0.128218 0.054759
0.345324 0.131232 0.059818
0.361120 0.140896 0.064082
0.382689 0.158425 0.068352
0.398400 0.167447 0.068643
0.417667 0.179895 0.069588
0.458216 0.213527 0.076473
0.467127 0.250865 0.072513
0.527522 0.497874 0.044138
0.601901 0.781640 0.011714
0.637956 0.885098 0.000702
0.671018 0.896426 0.002242
0.721982 0.902833 0.002284
0.761634 0.914031 0.002529
0.797436 0.933229 0.002032
0.828456 0.949147 0.001977
0.843290 0.951929 0.001544
0.843290 0.951929 0.001544
0.843290 0.951929 0.001544
0.843290 0.951929 0.001544
0.031479 0.182167 0.011135
0.039410 0.192839 0.011033
0.053110 0.204484 0.009425
0.079217 0.222456 0.005032
0.117643 0.217525 0.003631
0.142951 0.204396 0.004581
0.182678 0.195259 0.004701
0.193719 0.200347 0.012381
0.210152 0.181796 0.022878
0.239706 0.124217 0.049242
0.258710 0.123747 0.046607
0.282311 0.123014 0.045822
0.302945 0.125232 0.050450
0.325329 0.133275 0.054875
0.348422 0.137601 0.060099
0.361294 0.143508 0.063388
0.387316 0.162034 0.067649
0.403340 0.170397 0.067417
0.418572 0.179711 0.068328
0.448458 0.204866 0.073917
0.460815 0.225772 0.074949
0.519835 0.465678 0.047742
0.596378 0.760587 0.014100
0.636757 0.883224 0.000844
0.668723 0.895714 0.002144
0.718768 0.902005 0.002226
0.757930 0.912075 0.002498
0.793922 0.930433 0.002056
0.825281 0.949311 0.001813
0.839368 0.950788 0.001869
0.839368 0.950788 0.001869
0.839368 0.950788 0.001869
0.839368 0.950788 0.001869
0.039477 0.213763 0.008422
0.041697 0.216059 0.007959
0.056318 0.226435 0.005712
0.074988 0.245404 0.002984
0.106463 0.267601 0.002671
0.141944 0.244051 0.002208
0.160762 0.238799 0.003305
0.183201 0.240751 0.007637
0.237149 0.240257 0.019426
0.241373 0.210554 0.013191
0.260404 0.166192 0.044491
0.285432 0.138647 0.050181
0.303380 0.139935 0.049232
0.325621 0.137874 0.053214
0.349744 0.143591 0.059620
0.361953 0.147786 0.062897
0.396596 0.169173 0.068990
0.409856 0.173311 0.065682
0.414346 0.175062 0.064981
0.428735 0.187978 0.068611
0.441981 0.202402 0.071460
0.517193 0.466924 0.046120
0.592567 0.751787 0.014841
0.631278 0.874066 0.001586
0.668897 0.895582 0.002113
0.717743 0.901943 0.002213
0.756243 0.911514 0.002493
0.791708 0.928625 0.002068
0.823116 0.948559 0.001736
0.836632 0.950534 0.001892
0.836632 0.950534 0.001892
0.836632 0.950534 0.001892
0.836632 0.950534 0.001892
0.049631 0.236135 0.005253
0.053254 0.242613 0.004255
0.058133 0.256881 0.002420
0.075903 0.266761 0.002201
0.104090 0.285639 0.002467
0.134684 0.286734 0.002095
0.167685 0.270491 0.002361
0.194758 0.267327 0.003031
0.218927 0.269288 0.005106
0.254965 0.277039 0.006402
0.270868 0.245652 0.026623
0.299164 0.212370 0.046594
0.309810 0.155050 0.055711
0.328725 0.151151 0.055640
0.357336 0.154730 0.060534
0.370140 0.156329 0.063943
0.391337 0.166227 0.068064
0.411196 0.173726 0.065344
0.413725 0.174510 0.064706
0.413725 0.174510 0.064706
0.436454 0.250743 0.057949
0.514629 0.495463 0.038620
0.599163 0.780673 0.011523
0.624147 0.870461 0.001334
0.672261 0.896208 0.002182
0.718475 0.901711 0.002268
0.756754 0.912286 0.002538
0.790893 0.928231 0.002084
0.821672 0.947700 0.001793
0.834987 0.950547 0.001840
0.834987 0.950547 0.001840
0.834987 0.950547 0.001840
0.834987 0.950547 0.001840
0.060373 0.265057 0.001842
0.062508 0.266454 0.001873
0.069284 0.270885 0.001974
0.082701 0.286794 0.002384
0.101015 0.303050 0.002740
0.129813 0.318884 0.002650
0.162103 0.309500 0.002592
0.195590 0.293862 0.002504
0.219548 0.290554 0.003377
0.250040 0.293297 0.003036
0.291522 0.302228 0.002857
0.326579 0.287728 0.021286
0.356148 0.286431 0.026401
0.375068 0.234819 0.037157
0.370652 0.189583 0.054538
0.382410 0.182990 0.064020
0.394251 0.175698 0.068769
0.408366 0.174017 0.066954
0.413725 0.174510 0.064706
0.413725 0.174510 0.064706
0.486306 0.402569 0.045431
0.577343 0.696201 0.019933
0.623555 0.857217 0.004998
0.632893 0.887616 0.001433
0.680107 0.896575 0.002223
0.720814 0.901051 0.002385
0.759299 0.913543 0.002631
0.791532 0.929329 0.002104
0.821068 0.946824 0.001960
0.834271 0.950431 0.001809
0.834271 0.950431 0.001809
0.834271 0.950431 0.001809
0.834271 0.950431 0.001809
0.076490 0.294743 0.002650
0.078283 0.297438 0.002721
0.081673 0.304802 0.002925
0.085426 0.307842 0.002888
0.104320 0.318290 0.002636
0.126813 0.338400 0.002703
0.158275 0.350101 0.002467
0.193036 0.339255 0.003015
0.222384 0.339356 0.002575
0.254772 0.337606 0.001855
0.297131 0.341554 0.003797
0.332402 0.344578 0.004050
0.336043 0.303863 0.014025
0.394934 0.315110 0.011858
0.423436 0.303289 0.013524
0.416456 0.263302 0.029889
0.403681 0.204822 0.058467
0.414888 0.188123 0.068891
0.426694 0.186719 0.070231
0.424586 0.183907 0.068549
0.417145 0.177341 0.065795
0.477402 0.373743 0.047883
0.648653 0.889205 0.004606
0.655690 0.899539 0.002757
0.689656 0.894102 0.001862
0.724546 0.900182 0.002369
0.763924 0.914161 0.002792
0.793872 0.932418 0.002095
0.821241 0.945858 0.002264
0.834586 0.950356 0.001754
0.834586 0.950356 0.001754
0.834586 0.950356 0.001754
0.834586 0.950356 0.001754
0.083445 0.306480 0.002918
0.084865 0.307456 0.002897
0.089109 0.314318 0.002957
0.095905 0.329856 0.003196
0.101318 0.349056 0.003599
0.120869 0.363739 0.002846
0.154579 0.378189 0.002483
0.187235 0.375398 0.002410
0.234105 0.373800 0.001031
0.255393 0.369887 0.000026
0.292314 0.370267 0.002931
0.325298 0.370301 0.002527
0.371630 0.374930 0.000900
0.402328 0.365526 0.008360
0.432444 0.351111 0.007814
0.438281 0.323254 0.010159
0.436525 0.301657 0.021460
0.448078 0.257362 0.061034
0.450855 0.220698 0.075576
0.464065 0.217752 0.076834
0.451240 0.206289 0.074982
0.443653 0.198850 0.073824
0.571211 0.623432 0.030988
0.655849 0.901783 0.003675
0.694651 0.901547 0.002547
0.730149 0.899997 0.002139
0.768398 0.920295 0.002665
0.798275 0.939016 0.001982
0.820884 0.945467 0.002495
0.836126 0.950920 0.001487
0.836126 0.950920 0.001487
0.836126 0.950920 0.001487
0.836126 0.950920 0.001487
0.099769 0.358466 0.003922
0.099369 0.359547 0.003922
0.098017 0.363197 0.003922
0.095760 0.369291 0.003922
0.092544 0.377974 0.003922
0.107944 0.393240 0.003129
0.147253 0.399390 0.002217
0.185777 0.413326 0.002344
0.218103 0.404491 0.002385
0.255740 0.395052 0.001675
0.308531 0.395503 0.002763
0.335255 0.396472 0.003714
0.355840 0.406847 0.003300
0.376291 0.419866 0.003354
0.448983 0.402587 0.003226
0.466168 0.390775 0.003890
0.501701 0.393823 0.004792
0.500238 0.379525 0.010864
0.470331 0.285102 0.059915
0.478980 0.252531 0.081530
0.469291 0.230560 0.078405
0.469259 0.223908 0.077930
0.484383 0.287333 0.069728
0.631229 0.812127 0.013296
0.690266 0.901245 0.002792
0.727577 0.903133 0.002335
0.770779 0.931526 0.002439
0.803436 0.949983 0.001688
0.814835 0.943163 0.002750
0.774362 0.891873 0.012184
0.774362 0.891873 0.012184
0.774362 0.891873 0.012184
0.774362 0.891873 0.012184
0.090257 0.384468 0.003919
0.090339 0.384672 0.003916
0.090666 0.385493 0.003902
0.091731 0.388169 0.003856
0.095039 0.396471 0.003716
0.104934 0.422687 0.003205
0.133897 0.432474 0.002505
0.183029 0.435363 0.002537
0.212549 0.441515 0.002612
0.249304 0.432282 0.002657
0.297881 0.420650 0.001711
0.360726 0.424744 0.003518
0.368424 0.434975 0.003910
0.381690 0.444740 0.003922
0.420605 0.451767 0.003226
0.478328 0.429858 0.000277
0.485663 0.422145 0.000101
0.518725 0.429825 0.002187
0.518094 0.402252 0.006056
0.517222 0.356006 0.041211
0.515352 0.293668 0.089224
0.492907 0.265619 0.086093
0.473298 0.232588 0.079881
0.596627 0.676847 0.028903
0.687246 0.900315 0.003126
0.723592 0.903457 0.002214
0.767677 0.932775 0.002344
0.800039 0.954871 0.001493
0.731178 0.870049 0.013961
0.584848 0.707249 0.039159
0.584848 0.707249 0.039159
0.584848 0.707249 0.039159
0.584848 0.707249 0.039159
0.095215 0.398858 0.003582
0.096251 0.401770 0.003518
0.099205 0.410236 0.003324
0.103865 0.423689 0.003012
0.109817 0.441132 0.002596
0.114392 0.455399 0.002248
0.122556 0.459052 0.002553
0.174393 0.458163 0.002610
0.216933 0.471319 0.002543
0.251802 0.467084 0.002291
0.290753 0.458561 0.001474
0.337682 0.457631 0.002097
0.365709 0.454903 0.002821
0.401275 0.460385 0.003803
0.427992 0.467931 0.003582
0.464933 0.472583 0.003414
0.487072 0.448666 0.002884
0.483475 0.428019 0.000000
0.529048 0.442078 0.001599
0.546497 0.452768 0.001718
0.533344 0.413887 0.006173
0.545234 0.348080 0.062710
0.528535 0.303319 0.093391
0.557121 0.479262 0.063926
0.684551 0.895668 0.003920
0.721180 0.903880 0.002139
0.765350 0.931457 0.002345
0.795433 0.951751 0.001710
0.663693 0.806038 0.014826
0.316906 0.437043 0.060073
0.316906 0.437043 0.060073
0.316906 0.437043 0.060073
0.316906 0.437043 0.060073
0.114296 0.454952 0.002242
0.114308 0.455006 0.002242
0.114346 0.455182 0.002245
0.114456 0.455697 0.002252
0.114775 0.457188 0.002272
0.115705 0.461524 0.002330
0.117421 0.469532 0.002437
0.179516 0.467794 0.002856
0.213800 0.495357 0.001982
0.249657 0.502283 0.002713
0.290633 0.502184 0.002590
0.331756 0.492212 0.002714
0.370442 0.479521 0.002532
0.398594 0.483965 0.002219
0.439934 0.492847 0.002946
0.458798 0.494743 0.003255
0.499539 0.511243 0.002992
0.510382 0.470390 0.003117
0.494028 0.448716 0.000711
0.562836 0.472140 0.002231
0.593146 0.484571 0.003035
0.584231 0.405493 0.016295
0.568718 0.388487 0.016898
0.553516 0.344928 0.070511
0.642434 0.721737 0.031599
0.720183 0.904369 0.002108
0.763116 0.929763 0.002373
0.766471 0.923434 0.003432
0.412072 0.549297 0.030193
0.217953 0.346101 0.058786
0.217953 0.346101 0.058786
0.217953 0.346101 0.058786
0.217953 0.346101 0.058786
0.114363 0.455264 0.002246
0.114428 0.455564 0.002250
0.114575 0.456250 0.002259
0.114875 0.457652 0.002278
0.115457 0.460370 0.002314
0.116448 0.464992 0.002376
0.124636 0.473675 0.002230
0.191883 0.495735 0.001201
0.207934 0.513276 0.000811
0.246614 0.524836 0.002502
0.289425 0.534761 0.002653
0.329415 0.533901 0.002695
0.370804 0.521028 0.003226
0.406499 0.519176 0.002422
0.443977 0.522345 0.002052
0.465378 0.518426 0.003108
0.490156 0.528853 0.003828
0.506976 0.537393 0.003415
0.523960 0.484504 0.003039
0.520209 0.477383 0.001531
0.567053 0.482154 0.002372
0.621819 0.505100 0.003882
0.615250 0.496337 0.004695
0.579678 0.384573 0.019442
0.581076 0.413895 0.029524
0.713019 0.879251 0.006237
0.762180 0.929471 0.002393
0.675941 0.835002 0.011289
0.135317 0.279606 0.052404
0.087670 0.226001 0.059618
0.087670 0.226001 0.059618
0.087670 0.226001 0.059618
0.087670 0.226001 0.059618
0.114548 0.455974 0.002254
0.114753 0.456694 0.002261
0.115290 0.458124 0.002271
0.116627 0.460693 0.002273
0.120059 0.465282 0.002233
0.129180 0.473537 0.002039
0.154559 0.489585 0.001345
0.198407 0.512862 0.004677
0.209042 0.516763 0.000589
0.238448 0.542408 0.037686
0.281003 0.556997 0.002336
0.324885 0.566251 0.002658
0.362725 0.567675 0.002969
0.398515 0.564767 0.002208
0.438098 0.555249 0.003732
0.479606 0.537108 0.000530
0.491586 0.547843 0.001863
0.524729 0.549076 0.003022
0.546082 0.558787 0.002685
0.574372 0.536672 0.000224
0.555016 0.513641 0.001145
0.529832 0.478960 0.000465
0.614476 0.502038 0.003767
0.622664 0.503694 0.004445
0.592072 0.415617 0.015864
0.654476 0.643672 0.011051
0.762339 0.930404 0.002402
0.544715 0.709822 0.017717
0.081940 0.242352 0.061826
0.003300 0.158147 0.066771
0.003300 0.158147 0.066771
0.003300 0.158147 0.066771
0.003300 0.158147 0.066771
0.115335 0.457365 0.002252
0.116096 0.458736 0.002251
0.117345 0.460955 0.004437
0.106175 0.456750 0.095540
0.090016 0.449808 0.225607
0.067691 0.439236 0.398260
0.035096 0.422998 0.618477
0.171091 0.498160 0.116352
0.144700 0.491048 0.255268
0.208714 0.541164 0.144600
0.272540 0.576201 0.002566
0.314722 0.586331 0.002563
0.361003 0.599423 0.002514
0.398292 0.598189 0.002715
0.409075 0.599549 0.079557
0.433694 0.601064 0.138894
0.488571 0.587615 0.093787
0.547966 0.563403 0.003018
0.566261 0.571806 0.002436
0.592256 0.581418 0.002529
0.598481 0.576953 0.002285
0.573654 0.535939 0.000681
0.570453 0.519765 0.000446
0.611754 0.506722 0.002869
0.623651 0.505259 0.004180
0.598136 0.430819 0.014192
0.756193 0.910060 0.003119
0.493913 0.661911 0.019480
0.036938 0.212846 0.055349
0.009648 0.180867 0.064300
0.009648 0.180867 0.064300
0.009648 0.180867 0.064300
0.009648 0.180867 0.064300
0.028645 0.413187 0.600467
0.026656 0.412432 0.615402
0.019534 0.409079 0.665823
0.007217 0.402925 0.750154
0.000693 0.400459 0.793767
0.000362 0.402112 0.796743
0.000040 0.403724 0.799644
0.026502 0.420853 0.699547
0.062072 0.456533 0.583362
0.070025 0.479570 0.600376
0.171592 0.542983 0.328096
0.294503 0.605759 0.034351
0.351433 0.619505 0.002748
0.396575 0.628802 0.002702
0.428326 0.632124 0.007062
0.449449 0.626002 0.034393
0.476635 0.619496 0.074147
0.519126 0.610290 0.081985
0.580370 0.591316 0.004923
0.605008 0.596170 0.002174
0.621997 0.606434 0.002610
0.610387 0.592762 0.002659
0.593486 0.556916 0.000800
0.599556 0.549021 0.000408
0.630622 0.521446 0.002690
0.623724 0.505527 0.004106
0.630968 0.527675 0.011371
0.260060 0.454151 0.015445
0.023858 0.203983 0.054464
0.017889 0.197268 0.057998
0.017889 0.197268 0.057998
0.017889 0.197268 0.057998
0.017889 0.197268 0.057998
0.000357 0.402136 0.796786
0.000337 0.402237 0.796968
0.000274 0.402554 0.797538
0.000171 0.403067 0.798461
0.000041 0.403718 0.799633
0.000129 0.405207 0.800643
0.000357 0.407487 0.801783
0.000045 0.408875 0.810736
0.000988 0.431557 0.826341
0.001785 0.459248 0.839765
0.127075 0.538748 0.500271
0.280327 0.620105 0.059500
0.334031 0.637190 0.002882
0.388557 0.648099 0.002390
0.431059 0.655918 0.002543
0.462592 0.656780 0.002517
0.485087 0.656337 0.029745
0.503275 0.657085 0.087479
0.537840 0.645439 0.100320
0.587093 0.634663 0.076062
0.623603 0.630546 0.029955
0.641120 0.629623 0.002680
0.624139 0.607847 0.002786
0.618944 0.583729 0.001491
0.632415 0.574001 0.000391
0.651564 0.533862 0.003353
0.620882 0.504441 0.004125
0.147964 0.336017 0.011404
0.052643 0.262945 0.023622
0.046635 0.251396 0.031150
0.046635 0.251396 0.031150
0.046635 0.251396 0.031150
0.046635 0.251396 0.031150
0.000578 0.409706 0.802892
0.000594 0.409863 0.802971
0.000647 0.410391 0.803235
0.000735 0.411272 0.803675
0.000861 0.412529 0.804304
0.001010 0.414066 0.805213
0.001325 0.417631 0.808463
0.002022 0.428694 0.824006
0.000142 0.451952 0.853175
0.001713 0.479332 0.870783
0.042612 0.524377 0.781268
0.274416 0.625851 0.072590
0.333020 0.656043 0.002420
0.371959 0.669454 0.001431
0.414273 0.678183 0.002452
0.461530 0.683675 0.002655
0.497660 0.687310 0.002535
0.514173 0.690378 0.037816
0.519585 0.691553 0.107158
0.563191 0.672476 0.100118
0.595171 0.662326 0.093738
0.606939 0.661233 0.112539
0.604285 0.665949 0.149055
0.634568 0.618729 0.002853
0.637516 0.606301 0.002205
0.661200 0.594789 0.000397
0.673050 0.555188 0.025634
0.331486 0.398576 0.005539
0.073115 0.292420 0.011696
0.059358 0.272670 0.019715
0.059358 0.272670 0.019715
0.059358 0.272670 0.019715
0.059358 0.272670 0.019715
0.000996 0.413904 0.805064
0.001010 0.414066 0.805212
0.001043 0.414436 0.805550
0.001116 0.415257 0.806298
0.001283 0.417160 0.808033
0.001650 0.422264 0.812985
0.002263 0.434065 0.825259
0.002830 0.456985 0.851303
0.000025 0.484899 0.894117
0.000634 0.503729 0.908420
0.001553 0.517460 0.916988
0.292000 0.633086 0.018703
0.252331 0.647853 0.238534
0.317612 0.675371 0.117536
0.405904 0.704481 0.007633
0.454858 0.713057 0.001676
0.501957 0.714432 0.001722
0.534070 0.714657 0.002374
0.560400 0.711428 0.002537
0.585231 0.704103 0.009613
0.556431 0.710017 0.208065
0.504247 0.734042 0.485081
0.481188 0.752747 0.656009
0.503453 0.778240 0.789839
0.638260 0.622560 0.002842
0.645036 0.619548 0.002714
0.695522 0.613377 0.024270
0.554206 0.556339 0.103410
0.092754 0.339843 0.003854
0.081125 0.304115 0.007809
0.081125 0.304115 0.007809
0.081125 0.304115 0.007809
0.081125 0.304115 0.007809
0.444936 0.648810 0.857802
0.057114 0.445455 0.813648
0.002565 0.418530 0.809206
0.001387 0.421352 0.812797
0.001611 0.427636 0.819696
0.001846 0.438239 0.831843
0.001888 0.454479 0.851569
0.001295 0.475018 0.878803
0.000000 0.491188 0.902231
0.000558 0.503832 0.908113
0.001598 0.515763 0.916631
0.088196 0.603758 0.582804
0.000000 0.604445 0.808890
0.058076 0.618677 0.691383
0.332611 0.703168 0.170415
0.439325 0.737561 0.009326
0.480257 0.737860 0.002202
0.523814 0.739970 0.001737
0.560640 0.742583 0.001243
0.581042 0.746800 0.050123
0.551018 0.755092 0.277005
0.478985 0.776570 0.727201
0.456551 0.795482 0.934911
0.492485 0.805151 0.945104
0.534345 0.810124 0.947371
0.641868 0.633776 0.002381
0.664021 0.636426 0.007064
0.670941 0.611509 0.025007
0.382531 0.495046 0.072561
0.133917 0.391609 0.012207
0.133917 0.391609 0.012207
0.133917 0.391609 0.012207
0.133917 0.391609 0.012207
0.925490 0.901961 0.913725
0.699290 0.783732 0.888206
0.148065 0.320690 0.504263
0.027196 0.347503 0.649725
0.006563 0.429562 0.809585
0.001518 0.456859 0.855792
0.001147 0.471628 0.875179
0.000508 0.484267 0.892906
0.000000 0.491016 0.902185
0.000496 0.503914 0.907867
0.001339 0.533176 0.893764
0.000123 0.602009 0.828938
0.000000 0.609804 0.819608
0.000464 0.614080 0.820673
0.024982 0.639320 0.784170
0.225492 0.694963 0.435052
0.403999 0.740522 0.203993
0.512766 0.765930 0.039479
0.563953 0.769860 0.002855
0.597240 0.769629 0.002721
0.625733 0.773912 0.020823
0.587102 0.771546 0.326784
0.549733 0.785492 0.750346
0.529944 0.809456 0.938800
0.564530 0.820089 0.947437
0.635550 0.810266 0.921799
0.720482 0.733251 0.674226
0.682620 0.653496 0.074300
0.487101 0.591280 0.058400
0.169329 0.471965 0.008565
0.169329 0.471965 0.008565
0.169329 0.471965 0.008565
0.169329 0.471965 0.008565
0.925490 0.901961 0.913725
0.922029 0.898433 0.910121
0.219860 0.163588 0.156851
0.128785 0.048501 0.022564
0.103863 0.173629 0.273797
0.074978 0.298297 0.522553
0.050687 0.379299 0.680105
0.004795 0.478896 0.879942
0.000000 0.490931 0.902161
0.000453 0.503972 0.907693
0.001194 0.543115 0.880307
0.000063 0.605794 0.824407
0.000000 0.609804 0.819608
0.006411 0.621958 0.816497
0.012198 0.652681 0.826567
0.076757 0.676363 0.740320
0.378588 0.764690 0.301215
0.483580 0.800310 0.124854
0.549168 0.806039 0.026624
0.591245 0.806683 0.002707
0.617241 0.805864 0.037625
0.612775 0.797600 0.192719
0.585592 0.772646 0.751127
0.608787 0.784612 0.897670
0.651466 0.821397 0.902452
0.611543 0.858236 0.963547
0.682647 0.837436 0.936674
0.763551 0.771222 0.892213
