calib/LUT LIBRARY/a_green_shady_beach_v1.cube
TITLE "a green shady beach v1.0"
#LUMIXPHOTOSTYLE STD
LUT_3D_SIZE 9
0.017012 0.029996 0.021295
0.119345 0.045053 0.024337
0.227416 0.068079 0.030878
0.318510 0.130813 0.053739
0.412387 0.174095 0.065044
0.639818 0.910329 0.001681
0.736585 0.942916 0.002848
0.663135 0.849053 0.890203
0.580904 0.747137 0.784157
0.024677 0.105227 0.018060
0.112423 0.124849 0.014787
0.221222 0.072405 0.031337
0.301092 0.115290 0.051370
0.383328 0.158784 0.068807
0.490718 0.363183 0.058013
0.686928 0.897709 0.002282
0.837658 0.952050 0.001106
0.800873 0.902906 0.010667
0.039477 0.213763 0.008422
0.106463 0.267601 0.002671
0.237149 0.240257 0.019426
0.303380 0.139935 0.049232
0.396596 0.169173 0.068990
0.441981 0.202402 0.071460
0.668897 0.895582 0.002113
0.823116 0.948559 0.001736
0.836632 0.950534 0.001892
0.083445 0.306480 0.002918
0.101318 0.349056 0.003599
0.234105 0.373800 0.001031
0.371630 0.374930 0.000900
0.436525 0.301657 0.021460
0.451240 0.206289 0.074982
0.694651 0.901547 0.002547
0.820884 0.945467 0.002495
0.836126 0.950920 0.001487
0.114296 0.454952 0.002242
0.114775 0.457188 0.002272
0.213800 0.495357 0.001982
0.370442 0.479521 0.002532
0.499539 0.511243 0.002992
0.593146 0.484571 0.003035
0.642434 0.721737 0.031599
0.412072 0.549297 0.030193
0.217953 0.346101 0.058786
0.028645 0.413187 0.600467
0.000693 0.400459 0.793767
0.062072 0.456533 0.583362
0.351433 0.619505 0.002748
0.476635 0.619496 0.074147
0.621997 0.606434 0.002610
0.630622 0.521446 0.002690
0.023858 0.203983 0.054464
0.017889 0.197268 0.057998
0.444936 0.648810 0.857802
0.001611 0.427636 0.819696
0.000000 0.491188 0.902231
0.000000 0.604445 0.808890
0.480257 0.737860 0.002202
0.551018 0.755092 0.277005
0.534345 0.810124 0.947371
0.382531 0.495046 0.072561
0.133917 0.391609 0.012207
0.925490 0.901961 0.913725
0.150113 0.049746 0.020684
0.247133 0.055052 0.031410
0.292204 0.190557 0.147866
0.616485 0.893173 0.001681
0.632546 0.886452 0.002460
0.737073 0.896053 0.152409
0.728130 0.924119 0.979950
0.871260 0.867400 0.907985
0.925490 0.901961 0.913725
0.150193 0.049739 0.020680
0.247176 0.055140 0.031432
0.332369 0.133832 0.056559
0.618563 0.894700 0.001681
0.634773 0.905878 0.002247
0.736355 0.934027 0.052549
0.715078 0.933551 0.989183
0.765764 0.926888 0.971907
0.012156 0.130204 0.149533
0.073666 0.057138 0.058036
0.210243 0.086359 0.061432
0.303904 0.117048 0.070319
0.390930 0.162752 0.070416
0.606616 0.817271 0.007336
0.732951 0.904626 0.002483
0.861724 0.913888 0.001791
0.643988 0.707683 0.047986
0.017012 0.029996 0.021295
0.141386 0.147006 0.136918
0.253982 0.148110 0.100373
0.351462 0.181909 0.082724
0.444974 0.220625 0.082954
0.467099 0.232883 0.086176
0.734437 0.904941 0.002505
0.004249 0.142258 0.126146
0.004380 0.141354 0.125345
0.003742 0.221662 0.131475
0.084701 0.238917 0.103258
0.250043 0.250064 0.101272
0.338560 0.175648 0.112661
0.409518 0.213547 0.107708
0.513726 0.278431 0.117647
0.615532 0.652759 0.048132
0.037743 0.223319 0.206298
0.002092 0.191526 0.215454
0.063730 0.341662 0.078989
0.086373 0.342388 0.072731
0.227050 0.380435 0.057052
0.371134 0.368906 0.060387
0.466279 0.306479 0.084607
0.517770 0.285490 0.101150
0.538750 0.372913 0.100036
0.037783 0.236108 0.211410
0.002205 0.204312 0.222461
0.146501 0.439789 0.016136
0.148564 0.441625 0.015116
0.203693 0.485884 0.004851
0.356366 0.499375 0.006019
0.508332 0.497018 0.009297
0.615552 0.483945 0.018958
0.568234 0.362371 0.052229
0.001943 0.191500 0.177254
0.001954 0.192510 0.182421
0.216491 0.515748 0.028004
0.199422 0.513071 0.036416
0.232341 0.540267 0.003400
0.338738 0.621618 0.001837
0.492885 0.620917 0.002061
0.620998 0.611651 0.001285
0.698467 0.570489 0.000343
0.001716 0.196198 0.127144
0.001676 0.195786 0.126816
0.830035 0.769967 0.015615
0.001620 0.428562 0.820796
0.000076 0.489365 0.900677
0.404930 0.711899 0.001827
0.461224 0.746173 0.001613
0.615160 0.737805 0.002795
0.721146 0.716954 0.000286
0.129715 0.386859 0.026951
0.100277 0.361985 0.027658
0.013355 0.153944 0.177526
0.095643 0.047437 0.041821
0.226739 0.072387 0.034301
0.338547 0.129064 0.058659
0.570665 0.799895 0.007270
0.626929 0.873226 0.001744
0.755642 0.878240 0.002694
0.510417 0.622376 0.343822
0.922259 0.901274 0.911895
0.013415 0.154155 0.177752
0.092011 0.050027 0.046085
0.226446 0.073879 0.035508
0.337721 0.129271 0.058655
0.564147 0.719654 0.017148
0.631632 0.880790 0.000899
0.763909 0.913916 0.002839
0.392728 0.492318 0.167531
0.009471 0.128809 0.149488
0.003216 0.198649 0.230360
0.079607 0.164957 0.200689
0.196529 0.102784 0.114475
0.312885 0.085952 0.143339
0.399469 0.101024 0.185151
0.477267 0.224174 0.155000
0.664348 0.887937 0.002162
0.823011 0.934375 0.001743
0.835864 0.943562 0.001923
0.002013 0.196129 0.196812
0.099789 0.170713 0.228301
0.188086 0.162755 0.172359
0.323932 0.193890 0.168586
0.413026 0.114857 0.202104
0.494748 0.215638 0.166447
0.702232 0.899045 0.001892
0.002231 0.209732 0.236817
0.002236 0.209261 0.236542
0.011786 0.163976 0.188527
0.006478 0.211645 0.245202
0.264430 0.264151 0.260695
0.391587 0.257123 0.211009
0.513970 0.330753 0.161918
0.613337 0.393280 0.146292
0.644496 0.488147 0.103542
0.001530 0.234422 0.207009
0.001533 0.232898 0.205539
0.001506 0.323614 0.300459
0.003063 0.364187 0.242373
0.213912 0.378762 0.221455
0.389864 0.394841 0.228801
0.473466 0.306111 0.223734
0.553479 0.328699 0.227203
0.734986 0.537873 0.163888
0.002285 0.284062 0.287543
0.002240 0.282995 0.287544
0.483991 0.621300 0.216791
0.012583 0.468596 0.223131
0.156427 0.491973 0.188866
0.362406 0.520109 0.182750
0.518111 0.515378 0.188330
0.635435 0.485611 0.185898
0.731077 0.538229 0.117426
0.002782 0.287190 0.281250
0.002647 0.287318 0.283360
0.830284 0.761016 0.037934
0.027431 0.483116 0.224153
0.206919 0.544743 0.172155
0.326599 0.604935 0.092286
0.486215 0.626074 0.090302
0.637364 0.630274 0.117897
0.741237 0.593490 0.131176
0.000517 0.260955 0.234322
0.000509 0.260942 0.234266
0.845136 0.788083 0.004150
0.840100 0.782942 0.009580
0.223415 0.547350 0.128399
0.363628 0.658848 0.005594
0.447604 0.740162 0.001578
0.610592 0.742025 0.003298
0.758527 0.736198 0.004353
0.838588 0.680252 0.204622
0.855519 0.672344 0.223776
0.880224 0.842587 0.003920
0.549779 0.632892 0.092542
0.228791 0.067210 0.116628
0.366370 0.088112 0.164785
0.610451 0.856066 0.001259
0.626899 0.865217 0.000994
0.744694 0.882192 0.002182
0.889212 0.922638 0.002242
0.873316 0.836146 0.003862
0.887783 0.866297 0.003300
0.394787 0.510261 0.132748
0.229470 0.067924 0.115926
0.363892 0.087415 0.163513
0.614687 0.852555 0.002904
0.631158 0.871006 0.000949
0.752165 0.914193 0.002535
0.889826 0.948951 0.001964
0.896410 0.938321 0.001964
0.283633 0.490109 0.221135
0.132161 0.362297 0.275495
0.181677 0.220946 0.285005
0.311848 0.111677 0.167495
0.403947 0.112603 0.197260
0.472978 0.161843 0.253617
0.599142 0.849928 0.003640
0.774578 0.900830 0.027133
0.788197 0.903143 0.029981
0.002031 0.266036 0.293193
0.071049 0.294081 0.337255
0.200220 0.234736 0.297925
0.291340 0.232389 0.247223
0.421473 0.158647 0.238935
0.476363 0.169552 0.260653
0.675280 0.465144 0.254634
0.285439 0.511862 0.233250
0.107250 0.376116 0.299444
0.003065 0.237093 0.268056
0.016897 0.291452 0.310102
0.208707 0.253869 0.349396
0.323231 0.300492 0.320010
0.440162 0.307046 0.339025
0.534265 0.272482 0.330266
0.746840 0.533571 0.241190
0.002097 0.312098 0.329145
0.002127 0.311084 0.328435
0.003437 0.218592 0.252202
0.001776 0.301618 0.345628
0.063035 0.304233 0.397268
0.424997 0.418047 0.420329
0.541134 0.382889 0.350986
0.678669 0.487206 0.273534
0.754709 0.535101 0.236203
0.335126 0.466707 0.273786
0.002296 0.338526 0.302778
0.002023 0.368058 0.374448
0.002625 0.492192 0.442659
0.001593 0.517064 0.373419
0.350329 0.528263 0.365695
0.544175 0.544422 0.382486
0.627066 0.461450 0.354338
0.748561 0.547423 0.267089
0.723771 0.625474 0.250516
0.418893 0.523182 0.301165
0.887998 0.754248 0.478129
0.522869 0.676511 0.351543
0.002439 0.553979 0.346807
0.274630 0.622480 0.312883
0.487961 0.642002 0.304321
0.646318 0.648142 0.310738
0.764148 0.603654 0.290885
0.858824 0.670588 0.227451
0.858824 0.670588 0.227451
0.913100 0.820767 0.314050
0.889010 0.817320 0.240549
0.000669 0.519348 0.320376
0.308826 0.646535 0.273288
0.444244 0.721405 0.148438
0.596762 0.746552 0.180034
0.760242 0.744711 0.220417
0.864446 0.715498 0.251607
0.860286 0.696778 0.238087
0.921955 0.867613 0.137780
0.909996 0.904858 0.055378
0.906949 0.900712 0.036059
0.424640 0.330230 0.107613
0.590327 0.848573 0.002844
0.603074 0.847982 0.011253
0.732252 0.874441 0.025612
0.891096 0.894622 0.042264
0.914760 0.859534 0.110877
0.914431 0.896131 0.089639
0.905959 0.962146 0.006957
0.904639 0.959409 0.004677
0.344099 0.089916 0.158017
0.591529 0.849268 0.002680
0.602883 0.849363 0.009200
0.736259 0.892962 0.022093
0.885182 0.956274 0.003844
0.904635 0.959479 0.004753
0.346748 0.572526 0.329082
0.361727 0.599163 0.376027
0.149536 0.273243 0.382410
0.303371 0.317490 0.393076
0.403456 0.121471 0.204695
0.593506 0.702946 0.136178
0.678269 0.885414 0.069568
0.748900 0.888071 0.209733
0.766944 0.892499 0.233272
0.002237 0.335611 0.408084
0.007514 0.376215 0.429312
0.136674 0.297199 0.403067
0.311937 0.331263 0.395692
0.419453 0.184355 0.256187
0.480548 0.180832 0.271195
0.607469 0.344712 0.376727
0.438894 0.659342 0.369211
0.272930 0.547789 0.408405
0.001816 0.378321 0.382093
0.005736 0.369564 0.398622
0.162816 0.288679 0.437549
0.347567 0.352801 0.401880
0.394858 0.347166 0.375863
0.534327 0.326558 0.386815
0.683035 0.449905 0.375993
0.002264 0.373544 0.452347
0.002382 0.372281 0.454537
0.001483 0.313323 0.359014
0.001282 0.365764 0.448352
0.108709 0.366511 0.458559
0.349018 0.389719 0.498789
0.497208 0.462327 0.489907
0.583347 0.437869 0.488355
0.723678 0.495556 0.387606
0.215139 0.483942 0.387204
0.001579 0.420485 0.416642
0.001438 0.311572 0.357249
0.003786 0.378311 0.473367
0.001765 0.429365 0.502766
0.158969 0.452928 0.554757
0.580162 0.574703 0.575638
0.669839 0.521271 0.494491
0.773526 0.598866 0.379145
0.895926 0.752747 0.359697
0.895438 0.752194 0.355917
0.001470 0.382397 0.469164
0.001960 0.439784 0.536649
0.004092 0.582398 0.554176
0.008181 0.641287 0.504088
0.483104 0.651924 0.495183
0.664269 0.670970 0.513033
0.751761 0.591208 0.459907
0.837439 0.647472 0.398268
0.832859 0.657453 0.397916
0.849673 0.644444 0.572549
0.908021 0.807964 0.740576
0.001871 0.599485 0.496864
0.009049 0.651451 0.467843
0.395454 0.719404 0.398652
0.605916 0.755013 0.416185
0.756054 0.754951 0.437401
0.861194 0.698003 0.378365
0.858773 0.688621 0.373648
0.923441 0.873149 0.646390
0.908039 0.901527 0.395078
0.908499 0.902809 0.372616
0.002370 0.629560 0.442947
0.569544 0.817308 0.226732
0.631328 0.852649 0.214232
0.722063 0.876371 0.284551
0.889202 0.891069 0.301912
0.874017 0.840104 0.336583
0.909485 0.891027 0.607665
0.925913 0.942466 0.351483
0.923055 0.944828 0.317781
0.002134 0.627883 0.440818
0.575917 0.818716 0.216156
0.634425 0.853018 0.199995
0.721000 0.889634 0.258644
0.889979 0.924731 0.257687
0.922934 0.954488 0.219632
0.791411 0.860239 0.476944
0.674192 0.805241 0.542082
0.041762 0.392477 0.468438
0.275264 0.342648 0.470430
0.496824 0.502852 0.368753
0.572013 0.578995 0.247442
0.651326 0.865517 0.377797
0.735178 0.891758 0.357864
0.750701 0.892329 0.373993
0.000231 0.379722 0.495532
0.002162 0.435938 0.505335
0.002756 0.440933 0.506254
0.292064 0.346246 0.462332
0.443472 0.242049 0.338291
0.475665 0.171195 0.266179
0.645980 0.576368 0.388108
0.773560 0.882144 0.463887
0.813960 0.897088 0.482497
0.002007 0.444477 0.460502
0.001937 0.439853 0.486884
0.043350 0.461083 0.536353
0.339280 0.365430 0.507276
0.446061 0.386373 0.474732
0.519450 0.360854 0.424308
0.680144 0.453968 0.388883
0.002116 0.412050 0.536301
0.002413 0.414006 0.537356
0.001926 0.376375 0.481637
0.003730 0.479484 0.484109
0.047317 0.405768 0.537372
0.266482 0.383762 0.568756
0.518965 0.486859 0.547788
0.572330 0.465872 0.530672
0.696499 0.496360 0.453581
0.819183 0.592481 0.449224
0.645869 0.568104 0.468778
0.003819 0.377868 0.473642
0.134625 0.501444 0.518434
0.001645 0.470387 0.580214
0.178611 0.470468 0.601973
0.492090 0.530866 0.631788
0.635438 0.613284 0.633478
0.728041 0.587265 0.570127
0.825406 0.602504 0.467461
0.831788 0.613973 0.472999
0.003727 0.372218 0.464317
0.001754 0.431505 0.514817
0.002610 0.477716 0.589282
0.004936 0.525010 0.645253
0.326826 0.570798 0.658223
0.709377 0.708510 0.707840
0.784363 0.683009 0.610245
0.881025 0.711152 0.510341
0.883207 0.715852 0.508002
0.000538 0.480963 0.527676
0.001636 0.518858 0.668187
0.000406 0.383502 0.708587
0.017971 0.628396 0.579765
0.116044 0.720602 0.598103
0.594525 0.760141 0.606676
0.774057 0.778590 0.631720
0.855178 0.660732 0.541496
0.860567 0.652010 0.533280
0.887178 0.831076 0.821952
0.928625 0.933702 0.855835
0.903626 0.921771 0.686155
0.000391 0.685889 0.572311
0.534070 0.826487 0.521466
0.615286 0.846281 0.461938
0.708356 0.868188 0.512488
0.876765 0.881121 0.535130
0.905749 0.862681 0.545717
0.900380 0.864612 0.859481
0.917542 0.928913 0.820688
0.899697 0.919790 0.658262
0.000620 0.683373 0.569866
0.553632 0.831298 0.513188
0.615852 0.846424 0.460920
0.703342 0.876077 0.484239
0.882467 0.916497 0.499211
0.914097 0.932896 0.487632
0.901733 0.920802 0.672818
0.910130 0.924180 0.717879
0.111194 0.462464 0.480985
0.054794 0.573143 0.565730
0.477012 0.719071 0.575315
0.508838 0.819666 0.605353
0.575734 0.836349 0.509852
0.748184 0.883323 0.579390
0.757599 0.885127 0.576246
0.000962 0.456555 0.576123
0.003885 0.500140 0.598267
0.004223 0.518828 0.614893
0.194486 0.408605 0.559683
0.402602 0.426327 0.581116
0.472210 0.502967 0.606949
0.579352 0.584115 0.482821
0.785839 0.888953 0.628954
0.804408 0.894866 0.643670
0.000362 0.496453 0.575212
0.001107 0.501200 0.601478
0.005614 0.533643 0.631931
0.171880 0.506315 0.635120
0.385177 0.416602 0.596415
0.489170 0.481165 0.599938
0.637691 0.516149 0.540506
0.001961 0.478432 0.605883
0.008006 0.480124 0.604753
0.000179 0.332601 0.602150
0.000312 0.412371 0.619329
0.005559 0.533822 0.616364
0.216658 0.580270 0.658966
0.460063 0.535292 0.679692
0.538626 0.542131 0.641925
0.668019 0.584754 0.609741
0.668729 0.585480 0.505718
0.558714 0.572679 0.528349
0.000426 0.445103 0.563303
0.001401 0.516495 0.634414
0.003798 0.389911 0.655689
0.058037 0.500922 0.669999
0.424791 0.522294 0.711684
0.590917 0.597428 0.685502
0.697968 0.652926 0.682938
0.835862 0.626240 0.517702
0.840184 0.628585 0.530998
0.639837 0.779015 0.571535
0.735486 0.821042 0.661086
0.001744 0.534562 0.621620
0.000313 0.564510 0.671038
0.353583 0.606936 0.701818
0.592222 0.641370 0.737385
0.757738 0.736860 0.757279
0.853945 0.685734 0.605141
0.849673 0.644444 0.572549
0.001675 0.433127 0.519067
0.118723 0.529928 0.602544
0.053836 0.286477 0.052149
0.103971 0.331913 0.027850
0.032547 0.625354 0.702630
0.380113 0.622785 0.744985
0.818924 0.813889 0.820072
0.892216 0.774368 0.691391
0.903693 0.744539 0.661829
0.000000 0.392122 0.697293
0.000616 0.410078 0.803078
0.001345 0.463117 0.864062
0.294163 0.118130 0.048638
0.173342 0.737292 0.696860
0.387211 0.804687 0.692937
0.676548 0.863465 0.700396
0.886261 0.887625 0.710179
0.909189 0.868536 0.710545
0.000000 0.345098 0.709804
0.009744 0.419031 0.806596
0.000568 0.481423 0.889215
0.309689 0.127627 0.052268
0.146398 0.722397 0.667221
0.356502 0.797917 0.688168
0.670666 0.862329 0.698288
0.872947 0.907688 0.688252
0.902571 0.921231 0.678716
0.020556 0.156851 0.012798
0.135925 0.050951 0.021274
0.271114 0.111833 0.044001
0.367551 0.156387 0.062485
0.288086 0.425642 0.337849
0.205027 0.762478 0.717789
0.512848 0.809299 0.734457
0.725748 0.876945 0.736609
0.742081 0.887193 0.739720
0.026168 0.428607 0.366050
0.073707 0.201268 0.008536
0.250500 0.164449 0.031951
0.421758 0.284300 0.018484
0.474445 0.260939 0.075779
0.217647 0.780392 0.719608
0.571585 0.845275 0.764805
0.767754 0.894527 0.779796
0.795167 0.901357 0.790234
0.003172 0.560180 0.648595
0.099508 0.355995 0.003882
0.200157 0.290749 0.002698
0.442010 0.372139 0.006298
0.529157 0.441673 0.002002
0.573873 0.472819 0.055896
0.589576 0.836939 0.719973
0.418945 0.739588 0.725130
0.377400 0.716546 0.723656
0.000000 0.345098 0.709804
0.015974 0.393443 0.682202
0.113844 0.465847 0.024245
0.248589 0.511396 0.293745
0.493630 0.463079 0.017146
0.560540 0.602007 0.597503
0.642860 0.672286 0.792101
0.132239 0.583636 0.633233
0.017503 0.529250 0.528594
0.000000 0.355513 0.706274
0.001777 0.417766 0.786099
0.001385 0.413354 0.781873
0.037757 0.457861 0.694312
0.385991 0.689780 0.624577
0.610942 0.609362 0.161710
0.684896 0.707927 0.808231
0.728922 0.732361 0.820481
0.223201 0.443054 0.696994
0.000000 0.552621 0.639328
0.100720 0.415035 0.003195
0.000842 0.412339 0.804209
0.001779 0.508862 0.915178
0.111168 0.613990 0.796415
0.497221 0.737621 0.701411
0.695547 0.747569 0.832519
0.832508 0.802490 0.842507
0.637185 0.709479 0.809810
0.087941 0.247500 0.053761
0.051460 0.241994 0.004520
0.100288 0.356348 0.003864
0.213861 0.502882 0.001716
0.003487 0.583868 0.818306
0.345158 0.690608 0.822527
0.648311 0.794445 0.890701
0.874067 0.863934 0.887676
0.883345 0.854220 0.865264
0.036494 0.279200 0.127083
0.059509 0.264493 0.001829
0.104295 0.329353 0.002875
0.215348 0.428480 0.002640
0.095031 0.661562 0.657006
0.322592 0.722715 0.798060
0.413957 0.777593 0.919021
0.868131 0.928360 0.924529
0.909269 0.884286 0.878698
0.024816 0.419469 0.362730
0.066667 0.275272 0.002116
0.103428 0.369208 0.003572
0.234432 0.463806 0.002634
0.146347 0.674433 0.671093
0.316046 0.726353 0.813538
0.506044 0.772573 0.912688
0.840960 0.915654 0.840947
0.929115 0.933924 0.857054
0.020059 0.158820 0.012454
0.135481 0.050946 0.021306
0.271220 0.111207 0.043986
0.368953 0.157462 0.062871
0.390569 0.261738 0.152962
0.212466 0.773027 0.718863
0.493910 0.807228 0.739605
0.729307 0.885938 0.754357
0.741773 0.887986 0.756325
0.044069 0.350905 0.189620
0.072651 0.202784 0.008418
0.247878 0.169338 0.031653
0.419413 0.277857 0.021089
0.473704 0.255989 0.077198
0.256994 0.756767 0.685474
0.542731 0.853633 0.770754
0.769451 0.897088 0.796800
0.789791 0.901618 0.802035
0.004507 0.558609 0.646547
0.099718 0.358605 0.003922
0.198147 0.291548 0.002644
0.440925 0.370487 0.006380
0.529798 0.442086 0.001993
0.593524 0.433627 0.013678
0.598754 0.824893 0.690447
0.533370 0.790268 0.760568
0.511564 0.775407 0.759536
0.000089 0.346767 0.710578
0.027738 0.404293 0.602380
0.117083 0.467954 0.002416
0.364568 0.424620 0.003922
0.498594 0.459460 0.002812
0.545717 0.541434 0.270495
0.677548 0.704762 0.802786
0.086925 0.488763 0.350377
0.044978 0.474775 0.332272
0.000000 0.345098 0.709804
0.001049 0.414582 0.805706
0.001273 0.417043 0.807927
0.092061 0.482064 0.536708
0.350782 0.632384 0.443292
0.616584 0.599222 0.002802
0.702734 0.724193 0.711949
0.359158 0.557572 0.797035
0.085894 0.417241 0.759311
0.000000 0.553661 0.642544
0.114321 0.455068 0.002243
0.001920 0.424371 0.814608
0.001859 0.505815 0.914537
0.093820 0.604399 0.816184
0.427578 0.727949 0.676209
0.620202 0.761991 0.824888
0.815836 0.823906 0.873660
0.630117 0.721857 0.836916
0.039749 0.214044 0.008365
0.059210 0.264297 0.001825
0.099053 0.387311 0.003525
0.176968 0.502066 0.210028
0.000606 0.608927 0.816680
0.264882 0.684652 0.862313
0.540518 0.813290 0.947450
0.867724 0.856017 0.884997
0.892374 0.872618 0.890799
0.043626 0.218054 0.007557
0.056128 0.256949 0.002648
0.115213 0.326092 0.002589
0.243416 0.421845 0.003433
0.128668 0.663700 0.673991
0.320115 0.726408 0.800385
0.426291 0.792401 0.927708
0.714848 0.928342 0.985653
0.912550 0.895467 0.909590
0.035938 0.303658 0.158091
0.060131 0.264899 0.001838
0.110432 0.346282 0.003219
0.231484 0.447547 0.002879
0.104846 0.681673 0.736281
0.358013 0.731293 0.803349
0.451065 0.785873 0.928236
0.731094 0.891871 0.945267
0.934518 0.984597 0.995425
