calib/LUT LIBRARY/astia_composed.cube
TITLE "Chromasmith composed - astia"
#STD_q(x) = VLOG_q(T(x)), T from astia/velvia/classic_neg matched pairs
LUT_3D_SIZE 9
0.029814 0.030576 0.032989
0.111137 0.035653 0.037100
0.274740 0.044663 0.018889
0.425846 0.081278 0.000407
0.554505 0.092081 0.000204
0.670184 0.082456 0.003991
0.772996 0.063706 0.029173
0.854401 0.059679 0.101609
0.984242 0.000170 0.313218
0.016664 0.089739 0.037359
0.132612 0.118005 0.013397
0.293220 0.140158 0.000173
0.427666 0.157997 0.000236
0.566682 0.176046 0.000114
0.683009 0.195231 0.000386
0.785801 0.194281 0.035633
0.900602 0.172266 0.153914
0.991090 0.115417 0.303324
0.000084 0.220737 0.026870
0.117662 0.257735 0.021736
0.313853 0.265239 0.000275
0.447403 0.291106 0.000200
0.570668 0.304028 0.000310
0.688119 0.326102 0.000091
0.791741 0.334888 0.018793
0.912832 0.303862 0.166583
0.999672 0.256167 0.304347
0.000062 0.396329 0.034346
0.093180 0.373157 0.000127
0.293137 0.389415 0.000220
0.444351 0.405294 0.000575
0.569696 0.427291 0.000146
0.685672 0.442045 0.000062
0.811413 0.448660 0.000279
0.932630 0.448434 0.128068
0.999404 0.346619 0.370347
0.000191 0.453190 0.000402
0.000157 0.511453 0.001418
0.281278 0.499350 0.000307
0.441583 0.523414 0.000073
0.573052 0.545547 0.000134
0.694326 0.555453 0.000192
0.805663 0.573951 0.000173
0.999306 0.525800 0.364965
0.999578 0.486641 0.333758
0.000028 0.572164 0.000106
0.001759 0.595862 0.000294
0.348156 0.601769 0.000221
0.440693 0.633309 0.000344
0.579403 0.646933 0.000308
0.701495 0.665072 0.000071
0.795025 0.678070 0.000113
0.999386 0.667863 0.207332
0.999499 0.646560 0.331188
0.000098 0.672292 0.000296
0.000047 0.687850 0.000402
0.000041 0.698033 0.000340
0.421640 0.730282 0.000200
0.579721 0.741679 0.000095
0.705405 0.758353 0.000072
0.797433 0.775525 0.000055
0.967220 0.786981 0.108326
0.999321 0.754152 0.316142
0.000107 0.788048 0.000363
0.000033 0.821837 0.000414
0.000076 0.801283 0.000319
0.495042 0.813038 0.000058
0.593577 0.847146 0.000097
0.690807 0.862865 0.000137
0.802644 0.873423 0.000126
0.967771 0.884210 0.098182
0.998193 0.903667 0.284797
0.000028 0.870844 0.000455
0.000063 0.891230 0.000855
0.000026 0.957646 0.000564
0.000017 0.990571 0.000359
0.673211 0.952607 0.000109
0.783393 0.928573 0.000127
0.836355 0.995441 0.000250
0.884234 0.999706 0.023987
0.988461 0.999526 0.127995
0.018747 0.030196 0.100649
0.108772 0.038296 0.092350
0.260550 0.045726 0.100701
0.421744 0.076061 0.084513
0.559295 0.092077 0.081847
0.665156 0.083573 0.112194
0.774968 0.069950 0.129945
0.892777 0.018761 0.248995
0.988065 0.000128 0.342109
0.020092 0.103355 0.106667
0.118272 0.117783 0.113813
0.268787 0.146514 0.103356
0.418470 0.156968 0.090435
0.554774 0.179890 0.086564
0.681847 0.188755 0.094762
0.786901 0.194252 0.159236
0.902958 0.161741 0.261850
0.999545 0.097813 0.394319
0.000220 0.214948 0.105670
0.108601 0.255369 0.117271
0.281104 0.267937 0.087607
0.421265 0.290394 0.072210
0.553817 0.302954 0.061776
0.675765 0.321478 0.103554
0.789665 0.325741 0.160638
0.921378 0.298737 0.256465
0.967790 0.301561 0.101210
0.000181 0.369988 0.084978
0.095480 0.369510 0.094471
0.275077 0.387988 0.043078
0.421568 0.404077 0.016624
0.560552 0.422620 0.036147
0.682853 0.437667 0.097860
0.787051 0.449668 0.155762
0.989696 0.422741 0.211421
0.999690 0.390580 0.453832
0.000219 0.422044 0.076101
0.000123 0.488514 0.100848
0.266360 0.507913 0.001809
0.418054 0.527539 0.000479
0.561420 0.543621 0.000340
0.681772 0.557262 0.059101
0.798282 0.559259 0.155794
0.999649 0.436711 0.505103
0.999590 0.474467 0.419623
0.000013 0.551794 0.030152
0.000158 0.627154 0.053970
0.252320 0.618419 0.000230
0.411138 0.641046 0.000135
0.555295 0.654355 0.000165
0.685423 0.666277 0.006300
0.775150 0.668568 0.141644
0.999681 0.622014 0.412601
0.999622 0.634806 0.350787
0.000134 0.656817 0.078831
0.000229 0.676556 0.005739
0.000089 0.719019 0.000342
0.411688 0.734697 0.000199
0.554359 0.758041 0.000080
0.683746 0.775759 0.000068
0.783102 0.774292 0.114844
0.902286 0.781775 0.169236
0.999380 0.745466 0.376712
0.000031 0.755320 0.045308
0.000144 0.795710 0.008635
0.000073 0.825387 0.000293
0.394241 0.840889 0.000093
0.568186 0.850065 0.000005
0.675806 0.874279 0.000039
0.791707 0.868453 0.059382
0.924530 0.876466 0.156909
0.999105 0.879101 0.400890
0.000016 0.881772 0.000530
0.000011 0.917754 0.000868
0.000064 0.969783 0.000426
0.330847 0.947696 0.000151
0.505562 0.999563 0.000207
0.477077 0.999587 0.000284
0.805856 0.999721 0.000308
0.913172 0.999765 0.175989
0.988699 0.998588 0.214215
0.002634 0.029766 0.210885
0.098941 0.036192 0.206289
0.251573 0.045217 0.222540
0.404414 0.062507 0.224724
0.542243 0.082217 0.236890
0.670903 0.078031 0.257394
0.779544 0.061257 0.288212
0.906796 0.035232 0.368701
0.988789 0.000152 0.490097
0.001907 0.092783 0.207351
0.112904 0.122093 0.232181
0.257915 0.141324 0.234860
0.405566 0.154031 0.241620
0.547355 0.172700 0.246056
0.678304 0.183661 0.260113
0.787555 0.185585 0.287375
0.889013 0.178309 0.369161
0.999700 0.034091 0.402206
0.000188 0.238203 0.239176
0.094692 0.250163 0.249073
0.264241 0.266333 0.260854
0.410524 0.280304 0.248895
0.546011 0.301327 0.246132
0.669923 0.317617 0.253809
0.788685 0.321931 0.298041
0.997312 0.165737 0.456830
0.999762 0.278550 0.436237
0.000285 0.359303 0.253393
0.068215 0.362791 0.245741
0.257780 0.387077 0.262601
0.403365 0.404461 0.248409
0.550203 0.416698 0.241867
0.677551 0.434185 0.249235
0.764630 0.449701 0.267801
0.999717 0.295116 0.548725
0.999483 0.351850 0.439990
0.000201 0.460212 0.246262
0.000250 0.495317 0.239754
0.253930 0.499682 0.238047
0.406441 0.516381 0.265306
0.552310 0.532028 0.266838
0.680756 0.549984 0.246392
0.763352 0.577288 0.264932
0.999738 0.477508 0.504477
0.999647 0.502568 0.468979
0.000292 0.561026 0.224783
0.000539 0.584403 0.223612
0.220477 0.610246 0.239409
0.406376 0.629024 0.234543
0.553318 0.643367 0.230613
0.683871 0.657646 0.239476
0.776343 0.664481 0.272672
0.999623 0.596511 0.518235
0.999560 0.648630 0.433103
0.000196 0.648414 0.216307
0.000125 0.665630 0.205579
0.002042 0.700756 0.244554
0.404162 0.727771 0.191678
0.547671 0.748907 0.209970
0.677717 0.766637 0.212605
0.795506 0.768773 0.242841
0.931499 0.775247 0.337306
0.999504 0.760353 0.483870
0.000110 0.755123 0.215142
0.000123 0.782227 0.202132
0.000115 0.795521 0.392100
0.435743 0.806483 0.232953
0.579891 0.819819 0.120829
0.699314 0.822757 0.155079
0.787912 0.866422 0.170412
0.908773 0.889967 0.211402
0.998956 0.890127 0.449418
0.000021 0.865342 0.204616
0.000009 0.909306 0.001711
0.000855 0.986636 0.216724
0.000000 1.000000 0.000290
0.295335 0.999860 0.000195
0.509905 0.999859 0.000322
0.779007 0.999600 0.000171
0.941650 0.999744 0.187168
0.987691 0.999653 0.190993
0.006237 0.036602 0.319132
0.088821 0.019546 0.336440
0.217645 0.043731 0.358537
0.375204 0.045404 0.370322
0.519426 0.051750 0.377539
0.664337 0.074864 0.393141
0.778288 0.055643 0.420871
0.890047 0.041441 0.434812
0.997460 0.000091 0.522570
0.000997 0.100291 0.335010
0.118990 0.136187 0.361675
0.240918 0.138312 0.386197
0.384248 0.150622 0.394873
0.534475 0.171123 0.382052
0.671405 0.178488 0.393676
0.787485 0.185232 0.406675
0.920424 0.161607 0.457348
0.999838 0.055113 0.548243
0.000298 0.232602 0.381764
0.048101 0.240075 0.372881
0.251930 0.265471 0.390052
0.396270 0.277917 0.390146
0.532145 0.296052 0.387371
0.668845 0.313836 0.389912
0.776414 0.328262 0.413094
0.925499 0.356130 0.382536
0.999544 0.265212 0.537574
0.000439 0.336267 0.367091
0.001802 0.355239 0.372212
0.233344 0.390357 0.389833
0.389775 0.399080 0.380880
0.534653 0.412795 0.385184
0.670178 0.431876 0.388439
0.729970 0.456282 0.387233
0.999340 0.418479 0.554688
0.999777 0.381878 0.576887
0.000269 0.437077 0.362824
0.000130 0.500973 0.374723
0.233053 0.501861 0.375795
0.393815 0.516759 0.376284
0.541771 0.532944 0.376871
0.674323 0.546128 0.384237
0.775216 0.564101 0.398119
0.999571 0.510462 0.568371
0.999618 0.499674 0.519789
0.000263 0.540340 0.346114
0.000189 0.577284 0.387762
0.224069 0.606342 0.368196
0.389539 0.626558 0.370164
0.547251 0.639477 0.366096
0.676206 0.656392 0.376360
0.761637 0.662460 0.393472
0.999497 0.619318 0.530117
0.999588 0.628907 0.547755
0.000173 0.653779 0.377552
0.000147 0.681849 0.402786
0.000402 0.696803 0.395818
0.388577 0.728029 0.357342
0.542438 0.743445 0.345863
0.672609 0.761381 0.350996
0.782291 0.772391 0.377165
0.913390 0.777966 0.425868
0.999661 0.752244 0.502726
0.000120 0.760164 0.357612
0.000036 0.791515 0.390764
0.000385 0.760000 0.379505
0.399304 0.813864 0.277266
0.566098 0.821125 0.334566
0.683805 0.834157 0.343118
0.790005 0.864879 0.372099
0.883048 0.882717 0.368593
0.999366 0.883041 0.546402
0.000134 0.874585 0.368785
0.000168 0.804160 0.437675
0.000061 0.955263 0.389604
0.000085 0.999784 0.332408
0.250779 0.999788 0.174188
0.490917 0.999739 0.055735
0.675961 0.999547 0.109506
0.915875 0.999757 0.312631
0.989731 0.999675 0.384538
0.004080 0.021478 0.475484
0.074296 0.030440 0.458370
0.199105 0.006546 0.481226
0.351493 0.026221 0.494357
0.511179 0.049912 0.498070
0.661991 0.052532 0.504507
0.779690 0.062076 0.526182
0.904555 0.025681 0.570371
0.999828 0.000143 0.661471
0.001323 0.096020 0.452926
0.084584 0.117316 0.485021
0.215662 0.134897 0.505728
0.371652 0.148546 0.514914
0.519731 0.173614 0.509068
0.666439 0.176075 0.510549
0.791016 0.176995 0.521680
0.879698 0.158340 0.549142
0.999886 0.018391 0.657259
0.000273 0.230130 0.502104
0.004440 0.231106 0.497672
0.232584 0.267221 0.509184
0.375696 0.272476 0.515739
0.521874 0.289466 0.514266
0.664616 0.306015 0.514667
0.751509 0.354396 0.514571
0.999603 0.250367 0.660249
0.999752 0.197841 0.621484
0.000157 0.360780 0.464169
0.000259 0.357429 0.508222
0.220527 0.385670 0.512196
0.376321 0.395207 0.516320
0.523710 0.412569 0.513983
0.665804 0.427201 0.516183
0.785777 0.438491 0.522802
0.999815 0.320900 0.621043
0.999566 0.381506 0.591119
0.000262 0.449171 0.504540
0.000129 0.467416 0.511164
0.208223 0.503049 0.515074
0.382083 0.513103 0.515831
0.528873 0.529506 0.511563
0.662784 0.545109 0.515611
0.745162 0.565605 0.521945
0.999810 0.470431 0.663099
0.999639 0.535853 0.602455
0.000236 0.529977 0.470401
0.000118 0.581974 0.521400
0.176812 0.609819 0.503683
0.370979 0.624713 0.512376
0.535290 0.637912 0.510150
0.666062 0.655210 0.510464
0.769216 0.670821 0.522355
0.999750 0.604116 0.628236
0.999769 0.599201 0.627911
0.000111 0.664436 0.522573
0.000215 0.680090 0.539905
0.000302 0.707655 0.541292
0.371108 0.727242 0.511137
0.531650 0.740651 0.494574
0.663500 0.757784 0.494629
0.780733 0.768669 0.509711
0.980629 0.773697 0.555969
0.999383 0.758312 0.581800
0.000272 0.762744 0.512387
0.000154 0.802116 0.555863
0.356354 0.765780 0.468423
0.420449 0.805786 0.410708
0.545008 0.831734 0.466410
0.681724 0.833921 0.479056
0.788184 0.882832 0.460291
0.844816 0.889989 0.511773
0.999433 0.876999 0.613805
0.000112 0.873241 0.510853
0.000135 0.879585 0.498303
0.077783 0.922822 0.492962
0.017316 0.999738 0.511260
0.027132 0.999714 0.463260
0.505557 0.999809 0.113774
0.730314 0.999384 0.361261
0.856617 0.999770 0.407992
0.990209 0.999651 0.546416
0.004257 0.046132 0.658351
0.059092 0.008590 0.583694
0.169964 0.000218 0.615144
0.337033 0.013632 0.613322
0.499056 0.042230 0.620485
0.656910 0.068154 0.612874
0.778869 0.061773 0.628262
0.914592 0.044541 0.649599
0.999866 0.000119 0.740800
0.001876 0.089634 0.580924
0.067015 0.108316 0.589621
0.192268 0.135227 0.617101
0.357507 0.151608 0.627849
0.505921 0.172261 0.629007
0.657884 0.175493 0.627083
0.783434 0.173797 0.634713
0.938885 0.138485 0.658995
0.999780 0.113191 0.704564
0.000247 0.231849 0.591880
0.000301 0.228726 0.616894
0.212038 0.267308 0.638992
0.354804 0.267304 0.646405
0.508505 0.284710 0.640604
0.653702 0.300162 0.633625
0.770650 0.327427 0.627380
0.999953 0.178487 0.694540
0.999446 0.254420 0.684436
0.000377 0.364579 0.582418
0.000347 0.365850 0.649136
0.214616 0.384220 0.646330
0.358378 0.392526 0.645587
0.510097 0.407544 0.643553
0.657395 0.423771 0.638302
0.745594 0.453468 0.628535
0.999912 0.291278 0.675488
0.999483 0.432746 0.663171
0.000336 0.462467 0.633142
0.000351 0.469139 0.649866
0.203911 0.502874 0.647459
0.362006 0.514104 0.646578
0.514035 0.525781 0.644832
0.651581 0.543347 0.639406
0.752976 0.559374 0.635869
0.999715 0.499343 0.655836
0.999770 0.506504 0.677701
0.000372 0.573245 0.655700
0.000280 0.580460 0.654939
0.117432 0.615773 0.644026
0.351220 0.624812 0.649764
0.519640 0.633438 0.640714
0.654060 0.651649 0.633507
0.749840 0.668663 0.628398
0.999732 0.628278 0.693031
0.999756 0.649382 0.631054
0.000284 0.651448 0.640219
0.000339 0.682801 0.684236
0.177320 0.714747 0.615493
0.345364 0.725443 0.646156
0.510740 0.742118 0.627817
0.649190 0.754278 0.628492
0.778863 0.765919 0.626494
0.902078 0.779852 0.638716
0.999663 0.756905 0.646386
0.000404 0.772221 0.672624
0.000264 0.790962 0.657213
0.037638 0.815901 0.677948
0.291041 0.798204 0.587765
0.525423 0.813318 0.614308
0.675393 0.826960 0.602445
0.775660 0.873706 0.603803
0.832377 0.886916 0.632609
0.999347 0.888239 0.638084
0.000316 0.886409 0.664193
0.000331 0.909255 0.674223
0.000443 0.949494 0.686690
0.000016 0.999959 0.692652
0.034550 0.999789 0.628344
0.562472 0.999704 0.409725
0.744219 0.999703 0.550106
0.862324 0.999626 0.539174
0.992471 0.997578 0.686737
0.002817 0.071138 0.771435
0.039242 0.005199 0.654665
0.147208 0.000200 0.739525
0.318369 0.000784 0.737012
0.486184 0.021781 0.749919
0.638625 0.021641 0.747937
0.771219 0.043948 0.735200
0.899331 0.038247 0.748642
0.999870 0.000120 0.832717
0.002072 0.089432 0.672510
0.027574 0.066958 0.695732
0.179118 0.140424 0.744030
0.328670 0.159851 0.751385
0.488704 0.177011 0.747202
0.643703 0.175422 0.738385
0.775742 0.177320 0.710400
0.975304 0.105171 0.767863
0.999641 0.130472 0.772216
0.000373 0.236796 0.747524
0.000500 0.233533 0.755254
0.206542 0.253060 0.729653
0.377561 0.266006 0.752225
0.491361 0.287604 0.721427
0.643446 0.302621 0.705933
0.757082 0.330775 0.732134
0.999694 0.323086 0.753556
0.999697 0.193771 0.778482
0.000603 0.345817 0.760421
0.000311 0.344974 0.746579
0.214267 0.388869 0.762676
0.339060 0.389993 0.741352
0.495152 0.408890 0.732213
0.645665 0.423697 0.746136
0.761787 0.433097 0.742452
0.999640 0.334447 0.749506
0.999819 0.388487 0.755877
0.000686 0.483413 0.757751
0.000254 0.462094 0.761084
0.207708 0.500382 0.761434
0.347790 0.519124 0.755744
0.496126 0.526665 0.761063
0.638454 0.541966 0.752180
0.744878 0.560897 0.746748
0.999489 0.572276 0.742116
0.999470 0.495422 0.753690
0.000246 0.567465 0.776850
0.000179 0.564825 0.755062
0.111018 0.610635 0.771713
0.331304 0.626955 0.759739
0.503697 0.639491 0.764248
0.642156 0.651506 0.757287
0.762672 0.662989 0.745782
0.999622 0.618189 0.762480
0.999666 0.655223 0.740084
0.000293 0.653274 0.769118
0.000245 0.679713 0.785907
0.060005 0.722866 0.770978
0.415626 0.720736 0.749297
0.492200 0.737149 0.754707
0.630875 0.748261 0.755631
0.763033 0.758036 0.746054
0.835718 0.780368 0.743838
0.999746 0.771389 0.756223
0.000294 0.771644 0.804582
0.000302 0.792846 0.808862
0.000251 0.817222 0.822175
0.366401 0.802149 0.709524
0.606794 0.731732 0.734211
0.691001 0.799026 0.764311
0.759406 0.872407 0.742244
0.840411 0.887592 0.739962
0.999001 0.885170 0.770066
0.000089 0.878335 0.793411
0.000302 0.919494 0.809990
0.000196 0.905405 0.795676
0.128883 0.977754 0.783774
0.131375 0.999018 0.762578
0.671850 0.997294 0.658346
0.772132 0.995831 0.718153
0.881697 0.999674 0.682048
0.992773 0.999713 0.720319
0.004556 0.046900 0.763243
0.008795 0.003327 0.781446
0.126667 0.000181 0.849657
0.294768 0.002462 0.856367
0.470175 0.005990 0.870426
0.617832 0.009275 0.855981
0.756285 0.034949 0.844825
0.868303 0.089714 0.834779
0.999826 0.002239 0.877917
0.002644 0.090859 0.842263
0.001918 0.107167 0.852046
0.137107 0.153772 0.827438
0.282110 0.182925 0.830501
0.526752 0.163706 0.823933
0.672192 0.167597 0.820880
0.774344 0.209900 0.813098
0.990734 0.068456 0.869870
0.999691 0.125566 0.821297
0.000453 0.227789 0.872805
0.000474 0.240581 0.886960
0.091782 0.270370 0.847404
0.379027 0.268667 0.807398
0.508227 0.323227 0.829023
0.666963 0.303150 0.812318
0.722364 0.398582 0.826426
0.999968 0.181961 0.826376
0.999705 0.162954 0.876904
0.000233 0.371296 0.893708
0.000337 0.346270 0.868098
0.102661 0.416855 0.870969
0.375647 0.382441 0.817264
0.534566 0.378850 0.812966
0.646811 0.448286 0.821148
0.832203 0.422955 0.822633
0.999691 0.357513 0.836371
0.999800 0.353950 0.874426
0.000617 0.460217 0.855583
0.000414 0.460803 0.859807
0.031101 0.535945 0.882695
0.348263 0.517983 0.837349
0.492400 0.543797 0.846439
0.650321 0.564883 0.824307
0.746912 0.565097 0.845081
0.999694 0.446642 0.868029
0.999629 0.497128 0.851065
0.000226 0.558211 0.852674
0.000322 0.580897 0.866975
0.136759 0.620655 0.874485
0.352869 0.613364 0.861399
0.491095 0.651572 0.861387
0.645048 0.667259 0.854259
0.773769 0.675030 0.847909
0.999900 0.619837 0.906038
0.999683 0.647023 0.851393
0.000326 0.672846 0.859791
0.000411 0.692363 0.872848
0.004499 0.752086 0.917665
0.365043 0.720303 0.806481
0.507455 0.733068 0.836911
0.621632 0.765117 0.866498
0.771440 0.774715 0.863019
0.863638 0.776021 0.869871
0.999728 0.770170 0.852637
0.000528 0.756944 0.911675
0.000316 0.778398 0.909241
0.000438 0.821607 0.899747
0.212249 0.823908 0.887262
0.472153 0.827802 0.878174
0.605204 0.855903 0.888366
0.740906 0.872659 0.885154
0.851282 0.886453 0.864914
0.999661 0.868261 0.865543
0.000429 0.870761 0.941447
0.000322 0.841995 0.996576
0.029239 0.918705 0.920925
0.000328 0.922317 0.999757
0.786190 0.926809 0.881951
0.641765 0.993495 0.842615
0.700414 0.999798 0.803416
0.888006 0.998790 0.842158
0.994953 0.989958 0.855672
0.007938 0.012147 0.896079
0.006975 0.020874 0.927033
0.248266 0.000101 0.902157
0.198650 0.013155 0.987955
0.512525 0.022751 0.999492
0.614009 0.052045 0.999680
0.756136 0.091614 0.994832
0.952516 0.052399 0.854203
0.999946 0.063806 0.880245
0.000571 0.151880 0.886136
0.000607 0.150632 0.966663
0.193364 0.086032 0.998250
0.247670 0.167670 0.999921
0.541177 0.109570 0.999695
0.675901 0.164703 0.999569
0.762047 0.219588 0.999460
0.945636 0.082992 0.985794
0.999754 0.234250 0.941553
0.000670 0.166733 0.999533
0.000550 0.243877 0.999753
0.138665 0.228297 0.984484
0.192042 0.257447 0.999917
0.436965 0.355628 0.999638
0.779697 0.034751 0.999654
0.744464 0.395173 0.998948
0.920038 0.321390 0.999407
0.999910 0.265916 0.948411
0.000536 0.379905 0.988861
0.000406 0.395694 0.965908
0.012866 0.398256 0.999863
0.106471 0.266579 0.999935
0.352461 0.127990 0.999905
0.610580 0.417660 0.999576
0.806843 0.453405 0.999458
0.999739 0.388783 0.999214
0.999858 0.444510 0.930959
0.000471 0.548766 0.995784
0.000450 0.569183 0.999859
0.060218 0.466367 0.999784
0.215711 0.492172 0.999935
0.409385 0.350116 0.999740
0.634176 0.486974 0.999757
0.683268 0.576808 0.999559
0.997742 0.480160 0.999573
0.999650 0.577498 0.929467
0.000458 0.570784 0.999859
0.006139 0.122626 0.998925
0.125754 0.624418 0.994068
0.317196 0.518048 0.999650
0.417809 0.659579 0.999771
0.593702 0.681252 0.999718
0.754404 0.664331 0.999611
0.891570 0.695485 0.999434
0.999686 0.641457 0.993976
0.000318 0.701694 0.973457
0.000303 0.787137 0.999955
0.000407 0.713237 0.999817
0.158920 0.729557 0.999826
0.367276 0.753505 0.999676
0.576727 0.755725 0.999788
0.742833 0.725155 0.999639
0.881501 0.759962 0.999445
0.999771 0.738325 0.999332
0.000287 0.810373 0.999990
0.000402 0.720132 0.999856
0.000573 0.800212 0.999936
0.191714 0.796816 0.999946
0.390087 0.806527 0.999861
0.558471 0.846115 0.999721
0.710086 0.846026 0.998787
0.855099 0.844700 0.999779
0.997168 0.871528 0.961031
0.000154 0.998083 0.739870
0.000343 0.814460 0.999850
0.000526 0.874697 0.999855
0.232787 0.871330 0.999774
0.434389 0.905798 0.999833
0.582037 0.926830 0.999752
0.758366 0.941488 0.999635
0.873775 0.987902 0.999273
0.989290 0.994984 0.979268
