calib/LUT LIBRARY/astia_composed.cube
TITLE "Chromasmith composed - astia"
#STD_q(x) = VLOG_q(T(x)), T from astia/velvia/classic_neg matched pairs
LUT_3D_SIZE 5
0.029814 0.030576 0.032989
0.274740 0.044663 0.018889
0.554505 0.092081 0.000204
0.772996 0.063706 0.029173
0.984242 0.000170 0.313218
0.000084 0.220737 0.026870
0.313853 0.265239 0.000275
0.570668 0.304028 0.000310
0.791741 0.334888 0.018793
0.999672 0.256167 0.304347
0.000191 0.453190 0.000402
0.281278 0.499350 0.000307
0.573052 0.545547 0.000134
0.805663 0.573951 0.000173
0.999578 0.486641 0.333758
0.000098 0.672292 0.000296
0.000041 0.698033 0.000340
0.579721 0.741679 0.000095
0.797433 0.775525 0.000055
0.999321 0.754152 0.316142
0.000028 0.870844 0.000455
0.000026 0.957646 0.000564
0.673211 0.952607 0.000109
0.836355 0.995441 0.000250
0.988461 0.999526 0.127995
0.002634 0.029766 0.210885
0.251573 0.045217 0.222540
0.542243 0.082217 0.236890
0.779544 0.061257 0.288212
0.988789 0.000152 0.490097
0.000188 0.238203 0.239176
0.264241 0.266333 0.260854
0.546011 0.301327 0.246132
0.788685 0.321931 0.298041
0.999762 0.278550 0.436237
0.000201 0.460212 0.246262
0.253930 0.499682 0.238047
0.552310 0.532028 0.266838
0.763352 0.577288 0.264932
0.999647 0.502568 0.468979
0.000196 0.648414 0.216307
0.002042 0.700756 0.244554
0.547671 0.748907 0.209970
0.795506 0.768773 0.242841
0.999504 0.760353 0.483870
0.000021 0.865342 0.204616
0.000855 0.986636 0.216724
0.295335 0.999860 0.000195
0.779007 0.999600 0.000171
0.987691 0.999653 0.190993
0.004080 0.021478 0.475484
0.199105 0.006546 0.481226
0.511179 0.049912 0.498070
0.779690 0.062076 0.526182
0.999828 0.000143 0.661471
0.000273 0.230130 0.502104
0.232584 0.267221 0.509184
0.521874 0.289466 0.514266
0.751509 0.354396 0.514571
0.999752 0.197841 0.621484
0.000262 0.449171 0.504540
0.208223 0.503049 0.515074
0.528873 0.529506 0.511563
0.745162 0.565605 0.521945
0.999639 0.535853 0.602455
0.000111 0.664436 0.522573
0.000302 0.707655 0.541292
0.531650 0.740651 0.494574
0.780733 0.768669 0.509711
0.999383 0.758312 0.581800
0.000112 0.873241 0.510853
0.077783 0.922822 0.492962
0.027132 0.999714 0.463260
0.730314 0.999384 0.361261
0.990209 0.999651 0.546416
0.002817 0.071138 0.771435
0.147208 0.000200 0.739525
0.486184 0.021781 0.749919
0.771219 0.043948 0.735200
0.999870 0.000120 0.832717
0.000373 0.236796 0.747524
0.206542 0.253060 0.729653
0.491361 0.287604 0.721427
0.757082 0.330775 0.732134
0.999697 0.193771 0.778482
0.000686 0.483413 0.757751
0.207708 0.500382 0.761434
0.496126 0.526665 0.761063
0.744878 0.560897 0.746748
0.999470 0.495422 0.753690
0.000293 0.653274 0.769118
0.060005 0.722866 0.770978
0.492200 0.737149 0.754707
0.763033 0.758036 0.746054
0.999746 0.771389 0.756223
0.000089 0.878335 0.793411
0.000196 0.905405 0.795676
0.131375 0.999018 0.762578
0.772132 0.995831 0.718153
0.992773 0.999713 0.720319
0.007938 0.012147 0.896079
0.248266 0.000101 0.902157
0.512525 0.022751 0.999492
0.756136 0.091614 0.994832
0.999946 0.063806 0.880245
0.000670 0.166733 0.999533
0.138665 0.228297 0.984484
0.436965 0.355628 0.999638
0.744464 0.395173 0.998948
0.999910 0.265916 0.948411
0.000471 0.548766 0.995784
0.060218 0.466367 0.999784
0.409385 0.350116 0.999740
0.683268 0.576808 0.999559
0.999650 0.577498 0.929467
0.000318 0.701694 0.973457
0.000407 0.713237 0.999817
0.367276 0.753505 0.999676
0.742833 0.725155 0.999639
0.999771 0.738325 0.999332
0.000154 0.998083 0.739870
0.000526 0.874697 0.999855
0.434389 0.905798 0.999833
0.758366 0.941488 0.999635
0.989290 0.994984 0.979268
