calib/LUT LIBRARY/astia_composed.cube
TITLE "Chromasmith composed - astia"
#STD_q(x) = VLOG_q(T(x)), T from astia/velvia/classic_neg matched pairs
LUT_3D_SIZE 33
0.029814 0.030576 0.032989
0.044269 0.031374 0.027336
0.057388 0.031756 0.034470
0.086476 0.038490 0.025555
0.111137 0.035653 0.037100
0.153382 0.047861 0.021578
0.202102 0.045500 0.014133
0.244085 0.058423 0.008202
0.274740 0.044663 0.018889
0.331635 0.080124 0.000172
0.355232 0.053767 0.030404
0.380195 0.062922 0.001270
0.425846 0.081278 0.000407
0.459762 0.093968 0.000537
0.492570 0.056528 0.009613
0.513356 0.074181 0.000652
0.554505 0.092081 0.000204
0.594179 0.082334 0.002367
0.610063 0.078582 0.003711
0.637555 0.075038 0.003173
0.670184 0.082456 0.003991
0.698526 0.081278 0.004873
0.721953 0.071667 0.023088
0.744428 0.067027 0.022861
0.772996 0.063706 0.029173
0.804046 0.062718 0.046301
0.821465 0.047249 0.067714
0.833399 0.060457 0.085969
0.854401 0.059679 0.101609
0.887687 0.046498 0.115985
0.941797 0.037905 0.181035
0.978106 0.076748 0.172988
0.984242 0.000170 0.313218
0.030962 0.039626 0.034123
0.042560 0.044241 0.033423
0.058038 0.046127 0.031291
0.086216 0.051818 0.034380
0.115665 0.059431 0.019702
0.153398 0.065387 0.026930
0.198463 0.074037 0.002970
0.234595 0.075545 0.014012
0.267681 0.083310 0.000725
0.326867 0.092362 0.000482
0.347021 0.081949 0.007820
0.391780 0.092618 0.000251
0.427673 0.100748 0.000332
0.458130 0.090395 0.008989
0.487848 0.086878 0.000421
0.520667 0.101736 0.000105
0.558764 0.110486 0.000277
0.585333 0.095455 0.015531
0.608129 0.105338 0.000566
0.640071 0.112369 0.001389
0.667918 0.111457 0.002807
0.698046 0.105237 0.014448
0.720004 0.100818 0.014193
0.747844 0.105776 0.010817
0.776808 0.105106 0.020265
0.797959 0.096734 0.034466
0.828995 0.075498 0.092249
0.857487 0.074170 0.107675
0.889652 0.071784 0.100839
0.914301 0.061154 0.132768
0.966802 0.068933 0.170407
0.991877 0.025399 0.248539
0.988875 0.042812 0.221187
0.033209 0.053091 0.037122
0.045376 0.055932 0.036826
0.062617 0.060564 0.037510
0.089497 0.068197 0.029916
0.126289 0.076832 0.018707
0.155047 0.075717 0.019076
0.197372 0.087660 0.002946
0.244438 0.085914 0.007639
0.282604 0.103616 0.000163
0.317224 0.103359 0.003229
0.348574 0.104209 0.000248
0.398660 0.111281 0.000200
0.432973 0.110697 0.000245
0.457820 0.102275 0.002649
0.492606 0.112139 0.000058
0.536452 0.125385 0.000164
0.560019 0.123507 0.002748
0.583921 0.126630 0.000340
0.619556 0.133362 0.000358
0.651001 0.132690 0.001289
0.678136 0.131703 0.018635
0.704279 0.134654 0.002808
0.725962 0.140844 0.002300
0.748203 0.142956 0.003035
0.775631 0.132616 0.030371
0.803050 0.121091 0.066786
0.830860 0.123183 0.064483
0.862864 0.113236 0.087015
0.895967 0.102513 0.137411
0.939864 0.079592 0.168231
0.987352 0.059094 0.193745
0.984774 0.061396 0.217951
0.990668 0.056577 0.251514
0.024671 0.069286 0.035658
0.051590 0.077268 0.035502
0.071445 0.082758 0.030826
0.095603 0.092083 0.023364
0.128049 0.096602 0.012861
0.163426 0.101882 0.003058
0.202998 0.105288 0.013313
0.236200 0.112238 0.000184
0.290168 0.119351 0.000169
0.322139 0.109029 0.005487
0.369032 0.127120 0.000211
0.397744 0.132965 0.000231
0.427473 0.133705 0.000204
0.455193 0.136160 0.000023
0.514374 0.139370 0.000082
0.532138 0.144708 0.000187
0.558805 0.144513 0.001553
0.591350 0.150987 0.000110
0.618429 0.155918 0.000127
0.652656 0.157149 0.001925
0.683516 0.154694 0.005947
0.705971 0.162846 0.001716
0.730437 0.165614 0.004885
0.755735 0.166887 0.023865
0.783626 0.160019 0.048987
0.804971 0.162779 0.050515
0.831601 0.159418 0.052452
0.868247 0.145197 0.130034
0.900193 0.131439 0.162219
0.933628 0.119715 0.152984
0.970422 0.100552 0.171288
0.981638 0.080640 0.226967
0.991698 0.067245 0.307038
0.016664 0.089739 0.037359
0.049524 0.095236 0.030701
0.063970 0.110600 0.017014
0.099418 0.115507 0.010382
0.132612 0.118005 0.013397
0.166577 0.129451 0.000210
0.204734 0.130348 0.008410
0.255114 0.137933 0.000125
0.293220 0.140158 0.000173
0.321209 0.147469 0.000183
0.381511 0.150472 0.000098
0.398320 0.154857 0.000153
0.427666 0.157997 0.000236
0.474040 0.164567 0.000053
0.509618 0.167905 0.000097
0.537325 0.171597 0.000189
0.566682 0.176046 0.000114
0.594937 0.180676 0.000115
0.620836 0.184524 0.000175
0.654411 0.187943 0.000219
0.683009 0.195231 0.000386
0.704845 0.193679 0.002069
0.730220 0.191857 0.008406
0.756108 0.192059 0.032406
0.785801 0.194281 0.035633
0.809526 0.196867 0.044585
0.832730 0.193299 0.071214
0.868220 0.176327 0.134316
0.900602 0.172266 0.153914
0.927080 0.156775 0.193840
0.956837 0.136868 0.199492
0.972404 0.115752 0.253255
0.991090 0.115417 0.303324
0.017684 0.121871 0.016457
0.049562 0.129397 0.023243
0.065500 0.132378 0.028862
0.099209 0.139593 0.002986
0.133129 0.145564 0.000245
0.168891 0.152365 0.001729
0.218709 0.161371 0.000087
0.259946 0.165273 0.000080
0.287825 0.166546 0.000804
0.346293 0.174578 0.000211
0.374186 0.182981 0.000221
0.401996 0.186667 0.000293
0.456910 0.185765 0.000065
0.480524 0.195278 0.000080
0.506458 0.196374 0.000150
0.532364 0.201326 0.000080
0.587688 0.203481 0.000051
0.599188 0.211354 0.000099
0.626416 0.210601 0.000389
0.659156 0.214285 0.000129
0.685919 0.225793 0.000164
0.707136 0.226702 0.000335
0.732879 0.226784 0.009442
0.759643 0.228695 0.028963
0.788659 0.229119 0.044563
0.812782 0.229023 0.061994
0.835453 0.224889 0.092948
0.870625 0.215647 0.120545
0.903912 0.198906 0.177262
0.930695 0.182982 0.211742
0.963185 0.169015 0.215995
0.988528 0.166764 0.186299
0.999361 0.154771 0.300811
0.027956 0.158547 0.032114
0.065628 0.173279 0.006056
0.069916 0.171694 0.000609
0.097196 0.172858 0.003043
0.125365 0.182034 0.000212
0.165707 0.184930 0.002844
0.225303 0.194963 0.000313
0.260835 0.199454 0.000116
0.308109 0.202099 0.000302
0.345076 0.210668 0.000249
0.375584 0.210880 0.000308
0.408202 0.216036 0.000054
0.450948 0.221110 0.000089
0.470317 0.227691 0.000276
0.503580 0.230483 0.000330
0.538516 0.235524 0.000075
0.575018 0.246700 0.000128
0.602953 0.249541 0.000136
0.634358 0.253683 0.000107
0.664641 0.255036 0.000206
0.689269 0.261083 0.000126
0.714834 0.260635 0.000234
0.743407 0.266004 0.000368
0.765355 0.272876 0.008136
0.785600 0.270271 0.031666
0.811406 0.266999 0.065943
0.842555 0.259381 0.102380
0.874384 0.252673 0.142884
0.901133 0.237002 0.202416
0.937740 0.223556 0.212268
0.980234 0.209943 0.194089
0.999346 0.186022 0.241625
0.999358 0.154723 0.342052
0.000132 0.195341 0.007235
0.019234 0.191692 0.001391
0.061338 0.202638 0.009266
0.094468 0.211974 0.001272
0.124742 0.215493 0.000174
0.163887 0.221691 0.000349
0.212814 0.230402 0.000162
0.259092 0.229321 0.000145
0.319691 0.231252 0.000411
0.343244 0.242741 0.000278
0.368809 0.241541 0.000094
0.418852 0.250740 0.000169
0.444648 0.255035 0.000103
0.473760 0.259837 0.000083
0.511491 0.263368 0.000071
0.545047 0.271547 0.000103
0.571400 0.273232 0.000088
0.607605 0.276388 0.000098
0.640113 0.281039 0.000182
0.676661 0.280153 0.000120
0.687371 0.292419 0.000050
0.712439 0.290574 0.004724
0.743580 0.298040 0.000519
0.764426 0.304871 0.003180
0.784184 0.302771 0.031349
0.811979 0.300864 0.073630
0.845146 0.292772 0.103375
0.877004 0.281479 0.172431
0.903538 0.269433 0.205314
0.944697 0.257937 0.192307
0.982441 0.243435 0.180042
0.996971 0.209532 0.240717
0.999619 0.186030 0.332566
0.000084 0.220737 0.026870
0.008495 0.236329 0.004149
0.063560 0.239048 0.000195
0.086681 0.237107 0.000065
0.117662 0.257735 0.021736
0.160568 0.249529 0.000201
0.218638 0.258298 0.000347
0.254946 0.258029 0.000187
0.313853 0.265239 0.000275
0.348092 0.269187 0.000205
0.376748 0.273232 0.000108
0.414809 0.284958 0.000082
0.447403 0.291106 0.000200
0.481826 0.289286 0.000068
0.514893 0.291486 0.000171
0.541998 0.307077 0.000127
0.570668 0.304028 0.000310
0.606751 0.307774 0.000317
0.632902 0.314239 0.000161
0.659843 0.321460 0.000168
0.688119 0.326102 0.000091
0.712573 0.328952 0.006469
0.746250 0.329587 0.000763
0.764517 0.337518 0.002331
0.791741 0.334888 0.018793
0.819556 0.331640 0.061181
0.844689 0.322881 0.123980
0.878700 0.313915 0.151912
0.912832 0.303862 0.166583
0.962890 0.288482 0.155688
0.985330 0.272202 0.182846
0.999633 0.253863 0.261629
0.999672 0.256167 0.304347
0.000071 0.239438 0.000506
0.003623 0.259631 0.000203
0.031419 0.254198 0.000153
0.071888 0.269562 0.000348
0.110839 0.281277 0.003764
0.156319 0.282090 0.000149
0.214364 0.288873 0.000293
0.275746 0.287755 0.000360
0.301105 0.307302 0.000257
0.343096 0.302220 0.000217
0.390372 0.304006 0.000066
0.414223 0.319067 0.000070
0.441902 0.321573 0.000435
0.469698 0.325020 0.000273
0.512192 0.327423 0.000140
0.537611 0.337520 0.000157
0.569996 0.335228 0.000207
0.606182 0.345090 0.000131
0.633731 0.348175 0.000150
0.659361 0.350842 0.000089
0.687795 0.356170 0.000095
0.717620 0.361102 0.000058
0.751859 0.361375 0.000084
0.766234 0.367055 0.002094
0.794505 0.363298 0.014968
0.825917 0.359246 0.051484
0.850089 0.352815 0.115767
0.886403 0.344467 0.147575
0.933362 0.331082 0.158968
0.961435 0.316218 0.166133
0.994398 0.287753 0.181411
0.999460 0.279127 0.256498
0.998422 0.376264 0.170721
0.000124 0.271941 0.012104
0.000104 0.303695 0.000498
0.011260 0.302800 0.015416
0.080338 0.310639 0.000306
0.114508 0.308639 0.000275
0.156606 0.319950 0.000288
0.198318 0.325518 0.000248
0.259566 0.325755 0.000260
0.296089 0.337077 0.000234
0.333995 0.331717 0.000102
0.379362 0.339716 0.000170
0.418983 0.344979 0.000148
0.442057 0.348182 0.000208
0.469365 0.354092 0.000218
0.508313 0.360384 0.000216
0.538008 0.364059 0.000236
0.574587 0.367214 0.000182
0.619997 0.360619 0.000050
0.640707 0.369274 0.000089
0.661063 0.381896 0.000177
0.695847 0.382720 0.000130
0.722146 0.387011 0.000094
0.748642 0.392320 0.000059
0.767044 0.394365 0.001297
0.797379 0.391137 0.009831
0.828975 0.387086 0.023824
0.856136 0.380200 0.092557
0.900375 0.371318 0.146517
0.932525 0.360388 0.133097
0.964144 0.347219 0.106075
0.999341 0.342638 0.140313
0.999658 0.319575 0.239536
0.998500 0.379267 0.206229
0.000053 0.343633 0.033500
0.000134 0.305150 0.000312
0.000215 0.327779 0.000229
0.066790 0.333418 0.000366
0.108298 0.335183 0.000283
0.114480 0.374651 0.022070
0.200087 0.352601 0.000591
0.236133 0.367065 0.000250
0.300399 0.358500 0.000207
0.336166 0.363986 0.000156
0.373719 0.372669 0.000189
0.412445 0.377533 0.000346
0.442906 0.374637 0.000257
0.479914 0.376322 0.000333
0.507348 0.389875 0.000260
0.534914 0.399171 0.000373
0.572736 0.394601 0.000175
0.605917 0.395462 0.000063
0.632074 0.401218 0.000108
0.658334 0.410972 0.000101
0.688820 0.414023 0.000370
0.724590 0.412991 0.000069
0.748493 0.417955 0.000071
0.779157 0.421539 0.000082
0.803396 0.424448 0.006254
0.834362 0.418545 0.017954
0.863471 0.413411 0.063244
0.895807 0.401366 0.154929
0.922148 0.390046 0.169197
0.948601 0.394672 0.106579
0.999383 0.353685 0.248386
0.999480 0.338593 0.255182
0.999692 0.352828 0.271109
0.000062 0.396329 0.034346
0.000089 0.366667 0.000507
0.000261 0.360249 0.000240
0.030190 0.367601 0.000453
0.093180 0.373157 0.000127
0.142054 0.379353 0.000296
0.193996 0.385740 0.000362
0.227006 0.400622 0.000308
0.293137 0.389415 0.000220
0.338283 0.390492 0.000117
0.375650 0.408172 0.000202
0.403231 0.412110 0.000304
0.444351 0.405294 0.000575
0.476894 0.409024 0.000285
0.502240 0.421067 0.000234
0.530344 0.425477 0.000290
0.569696 0.427291 0.000146
0.600948 0.424849 0.000112
0.633437 0.425730 0.000101
0.657422 0.436601 0.000118
0.685672 0.442045 0.000062
0.726935 0.439459 0.000100
0.750938 0.445850 0.000090
0.777720 0.447403 0.000092
0.811413 0.448660 0.000279
0.840791 0.447081 0.004908
0.863214 0.443600 0.053004
0.894678 0.432874 0.135833
0.932630 0.448434 0.128068
0.982191 0.380424 0.159511
0.995579 0.399923 0.130769
0.999805 0.352196 0.214322
0.999404 0.346619 0.370347
0.000120 0.410883 0.000251
0.000088 0.381617 0.000484
0.000084 0.410687 0.011181
0.002148 0.389576 0.000416
0.107285 0.396006 0.000179
0.128722 0.412916 0.000289
0.193907 0.407892 0.000489
0.241952 0.414258 0.000140
0.278618 0.420381 0.000266
0.339343 0.418659 0.000144
0.378110 0.425777 0.000214
0.396854 0.435228 0.000475
0.435637 0.433147 0.000312
0.466814 0.439967 0.000252
0.496875 0.448678 0.000204
0.526311 0.449870 0.000162
0.573141 0.449483 0.000066
0.600791 0.457168 0.000089
0.628679 0.464782 0.000094
0.661101 0.463094 0.000081
0.702369 0.454821 0.000004
0.730349 0.463754 0.000088
0.748796 0.475921 0.000055
0.777678 0.476206 0.000120
0.811996 0.473907 0.000145
0.841856 0.477369 0.001754
0.871002 0.466754 0.044409
0.876294 0.468895 0.099368
0.915575 0.458753 0.015828
0.999074 0.437194 0.058804
0.999385 0.435941 0.237897
0.999314 0.384938 0.336998
0.999494 0.375906 0.388405
0.000138 0.400938 0.000878
0.000214 0.424875 0.000402
0.000128 0.413189 0.002671
0.000065 0.430572 0.000446
0.025504 0.403463 0.000237
0.125171 0.427566 0.000394
0.228409 0.434647 0.000307
0.229395 0.440737 0.000441
0.279637 0.445500 0.000071
0.321529 0.451438 0.000259
0.377646 0.454182 0.000228
0.401630 0.458563 0.000265
0.439740 0.460529 0.000182
0.463915 0.471107 0.000163
0.503859 0.482558 0.000181
0.536380 0.478590 0.000074
0.582954 0.479923 0.000132
0.602058 0.493598 0.000055
0.631090 0.494281 0.000715
0.672309 0.488879 0.000102
0.700638 0.490670 0.000101
0.722640 0.500976 0.000122
0.751995 0.504826 0.000079
0.772552 0.509765 0.001430
0.812535 0.504747 0.000110
0.831283 0.510170 0.000177
0.835005 0.518186 0.009668
0.857401 0.515819 0.046740
0.951700 0.509877 0.122354
0.999717 0.328245 0.384464
0.999400 0.437947 0.243194
0.999501 0.410037 0.316005
0.999650 0.438154 0.339362
0.000119 0.411158 0.000283
0.000092 0.445770 0.000369
0.000137 0.446841 0.000236
0.000116 0.423349 0.000422
0.000032 0.456985 0.000335
0.064126 0.450522 0.000332
0.169347 0.479923 0.001689
0.217348 0.483155 0.000329
0.276835 0.475331 0.000304
0.313254 0.489842 0.000280
0.363098 0.493259 0.000369
0.413548 0.483807 0.000138
0.451134 0.487841 0.000379
0.469193 0.506442 0.000055
0.500109 0.513669 0.000753
0.541571 0.506056 0.000007
0.573067 0.510714 0.000067
0.599199 0.522864 0.000105
0.631641 0.519546 0.000121
0.662908 0.525015 0.000200
0.698552 0.522788 0.000155
0.721173 0.527415 0.000141
0.744661 0.535657 0.000185
0.776807 0.533043 0.000155
0.809213 0.536892 0.000146
0.825102 0.539723 0.000219
0.857106 0.539423 0.006369
0.906821 0.529844 0.000707
0.994898 0.491851 0.037799
0.999396 0.468194 0.158524
0.999483 0.420567 0.351120
0.999549 0.468870 0.319410
0.999706 0.461382 0.386159
0.000191 0.453190 0.000402
0.000131 0.500815 0.018489
0.004509 0.493134 0.000176
0.000072 0.513807 0.000229
0.000157 0.511453 0.001418
0.002654 0.471932 0.000401
0.162511 0.495750 0.000170
0.302537 0.487760 0.000276
0.281278 0.499350 0.000307
0.311043 0.513648 0.000335
0.336906 0.533770 0.001161
0.405371 0.518387 0.000168
0.441583 0.523414 0.000073
0.473932 0.531676 0.000140
0.499474 0.540331 0.000157
0.534189 0.535078 0.000077
0.573052 0.545547 0.000134
0.601590 0.548931 0.000172
0.627436 0.549529 0.000144
0.673221 0.547303 0.000038
0.694326 0.555453 0.000192
0.717835 0.566351 0.000198
0.739637 0.566811 0.000199
0.774291 0.570258 0.000177
0.805663 0.573951 0.000173
0.829964 0.571200 0.001258
0.859052 0.575515 0.001983
0.905898 0.566687 0.047662
0.999306 0.525800 0.364965
0.999487 0.450097 0.383881
0.999719 0.461329 0.370284
0.999526 0.493472 0.277458
0.999578 0.486641 0.333758
0.000156 0.483224 0.000295
0.000241 0.506292 0.000531
0.000051 0.552465 0.000263
0.000061 0.521559 0.000236
0.000069 0.517777 0.000146
0.000017 0.514247 0.000286
0.046938 0.494887 0.000303
0.263983 0.520511 0.000272
0.282569 0.531329 0.000288
0.315379 0.538389 0.000276
0.349623 0.550753 0.000430
0.395998 0.550689 0.000404
0.443848 0.557294 0.000234
0.480640 0.560330 0.000224
0.501104 0.562681 0.000188
0.548451 0.562660 0.000099
0.569698 0.575563 0.000236
0.604535 0.580652 0.000263
0.637104 0.577743 0.000328
0.670877 0.580737 0.000061
0.688261 0.593824 0.000243
0.718297 0.591391 0.025317
0.747328 0.594491 0.000191
0.777705 0.596533 0.000099
0.805635 0.601795 0.000115
0.837781 0.601601 0.000253
0.849519 0.602881 0.001617
0.938622 0.590006 0.064470
0.999386 0.519210 0.440595
0.999508 0.509110 0.391201
0.999598 0.511765 0.345353
0.999603 0.515156 0.326317
0.999615 0.499210 0.375798
0.000087 0.546849 0.000192
0.000099 0.563796 0.000542
0.000200 0.546535 0.000397
0.000200 0.549105 0.000380
0.002499 0.546289 0.000369
0.000554 0.549768 0.000481
0.005470 0.533249 0.000403
0.230148 0.558682 0.000359
0.279155 0.564308 0.000512
0.308029 0.566638 0.000240
0.346647 0.574393 0.000314
0.401722 0.572978 0.000347
0.433042 0.597362 0.000230
0.480275 0.590983 0.000189
0.506488 0.588539 0.000242
0.544851 0.593404 0.000077
0.572614 0.609269 0.000460
0.606071 0.603428 0.000237
0.635845 0.602844 0.000175
0.662025 0.611024 0.000243
0.689021 0.617672 0.000321
0.715733 0.620721 0.000187
0.753643 0.615554 0.000124
0.776491 0.622069 0.000128
0.795083 0.629489 0.000127
0.834793 0.627938 0.000085
0.848325 0.646379 0.000777
0.908632 0.626749 0.022821
0.999579 0.582722 0.366572
0.999330 0.570568 0.405628
0.999652 0.552595 0.413814
0.999628 0.551437 0.376274
0.999368 0.575489 0.319578
0.000070 0.551554 0.000172
0.000017 0.550513 0.000215
0.000067 0.528743 0.000169
0.000162 0.568144 0.000207
0.000149 0.562760 0.000190
0.000076 0.609617 0.000348
0.033324 0.575496 0.000316
0.200182 0.596956 0.000803
0.287725 0.593330 0.000297
0.299983 0.594614 0.000387
0.347692 0.598077 0.000395
0.408391 0.600951 0.000250
0.432595 0.618454 0.000204
0.472639 0.614779 0.000164
0.510362 0.613638 0.000264
0.545159 0.618092 0.000262
0.571341 0.627099 0.000320
0.604832 0.630182 0.000227
0.633195 0.628320 0.000273
0.662787 0.638975 0.000275
0.701840 0.637746 0.000213
0.720746 0.639638 0.000138
0.763474 0.633873 0.000263
0.775132 0.650219 0.000122
0.799778 0.656743 0.000120
0.827728 0.654852 0.000059
0.819276 0.668899 0.000173
0.936434 0.639419 0.078637
0.999491 0.644616 0.233203
0.999666 0.610071 0.336640
0.999336 0.581559 0.287949
0.999353 0.580667 0.288208
0.999408 0.607185 0.309887
0.000028 0.572164 0.000106
0.000053 0.566490 0.000385
0.000076 0.602139 0.000300
0.000127 0.597258 0.019349
0.001759 0.595862 0.000294
0.001094 0.596345 0.000294
0.000069 0.573748 0.000281
0.033345 0.598154 0.000298
0.348156 0.601769 0.000221
0.331947 0.622285 0.000116
0.355013 0.623810 0.000279
0.391837 0.624800 0.000277
0.440693 0.633309 0.000344
0.471468 0.638048 0.000203
0.506642 0.637766 0.000272
0.541843 0.651981 0.000279
0.579403 0.646933 0.000308
0.600828 0.652264 0.000315
0.648611 0.648380 0.000051
0.665011 0.669454 0.000093
0.701495 0.665072 0.000071
0.732279 0.664535 0.000244
0.753679 0.670195 0.000196
0.778034 0.678580 0.000107
0.795025 0.678070 0.000113
0.810434 0.682666 0.000096
0.813496 0.692337 0.000127
0.877601 0.692432 0.012052
0.999386 0.667863 0.207332
0.999353 0.601726 0.270654
0.999566 0.654982 0.280742
0.999395 0.608133 0.306315
0.999499 0.646560 0.331188
0.000092 0.612074 0.000234
0.000073 0.615414 0.000257
0.000096 0.601798 0.000339
0.000054 0.629455 0.023727
0.000087 0.572752 0.000461
0.000014 0.615683 0.000162
0.000046 0.622296 0.000195
0.000050 0.628047 0.000412
0.273210 0.631009 0.000152
0.333787 0.649021 0.000199
0.351838 0.647127 0.000123
0.383947 0.650084 0.000328
0.436218 0.652409 0.000279
0.463763 0.660489 0.000258
0.509079 0.660064 0.000347
0.545476 0.681637 0.000204
0.591515 0.671780 0.000198
0.618740 0.673544 0.000313
0.648547 0.681604 0.000159
0.665641 0.697188 0.000031
0.691072 0.693417 0.000024
0.730397 0.686546 0.000130
0.751628 0.696952 0.000131
0.778088 0.697208 0.000147
0.800476 0.695059 0.000083
0.802724 0.704228 0.000142
0.837937 0.714981 0.000530
0.908640 0.701738 0.035332
0.999617 0.663472 0.296728
0.999623 0.655631 0.317342
0.999500 0.671946 0.289184
0.999593 0.654436 0.273280
0.999422 0.670511 0.333413
0.000118 0.665716 0.000366
0.000082 0.644847 0.000436
0.000076 0.636775 0.000454
0.000072 0.627528 0.000449
0.000090 0.622539 0.001044
0.000058 0.638749 0.010836
0.000052 0.647277 0.001269
0.000040 0.650680 0.000328
0.242474 0.671757 0.000293
0.373607 0.662244 0.000231
0.359071 0.669174 0.000254
0.345585 0.689252 0.000157
0.428851 0.676725 0.000186
0.468320 0.683093 0.000216
0.525194 0.681884 0.000392
0.542371 0.711194 0.000170
0.579120 0.700230 0.000046
0.626390 0.692781 0.000311
0.651875 0.704685 0.000154
0.672138 0.708189 0.000160
0.689064 0.709219 0.000117
0.731862 0.715617 0.000076
0.748481 0.725671 0.000153
0.776683 0.721264 0.000177
0.806681 0.720831 0.000072
0.812345 0.728423 0.000176
0.846305 0.733706 0.005611
0.937133 0.722113 0.024206
0.999495 0.700143 0.252589
0.999678 0.660033 0.247031
0.999294 0.705112 0.284638
0.999413 0.710832 0.248490
0.999403 0.711415 0.211660
0.000110 0.644743 0.000404
0.000137 0.638134 0.000410
0.000032 0.651790 0.000386
0.000305 0.648956 0.000479
0.000098 0.664627 0.000203
0.000116 0.683565 0.000605
0.000157 0.669740 0.000475
0.000025 0.678742 0.000391
0.268414 0.678362 0.000239
0.300564 0.689744 0.000279
0.355197 0.690043 0.000184
0.306355 0.717506 0.000234
0.421435 0.706121 0.000287
0.475954 0.704204 0.000228
0.535410 0.706396 0.000272
0.552530 0.716622 0.000240
0.567364 0.724956 0.000134
0.621825 0.720019 0.000167
0.647590 0.736632 0.000145
0.682212 0.726701 0.000078
0.706491 0.731391 0.000040
0.720428 0.743494 0.000094
0.747546 0.750437 0.000964
0.780210 0.740023 0.000171
0.803074 0.745559 0.000110
0.835611 0.756198 0.000064
0.852933 0.758371 0.000097
0.863594 0.759034 0.005345
0.999143 0.735071 0.241034
0.999303 0.729628 0.292711
0.999321 0.728061 0.302191
0.999284 0.719437 0.303830
0.999190 0.733517 0.241037
0.000098 0.672292 0.000296
0.000138 0.679245 0.000258
0.000050 0.659533 0.000432
0.000056 0.689252 0.000435
0.000047 0.687850 0.000402
0.000105 0.689083 0.000346
0.000105 0.689480 0.000330
0.000085 0.692892 0.000474
0.000041 0.698033 0.000340
0.303294 0.713484 0.000218
0.359338 0.714820 0.000140
0.340561 0.741800 0.000181
0.421640 0.730282 0.000200
0.473171 0.728714 0.000176
0.523771 0.736921 0.000150
0.554813 0.737504 0.000109
0.579721 0.741679 0.000095
0.617569 0.752582 0.000061
0.638597 0.770740 0.000186
0.672885 0.752288 0.000189
0.705405 0.758353 0.000072
0.733324 0.761375 0.000153
0.753976 0.763550 0.000037
0.782287 0.764962 0.000077
0.797433 0.775525 0.000055
0.843212 0.772686 0.000052
0.831641 0.778483 0.000116
0.885173 0.775421 0.049474
0.967220 0.786981 0.108326
0.999363 0.771707 0.242893
0.999372 0.755007 0.257624
0.999341 0.735882 0.323423
0.999321 0.754152 0.316142
0.000144 0.708480 0.000360
0.000067 0.705639 0.002202
0.000066 0.711204 0.002283
0.000059 0.714713 0.000300
0.000087 0.705700 0.000300
0.000071 0.698954 0.000266
0.000168 0.705913 0.000506
0.000094 0.711755 0.000575
0.000006 0.712862 0.000407
0.062264 0.756384 0.000221
0.378841 0.738358 0.000041
0.405302 0.743000 0.000171
0.415638 0.752779 0.000235
0.462749 0.755954 0.000089
0.495405 0.775641 0.000151
0.560569 0.758376 0.000136
0.601806 0.761839 0.000060
0.626513 0.771795 0.000071
0.637188 0.783630 0.000159
0.652865 0.781017 0.000029
0.700770 0.793683 0.000073
0.737162 0.788207 0.000074
0.766660 0.787300 0.000074
0.784814 0.795264 0.000063
0.799105 0.814697 0.000586
0.829573 0.795342 0.000132
0.831604 0.805764 0.000132
0.886836 0.803262 0.063622
0.994105 0.796811 0.147898
0.999316 0.820925 0.189078
0.999493 0.790984 0.257020
0.999392 0.755249 0.347915
0.999388 0.783582 0.343864
0.000081 0.696415 0.000539
0.000091 0.717416 0.000313
0.000087 0.718571 0.000428
0.000032 0.729647 0.000546
0.000047 0.734655 0.000339
0.000067 0.733685 0.000516
0.000113 0.739994 0.000576
0.000201 0.742703 0.000607
0.000143 0.750193 0.000587
0.000045 0.764311 0.000247
0.153630 0.755597 0.000385
0.466482 0.759710 0.000073
0.436171 0.770770 0.000074
0.469591 0.776587 0.000036
0.465872 0.799915 0.000147
0.533846 0.788767 0.000112
0.594193 0.793219 0.000015
0.632913 0.797791 0.000028
0.650747 0.798787 0.000044
0.681234 0.807892 0.000072
0.692202 0.827841 0.000076
0.729307 0.807856 0.000065
0.774242 0.812119 0.000103
0.789007 0.817746 0.000064
0.813031 0.826968 0.003225
0.836069 0.816004 0.000038
