calib/LUT LIBRARY/classic_neg_composed.cube
TITLE "Chromasmith composed - classic_neg"
#STD_q(x) = VLOG_q(T(x)), T from astia/velvia/classic_neg matched pairs
LUT_3D_SIZE 5
0.028383 0.031278 0.027338
0.196334 0.059799 0.016293
0.474258 0.125788 0.000076
0.760078 0.144079 0.001142
0.916241 0.132761 0.069891
0.007239 0.171237 0.102240
0.197931 0.202509 0.011598
0.494936 0.259971 0.042738
0.794541 0.325170 0.061941
0.949508 0.358753 0.163300
0.010809 0.323512 0.087411
0.145075 0.374393 0.043119
0.469688 0.449665 0.019012
0.815153 0.527361 0.043661
0.959428 0.549927 0.300698
0.019653 0.546942 0.151899
0.020246 0.580833 0.160748
0.439532 0.680915 0.057492
0.808737 0.782930 0.071868
0.972024 0.808824 0.462976
0.024163 0.773779 0.128757
0.029921 0.851004 0.221725
0.544471 0.913297 0.288923
0.803593 0.981258 0.219884
0.963874 0.982552 0.513334
0.024769 0.055059 0.138789
0.209391 0.086874 0.132700
0.491150 0.146903 0.129374
0.780504 0.170525 0.118044
0.929981 0.130330 0.179071
0.015262 0.200070 0.221244
0.218436 0.239076 0.228325
0.507753 0.290080 0.213107
0.812811 0.349543 0.227922
0.954100 0.387436 0.273401
0.020934 0.372860 0.312048
0.202805 0.434963 0.323352
0.533118 0.506492 0.342548
0.812257 0.588290 0.345765
0.964849 0.582369 0.425860
0.029748 0.575049 0.404580
0.033884 0.646044 0.455367
0.499778 0.743919 0.454901
0.846425 0.795481 0.456800
0.978422 0.827154 0.608767
0.042065 0.809727 0.558236
0.048437 0.901289 0.663665
0.033563 0.943832 0.254404
0.708599 0.982530 0.283979
0.964345 0.991003 0.576384
0.069212 0.083894 0.286927
0.216868 0.081990 0.269348
0.496220 0.150455 0.275371
0.802625 0.197717 0.279781
0.949196 0.166359 0.309131
0.028582 0.220923 0.378908
0.242190 0.266500 0.385926
0.530301 0.314261 0.391630
0.805393 0.402924 0.411825
0.957867 0.357004 0.401251
0.028100 0.396518 0.479835
0.230941 0.477179 0.516679
0.558255 0.540544 0.522339
0.822508 0.611897 0.541167
0.972178 0.634516 0.576755
0.040086 0.637347 0.628694
0.044782 0.689375 0.671757
0.542273 0.764677 0.648951
0.855652 0.816273 0.654025
0.981991 0.834185 0.694479
0.050751 0.834279 0.759425
0.069074 0.867352 0.778826
0.056142 0.929410 0.836434
0.701014 0.979483 0.744883
0.977152 0.991551 0.790629
0.124620 0.160835 0.530571
0.246793 0.067113 0.449577
0.528098 0.160135 0.455556
0.819081 0.214860 0.449691
0.956495 0.189061 0.482427
0.089235 0.260931 0.565991
0.283615 0.288984 0.548661
0.558974 0.347120 0.562077
0.839965 0.426281 0.596032
0.965283 0.386141 0.565506
0.046956 0.474289 0.706438
0.320176 0.525518 0.714858
0.613252 0.586235 0.727860
0.854485 0.647293 0.728230
0.976450 0.625702 0.698394
0.048110 0.661960 0.817138
0.194084 0.744893 0.845601
0.593904 0.789546 0.829816
0.870970 0.828195 0.815810
0.987972 0.860281 0.828816
0.058113 0.854314 0.940486
0.059089 0.872071 0.951947
0.113278 0.934085 0.982915
0.856634 0.980256 0.904938
0.984959 0.994417 0.889037
0.178852 0.140188 0.632599
0.381103 0.118022 0.589777
0.753009 0.282563 0.798338
0.870764 0.331286 0.751060
0.964840 0.322017 0.606706
0.235482 0.297566 0.810169
0.388403 0.343944 0.775644
0.769977 0.552784 0.902396
0.890323 0.568130 0.849200
0.975053 0.484951 0.753258
0.165822 0.615352 0.935559
0.706118 0.669130 0.980709
0.841425 0.616993 0.953445
0.916611 0.770588 0.969502
0.985474 0.735362 0.858520
0.111661 0.744857 0.968636
0.495721 0.820581 0.999684
0.778851 0.866609 0.998363
0.931162 0.862683 0.983418
0.993426 0.871753 0.964627
0.061208 0.935492 0.974245
0.324837 0.900950 0.999727
0.725863 0.941126 0.999606
0.912301 0.970123 0.999117
0.995407 0.997259 0.992267
