calib/LUT LIBRARY/classic_neg.cube
#Generated with Fujify color engine
#Website: https://fujify.me
#LUMIXPHOTOSTYLE STD
LUT_3D_SIZE 5
0.023529 0.027451 0.023529
0.197059 0.057844 0.023529
0.474510 0.105882 0.017647
0.770588 0.141176 0.011765
0.917647 0.137255 0.082353
0.007843 0.173530 0.104902
0.202941 0.213480 0.103921
0.496078 0.272059 0.088725
0.806128 0.330392 0.089216
0.963725 0.338235 0.194117
0.000000 0.364706 0.203922
0.148529 0.409804 0.206373
0.513725 0.484314 0.194117
0.842647 0.548039 0.197549
0.988235 0.574510 0.335294
0.000000 0.587255 0.314705
0.020588 0.641177 0.317892
0.506372 0.717647 0.299510
0.853921 0.783578 0.311029
0.983334 0.803922 0.480392
0.000000 0.764706 0.376471
0.000000 0.810785 0.357843
0.292157 0.882353 0.323530
0.820588 0.941176 0.328431
0.980392 0.968627 0.517647
0.047059 0.053921 0.127451
0.207108 0.084314 0.131372
0.486274 0.132843 0.123039
0.787990 0.164706 0.114706
0.932353 0.151961 0.194117
0.026716 0.197059 0.213480
0.214583 0.236275 0.227084
0.507721 0.296201 0.223039
0.821569 0.347059 0.225797
0.979412 0.353922 0.311274
0.000000 0.386274 0.322059
0.171446 0.438113 0.340564
0.532108 0.508579 0.342157
0.857966 0.576348 0.354412
0.996078 0.584804 0.465686
0.000000 0.610784 0.439951
0.025000 0.671569 0.458395
0.520588 0.747181 0.453064
0.864706 0.804473 0.465931
0.988235 0.822549 0.596814
0.000000 0.783333 0.518628
0.000000 0.826471 0.510784
0.280392 0.897549 0.479902
0.823284 0.953922 0.476470
0.984314 0.976471 0.629412
0.084314 0.084314 0.258823
0.229902 0.107353 0.275980
0.509804 0.154902 0.278431
0.808333 0.195588 0.276471
0.949020 0.174510 0.329411
0.048039 0.224510 0.352941
0.238358 0.267770 0.386274
0.538726 0.326225 0.396079
0.842525 0.376593 0.397059
0.991667 0.379412 0.447059
0.000000 0.418627 0.481372
0.202696 0.478677 0.517647
0.564706 0.548039 0.529411
0.874020 0.604902 0.535294
0.996078 0.613725 0.600000
0.000000 0.646079 0.622059
0.055392 0.705515 0.654044
0.559559 0.770833 0.651471
0.877084 0.826103 0.657966
0.992157 0.836275 0.725000
0.000000 0.805883 0.719608
0.000000 0.848529 0.725980
0.310785 0.912745 0.701961
0.834804 0.965686 0.684314
0.992157 0.988235 0.766667
0.121569 0.118627 0.421569
0.256618 0.136520 0.433334
0.553921 0.189216 0.444608
0.831373 0.230147 0.436030
0.961765 0.223529 0.456863
0.068628 0.260784 0.530392
0.277880 0.307414 0.565074
0.590319 0.370833 0.570220
0.862500 0.417279 0.560049
0.996078 0.421323 0.580392
0.010294 0.465196 0.675000
0.271569 0.526593 0.709069
0.620588 0.598530 0.714706
0.891667 0.644975 0.708701
0.996078 0.652941 0.717647
0.000000 0.687990 0.822304
0.170159 0.744669 0.852696
0.620221 0.802941 0.837378
0.889155 0.845159 0.826470
0.996078 0.857108 0.837255
0.000000 0.835294 0.944117
0.003187 0.873530 0.955147
0.405882 0.931372 0.929902
0.861275 0.977451 0.900980
0.996078 0.992157 0.907843
0.188235 0.184314 0.596078
0.314706 0.183334 0.600000
0.617647 0.243138 0.596078
0.861765 0.283334 0.584314
0.976471 0.282353 0.580392
0.083333 0.317647 0.706863
0.351961 0.366912 0.714706
0.656373 0.435785 0.717157
0.897059 0.479412 0.708578
0.996078 0.483334 0.707843
0.082353 0.525490 0.841176
0.394608 0.593628 0.854902
0.707843 0.660784 0.851961
0.923040 0.702941 0.845098
0.996078 0.709804 0.835295
0.112745 0.744117 0.966667
0.447549 0.797794 0.976716
0.739706 0.843137 0.957843
0.911765 0.869608 0.938235
0.996078 0.877451 0.929412
0.054902 0.874510 0.996078
0.259804 0.908824 0.996078
0.637255 0.947059 0.996078
0.890197 0.981372 0.996078
0.992157 0.996078 0.992157
