calib/LUT LIBRARY/classic_neg_composed.cube
TITLE "Chromasmith composed - classic_neg"
#STD_q(x) = VLOG_q(T(x)), T from astia/velvia/classic_neg matched pairs
LUT_3D_SIZE 33
0.028383 0.031278 0.027338
0.040562 0.032042 0.022413
0.054695 0.034163 0.026088
0.075411 0.041852 0.021654
0.095959 0.041983 0.027174
0.118813 0.056378 0.022138
0.148203 0.055425 0.014756
0.172851 0.069849 0.015460
0.196334 0.059799 0.016293
0.231203 0.090998 0.001735
0.262313 0.077468 0.025918
0.277769 0.083360 0.004060
0.322365 0.101390 0.001467
0.354439 0.117281 0.007427
0.400808 0.093700 0.005357
0.423557 0.106560 0.000304
0.474258 0.125788 0.000076
0.531762 0.127919 0.001406
0.553513 0.127591 0.000858
0.588232 0.126216 0.000040
0.630359 0.137666 0.000055
0.669165 0.142105 0.000095
0.705090 0.143207 0.001104
0.733477 0.142909 0.000076
0.760078 0.144079 0.001142
0.787455 0.150030 0.002796
0.801776 0.143101 0.004770
0.814874 0.157179 0.010107
0.834308 0.161059 0.013973
0.857445 0.158158 0.011706
0.889401 0.167338 0.034689
0.905235 0.198091 0.040889
0.916241 0.132761 0.069891
0.028662 0.041446 0.032112
0.039692 0.046925 0.032763
0.054133 0.049712 0.030926
0.076651 0.058611 0.034432
0.094189 0.065013 0.026834
0.119230 0.073984 0.033919
0.141168 0.080620 0.013062
0.166968 0.086617 0.028249
0.184940 0.090179 0.007614
0.226849 0.101689 0.008741
0.247802 0.098565 0.020458
0.284713 0.105207 0.000765
0.319197 0.116007 0.000904
0.357062 0.116801 0.018393
0.388370 0.112487 0.000244
0.427917 0.126865 0.000120
0.480037 0.141171 0.004309
0.520453 0.139015 0.016747
0.543146 0.142664 0.000530
0.585297 0.150353 0.000053
0.629118 0.157290 0.000878
0.675496 0.161084 0.004576
0.704064 0.161602 0.002049
0.730284 0.165433 0.000476
0.759211 0.170608 0.000934
0.782183 0.171127 0.002095
0.814520 0.167637 0.018280
0.839306 0.172189 0.021909
0.856688 0.174777 0.014004
0.870810 0.174342 0.022896
0.898500 0.190756 0.038218
0.918067 0.174880 0.059008
0.912631 0.182571 0.051464
0.030969 0.056507 0.040506
0.042968 0.060669 0.040715
0.057463 0.065756 0.042062
0.078521 0.073072 0.038552
0.100070 0.082054 0.034117
0.118659 0.083076 0.033352
0.140042 0.091158 0.018812
0.172608 0.094222 0.026219
0.192530 0.105593 0.005392
0.220486 0.112154 0.024011
0.242209 0.110698 0.002660
0.287773 0.118384 0.000390
0.324909 0.125896 0.011114
0.354085 0.124644 0.014591
0.389545 0.128934 0.000092
0.444663 0.143655 0.000298
0.480480 0.150317 0.010867
0.506645 0.152274 0.001483
0.555226 0.160421 0.000053
0.605544 0.167768 0.001687
0.651903 0.176333 0.019792
0.680970 0.177683 0.000861
0.703227 0.182304 0.000150
0.728594 0.188179 0.000213
0.765081 0.191358 0.010494
0.796318 0.191421 0.023737
0.820902 0.196620 0.019403
0.840991 0.196918 0.023583
0.861811 0.199453 0.041671
0.885535 0.193801 0.044342
0.907813 0.190105 0.044406
0.912357 0.196021 0.057363
0.921502 0.201884 0.071147
0.022481 0.070875 0.047575
0.046266 0.079612 0.048846
0.063151 0.085319 0.046868
0.079533 0.092756 0.044571
0.100095 0.096701 0.038120
0.119784 0.100843 0.028583
0.145755 0.106950 0.039615
0.160586 0.109983 0.012665
0.195816 0.116810 0.007216
0.223676 0.117051 0.028946
0.258068 0.125688 0.001270
0.287174 0.134437 0.008548
0.315537 0.139258 0.013976
0.339081 0.138369 0.000053
0.413441 0.147988 0.000055
0.439181 0.157712 0.007084
0.474605 0.162798 0.014834
0.511646 0.165395 0.000058
0.553733 0.173784 0.000113
0.611679 0.184244 0.006907
0.656860 0.188522 0.009989
0.678971 0.193112 0.000987
0.710089 0.200109 0.002428
0.745623 0.208886 0.017633
0.781364 0.211708 0.029209
0.801458 0.216646 0.027937
0.819761 0.218360 0.022969
0.847735 0.221978 0.055141
0.869322 0.220816 0.062867
0.888648 0.217716 0.050316
0.909223 0.216445 0.048204
0.919192 0.214137 0.067728
0.932797 0.219848 0.104132
0.015536 0.088040 0.058271
0.042544 0.093502 0.053372
0.053260 0.103431 0.048733
0.078900 0.108565 0.044773
0.103314 0.112768 0.047050
0.117416 0.118362 0.025671
0.144659 0.123504 0.043279
0.169945 0.125870 0.009439
0.198012 0.132769 0.025566
0.213087 0.134669 0.003711
0.265229 0.140538 0.000099
0.286815 0.150556 0.022786
0.311123 0.152153 0.008747
0.360598 0.157549 0.000072
0.403644 0.164315 0.000415
0.440033 0.173105 0.006395
0.475704 0.176865 0.000136
0.517263 0.183426 0.000107
0.561125 0.192589 0.003054
0.613946 0.201403 0.004505
0.647747 0.206579 0.000331
0.679810 0.212771 0.004285
0.714943 0.218028 0.012900
0.752605 0.226172 0.033975
0.785993 0.232374 0.033147
0.804383 0.238274 0.035911
0.823067 0.241784 0.045898
0.851070 0.241798 0.067969
0.875075 0.245776 0.072636
0.889961 0.245391 0.085627
0.907465 0.240691 0.077479
0.919144 0.237069 0.097129
0.931918 0.246945 0.124433
0.012892 0.108626 0.056194
0.040446 0.116568 0.061759
0.056228 0.120534 0.066217
0.076337 0.123784 0.046588
0.097409 0.127646 0.037103
0.119630 0.134357 0.041742
0.142316 0.137074 0.008298
0.169294 0.142514 0.010856
0.194441 0.151104 0.047520
0.231161 0.151845 0.001283
0.257488 0.160303 0.006722
0.281268 0.165876 0.011253
0.338025 0.167671 0.000088
0.365821 0.176553 0.000646
0.399155 0.182913 0.004538
0.425890 0.187051 0.000323
0.503300 0.194521 0.000128
0.527658 0.203560 0.000612
0.576803 0.212812 0.022436
0.617992 0.215581 0.003203
0.650414 0.224129 0.000273
0.682882 0.231185 0.004467
0.724850 0.241398 0.030216
0.763027 0.249245 0.042143
0.787566 0.255315 0.047542
0.808425 0.260561 0.054508
0.828797 0.264302 0.067334
0.858249 0.266008 0.073988
0.878160 0.266333 0.094600
0.892280 0.264595 0.105359
0.909758 0.263184 0.098488
0.924426 0.265341 0.075895
0.938243 0.280904 0.132425
0.022874 0.134947 0.081457
0.048082 0.143058 0.060738
0.048566 0.140642 0.048986
0.073477 0.143789 0.054149
0.086494 0.147557 0.032896
0.116925 0.154740 0.052774
0.142458 0.156345 0.009043
0.167099 0.162183 0.015725
0.198548 0.165531 0.007494
0.227828 0.172912 0.006076
0.257174 0.179093 0.022075
0.280085 0.180150 0.001456
0.327599 0.187353 0.000386
0.356964 0.198718 0.018478
0.398557 0.206622 0.034642
0.435343 0.207656 0.001009
0.488175 0.218203 0.000510
0.537551 0.229220 0.012535
0.580998 0.234197 0.005726
0.618511 0.235396 0.000157
0.655346 0.244745 0.000180
0.695397 0.251810 0.005154
0.739471 0.261648 0.008335
0.763881 0.273590 0.030926
0.784815 0.279554 0.052560
0.810692 0.285682 0.070620
0.840112 0.289084 0.083154
0.863126 0.293915 0.098656
0.878431 0.294090 0.122911
0.896755 0.292519 0.120371
0.916830 0.289612 0.099605
0.934418 0.292206 0.109587
0.946028 0.296932 0.145405
0.005968 0.152714 0.072107
0.011637 0.150417 0.059315
0.046074 0.162050 0.077329
0.068087 0.165947 0.058277
0.081280 0.165886 0.032540
0.103403 0.169095 0.018347
0.136072 0.178177 0.025765
0.165856 0.181630 0.034477
0.202698 0.182091 0.004948
0.225558 0.192613 0.013610
0.254303 0.200695 0.054078
0.294505 0.203472 0.007789
0.321468 0.208037 0.005100
0.353573 0.214266 0.004728
0.394809 0.219091 0.001347
0.444121 0.228108 0.000953
0.486728 0.235061 0.003994
0.538131 0.240778 0.000858
0.583714 0.245559 0.000155
0.636309 0.251165 0.000108
0.656603 0.263882 0.002134
0.704205 0.276905 0.044082
0.741370 0.282035 0.017517
0.762505 0.293079 0.031933
0.786067 0.301701 0.064879
0.816340 0.310113 0.086481
0.847162 0.312302 0.095174
0.866699 0.316758 0.124881
0.881650 0.316525 0.136868
0.901794 0.314495 0.120835
0.922792 0.314122 0.102777
0.939301 0.313024 0.113640
0.947095 0.315880 0.152061
0.007239 0.171237 0.102240
0.008495 0.178120 0.079894
0.038809 0.177662 0.048436
0.048302 0.174590 0.029239
0.091607 0.200250 0.106141
0.103560 0.186725 0.032467
0.134175 0.193491 0.020753
0.168495 0.202940 0.067850
0.197931 0.202509 0.011598
0.224450 0.207587 0.012098
0.245583 0.211480 0.008674
0.286412 0.222043 0.007341
0.325900 0.232057 0.021153
0.358675 0.231652 0.005495
0.396295 0.234212 0.000134
0.438231 0.247710 0.000413
0.494936 0.259971 0.042738
0.547619 0.268409 0.047421
0.571994 0.266602 0.000288
0.612119 0.275847 0.000191
0.661838 0.289384 0.010333
0.710703 0.306091 0.059973
0.741568 0.305078 0.020397
0.761953 0.316112 0.032534
0.794541 0.325170 0.061941
0.827766 0.334438 0.090376
0.847456 0.338816 0.118460
0.867962 0.340452 0.126872
0.887298 0.339715 0.127481
0.913754 0.336617 0.109394
0.931883 0.339744 0.111189
0.947880 0.350564 0.137111
0.949508 0.358753 0.163300
0.005738 0.174409 0.048263
0.005147 0.184818 0.035214
0.010871 0.181674 0.034650
0.043703 0.196361 0.059175
0.081283 0.211522 0.094584
0.099479 0.207285 0.043578
0.129677 0.211964 0.025816
0.165630 0.212536 0.013101
0.191064 0.229920 0.033746
0.218740 0.227749 0.021774
0.255486 0.229813 0.004892
0.282774 0.242423 0.008519
0.324123 0.254601 0.052056
0.363162 0.266923 0.089631
0.396034 0.258667 0.003537
0.433698 0.270023 0.004507
0.484814 0.276533 0.018283
0.531490 0.285091 0.001026
0.572272 0.290194 0.000345
0.614137 0.298262 0.000661
0.661882 0.309462 0.008002
0.705228 0.314625 0.000106
0.742409 0.321178 0.000549
0.766699 0.339505 0.045228
0.801618 0.347568 0.069249
0.833941 0.356522 0.095386
0.851296 0.363094 0.126018
0.874474 0.366150 0.136543
0.901673 0.364314 0.132302
0.917790 0.362250 0.126711
0.941369 0.357853 0.111217
0.948419 0.368013 0.144148
0.944780 0.427556 0.144133
0.008451 0.201300 0.106631
0.008152 0.218527 0.093965
0.013366 0.222381 0.120404
0.054359 0.227094 0.089649
0.063181 0.218946 0.033781
0.089683 0.227138 0.030431
0.124009 0.237572 0.056186
0.152725 0.234483 0.019392
0.185208 0.248685 0.039115
0.221754 0.255032 0.083897
0.250935 0.256013 0.025396
0.286791 0.261852 0.013389
0.311166 0.267277 0.016435
0.336757 0.272897 0.009862
0.390495 0.281933 0.006733
0.436257 0.291131 0.015156
0.483464 0.295277 0.002540
0.550693 0.294791 0.000397
0.581821 0.305132 0.000109
0.624585 0.325879 0.020751
0.677584 0.330083 0.010096
0.709056 0.331375 0.000074
0.739688 0.343729 0.000727
0.771895 0.362182 0.057881
0.811227 0.371583 0.082508
0.835303 0.375261 0.086859
0.855903 0.383512 0.123794
0.886356 0.390394 0.145703
0.903404 0.385904 0.130189
0.920593 0.382260 0.104218
0.945063 0.397037 0.110514
0.949154 0.398561 0.146738
0.947546 0.437887 0.162829
0.011024 0.252449 0.153234
0.007851 0.218184 0.086496
0.006559 0.227576 0.044012
0.021537 0.230296 0.035617
0.054355 0.233707 0.033828
0.088939 0.282172 0.151612
0.133743 0.262706 0.105628
0.147908 0.270610 0.069582
0.179206 0.261724 0.022887
0.206167 0.269300 0.028998
0.241641 0.278572 0.023819
0.281876 0.287493 0.033601
0.305933 0.284666 0.013182
0.342552 0.287677 0.004128
0.383556 0.300569 0.004207
0.441485 0.323913 0.064960
0.482697 0.317983 0.019404
0.526232 0.318324 0.000430
0.569529 0.327760 0.000639
0.629182 0.353525 0.054742
0.679931 0.367070 0.073510
0.710147 0.355990 0.000610
0.741099 0.367229 0.005458
0.783539 0.380917 0.025794
0.815541 0.398556 0.072951
0.838194 0.402184 0.083682
0.861430 0.411454 0.118091
0.887929 0.418240 0.165233
0.901744 0.415197 0.166193
0.913280 0.417755 0.126977
0.951141 0.426244 0.166184
0.950179 0.414634 0.163595
0.951563 0.426622 0.180393
0.013139 0.293866 0.170930
0.009073 0.258401 0.082670
0.007346 0.249461 0.047039
0.019460 0.262831 0.101933
0.062714 0.270165 0.105292
0.075810 0.269443 0.044134
0.111411 0.278493 0.049402
0.133814 0.292462 0.054973
0.171380 0.284031 0.028352
0.198926 0.285564 0.020457
0.235760 0.301842 0.020319
0.279730 0.319753 0.083023
0.309579 0.310827 0.040667
0.339559 0.311858 0.007935
0.377919 0.326767 0.010679
0.428958 0.342111 0.053378
0.479878 0.347510 0.039609
0.518985 0.343445 0.003105
0.572692 0.350109 0.002548
0.617965 0.367868 0.017005
0.660263 0.373675 0.000891
0.710922 0.377019 0.000189
0.746148 0.391655 0.008081
0.784386 0.401705 0.022782
0.816637 0.409337 0.022441
0.842217 0.423836 0.067939
0.864199 0.438476 0.124690
0.889234 0.445684 0.169512
0.907786 0.466587 0.168503
0.932256 0.420525 0.148143
0.939621 0.438886 0.137094
0.949426 0.421370 0.141507
0.954367 0.431413 0.254208
0.009961 0.291941 0.093112
0.009468 0.269185 0.086286
0.012763 0.301023 0.151715
0.011052 0.278859 0.113413
0.056429 0.282894 0.067883
0.065627 0.296200 0.061358
0.102398 0.291881 0.037409
0.131005 0.297217 0.031465
0.168172 0.311941 0.066703
0.200985 0.307487 0.025744
0.235287 0.316934 0.021746
0.264687 0.333114 0.060282
0.309587 0.340709 0.086533
0.331656 0.339976 0.018900
0.371589 0.351725 0.020510
0.410465 0.356662 0.019748
0.470977 0.359137 0.004444
0.518963 0.371955 0.006175
0.574720 0.389800 0.035332
0.620282 0.386640 0.002194
0.682389 0.384598 0.000059
0.715204 0.398027 0.000124
0.755578 0.427973 0.061236
0.793541 0.433310 0.056983
0.816504 0.429145 0.016246
0.845852 0.451470 0.076118
0.873635 0.460851 0.130498
0.880807 0.471734 0.166913
0.894465 0.452960 0.082830
0.942729 0.464407 0.083207
0.953685 0.493858 0.199185
0.954708 0.459915 0.247902
0.955874 0.457545 0.284377
0.010160 0.282851 0.088051
0.012200 0.306974 0.130299
0.011803 0.300300 0.136217
0.012402 0.312565 0.135871
0.011025 0.281234 0.047964
0.051012 0.302156 0.044758
0.129124 0.316969 0.051816
0.119666 0.318883 0.037421
0.179223 0.343853 0.130109
0.188791 0.337290 0.041639
0.234228 0.342934 0.028297
0.256888 0.349767 0.031189
0.290976 0.353169 0.021733
0.325631 0.366801 0.023573
0.385905 0.386969 0.056195
0.416391 0.380841 0.013299
0.483333 0.385936 0.001943
0.524002 0.405066 0.016149
0.597662 0.432044 0.112502
0.639002 0.409501 0.001037
0.675954 0.415897 0.000264
0.709698 0.432231 0.002203
0.763576 0.455517 0.064489
0.791356 0.473812 0.100925
0.817640 0.460841 0.030554
0.837303 0.477645 0.066886
0.846833 0.497531 0.117327
0.870037 0.509585 0.157825
0.920515 0.529719 0.194265
0.954277 0.419087 0.256168
0.953935 0.496011 0.204021
0.954783 0.478829 0.243863
0.957280 0.506713 0.278187
0.008975 0.288597 0.062657
0.012839 0.326090 0.145995
0.009489 0.314628 0.051451
0.008643 0.293340 0.048355
0.010299 0.326087 0.071049
0.025038 0.322440 0.066246
0.109943 0.371257 0.157960
0.119182 0.361866 0.077032
0.152680 0.355839 0.051306
0.177664 0.370736 0.044875
0.223625 0.378812 0.055050
0.260019 0.371068 0.028072
0.297691 0.376782 0.022104
0.328396 0.397853 0.026419
0.403872 0.435477 0.157208
0.426338 0.409163 0.040352
0.466082 0.413513 0.009083
0.516784 0.432202 0.016643
0.591984 0.450181 0.091807
0.625953 0.448003 0.025499
0.672098 0.447506 0.001820
0.708063 0.457699 0.004077
0.747834 0.474363 0.021680
0.784019 0.474105 0.003198
0.814054 0.488576 0.022184
0.834725 0.506044 0.076011
0.867090 0.521066 0.116360
0.887398 0.500008 0.010719
0.942138 0.511139 0.079438
0.952996 0.515070 0.164723
0.956455 0.491739 0.278437
0.957818 0.531878 0.279340
0.959936 0.533747 0.329880
0.010809 0.323512 0.087411
0.016771 0.384184 0.198707
0.012800 0.360592 0.107350
0.014611 0.385316 0.147449
0.015355 0.386220 0.162742
0.010400 0.339035 0.071092
0.088556 0.374278 0.108159
0.162817 0.365892 0.039671
0.145075 0.374393 0.043119
0.164699 0.387998 0.042269
0.227368 0.438214 0.181438
0.254808 0.403312 0.054428
0.287329 0.409436 0.029775
0.329779 0.422887 0.028219
0.373637 0.441768 0.072950
0.411591 0.436328 0.042002
0.469688 0.449665 0.019012
0.520093 0.458505 0.021778
0.562091 0.461962 0.011929
0.636309 0.465152 0.001472
0.665635 0.478432 0.002568
0.717429 0.507623 0.068206
0.742309 0.501126 0.013338
0.784084 0.506623 0.000281
0.815153 0.527361 0.043661
0.848353 0.545615 0.118352
0.868080 0.554481 0.115230
0.897774 0.569777 0.178315
0.962135 0.590273 0.349478
0.959101 0.522621 0.321995
0.959499 0.531641 0.316924
0.957804 0.549617 0.260458
0.959428 0.549927 0.300698
0.011298 0.349910 0.079663
0.014771 0.379460 0.150210
0.017029 0.424755 0.173423
0.016222 0.397237 0.173477
0.011784 0.378985 0.075835
0.013314 0.381845 0.122759
0.016849 0.359534 0.060618
0.134214 0.394230 0.048407
0.145305 0.405358 0.048390
0.165938 0.413265 0.046825
0.209410 0.434718 0.086132
0.250453 0.439656 0.088616
0.293000 0.446052 0.043219
0.333774 0.452235 0.034480
0.358305 0.457124 0.035368
0.416995 0.459735 0.020138
0.465928 0.480261 0.033017
0.534985 0.498046 0.067324
0.574582 0.489622 0.005783
0.631060 0.498200 0.002577
0.660381 0.517135 0.014527
0.746507 0.561974 0.194380
0.753875 0.530904 0.011842
0.782907 0.538837 0.002376
0.818856 0.561482 0.062515
0.853729 0.573666 0.093919
0.861871 0.582308 0.117622
0.919286 0.604427 0.196941
0.964336 0.593077 0.409709
0.962011 0.578335 0.362250
0.960706 0.574968 0.325128
0.960216 0.576147 0.311816
0.961049 0.566771 0.342814
0.014489 0.411875 0.123703
0.018302 0.441349 0.197429
0.016102 0.417802 0.161655
0.016133 0.420180 0.161109
0.012381 0.408277 0.076860
0.012380 0.410313 0.070590
0.011916 0.394005 0.066981
0.129949 0.442178 0.143915
0.156968 0.446137 0.113239
0.158300 0.442187 0.053237
0.195243 0.455581 0.064487
0.237368 0.455682 0.044796
0.289402 0.492608 0.095478
0.336048 0.486067 0.061206
0.356652 0.482079 0.034807
0.409033 0.489191 0.025944
0.472932 0.515629 0.047293
0.561687 0.542792 0.164764
0.570149 0.515989 0.011326
0.611500 0.531074 0.009694
0.664567 0.548828 0.032743
0.719292 0.565414 0.073460
0.757043 0.557071 0.003056
0.781638 0.572363 0.011474
0.807719 0.589785 0.047735
0.847213 0.595928 0.037102
0.860611 0.627581 0.114394
0.904675 0.633157 0.186254
0.964926 0.645208 0.385031
0.965923 0.638624 0.413021
0.965282 0.622571 0.408026
0.963565 0.616422 0.374911
0.963330 0.633884 0.343398
0.015502 0.418393 0.147441
0.013299 0.411707 0.096587
0.012089 0.386254 0.066394
0.014269 0.430335 0.097286
0.014237 0.425151 0.102243
0.019218 0.487567 0.194645
0.017177 0.441380 0.120040
0.118643 0.494271 0.208927
0.143575 0.470394 0.067495
0.163958 0.477353 0.101136
0.188458 0.478515 0.060937
0.236483 0.481701 0.048478
0.284549 0.513268 0.095295
0.338636 0.520493 0.127390
0.367921 0.510215 0.054086
0.410303 0.518791 0.031060
0.463169 0.535423 0.039677
0.533963 0.555334 0.097672
0.561776 0.546132 0.020523
0.615912 0.567491 0.030053
0.685276 0.574990 0.022581
0.713932 0.579368 0.005689
0.771550 0.580787 0.001070
0.786875 0.610234 0.052742
0.825350 0.629672 0.114152
0.841751 0.626482 0.028671
0.842361 0.647277 0.119860
0.921566 0.659665 0.236268
0.963773 0.693238 0.322014
0.965584 0.669903 0.378476
0.962274 0.636121 0.321799
0.962221 0.635317 0.321495
0.964105 0.664485 0.355549
0.015876 0.438144 0.144867
0.013137 0.422581 0.069940
0.015625 0.466052 0.112974
0.020937 0.483751 0.240052
0.018330 0.470499 0.178649
0.018075 0.470037 0.173675
0.013552 0.431451 0.070737
0.015215 0.461944 0.086378
0.182631 0.477679 0.055611
0.201032 0.522994 0.175506
0.195009 0.508152 0.079288
0.215265 0.506752 0.055872
0.271723 0.523512 0.051573
0.330457 0.545288 0.129563
0.359628 0.538926 0.058084
0.411757 0.560669 0.050181
0.472464 0.560102 0.042069
0.504217 0.568991 0.035949
0.583882 0.570890 0.017994
0.636131 0.613901 0.099571
0.699153 0.614246 0.077395
0.730393 0.613116 0.004865
0.753906 0.627119 0.005710
0.801661 0.650149 0.117098
0.826721 0.657965 0.140783
0.828125 0.661502 0.034890
0.836269 0.676299 0.123044
0.891563 0.698166 0.203166
0.964108 0.714033 0.317471
0.962560 0.654416 0.320540
0.966095 0.709259 0.364199
0.964468 0.665061 0.353765
0.966886 0.707354 0.399269
0.016406 0.478072 0.124187
0.017643 0.485380 0.157970
0.018823 0.478754 0.189389
0.022748 0.522363 0.263854
0.017867 0.447152 0.183816
0.017947 0.483921 0.156170
0.015678 0.484106 0.087588
0.015636 0.493014 0.097012
0.115518 0.503300 0.070285
0.178694 0.537493 0.109107
0.199205 0.539877 0.130774
0.204229 0.536800 0.062997
0.262436 0.545816 0.056818
0.301633 0.562639 0.080201
0.343208 0.561922 0.048160
0.433881 0.607797 0.128353
0.490392 0.593131 0.058786
0.527021 0.595620 0.028137
0.579304 0.612045 0.024071
0.644196 0.649537 0.124738
0.690589 0.649685 0.116550
0.721667 0.644363 0.011358
0.753029 0.666858 0.029651
0.792836 0.674577 0.038145
0.817662 0.677758 0.007868
0.819832 0.691462 0.026167
0.857378 0.709556 0.151652
0.908146 0.717320 0.235262
0.966804 0.718690 0.381330
0.967297 0.713969 0.394092
0.967210 0.728769 0.382632
0.965710 0.709492 0.358390
0.968365 0.732372 0.418196
0.017637 0.536947 0.120295
0.015911 0.510435 0.096982
0.015309 0.497918 0.082877
0.020474 0.508649 0.209398
0.020981 0.505626 0.218958
0.022189 0.527774 0.246822
0.021337 0.532880 0.226908
0.018560 0.524271 0.157469
0.093098 0.554633 0.088040
0.205997 0.554905 0.085248
0.186111 0.560726 0.079484
0.177286 0.586556 0.111534
0.249023 0.574189 0.064522
0.292326 0.587211 0.065714
0.365104 0.588877 0.049726
0.420674 0.640640 0.129053
0.489382 0.641579 0.165733
0.538283 0.622826 0.030721
0.587110 0.648413 0.032704
0.632667 0.661061 0.038643
0.662111 0.666688 0.029942
0.719287 0.686742 0.018163
0.759557 0.706897 0.095823
0.793226 0.709735 0.023234
0.822611 0.714700 0.009026
0.831504 0.724618 0.089425
0.872495 0.738868 0.220397
0.921125 0.740723 0.235009
0.966876 0.749621 0.373322
0.965188 0.711999 0.341452
0.968368 0.761153 0.403328
0.967823 0.763560 0.378568
0.966540 0.760646 0.350686
0.017551 0.512244 0.129665
0.015769 0.502870 0.093934
0.016039 0.518538 0.086459
0.015939 0.513611 0.085150
0.020708 0.542183 0.183078
0.018997 0.560645 0.135070
0.018641 0.543813 0.139277
0.021909 0.566542 0.212345
0.099650 0.560200 0.081757
0.131440 0.580510 0.086393
0.165546 0.581820 0.076170
0.162367 0.635937 0.228400
0.248957 0.614105 0.106862
0.300282 0.613910 0.068500
0.377498 0.621644 0.053831
0.406596 0.639782 0.054204
0.449023 0.662144 0.124771
0.521019 0.660312 0.039967
0.592017 0.697171 0.089034
0.646651 0.689790 0.032786
0.680777 0.702579 0.025301
0.699458 0.723761 0.028356
0.780579 0.741819 0.218651
0.795546 0.735578 0.024514
0.813057 0.747061 0.024214
0.856207 0.757511 0.140599
0.872611 0.763965 0.129503
0.883639 0.766483 0.225139
0.967067 0.781639 0.391357
0.970359 0.782861 0.426203
0.970311 0.784720 0.434018
0.970127 0.776700 0.429266
0.968854 0.784465 0.389272
0.019653 0.546942 0.151899
0.021246 0.559760 0.187968
0.017485 0.528951 0.108752
0.022267 0.576946 0.208593
0.022869 0.579628 0.225482
0.021359 0.571029 0.182211
0.021481 0.571782 0.184756
0.022799 0.582324 0.216209
0.020246 0.580833 0.160748
0.130810 0.610615 0.100334
0.160300 0.610234 0.081731
0.159147 0.648813 0.119001
0.269498 0.664582 0.234466
0.290970 0.644329 0.074473
0.355195 0.661819 0.064938
0.402217 0.669358 0.061302
0.439532 0.680915 0.057492
0.505118 0.705926 0.050152
0.597313 0.737957 0.204680
0.634709 0.726784 0.080635
0.666018 0.737400 0.032461
0.722015 0.750811 0.038681
0.774784 0.756483 0.121557
0.793376 0.764967 0.020099
0.808737 0.782930 0.071868
0.861634 0.787716 0.085908
0.851430 0.790309 0.108456
0.897644 0.791499 0.302178
0.945248 0.815531 0.350396
0.970551 0.814538 0.417011
0.970246 0.804474 0.418026
0.971475 0.793490 0.456825
0.972024 0.808824 0.462976
0.023148 0.599316 0.217152
0.024858 0.606507 0.264250
0.025111 0.613256 0.266091
0.023285 0.609244 0.218927
0.021907 0.591105 0.184865
0.020398 0.579294 0.148310
0.018180 0.578903 0.095887
0.019183 0.593039 0.117225
0.018380 0.591079 0.098084
0.025766 0.657290 0.188032
0.177602 0.642711 0.084995
0.198149 0.649923 0.083489
0.225793 0.669623 0.121729
0.262736 0.675954 0.080787
0.329301 0.715010 0.150538
0.410687 0.702005 0.083942
0.471008 0.714155 0.056245
0.514903 0.733072 0.052928
0.577536 0.753132 0.168608
0.574173 0.753868 0.054484
0.657118 0.782107 0.053565
0.736061 0.786053 0.074441
0.767918 0.790491 0.028593
0.785126 0.803485 0.029654
0.828749 0.810066 0.239565
0.851623 0.812214 0.098860
0.853735 0.818009 0.141638
0.901928 0.820452 0.344498
0.959952 0.827322 0.375042
0.971120 0.851170 0.412053
0.971712 0.833853 0.442856
0.973287 0.811936 0.490391
0.975123 0.834888 0.505272
0.017531 0.568444 0.095234
0.022946 0.609119 0.210994
0.018443 0.596455 0.100327
0.019205 0.613351 0.108707
0.023341 0.628409 0.201041
0.021602 0.622822 0.156388
0.024937 0.639176 0.235677
0.019608 0.629174 0.105647
0.019742 0.639085 0.105933
0.024037 0.660802 0.188866
0.036810 0.658863 0.190096
0.260014 0.679979 0.080199
0.223958 0.690479 0.088851
0.249621 0.700566 0.085110
0.311774 0.747591 0.270040
0.389999 0.738427 0.197717
0.450799 0.753305 0.066325
0.521521 0.768043 0.058642
0.561413 0.775251 0.064703
0.605774 0.792571 0.050528
0.671869 0.812445 0.208712
0.731839 0.807715 0.129724
0.764089 0.817620 0.033017
0.789708 0.828716 0.061248
0.849153 0.824526 0.261505
0.845452 0.835152 0.052538
