calib/LUT LIBRARY/classic_neg.cube
#Generated with Fujify color engine
#Website: https://fujify.me
#LUMIXPHOTOSTYLE STD
LUT_3D_SIZE 33
0.023529 0.027451 0.023529
0.038848 0.027451 0.023529
0.054167 0.031373 0.023529
0.073775 0.035294 0.023529
0.096078 0.038726 0.026961
0.116422 0.043137 0.027451
0.146079 0.050245 0.027451
0.169975 0.050980 0.027451
0.197059 0.057844 0.023529
0.230882 0.062745 0.024632
0.257843 0.066667 0.027451
0.288726 0.073162 0.024877
0.323529 0.080882 0.023529
0.358334 0.084682 0.023529
0.397549 0.092402 0.021323
0.433946 0.100123 0.019608
0.474510 0.105882 0.017647
0.518750 0.115563 0.015686
0.561519 0.121569 0.013971
0.601716 0.123162 0.011765
0.641176 0.126961 0.010294
0.675980 0.132108 0.007843
0.710784 0.136029 0.007843
0.740564 0.140073 0.007843
0.770588 0.141176 0.011765
0.793873 0.142034 0.011765
0.813971 0.141176 0.012500
0.837132 0.145098 0.016299
0.855882 0.145098 0.024019
0.875245 0.141176 0.032476
0.890686 0.141176 0.047549
0.906127 0.141053 0.063113
0.917647 0.137255 0.082353
0.023529 0.038971 0.031250
0.035171 0.042888 0.031250
0.054174 0.046814 0.031250
0.073763 0.054178 0.034693
0.097043 0.054642 0.031250
0.119731 0.058579 0.035171
0.149900 0.062599 0.035171
0.173775 0.069485 0.035171
0.200031 0.077083 0.034222
0.229726 0.081005 0.031373
0.261727 0.087454 0.033900
0.292647 0.093750 0.031250
0.325903 0.100169 0.031250
0.360612 0.105587 0.028995
0.395397 0.113426 0.027328
0.435964 0.121503 0.027328
0.478493 0.129044 0.023406
0.519118 0.134861 0.023406
0.565426 0.142524 0.019485
0.605587 0.147867 0.015636
0.645098 0.152619 0.015563
0.682314 0.156495 0.015563
0.714622 0.160416 0.014376
0.745500 0.164338 0.015563
0.774418 0.165319 0.015594
0.798529 0.168995 0.016517
0.820979 0.168259 0.020221
0.841035 0.171465 0.027328
0.863128 0.171584 0.035554
0.879044 0.168148 0.043750
0.894493 0.164576 0.059306
0.909927 0.164216 0.078431
0.921569 0.160416 0.097794
0.023284 0.054412 0.038971
0.035286 0.058334 0.038971
0.057859 0.062255 0.038971
0.073997 0.069730 0.038971
0.100276 0.073530 0.042432
0.120550 0.077366 0.042892
0.147059 0.081863 0.042892
0.176769 0.088848 0.039966
0.201103 0.096323 0.042892
0.230882 0.100368 0.042823
0.262914 0.107843 0.041498
0.292724 0.111887 0.038971
0.323774 0.119455 0.038971
0.362845 0.125690 0.036788
0.399157 0.133196 0.035049
0.434191 0.140571 0.035049
0.481985 0.148407 0.031128
0.523161 0.156128 0.027336
0.569117 0.163971 0.023422
0.609459 0.169485 0.021791
0.648713 0.175736 0.021814
0.687423 0.180921 0.019524
0.720987 0.184973 0.019363
0.751976 0.188603 0.019432
0.779167 0.192157 0.023284
0.802328 0.191422 0.024333
0.825490 0.195297 0.027941
0.848039 0.195343 0.035662
0.867402 0.198560 0.043842
0.882866 0.195121 0.059069
0.898529 0.191651 0.071293
0.913725 0.191406 0.093873
0.925490 0.187255 0.109559
0.019976 0.069853 0.046691
0.038959 0.077217 0.050145
0.054757 0.081250 0.046913
0.074108 0.088725 0.050612
0.100169 0.092525 0.050566
0.123652 0.096381 0.050612
0.150735 0.101157 0.050612
0.176674 0.107924 0.050612
0.203646 0.112622 0.050612
0.231250 0.119466 0.050612
0.261765 0.124640 0.050612
0.296201 0.132471 0.048154
0.327313 0.136612 0.046691
0.358701 0.146324 0.046473
0.400613 0.154044 0.042769
0.438040 0.160099 0.042574
0.482169 0.167708 0.038848
0.526815 0.175318 0.034926
0.568919 0.182927 0.031212
0.610444 0.188875 0.030787
0.652482 0.196446 0.027083
0.687630 0.200372 0.027083
0.722296 0.207966 0.027083
0.755986 0.211765 0.028186
0.783058 0.214675 0.031005
0.806208 0.214583 0.034639
0.829588 0.218505 0.038848
0.851895 0.221503 0.046994
0.871247 0.221936 0.058625
0.887343 0.218505 0.070956
0.905783 0.218505 0.089951
0.917524 0.214694 0.108969
0.929412 0.214215 0.125122
0.019608 0.089216 0.058334
0.035049 0.093138 0.058334
0.054657 0.100276 0.058334
0.077328 0.104534 0.058334
0.100490 0.111764 0.061765
0.123652 0.115564 0.058747
0.150735 0.119853 0.061121
0.174280 0.126440 0.061765
0.204779 0.131372 0.058334
0.234666 0.137775 0.060800
0.262255 0.142892 0.058334
0.292647 0.151470 0.058334
0.327267 0.158027 0.055883
0.362546 0.165564 0.055806
0.401195 0.173285 0.052206
0.441330 0.179182 0.050229
0.480883 0.187255 0.048284
0.530729 0.195067 0.042647
0.572641 0.202666 0.040656
0.614415 0.209850 0.038527
0.654106 0.217157 0.034804
0.691345 0.222227 0.034804
0.726134 0.226287 0.034804
0.757000 0.230393 0.035769
0.786887 0.234314 0.038726
0.810784 0.237745 0.043398
0.833487 0.241667 0.050490
0.856127 0.241667 0.058533
0.875061 0.245098 0.070588
0.891253 0.244777 0.086030
0.909589 0.241667 0.101961
0.921799 0.237868 0.120956
0.936765 0.237745 0.144118
0.019608 0.107966 0.069975
0.031741 0.112500 0.069363
0.050858 0.116422 0.066835
0.077328 0.123652 0.069420
0.099878 0.128110 0.069899
0.123556 0.132012 0.069975
0.150620 0.139215 0.069975
0.174510 0.146324 0.069841
0.201440 0.150582 0.069975
0.234364 0.157843 0.069975
0.263220 0.164529 0.069363
0.293260 0.169765 0.066054
0.328278 0.177083 0.066054
0.364334 0.184804 0.064097
0.399533 0.191077 0.062132
0.441828 0.198981 0.058498
0.484926 0.206618 0.056250
0.534643 0.216012 0.052451
0.576792 0.223407 0.050099
0.621075 0.231128 0.046446
0.656709 0.237378 0.046216
0.695186 0.243049 0.045098
0.729971 0.249142 0.045834
0.760834 0.253064 0.046446
0.791544 0.256986 0.050735
0.815062 0.260907 0.055013
0.837385 0.264208 0.062255
0.860049 0.264829 0.071105
0.879289 0.264829 0.085080
0.895163 0.265384 0.098414
0.913396 0.265403 0.116950
0.925716 0.264235 0.136378
0.940563 0.260907 0.155638
0.015686 0.131127 0.081618
0.031128 0.135784 0.080905
0.047258 0.142693 0.080928
0.069485 0.146814 0.081618
0.096078 0.150735 0.081618
0.120466 0.154780 0.080997
0.150000 0.161903 0.081618
0.177122 0.166421 0.082315
0.203922 0.173468 0.082414
0.231089 0.178186 0.081089
0.264951 0.185034 0.077696
0.293382 0.192777 0.077696
0.326256 0.198254 0.077236
0.363848 0.206074 0.073775
0.401394 0.213894 0.073361
0.445366 0.221714 0.069462
0.488235 0.231495 0.065932
0.538213 0.239193 0.063703
0.583992 0.246569 0.059482
0.621462 0.254289 0.057652
0.661979 0.260019 0.055362
0.700605 0.266062 0.054167
0.734804 0.274035 0.055162
0.766092 0.280147 0.058985
0.795895 0.284069 0.062806
0.821446 0.287293 0.070550
0.844010 0.287990 0.077696
0.863970 0.291299 0.086152
0.883333 0.291912 0.101072
0.901662 0.291912 0.113725
0.917402 0.291223 0.131709
0.932843 0.291177 0.148652
0.948285 0.287990 0.171078
0.011765 0.154289 0.092402
0.024238 0.158088 0.093233
0.042647 0.161887 0.093260
0.065564 0.166544 0.092402
0.089476 0.173407 0.093153
0.116533 0.177206 0.093260
0.146814 0.181005 0.093260
0.174567 0.188726 0.093260
0.204136 0.192524 0.092402
0.231124 0.199384 0.092402
0.259658 0.204634 0.089338
0.295711 0.211765 0.089338
0.327987 0.219485 0.086566
0.366403 0.225961 0.085417
0.404044 0.233962 0.084559
0.447917 0.243049 0.081039
0.492156 0.250796 0.075613
0.542471 0.260171 0.073250
0.587737 0.269730 0.069730
0.625406 0.275632 0.068872
0.665855 0.282721 0.065809
0.704484 0.288971 0.065246
0.739192 0.293038 0.066766
0.772798 0.303309 0.072794
0.799785 0.307230 0.076930
0.825433 0.309624 0.084747
0.847832 0.311152 0.090074
0.870956 0.314461 0.100992
0.887638 0.314583 0.112883
0.905760 0.315073 0.128144
0.921393 0.315073 0.143873
0.937596 0.315047 0.160294
0.956005 0.315073 0.179534
0.007843 0.173530 0.104902
0.019394 0.181250 0.103921
0.035723 0.185049 0.103921
0.058701 0.188848 0.104902
0.084804 0.192647 0.107843
0.114369 0.197886 0.104902
0.145282 0.204167 0.104718
0.173683 0.207966 0.104687
0.202941 0.213480 0.103921
0.231863 0.219485 0.101808
0.261765 0.224510 0.101899
0.293566 0.231985 0.100981
0.329534 0.239338 0.098162
0.366728 0.248775 0.097059
0.406679 0.256372 0.094792
0.448652 0.263970 0.092157
0.496078 0.272059 0.088725
0.545405 0.283334 0.084835
0.590932 0.291177 0.081372
0.629350 0.298284 0.079197
0.670833 0.305882 0.077451
0.708364 0.312132 0.077451
0.743076 0.317157 0.078370
0.776685 0.326471 0.084314
0.806128 0.330392 0.089216
0.830025 0.334099 0.096936
0.852206 0.334314 0.104657
0.876042 0.338082 0.116299
0.894118 0.338480 0.125368
0.913480 0.338511 0.142708
0.930025 0.338419 0.156495
0.948285 0.341176 0.174786
0.963725 0.338235 0.194117
0.005025 0.196691 0.115441
0.015475 0.204289 0.116544
0.030883 0.208211 0.119187
0.053799 0.209456 0.116808
0.080392 0.212377 0.115931
0.107353 0.220048 0.116054
0.142157 0.224142 0.115648
0.172178 0.231127 0.116544
0.200000 0.235907 0.116544
0.229779 0.242647 0.115751
0.258946 0.247671 0.113503
0.291678 0.254546 0.111898
0.329488 0.261887 0.109758
0.365686 0.269608 0.108046
0.407246 0.277949 0.104779
0.449809 0.287133 0.103676
0.497181 0.294731 0.099755
0.546377 0.305909 0.096419
0.592754 0.313718 0.094118
0.635987 0.320301 0.090767
0.674663 0.329044 0.090150
0.714093 0.335294 0.089093
0.749242 0.342257 0.089974
0.782908 0.349632 0.096143
0.809957 0.353554 0.101562
0.836765 0.357475 0.109317
0.859720 0.360294 0.117808
0.882916 0.362010 0.128432
0.902328 0.361887 0.140089
0.921201 0.364319 0.155392
0.940563 0.365318 0.171867
0.956005 0.365318 0.187465
0.971446 0.361397 0.209559
0.003922 0.219853 0.130882
0.011642 0.224923 0.130882
0.026792 0.227696 0.130882
0.045956 0.231617 0.130882
0.072702 0.238971 0.131035
0.103010 0.243382 0.130882
0.135034 0.247304 0.128692
0.163726 0.254290 0.128776
0.196752 0.258395 0.128186
0.227719 0.265809 0.128186
0.258686 0.269608 0.124265
0.291720 0.277328 0.124265
0.328676 0.284038 0.120803
0.365809 0.292770 0.119616
0.407261 0.300490 0.115732
0.451233 0.308862 0.113764
0.500000 0.317892 0.111274
0.550291 0.327574 0.108004
0.596124 0.337500 0.104120
0.638611 0.345711 0.103431
0.680086 0.353891 0.100735
0.718313 0.358456 0.103431
0.753079 0.368872 0.104657
0.786742 0.372794 0.107698
0.813787 0.377390 0.113174
0.841422 0.381495 0.120244
0.865227 0.385294 0.129427
0.890809 0.389721 0.140985
0.912408 0.391176 0.155055
0.928922 0.392402 0.170581
0.945512 0.394930 0.186274
0.961029 0.392363 0.202941
0.975245 0.392402 0.223774
0.001348 0.239093 0.142402
0.007720 0.246936 0.142402
0.019118 0.250858 0.143750
0.039461 0.257112 0.143750
0.064706 0.262301 0.143750
0.090441 0.265931 0.145711
0.128071 0.271821 0.142402
0.158996 0.277451 0.142402
0.189920 0.283180 0.139828
0.223763 0.288971 0.139828
0.256495 0.294539 0.138480
0.290074 0.300490 0.135907
0.328094 0.307705 0.132950
0.365931 0.315384 0.131185
0.408555 0.324778 0.129190
0.453083 0.331373 0.127348
0.501348 0.343015 0.122794
0.550283 0.350735 0.119505
0.596645 0.360662 0.117747
0.640613 0.370098 0.115751
0.683471 0.377819 0.114951
0.722154 0.382966 0.113262
0.756916 0.392034 0.116299
0.790575 0.399632 0.119976
0.821171 0.404779 0.125123
0.848284 0.408579 0.131495
0.872541 0.413121 0.141046
0.895746 0.415564 0.154780
0.917448 0.417815 0.166911
0.934068 0.419600 0.182353
0.949510 0.419562 0.199219
0.964951 0.419443 0.218585
0.979044 0.415564 0.240441
0.000000 0.266177 0.155392
0.003922 0.270022 0.155392
0.015196 0.276164 0.155392
0.030638 0.281495 0.157843
0.052451 0.285294 0.157843
0.079534 0.291161 0.157843
0.120098 0.296814 0.157843
0.152451 0.302528 0.156985
0.185784 0.308333 0.153922
0.220190 0.312132 0.153922
0.253922 0.319393 0.151471
0.289354 0.325260 0.147549
0.325061 0.331373 0.146079
0.364859 0.339093 0.143627
0.408486 0.348529 0.141421
0.453707 0.356372 0.137622
0.502696 0.368137 0.136274
0.553508 0.375736 0.131173
0.597702 0.386918 0.130147
0.642387 0.396308 0.128937
0.684865 0.402451 0.126471
0.725996 0.411274 0.127436
0.760754 0.418872 0.128707
0.795098 0.424831 0.131495
0.827083 0.430760 0.136765
0.853232 0.436106 0.145021
0.876440 0.440717 0.154657
0.899647 0.443260 0.166911
0.921262 0.445282 0.182353
0.937990 0.446798 0.197932
0.953431 0.445190 0.214859
0.968826 0.445144 0.232721
0.980392 0.442647 0.255883
0.000000 0.289338 0.167034
0.003799 0.295393 0.169290
0.009191 0.300858 0.169363
0.020466 0.304657 0.169363
0.043260 0.308456 0.169363
0.071323 0.312867 0.169363
0.111343 0.319975 0.169363
0.146672 0.325877 0.167543
0.181403 0.329749 0.166636
0.214541 0.338767 0.165441
0.250000 0.343015 0.165441
0.286397 0.350188 0.161520
0.324111 0.356985 0.159191
0.364882 0.364583 0.155270
0.409436 0.373897 0.154374
0.453700 0.383946 0.151593
0.505515 0.393627 0.149755
0.554189 0.404155 0.145833
0.600536 0.412944 0.142808
0.646236 0.423319 0.140529
0.688710 0.431848 0.139445
0.729837 0.438358 0.139583
0.766920 0.446331 0.141912
0.800042 0.451880 0.144608
0.830974 0.460294 0.150735
0.857127 0.464216 0.158456
0.880338 0.468873 0.168206
0.903550 0.470343 0.182353
0.925077 0.474586 0.196400
0.940468 0.477424 0.213235
0.957353 0.477474 0.232598
0.972744 0.477524 0.252034
0.984314 0.475981 0.275245
0.000000 0.314706 0.178677
0.000000 0.318084 0.180883
0.005392 0.320343 0.180883
0.016667 0.326264 0.180883
0.035539 0.332108 0.180883
0.061252 0.337891 0.180883
0.098284 0.343873 0.180883
0.134681 0.347794 0.180883
0.172733 0.355208 0.177941
0.206863 0.363963 0.178546
0.247595 0.369562 0.176961
0.285761 0.375345 0.173039
0.324081 0.382997 0.173039
0.366299 0.392241 0.170711
0.409314 0.400015 0.167877
0.455775 0.411818 0.166230
0.508946 0.420588 0.162377
0.558104 0.431181 0.159436
0.604442 0.442663 0.157353
0.650084 0.450330 0.154450
0.692555 0.459804 0.153432
0.734436 0.467547 0.155147
0.771477 0.474019 0.154657
0.803929 0.483333 0.161275
0.834866 0.487806 0.165747
0.859299 0.493750 0.173897
0.884237 0.495834 0.182353
0.907452 0.502941 0.199242
0.926961 0.506372 0.213235
0.944278 0.507069 0.228883
0.959559 0.507000 0.248177
0.974931 0.506916 0.269378
0.984314 0.506862 0.294608
0.000000 0.335662 0.190319
0.000000 0.341602 0.192402
0.003677 0.347311 0.192402
0.009314 0.351348 0.192402
0.024387 0.357093 0.192662
0.046772 0.363113 0.193014
0.084436 0.369118 0.192402
0.122637 0.374877 0.192402
0.162040 0.380882 0.192402
0.200762 0.390958 0.192402
0.242157 0.396607 0.188481
0.283927 0.402348 0.188481
0.324142 0.410784 0.185340
0.366422 0.419252 0.184559
0.411259 0.431181 0.184559
0.457606 0.439951 0.180638
0.511765 0.449510 0.177757
0.562002 0.462990 0.173901
0.609367 0.470589 0.171883
0.653688 0.480515 0.169964
0.699479 0.489706 0.168873
0.739441 0.496588 0.168873
0.774180 0.506372 0.171362
0.807817 0.511397 0.173897
0.838756 0.517555 0.180055
0.861853 0.522917 0.189338
0.884950 0.529902 0.200980
0.911355 0.534149 0.215112
0.930653 0.534313 0.228937
0.946201 0.537745 0.246151
0.963228 0.537745 0.265679
0.976594 0.535727 0.286945
0.988235 0.537990 0.316054
0.000000 0.364706 0.203922
0.000000 0.368566 0.205821
0.000000 0.374387 0.206005
0.005699 0.378247 0.207844
0.016667 0.385784 0.207844
0.035417 0.389890 0.207844
0.069608 0.397304 0.207844
0.105514 0.405453 0.206311
0.148529 0.409804 0.206373
0.190012 0.419056 0.205882
0.235049 0.426961 0.205883
0.278247 0.431985 0.201961
0.321324 0.440441 0.200000
0.366115 0.449020 0.199632
0.410416 0.461275 0.198039
0.458517 0.468873 0.196078
0.513725 0.484314 0.194117
0.565931 0.492953 0.190196
0.612255 0.503922 0.189338
0.659742 0.514951 0.186275
0.703431 0.521078 0.185539
0.743995 0.531373 0.185600
0.781373 0.537868 0.187623
0.811703 0.544240 0.191299
0.842647 0.548039 0.197549
0.865747 0.556863 0.206740
0.888848 0.562010 0.216789
0.915257 0.563358 0.230943
0.934313 0.567157 0.246323
0.949755 0.567035 0.261887
0.965196 0.570588 0.285049
0.978615 0.574387 0.310172
0.988235 0.574510 0.335294
0.000000 0.391667 0.219362
0.000000 0.397549 0.219362
0.000000 0.403071 0.219362
0.001888 0.408873 0.219362
0.009436 0.414476 0.221446
0.024387 0.420263 0.221446
0.053700 0.425881 0.221446
0.087990 0.434402 0.221848
0.132659 0.440809 0.221906
0.178703 0.447890 0.223284
0.224671 0.456533 0.221446
0.271304 0.463481 0.219362
0.315365 0.472549 0.216912
0.361006 0.482598 0.215441
0.410363 0.491108 0.215441
0.459689 0.502577 0.213358
0.513603 0.514277 0.210600
0.566801 0.524870 0.206737
0.616192 0.535363 0.203676
0.663614 0.545110 0.203676
0.708073 0.555071 0.200904
0.747832 0.563641 0.201754
0.785217 0.570014 0.202413
0.815591 0.575245 0.206687
0.844700 0.582261 0.212500
0.869643 0.587745 0.223687
0.892402 0.592402 0.232598
0.918872 0.596201 0.248039
0.934543 0.601379 0.263711
0.953481 0.603431 0.283016
0.968872 0.607108 0.304404
0.980515 0.607230 0.329534
0.990073 0.605515 0.356617
0.000000 0.418628 0.230882
0.000000 0.424633 0.230882
0.000000 0.430040 0.234559
0.000000 0.435945 0.234437
0.005852 0.441452 0.234314
0.016935 0.447327 0.234804
0.040686 0.455714 0.237010
0.074150 0.461765 0.237010
0.115993 0.470466 0.236642
0.161887 0.479167 0.237010
0.211765 0.485585 0.234804
0.261275 0.493138 0.233678
0.309130 0.504810 0.233088
0.358371 0.512462 0.230882
0.409528 0.522794 0.229917
0.459697 0.533632 0.229167
0.517647 0.543260 0.224142
0.570519 0.555775 0.220289
0.620129 0.564476 0.218152
0.666468 0.575077 0.216215
0.711336 0.585447 0.215196
0.751080 0.593283 0.215954
0.787347 0.601425 0.216422
0.819477 0.606863 0.223039
0.846507 0.611213 0.227941
0.872679 0.616046 0.236520
0.895910 0.621569 0.248039
0.918872 0.628332 0.266789
0.938235 0.630392 0.282629
0.953676 0.634153 0.300651
0.968979 0.634421 0.321921
0.980568 0.636504 0.345083
0.992157 0.636030 0.373774
0.000000 0.445588 0.244730
0.000000 0.451716 0.246273
0.000000 0.457108 0.246323
0.000000 0.463017 0.246323
0.002038 0.468428 0.246323
0.009559 0.474640 0.246572
0.029902 0.482774 0.247059
0.059540 0.489970 0.250245
0.098958 0.499510 0.250245
0.146121 0.506782 0.251919
0.197672 0.515679 0.250973
0.250441 0.526046 0.250245
0.303891 0.532843 0.247196
0.354201 0.542980 0.245377
0.406610 0.552980 0.244730
0.462833 0.563381 0.241556
0.517647 0.575000 0.238848
0.575590 0.584927 0.233812
0.623652 0.595627 0.232843
0.670412 0.605637 0.230637
0.713832 0.614691 0.230637
0.753914 0.621332 0.230090
0.789714 0.630400 0.231863
0.822220 0.635581 0.236317
0.850000 0.641452 0.243382
0.873162 0.647691 0.252696
0.896324 0.653431 0.265372
0.920830 0.657353 0.278922
0.939629 0.660080 0.296247
0.955120 0.663752 0.315755
0.969117 0.665442 0.338894
0.980637 0.665319 0.362155
0.992157 0.665196 0.391421
0.000000 0.472549 0.260294
0.000000 0.478799 0.260218
0.000000 0.484069 0.261520
0.000000 0.490319 0.261765
0.000000 0.496078 0.261765
0.005760 0.502451 0.261765
0.019393 0.513021 0.262960
0.043015 0.520665 0.264828
0.080270 0.528676 0.265073
0.127926 0.537056 0.265686
0.181311 0.547518 0.265686
0.237454 0.553554 0.264216
0.291422 0.563664 0.262684
0.347304 0.572319 0.260294
0.403462 0.581281 0.257016
0.459651 0.594363 0.256373
0.517647 0.601961 0.251225
0.575582 0.615564 0.248851
0.626501 0.625000 0.246078
0.670435 0.634927 0.243030
0.713787 0.644731 0.243076
0.754918 0.653324 0.244608
0.791360 0.658854 0.247304
0.822917 0.666866 0.251103
0.848162 0.672549 0.258456
0.874847 0.676471 0.266544
0.897518 0.680392 0.278646
0.920726 0.684926 0.294746
0.938726 0.688725 0.310294
0.956265 0.692525 0.331985
0.969117 0.694853 0.352942
0.980637 0.696155 0.379902
0.992157 0.696078 0.408334
0.000000 0.502083 0.273284
0.000000 0.507188 0.273284
0.000000 0.513527 0.273284
0.000000 0.518991 0.274747
0.000000 0.523039 0.274954
0.002172 0.531809 0.275034
0.012868 0.540564 0.277206
0.031373 0.548016 0.277206
0.063266 0.558364 0.278217
0.105725 0.567892 0.280024
0.164392 0.574985 0.280200
0.220887 0.584436 0.278091
0.281250 0.593766 0.277206
0.340376 0.601953 0.274330
0.398307 0.612967 0.271936
0.457173 0.621956 0.269363
0.518260 0.635417 0.265441
0.575574 0.644447 0.262236
0.625659 0.655614 0.259804
0.672059 0.665008 0.257598
0.715349 0.673652 0.257598
0.755760 0.681250 0.257598
0.791789 0.690319 0.261520
0.821791 0.695588 0.265441
0.851991 0.699847 0.272917
0.877084 0.704852 0.282843
0.900245 0.710662 0.294363
0.922794 0.714461 0.309804
0.940655 0.716008 0.325736
0.957357 0.720707 0.346323
0.969117 0.726877 0.372059
0.983130 0.726919 0.399184
0.992157 0.726961 0.430147
0.000000 0.529167 0.288726
0.000000 0.534276 0.288726
0.000000 0.540763 0.288726
0.000000 0.547074 0.288726
0.000000 0.555790 0.292157
0.000000 0.560961 0.292034
0.005882 0.568383 0.290457
0.019998 0.576593 0.292647
0.046936 0.586336 0.292647
0.086344 0.595198 0.292647
0.138159 0.606373 0.295343
0.201103 0.613167 0.292647
0.267218 0.623039 0.291881
0.329305 0.631863 0.287998
0.394409 0.640533 0.284804
0.451218 0.652206 0.282146
0.517034 0.663113 0.277574
0.572909 0.673407 0.275697
0.625643 0.684360 0.273039
0.671936 0.692770 0.272541
0.716391 0.702175 0.270803
0.756181 0.710401 0.271308
0.793137 0.718627 0.273882
0.824020 0.722771 0.278064
0.851899 0.727451 0.286458
0.877084 0.731839 0.294363
0.899739 0.737745 0.305883
0.922794 0.744853 0.324020
0.940931 0.748775 0.343045
0.955040 0.752443 0.361527
0.969117 0.753845 0.387500
0.980599 0.752696 0.415893
0.988235 0.752696 0.445588
0.000000 0.556250 0.300245
0.000000 0.562309 0.303064
0.000000 0.571515 0.303064
0.000000 0.576490 0.303064
0.000000 0.582996 0.303202
0.000000 0.588553 0.304167
0.003187 0.598652 0.304167
0.010666 0.605997 0.304167
0.032537 0.615196 0.304994
0.065073 0.624942 0.306192
0.119998 0.632920 0.307330
0.179167 0.640050 0.306985
0.250107 0.649586 0.303477
0.315518 0.659521 0.301390
0.384904 0.670466 0.297557
0.446542 0.679097 0.292402
0.511213 0.692096 0.289890
0.570535 0.701689 0.287964
0.624525 0.711389 0.286144
0.671814 0.720875 0.283456
0.715410 0.730270 0.283456
0.757989 0.736141 0.280882
0.791200 0.742892 0.285440
0.825605 0.750303 0.289584
0.853094 0.756250 0.299418
0.879527 0.760413 0.308084
0.900038 0.765196 0.320588
0.922794 0.771936 0.336764
0.938588 0.775506 0.355162
0.953676 0.776857 0.375858
0.968014 0.779535 0.399441
0.979412 0.779657 0.432966
0.987132 0.779780 0.461030
0.000000 0.587255 0.314705
0.000000 0.591054 0.315563
0.000000 0.598590 0.315625
0.000000 0.602941 0.315962
0.000000 0.608701 0.316054
0.000000 0.618015 0.318628
0.000000 0.625367 0.315686
0.006219 0.631924 0.315686
0.020588 0.641177 0.317892
0.047702 0.650705 0.319332
0.096262 0.660539 0.318628
0.159406 0.668597 0.318628
0.225368 0.678799 0.316176
0.302911 0.686826 0.312163
0.371079 0.697611 0.309130
0.436734 0.706985 0.303401
0.506372 0.717647 0.299510
0.568291 0.728707 0.299019
0.621691 0.737990 0.296752
0.671109 0.746293 0.294700
0.716544 0.756250 0.291177
0.757353 0.764062 0.292157
0.792034 0.771875 0.296079
0.824724 0.776042 0.301103
0.853921 0.783578 0.311029
0.879381 0.787469 0.319700
0.900061 0.791360 0.332047
0.919332 0.795711 0.348744
0.936887 0.799509 0.367279
0.952420 0.802941 0.390410
0.963971 0.802941 0.417463
0.975613 0.799142 0.448438
0.983334 0.803922 0.480392
0.000000 0.611274 0.326348
0.000000 0.618164 0.326279
0.000000 0.622182 0.327397
0.000000 0.633211 0.330270
0.000000 0.637377 0.330270
0.000000 0.644619 0.329791
0.000000 0.652818 0.327206
0.003064 0.659869 0.327206
0.012868 0.665962 0.327206
0.035773 0.675981 0.329408
0.075123 0.685516 0.330270
0.132135 0.695343 0.329707
0.204335 0.703385 0.326348
0.281798 0.714706 0.322775
0.355400 0.722802 0.317157
0.428937 0.734524 0.312956
0.497181 0.743750 0.310233
0.564093 0.755515 0.306740
0.619095 0.763733 0.304542
0.667647 0.773142 0.302819
0.715472 0.781986 0.302283
0.757475 0.789289 0.303114
0.791988 0.795956 0.304902
0.824020 0.800616 0.311765
0.853064 0.807476 0.319485
0.874502 0.811274 0.331127
0.896163 0.814913 0.343505
0.914951 0.818738 0.360417
0.932966 0.821814 0.379657
0.945753 0.822549 0.405883
0.957300 0.822427 0.430147
0.968845 0.822304 0.461126
0.980392 0.830025 0.491054
0.000000 0.637500 0.334804
0.000000 0.642134 0.334903
0.000000 0.649020 0.341666
0.000000 0.656740 0.341613
0.000000 0.661673 0.339124
0.000000 0.670948 0.338726
0.000000 0.677313 0.338726
0.000000 0.683701 0.337990
0.006679 0.691605 0.337990
0.025169 0.700567 0.338886
0.052957 0.710784 0.337990
0.106878 0.720083 0.337990
0.179044 0.729871 0.335539
0.254182 0.739599 0.331740
0.338481 0.749510 0.326547
0.413557 0.759267 0.322304
0.487868 0.769240 0.319608
0.556495 0.780124 0.314116
0.613082 0.788235 0.312331
0.663588 0.797847 0.309804
0.712316 0.805668 0.310539
0.752933 0.813488 0.310539
0.789216 0.818888 0.314460
0.822388 0.825735 0.319485
0.849265 0.829657 0.330392
0.869937 0.833579 0.339706
0.891069 0.837500 0.354550
