calib/LUT LIBRARY/classic_chrome_composed.cube
TITLE "Chromasmith composed - Classic Chrome"
#STD_q(x) = VLOG_q(T(x)), T derived from astia/velvia/classic_neg matched pairs
LUT_3D_SIZE 33
0.016455 0.015878 0.016617
0.028359 0.016540 0.014328
0.040544 0.017184 0.019328
0.066226 0.023120 0.016193
0.088691 0.022599 0.024735
0.127826 0.033518 0.019721
0.171763 0.033353 0.017854
0.209572 0.047208 0.018748
0.238292 0.037205 0.026774
0.294008 0.070303 0.006745
0.319563 0.052213 0.044050
0.341967 0.060719 0.017371
0.389678 0.080371 0.013305
0.424811 0.095872 0.025649
0.457649 0.068216 0.039746
0.480176 0.084778 0.020311
0.522916 0.105846 0.018377
0.564568 0.104998 0.042779
0.581166 0.104450 0.045513
0.609849 0.105595 0.033420
0.642713 0.121104 0.038991
0.671684 0.127857 0.046881
0.695974 0.127109 0.073131
0.718801 0.128151 0.072865
0.745186 0.134321 0.075070
0.772569 0.146053 0.088985
0.787985 0.138424 0.101418
0.799527 0.156565 0.118477
0.818573 0.163815 0.129903
0.847505 0.166254 0.136548
0.894090 0.193426 0.178395
0.913322 0.240187 0.181342
0.933321 0.164712 0.250893
0.016960 0.022382 0.018167
0.027060 0.026492 0.019212
0.040032 0.028351 0.019159
0.066396 0.034631 0.024288
0.093614 0.041788 0.017975
0.127863 0.049634 0.026984
0.168162 0.057953 0.010032
0.201718 0.062457 0.025535
0.232683 0.068886 0.008761
0.290264 0.080837 0.012159
0.311051 0.075368 0.028898
0.355277 0.085343 0.006099
0.391470 0.096372 0.010201
0.423751 0.093813 0.041357
0.453301 0.091853 0.015760
0.487722 0.108768 0.011975
0.527223 0.123898 0.034886
0.556278 0.116828 0.063155
0.578150 0.127137 0.028497
0.610935 0.139478 0.026175
0.640764 0.147439 0.045639
0.672579 0.150743 0.069332
0.694776 0.152332 0.070883
0.721039 0.163293 0.055993
0.747793 0.173120 0.067794
0.767915 0.174154 0.085807
0.795905 0.168791 0.127537
0.821150 0.178520 0.138709
0.846875 0.190601 0.131630
0.866685 0.194966 0.150658
0.903913 0.227634 0.177858
0.938603 0.215597 0.221073
0.928187 0.223564 0.204722
0.019069 0.033458 0.022483
0.028668 0.036024 0.023540
0.044364 0.041107 0.026244
0.069947 0.048804 0.024679
0.103366 0.057777 0.021581
0.129266 0.058574 0.023851
0.167374 0.068979 0.011908
0.211471 0.071156 0.022221
0.247551 0.085849 0.004581
0.282538 0.091135 0.023505
0.311735 0.091339 0.006150
0.363124 0.101354 0.003119
0.398094 0.107182 0.022884
0.423595 0.103672 0.033410
0.458480 0.113286 0.007321
0.503355 0.131175 0.012758
0.528714 0.135785 0.042566
0.552507 0.140646 0.024924
0.589462 0.153480 0.021667
0.623464 0.162035 0.042738
0.653547 0.169886 0.082499
0.678988 0.176564 0.053685
0.699973 0.186764 0.042676
0.720994 0.196321 0.052524
0.747849 0.198705 0.093867
0.773800 0.198778 0.120392
0.798729 0.210463 0.120177
0.824745 0.216302 0.133196
0.851314 0.223808 0.164618
0.884653 0.224502 0.179746
0.919287 0.230914 0.189389
0.922344 0.241753 0.208443
0.934302 0.258764 0.229823
0.012901 0.046704 0.024007
0.034312 0.055080 0.027208
0.053223 0.060608 0.026677
0.075406 0.069009 0.025076
0.104727 0.073799 0.020727
0.136748 0.079033 0.014068
0.174031 0.085055 0.027406
0.203567 0.090012 0.006097
0.255524 0.099421 0.004285
0.287663 0.096802 0.027675
0.333694 0.111899 0.002351
0.362547 0.121257 0.011638
0.392706 0.125488 0.020564
0.420173 0.128212 0.002294
0.480530 0.139295 0.005122
0.499152 0.148634 0.026135
0.527120 0.153621 0.042542
0.559569 0.161644 0.011850
0.589407 0.172934 0.019643
0.627166 0.184445 0.053387
0.659575 0.189750 0.065846
0.681173 0.200898 0.043597
0.705370 0.211382 0.058719
0.730635 0.221991 0.092643
0.757438 0.225417 0.116202
0.776992 0.234918 0.118708
0.799578 0.242200 0.117866
0.829745 0.249021 0.169367
0.856286 0.251954 0.187828
0.883953 0.255747 0.179287
0.915984 0.269578 0.187943
0.929877 0.273003 0.220284
0.948209 0.288382 0.272910
0.008292 0.063929 0.028932
0.033007 0.069946 0.027208
0.046687 0.082002 0.021364
0.078578 0.087438 0.019845
0.109257 0.091378 0.024722
0.140442 0.100855 0.008147
0.177132 0.106152 0.025851
0.223212 0.112229 0.002193
0.260671 0.119574 0.014926
0.286536 0.124782 0.001315
0.346620 0.132598 0.000402
0.364330 0.140723 0.021362
0.392598 0.145029 0.011244
0.439982 0.154434 0.002098
0.475992 0.162330 0.004363
0.505191 0.171571 0.019375
0.535290 0.178643 0.008603
0.565687 0.188369 0.010834
0.594714 0.199335 0.027439
0.631234 0.210190 0.043566
0.659961 0.221137 0.027599
0.682037 0.228345 0.054156
0.707179 0.235103 0.075806
0.732304 0.244300 0.109874
0.760560 0.254874 0.115835
0.780976 0.265899 0.123560
0.800653 0.272527 0.141498
0.830603 0.274493 0.180150
0.858479 0.284060 0.193234
0.882008 0.289192 0.217402
0.911331 0.295169 0.217802
0.929125 0.295513 0.250171
0.949139 0.311908 0.286354
0.008779 0.088944 0.019987
0.033830 0.096944 0.028548
0.047551 0.100640 0.034472
0.078744 0.107094 0.016027
0.110625 0.113296 0.010958
0.144732 0.121774 0.015857
0.189884 0.128305 0.000692
0.228919 0.135301 0.000964
0.256160 0.142842 0.029519
0.312502 0.149128 0.000196
0.340568 0.159092 0.002380
0.368188 0.165371 0.006879
0.423158 0.169425 0.001290
0.447602 0.180895 0.002128
0.474796 0.187534 0.008883
0.500760 0.194139 0.004081
0.558053 0.205521 0.005334
0.573479 0.216872 0.013585
0.603339 0.225705 0.056904
0.637360 0.232345 0.032134
0.663937 0.246731 0.024612
0.685705 0.254981 0.046392
0.711347 0.264907 0.092559
0.737666 0.274280 0.114535
0.763063 0.284848 0.127364
0.784196 0.293487 0.141357
0.804043 0.299158 0.163580
0.834809 0.304690 0.181477
0.861628 0.309027 0.216775
0.883826 0.311802 0.237518
0.913555 0.320372 0.237724
0.939043 0.335869 0.216251
0.952798 0.363485 0.290541
0.016375 0.121108 0.039606
0.049100 0.134432 0.019405
0.052879 0.132249 0.010396
0.078817 0.135432 0.016726
0.105653 0.142502 0.004180
0.144022 0.149820 0.019976
0.197484 0.156214 0.000372
0.231136 0.162840 0.000720
0.276319 0.168420 0.000519
0.313033 0.178246 0.000451
0.343258 0.183562 0.008665
0.375153 0.187635 0.000288
0.418108 0.198003 0.000574
0.439732 0.210435 0.013475
0.474633 0.219781 0.034825
0.510047 0.224658 0.004236
0.549364 0.239821 0.006057
0.580289 0.250696 0.031340
0.613330 0.258287 0.026182
0.643690 0.263292 0.013293
0.668711 0.275332 0.023257
0.694809 0.282908 0.044128
0.724133 0.294916 0.060716
0.743743 0.308653 0.092370
0.761493 0.315048 0.124650
0.784530 0.322351 0.154875
0.812190 0.327617 0.179563
0.838786 0.336017 0.206401
0.859749 0.338300 0.244131
0.888920 0.344239 0.249152
0.924380 0.353117 0.233327
0.949434 0.374687 0.256268
0.958371 0.398503 0.312335
0.000120 0.145307 0.019902
0.010940 0.146024 0.011237
0.046789 0.160169 0.029541
0.077981 0.167224 0.013200
0.106101 0.169460 0.001885
0.141894 0.174407 0.000197
0.187924 0.185330 0.001487
0.230254 0.188502 0.006055
0.288470 0.193022 0.000186
0.313298 0.204919 0.000130
0.339789 0.212724 0.031026
0.388629 0.220479 0.000882
0.414826 0.227256 0.001106
0.444956 0.235598 0.001656
0.483410 0.242703 0.002001
0.519473 0.255045 0.004231
0.547889 0.262615 0.010392
0.585878 0.270307 0.010539
0.619911 0.277665 0.008323
0.656594 0.285508 0.013035
0.668401 0.299914 0.026724
0.694026 0.309127 0.091821
0.724735 0.320143 0.067234
0.743738 0.332737 0.087034
0.761557 0.340021 0.133794
0.786853 0.348775 0.168835
0.816015 0.353403 0.188999
0.841299 0.360174 0.233927
0.862393 0.362927 0.255338
0.895200 0.370082 0.244413
0.929834 0.383639 0.232668
0.951990 0.404047 0.259198
0.958655 0.417401 0.313948
0.000094 0.168482 0.046000
0.004274 0.183607 0.019776
0.050380 0.186488 0.003753
0.070849 0.184608 0.000040
0.102409 0.211254 0.057862
0.140365 0.198219 0.001359
0.194303 0.208445 0.000105
0.229116 0.216971 0.027421
0.284993 0.221490 0.000150
0.318687 0.227978 0.000164
0.346676 0.233948 0.000217
0.386142 0.248935 0.000689
0.420593 0.260504 0.006121
0.455204 0.261334 0.001318
0.488342 0.265934 0.002071
0.518688 0.283238 0.004127
0.549771 0.291582 0.047666
0.587634 0.300350 0.061986
0.614004 0.304540 0.010862
0.641994 0.315974 0.013556
0.671071 0.328312 0.037173
0.696652 0.340572 0.103850
0.728076 0.346104 0.064554
0.745028 0.358375 0.080908
0.769966 0.366731 0.123784
0.795608 0.374763 0.168076
0.816141 0.379431 0.210617
0.843608 0.385486 0.229201
0.870992 0.390231 0.238151
0.912339 0.399713 0.227486
0.938451 0.416836 0.241746
0.958389 0.446382 0.282557
0.958751 0.455427 0.313948
0.000201 0.177318 0.000620
0.001724 0.196853 0.000270
0.020839 0.194992 0.000114
0.058837 0.212084 0.004951
0.096642 0.229125 0.036461
0.138141 0.226749 0.002414
0.191776 0.234604 0.000093
0.248521 0.237212 0.000130
0.275947 0.259114 0.002231
0.315522 0.256842 0.000883
0.361561 0.262009 0.000375
0.387725 0.278207 0.000844
0.417770 0.288873 0.024728
0.447079 0.299381 0.071750
0.489157 0.297153 0.003793
0.516422 0.310013 0.005913
0.550205 0.314360 0.017768
0.587878 0.326002 0.010853
0.616669 0.332901 0.012345
0.642917 0.340613 0.017411
0.672581 0.351288 0.029957
0.703280 0.359034 0.022235
0.734753 0.368443 0.029039
0.747858 0.382805 0.089800
0.774341 0.389901 0.127212
0.802200 0.398534 0.168734
0.821460 0.405011 0.213865
0.851092 0.412094 0.235381
0.889091 0.417788 0.241527
0.915693 0.425880 0.242549
0.951016 0.442255 0.240773
0.957974 0.461765 0.286864
0.953826 0.501828 0.260537
0.000155 0.211825 0.040299
0.000029 0.236461 0.017660
0.007701 0.243789 0.050317
0.069697 0.251824 0.021774
0.100472 0.246467 0.000102
0.139915 0.258013 0.000144
0.179862 0.268960 0.002416
0.235057 0.268393 0.000090
0.273016 0.285206 0.001636
0.310666 0.289069 0.038709
0.354472 0.294267 0.001773
0.394695 0.302136 0.001420
0.418609 0.308046 0.002330
0.446700 0.315378 0.002871
0.487496 0.325532 0.005289
0.518627 0.333726 0.010279
0.556623 0.339501 0.008969
0.603479 0.339510 0.011337
0.624659 0.351009 0.013068
0.646850 0.368292 0.033423
0.682549 0.373443 0.030721
0.708097 0.380010 0.020093
0.732964 0.392106 0.028644
0.750307 0.405442 0.099177
0.779182 0.413208 0.138007
0.805917 0.419816 0.151369
0.827685 0.427201 0.205530
0.864010 0.437323 0.242822
0.891365 0.440243 0.232141
0.920635 0.448707 0.209320
0.956819 0.477755 0.228952
0.957775 0.490974 0.283715
0.954444 0.514773 0.284173
0.000087 0.278431 0.078313
0.000051 0.237326 0.012028
0.000474 0.254750 0.000428
0.057263 0.264120 0.000062
0.095772 0.268417 0.000142
0.106599 0.319230 0.083368
0.184150 0.299071 0.041410
0.217921 0.310560 0.008664
0.276959 0.302820 0.000272
0.312128 0.311186 0.000654
0.350759 0.322611 0.001284
0.390769 0.331800 0.003638
0.421052 0.330457 0.003019
0.457875 0.335328 0.004359
0.488208 0.349878 0.006466
0.517851 0.366680 0.040326
0.556575 0.363298 0.014216
0.590309 0.366704 0.011796
0.617793 0.376328 0.014145
0.645336 0.394649 0.061764
0.677113 0.405172 0.092772
0.711353 0.403576 0.025217
0.734167 0.414388 0.035113
0.762998 0.426762 0.059447
0.785885 0.441002 0.118672
0.811701 0.446791 0.139880
0.835910 0.455440 0.190539
0.862848 0.461098 0.257125
0.884460 0.463051 0.265377
0.908285 0.474727 0.222001
0.957757 0.514231 0.300178
0.957672 0.505649 0.299951
0.957253 0.515628 0.316119
0.000145 0.327796 0.085210
0.000157 0.290386 0.004514
0.000527 0.284535 0.000389
0.026349 0.300214 0.016783
0.085877 0.309515 0.022724
0.129735 0.312180 0.000262
0.177871 0.321940 0.000435
0.210217 0.338337 0.000635
0.271969 0.330535 0.000299
0.315868 0.334422 0.000426
0.355357 0.353517 0.002080
0.384520 0.365356 0.027359
0.424597 0.359107 0.004379
0.458108 0.363248 0.006068
0.485050 0.377354 0.007884
0.514500 0.387401 0.025117
0.555035 0.392554 0.021880
0.586892 0.392290 0.013680
0.620469 0.398048 0.016366
0.646090 0.412423 0.025646
0.676027 0.419521 0.022126
0.714362 0.426070 0.025245
0.738116 0.438191 0.036364
0.763523 0.446836 0.051526
0.793487 0.456668 0.058398
0.818596 0.469598 0.113807
0.837747 0.480015 0.190396
0.863903 0.486425 0.253232
0.894341 0.511750 0.253900
0.938270 0.483358 0.257129
0.948583 0.504308 0.241811
0.957280 0.512000 0.273079
0.957349 0.515287 0.390415
0.000298 0.331349 0.009209
0.000158 0.304096 0.004275
0.000142 0.339765 0.056495
0.001639 0.318602 0.020850
0.099159 0.327643 0.000448
0.119067 0.344144 0.000393
0.177707 0.340857 0.000414
0.224517 0.348670 0.000264
0.261128 0.360520 0.003524
0.319399 0.360105 0.001128
0.358948 0.369898 0.002854
0.378729 0.382522 0.008125
0.418276 0.386568 0.032177
0.449546 0.391128 0.007065
0.480792 0.401978 0.009263
0.510967 0.405971 0.011226
0.559614 0.409713 0.013306
0.588375 0.420677 0.016109
0.617704 0.433593 0.028194
0.651878 0.433584 0.021144
0.691886 0.432252 0.023261
0.718535 0.446992 0.027044
0.738104 0.467952 0.076993
0.765918 0.473705 0.080173
0.795140 0.476379 0.049725
0.821571 0.494759 0.116374
0.846308 0.500722 0.192933
0.850862 0.508205 0.237485
0.881400 0.503968 0.144110
0.953622 0.537971 0.172645
0.954633 0.569379 0.320809
0.955978 0.539401 0.379291
0.955251 0.535709 0.415066
0.000076 0.321497 0.000649
0.000114 0.347342 0.025850
0.000058 0.338240 0.037261
0.000158 0.355684 0.031291
0.022439 0.327147 0.000271
0.115292 0.356121 0.000468
0.213095 0.368894 0.000152
0.213246 0.373502 0.000745
0.263883 0.389872 0.053006
0.303800 0.389758 0.001567
0.360240 0.396281 0.003899
0.384480 0.402215 0.004836
0.423192 0.406482 0.006842
0.448285 0.418691 0.008459
0.489636 0.434067 0.016993
0.522535 0.431714 0.012976
0.572082 0.436741 0.015738
0.591811 0.452742 0.019091
0.623205 0.466686 0.099951
0.665025 0.456557 0.023590
0.691560 0.463604 0.026221
0.714577 0.477303 0.029300
0.743392 0.492661 0.074488
0.762973 0.506691 0.122198
0.796840 0.503718 0.058216
0.814220 0.517407 0.094731
0.818905 0.530906 0.152978
0.838048 0.539519 0.208269
0.909972 0.565516 0.269624
0.957023 0.504738 0.396894
0.954444 0.570956 0.325815
0.954452 0.555192 0.372115
0.953913 0.575033 0.398617
0.000236 0.329680 0.000374
0.000067 0.369516 0.037561
0.000290 0.363992 0.000551
0.000271 0.339285 0.000278
0.000315 0.373585 0.000565
0.060510 0.376137 0.000315
0.160660 0.417375 0.058409
0.205290 0.414464 0.001195
0.261439 0.409231 0.001227
0.298094 0.424705 0.002721
0.347563 0.430998 0.004496
0.397981 0.425415 0.006612
0.436120 0.432580 0.009178
0.455431 0.450503 0.010610
0.488662 0.471453 0.109109
0.528607 0.457135 0.015100
0.562543 0.463979 0.017881
0.590635 0.478282 0.020806
0.625311 0.485699 0.067925
0.656770 0.488928 0.027718
0.691810 0.491876 0.028809
0.714622 0.500058 0.031681
0.737990 0.512568 0.039318
0.767975 0.515532 0.038548
0.795813 0.528720 0.051242
0.811128 0.540789 0.094336
0.839716 0.552900 0.149901
0.877813 0.548760 0.061057
0.948881 0.575208 0.156561
0.954585 0.584648 0.272564
0.953942 0.564010 0.402414
0.953162 0.594559 0.394979
0.953989 0.593139 0.442691
0.000281 0.370054 0.000700
0.001138 0.425863 0.083972
0.005062 0.413969 0.002881
0.000943 0.431970 0.021046
0.001110 0.432415 0.034334
0.002619 0.391746 0.000427
0.153972 0.425902 0.006564
0.286749 0.422213 0.002145
0.266607 0.431984 0.001949
0.296275 0.447119 0.003258
0.325644 0.477481 0.095598
0.390754 0.455393 0.007029
0.428794 0.463654 0.010822
0.461395 0.474154 0.012891
0.488187 0.485511 0.019965
0.522476 0.482413 0.016989
0.564382 0.495735 0.020415
0.594713 0.501800 0.023047
0.622163 0.504806 0.024730
0.668191 0.508130 0.029703
0.689771 0.519694 0.031190
0.714256 0.538094 0.054809
0.735509 0.537110 0.038032
0.768794 0.545076 0.039757
0.795291 0.560109 0.056233
0.818932 0.571771 0.136393
0.842316 0.581565 0.137761
0.876717 0.593947 0.226059
0.953035 0.635823 0.450503
0.953682 0.585427 0.437836
0.953622 0.592213 0.430759
0.953100 0.608645 0.372345
0.952850 0.606706 0.412547
0.000416 0.399509 0.000728
0.000481 0.428553 0.021262
0.001875 0.470158 0.031722
0.001132 0.442034 0.043840
0.000456 0.431263 0.000699
0.000907 0.429760 0.003368
0.046267 0.417021 0.000364
0.251885 0.450616 0.002240
0.270186 0.461571 0.003166
0.301923 0.470170 0.005183
0.336720 0.483689 0.009026
0.382978 0.486736 0.012715
0.431933 0.495342 0.012865
0.469311 0.500940 0.015384
0.490089 0.504488 0.016772
0.539478 0.507331 0.020619
0.562593 0.522214 0.022801
0.600728 0.532056 0.031973
0.634452 0.530627 0.027764
0.667992 0.537770 0.032944
0.686166 0.552321 0.034211
0.719789 0.574956 0.196461
0.744811 0.562828 0.040605
0.772026 0.571717 0.043800
0.798017 0.586648 0.066674
0.826801 0.595948 0.100311
0.835643 0.602565 0.129450
0.903253 0.624347 0.248874
0.953797 0.634371 0.505288
0.953504 0.625058 0.464445
0.952799 0.624710 0.429550
0.952828 0.626077 0.416638
0.953343 0.617655 0.448212
0.001334 0.460806 0.004341
0.002430 0.483851 0.057887
0.001579 0.465307 0.020719
0.001663 0.467569 0.019169
0.004623 0.463079 0.000251
0.002478 0.465667 0.000235
0.007363 0.450625 0.000245
0.220630 0.488872 0.026183
0.267789 0.493938 0.008202
0.296171 0.496223 0.006546
0.335027 0.504980 0.008270
0.390172 0.506752 0.011937
0.423922 0.532791 0.017769
0.470253 0.528342 0.018065
0.496674 0.528275 0.018856
0.537188 0.534904 0.023026
0.568141 0.551801 0.026032
0.606058 0.563743 0.117291
0.634074 0.553324 0.029751
0.661532 0.565166 0.033848
0.688982 0.576191 0.037512
0.717001 0.586224 0.050914
0.751964 0.585157 0.043822
0.772695 0.597466 0.047369
0.790729 0.609725 0.057250
0.825393 0.616935 0.060453
0.835835 0.637794 0.112324
0.882067 0.642841 0.217469
0.952980 0.674175 0.471785
0.953095 0.666847 0.495902
0.953315 0.655444 0.496359
0.953517 0.652538 0.468325
0.952593 0.666257 0.434029
0.001396 0.466898 0.013498
0.001140 0.463888 0.000491
0.000455 0.441950 0.000761
0.002043 0.481566 0.000439
0.001782 0.476469 0.000425
0.004659 0.528705 0.037209
0.036339 0.494208 0.000843
0.195114 0.530479 0.080069
0.277168 0.520578 0.006799
0.289567 0.522752 0.008752
0.337019 0.527460 0.010392
0.398758 0.532172 0.014335
0.424646 0.551717 0.018008
0.466242 0.553891 0.036702
0.501851 0.550306 0.021782
0.539467 0.559359 0.024760
0.568116 0.569623 0.027716
0.604860 0.578826 0.042564
0.633214 0.577502 0.033065
0.664078 0.592669 0.037410
0.704029 0.597838 0.040922
0.723207 0.602204 0.043347
0.763148 0.604768 0.047579
0.774325 0.624984 0.055991
0.797649 0.637015 0.096150
0.820871 0.640766 0.060172
0.814013 0.651255 0.103256
0.902215 0.665554 0.279939
0.952437 0.710187 0.397966
0.953061 0.691278 0.459310
0.952256 0.668657 0.412470
0.952201 0.668095 0.412187
0.952672 0.687708 0.437837
0.002212 0.485839 0.008354
0.002380 0.479097 0.000267
0.003242 0.513687 0.000505
0.004960 0.519846 0.096946
0.006005 0.515490 0.026371
0.005108 0.515092 0.020902
0.001758 0.487075 0.000454
0.037987 0.515833 0.000314
0.337331 0.530105 0.010811
0.324066 0.556590 0.049083
0.346141 0.551370 0.011684
0.383240 0.554255 0.015413
0.432357 0.566338 0.018962
0.466374 0.575198 0.034275
0.500208 0.573854 0.023886
0.538842 0.591087 0.028190
0.578242 0.589355 0.030757
0.601394 0.596289 0.033266
0.650719 0.598209 0.037870
0.670010 0.625262 0.053267
0.707000 0.625593 0.049297
0.736114 0.629370 0.048834
0.755793 0.640753 0.052302
0.779293 0.652523 0.087094
0.794901 0.657306 0.116986
0.808608 0.665926 0.063826
0.810071 0.673017 0.100101
0.862091 0.689916 0.208032
0.952622 0.725216 0.387248
0.951970 0.681633 0.407070
0.953056 0.720250 0.435675
0.952697 0.688029 0.436613
0.953165 0.717005 0.469014
0.004094 0.523482 0.000501
0.004159 0.530308 0.003139
0.004267 0.521039 0.034471
0.007559 0.552644 0.111441
0.002964 0.490550 0.037818
0.003941 0.527352 0.001639
0.004012 0.533868 0.000236
0.005002 0.541384 0.000326
0.263103 0.554194 0.009017
0.326024 0.575319 0.013010
0.344111 0.575356 0.018018
0.375835 0.579172 0.017075
0.428847 0.584739 0.020402
0.458148 0.593433 0.023102
0.504103 0.596614 0.026280
0.546494 0.623436 0.041623
0.592884 0.614065 0.035114
0.622356 0.618781 0.037965
0.653689 0.631357 0.042384
0.674000 0.652547 0.059231
0.700209 0.652017 0.061978
0.735948 0.653524 0.051889
0.756712 0.669637 0.057105
0.781517 0.674796 0.061809
0.801492 0.678502 0.065186
0.803360 0.688031 0.068247
0.831114 0.698193 0.129709
0.884448 0.707081 0.249582
0.953367 0.727804 0.450887
0.953488 0.723011 0.462930
0.953315 0.733137 0.448080
0.952915 0.719236 0.429841
0.953969 0.734923 0.480332
0.007191 0.575929 0.000386
0.005804 0.555144 0.000209
0.005120 0.547575 0.000233
0.005899 0.545306 0.046369
0.005857 0.541562 0.058905
0.007223 0.559380 0.086035
0.007076 0.565125 0.057005
0.006116 0.563810 0.002910
0.235438 0.594691 0.009519
0.366583 0.589876 0.016592
0.351995 0.595839 0.016216
0.339831 0.615326 0.017323
0.422885 0.607920 0.022176
0.463932 0.615791 0.025338
0.523116 0.618735 0.029598
0.545358 0.650732 0.038846
0.583171 0.647750 0.067416
0.631603 0.640079 0.041067
0.659157 0.658239 0.044823
0.681378 0.666039 0.047472
0.699286 0.669962 0.049442
0.740009 0.686262 0.058256
0.755835 0.696441 0.068279
0.782537 0.701102 0.067959
0.808037 0.706456 0.074042
0.811574 0.710231 0.079341
0.840165 0.719067 0.204199
0.904822 0.727518 0.249558
0.953774 0.751354 0.433785
0.952571 0.721667 0.412513
0.954456 0.756836 0.457562
0.954187 0.759043 0.433724
0.953794 0.757055 0.406475
0.005239 0.555242 0.000103
0.005308 0.548893 0.000362
0.006343 0.564749 0.000327
0.007016 0.562972 0.000116
0.007359 0.577339 0.007977
0.008368 0.595997 0.002130
0.007321 0.581436 0.002203
0.008834 0.596065 0.030505
0.261284 0.601774 0.012277
0.294135 0.614247 0.014534
0.348367 0.617288 0.018547
0.302050 0.650009 0.060791
0.418260 0.635757 0.024262
0.473827 0.637021 0.028080
0.536300 0.644180 0.033802
0.555752 0.656256 0.037026
0.572724 0.667370 0.042421
0.629463 0.670071 0.044206
0.658876 0.692624 0.050853
0.694355 0.687938 0.051764
0.718107 0.698622 0.056927
0.731502 0.713871 0.062851
0.757836 0.718057 0.164730
0.786821 0.721120 0.074028
0.805959 0.731140 0.080265
0.832980 0.735829 0.110583
0.848499 0.741653 0.106552
0.854623 0.743159 0.204095
0.954183 0.775063 0.440507
0.955696 0.775443 0.474170
0.955521 0.774864 0.479173
0.955370 0.768636 0.477977
0.954547 0.775138 0.437313
0.007907 0.583159 0.002792
0.008511 0.591989 0.010161
0.006535 0.570157 0.000628
0.009554 0.605002 0.025059
0.009700 0.606394 0.036309
0.009254 0.601760 0.006877
0.009305 0.602254 0.007087
0.009935 0.609069 0.029878
0.009376 0.612048 0.001884
0.298048 0.637296 0.016686
0.353537 0.641485 0.021276
0.337423 0.666570 0.021923
0.420991 0.669730 0.081260
0.473079 0.661502 0.030910
0.527058 0.674996 0.036798
0.559821 0.679174 0.039639
0.586663 0.687338 0.042515
0.628391 0.706153 0.048192
0.652490 0.720682 0.094310
0.687029 0.714398 0.056529
0.718096 0.726399 0.064278
0.744762 0.734071 0.070830
0.763614 0.734192 0.076736
0.790273 0.745846 0.081640
0.802400 0.758087 0.088509
0.841769 0.761898 0.098287
0.832553 0.763466 0.099466
0.871360 0.765574 0.290964
0.931409 0.793985 0.366146
0.956557 0.802185 0.453695
0.955763 0.791109 0.456930
0.956230 0.781682 0.497806
0.956937 0.794320 0.499019
0.010967 0.623478 0.023086
0.011731 0.626445 0.070130
0.012161 0.631973 0.069106
0.011229 0.632541 0.022355
0.010640 0.618434 0.005582
0.010190 0.610087 0.002738
0.009739 0.618378 0.000987
0.010644 0.623803 0.002439
0.010522 0.625322 0.000919
0.072042 0.674897 0.008321
0.375255 0.665596 0.024864
0.402455 0.671339 0.027315
0.414760 0.681135 0.028991
0.464237 0.688248 0.033615
0.500567 0.713133 0.039961
0.568013 0.702818 0.042748
0.612331 0.713524 0.047720
0.639104 0.727569 0.053711
0.652194 0.735842 0.068105
0.669059 0.740436 0.060367
0.715649 0.761074 0.073797
0.750751 0.760776 0.079996
0.778107 0.766173 0.085532
0.793644 0.776990 0.092093
0.806398 0.778507 0.176648
0.833037 0.781877 0.101732
0.833854 0.786512 0.110572
0.875272 0.790504 0.328708
0.951536 0.809422 0.397719
0.957988 0.832959 0.432682
0.957871 0.816355 0.469856
0.957469 0.796836 0.522668
0.958967 0.816783 0.529245
0.009131 0.607223 0.001329
0.011516 0.631777 0.017548
0.011117 0.629435 0.002505
0.011915 0.642025 0.002213
0.012725 0.649086 0.011053
0.012780 0.646277 0.004290
0.013782 0.655351 0.024749
0.013224 0.654719 0.003452
0.013712 0.661848 0.004532
0.015272 0.676844 0.006045
0.154319 0.676280 0.011564
0.468090 0.692283 0.034392
0.437798 0.700565 0.033158
0.472223 0.709552 0.036218
0.471830 0.737068 0.096423
0.541834 0.728291 0.054485
0.606702 0.745107 0.053843
0.648662 0.754952 0.061623
0.667447 0.758282 0.065188
0.698049 0.772800 0.074453
0.709582 0.783271 0.101644
0.745264 0.778058 0.085644
0.785623 0.791004 0.094769
0.799179 0.798521 0.100950
0.820304 0.791387 0.201812
