calib/LUT LIBRARY/classic_neg.cube
#Generated with Fujify color engine
#Website: https://fujify.me
#LUMIXPHOTOSTYLE STD
LUT_3D_SIZE 9
0.023529 0.027451 0.023529
0.096078 0.038726 0.026961
0.197059 0.057844 0.023529
0.323529 0.080882 0.023529
0.474510 0.105882 0.017647
0.641176 0.126961 0.010294
0.770588 0.141176 0.011765
0.855882 0.145098 0.024019
0.917647 0.137255 0.082353
0.019608 0.089216 0.058334
0.100490 0.111764 0.061765
0.204779 0.131372 0.058334
0.327267 0.158027 0.055883
0.480883 0.187255 0.048284
0.654106 0.217157 0.034804
0.786887 0.234314 0.038726
0.875061 0.245098 0.070588
0.936765 0.237745 0.144118
0.007843 0.173530 0.104902
0.084804 0.192647 0.107843
0.202941 0.213480 0.103921
0.329534 0.239338 0.098162
0.496078 0.272059 0.088725
0.670833 0.305882 0.077451
0.806128 0.330392 0.089216
0.894118 0.338480 0.125368
0.963725 0.338235 0.194117
0.000000 0.266177 0.155392
0.052451 0.285294 0.157843
0.185784 0.308333 0.153922
0.325061 0.331373 0.146079
0.502696 0.368137 0.136274
0.684865 0.402451 0.126471
0.827083 0.430760 0.136765
0.921262 0.445282 0.182353
0.980392 0.442647 0.255883
0.000000 0.364706 0.203922
0.016667 0.385784 0.207844
0.148529 0.409804 0.206373
0.321324 0.440441 0.200000
0.513725 0.484314 0.194117
0.703431 0.521078 0.185539
0.842647 0.548039 0.197549
0.934313 0.567157 0.246323
0.988235 0.574510 0.335294
0.000000 0.472549 0.260294
0.000000 0.496078 0.261765
0.080270 0.528676 0.265073
0.291422 0.563664 0.262684
0.517647 0.601961 0.251225
0.713787 0.644731 0.243076
0.848162 0.672549 0.258456
0.938726 0.688725 0.310294
0.992157 0.696078 0.408334
0.000000 0.587255 0.314705
0.000000 0.608701 0.316054
0.020588 0.641177 0.317892
0.225368 0.678799 0.316176
0.506372 0.717647 0.299510
0.716544 0.756250 0.291177
0.853921 0.783578 0.311029
0.936887 0.799509 0.367279
0.983334 0.803922 0.480392
0.000000 0.687745 0.357353
0.000000 0.711703 0.358272
0.000000 0.741299 0.354289
0.110784 0.776164 0.346875
0.448284 0.814951 0.327451
0.700674 0.847365 0.317831
0.839461 0.872549 0.342156
0.922549 0.887745 0.409375
0.976471 0.902941 0.514215
0.000000 0.764706 0.376471
0.000000 0.787745 0.372059
0.000000 0.810785 0.357843
0.016667 0.839216 0.345098
0.292157 0.882353 0.323530
0.651961 0.915196 0.305882
0.820588 0.941176 0.328431
0.918627 0.957353 0.404902
0.980392 0.968627 0.517647
0.031373 0.035294 0.069608
0.100919 0.050490 0.065687
0.197059 0.069608 0.068382
0.322243 0.092341 0.063235
0.478432 0.119363 0.053922
0.644118 0.138725 0.042463
0.775490 0.149878 0.046079
0.864216 0.149020 0.074020
0.925490 0.141176 0.136765
0.027451 0.100981 0.108333
0.104848 0.120098 0.108333
0.204350 0.140073 0.110692
0.328201 0.167264 0.105721
0.487745 0.196814 0.098070
0.659597 0.225107 0.086949
0.791881 0.245588 0.093459
0.882521 0.249456 0.128860
0.944179 0.240747 0.197181
0.015686 0.185294 0.154044
0.096400 0.204090 0.157843
0.205545 0.224387 0.158609
0.331235 0.248575 0.152313
0.499020 0.281802 0.143076
0.675659 0.315947 0.135432
0.811734 0.335294 0.145098
0.902175 0.344899 0.184605
0.971569 0.342157 0.244485
0.003616 0.274019 0.205699
0.060563 0.296408 0.208027
0.195956 0.315809 0.209176
0.330017 0.343068 0.204588
0.507843 0.378125 0.195833
0.693329 0.413434 0.188044
0.833747 0.440196 0.200705
0.926616 0.453868 0.239851
0.986765 0.452941 0.312255
0.000000 0.374510 0.257843
0.020588 0.397304 0.261551
0.155821 0.424265 0.263909
0.325796 0.457230 0.263419
0.519608 0.495711 0.256740
0.707200 0.532537 0.251471
0.849387 0.559804 0.264522
0.940410 0.574510 0.311274
0.992157 0.570588 0.391177
0.000000 0.484314 0.315992
0.000268 0.510983 0.320933
0.083364 0.542433 0.327451
0.301164 0.578569 0.327259
0.524019 0.618198 0.320251
0.721691 0.656020 0.313404
0.856005 0.683486 0.327941
0.946078 0.698943 0.375758
0.994608 0.700000 0.467157
0.000000 0.595098 0.372672
0.000000 0.622886 0.377344
0.022886 0.655116 0.381158
0.234069 0.692387 0.377880
0.507659 0.732169 0.368382
0.720267 0.769439 0.360524
0.857843 0.794455 0.376992
0.940809 0.807077 0.429305
0.987255 0.814706 0.530760
0.000000 0.699081 0.419118
0.000000 0.726034 0.422664
0.000000 0.753263 0.419225
0.100904 0.787477 0.413006
0.453309 0.824724 0.393382
0.699019 0.857782 0.383334
0.842034 0.880285 0.404351
0.926087 0.895535 0.467594
0.980392 0.910355 0.567647
0.000000 0.772549 0.445588
0.000000 0.792096 0.441728
0.000000 0.818627 0.430393
0.015380 0.849326 0.414399
0.283823 0.889951 0.394853
0.647059 0.923039 0.375000
0.822549 0.949020 0.391789
0.918627 0.964706 0.458395
0.984314 0.976471 0.571569
0.047059 0.053921 0.127451
0.112622 0.065319 0.127451
0.207108 0.084314 0.131372
0.326470 0.105882 0.129534
0.486274 0.132843 0.123039
0.656863 0.154044 0.112867
0.787990 0.164706 0.114706
0.874510 0.162500 0.142770
0.932353 0.151961 0.194117
0.042279 0.115686 0.168750
0.115318 0.132337 0.170205
0.212500 0.153677 0.177512
0.334436 0.177865 0.176915
0.495343 0.208517 0.173223
0.667693 0.237209 0.163817
0.803431 0.252880 0.167034
0.891054 0.260830 0.201685
0.952451 0.252451 0.259681
0.026716 0.197059 0.213480
0.105055 0.213388 0.220251
0.214583 0.236275 0.227084
0.340656 0.261795 0.227267
0.507721 0.296201 0.223039
0.686887 0.328493 0.216636
0.821569 0.347059 0.225797
0.912224 0.354412 0.256526
0.979412 0.353922 0.311274
0.005392 0.288726 0.265686
0.079090 0.305392 0.273131
0.207598 0.328830 0.280208
0.340273 0.358042 0.283624
0.518627 0.394363 0.277512
0.705530 0.428278 0.272687
0.843995 0.454105 0.282629
0.936903 0.462240 0.319378
0.991789 0.458333 0.382965
0.000000 0.386274 0.322059
0.032108 0.409681 0.329473
0.171446 0.438113 0.340564
0.338297 0.469301 0.344424
0.532108 0.508579 0.342157
0.719853 0.550674 0.340503
0.857966 0.576348 0.354412
0.949081 0.586275 0.391115
0.996078 0.584804 0.465686
0.000000 0.497917 0.381372
0.003432 0.525061 0.393061
0.098254 0.559406 0.404381
0.315947 0.594899 0.406694
0.537071 0.634253 0.403554
0.732613 0.672733 0.402451
0.866973 0.697518 0.419118
0.953921 0.710784 0.460478
0.996078 0.711765 0.538235
0.000000 0.610784 0.439951
0.000000 0.637745 0.452237
0.025000 0.671569 0.458395
0.242800 0.709191 0.460018
0.520588 0.747181 0.453064
0.728493 0.782721 0.448560
0.864706 0.804473 0.465931
0.945190 0.816636 0.514399
0.988235 0.822549 0.596814
0.000000 0.711152 0.489093
0.000000 0.737791 0.497212
0.000000 0.767003 0.499112
0.108655 0.798652 0.491682
0.448407 0.835846 0.479167
0.703432 0.867785 0.467647
0.845711 0.888603 0.488235
0.930331 0.902987 0.547059
0.984314 0.918627 0.633333
0.000000 0.783333 0.518628
0.000000 0.802574 0.518750
0.000000 0.826471 0.510784
0.015686 0.857353 0.498284
0.280392 0.897549 0.479902
0.638113 0.930515 0.458701
0.823284 0.953922 0.476470
0.922549 0.971691 0.536275
0.984314 0.976471 0.629412
0.065196 0.070588 0.189216
0.126654 0.078431 0.193137
0.214583 0.096691 0.200981
0.338664 0.118015 0.205270
0.495343 0.144363 0.202206
0.668627 0.168627 0.195588
0.798652 0.178922 0.195956
0.883333 0.175797 0.217157
0.939706 0.159314 0.262255
0.055208 0.132169 0.231373
0.128209 0.145834 0.238764
0.226042 0.165288 0.249035
0.345657 0.188925 0.252742
0.507935 0.219179 0.250245
0.681978 0.248705 0.248108
0.814875 0.265426 0.251287
0.901363 0.271033 0.275574
0.960294 0.263909 0.325490
0.035172 0.211275 0.281373
0.114200 0.228294 0.291177
0.227084 0.251685 0.303799
0.353676 0.277390 0.309375
0.518382 0.311826 0.308088
0.697871 0.342846 0.305652
0.833334 0.362561 0.308885
0.921799 0.368275 0.331955
0.987255 0.365686 0.381618
0.008762 0.300552 0.336826
0.085363 0.322672 0.347863
0.217754 0.346584 0.360662
0.354733 0.374533 0.367279
0.531127 0.410110 0.369577
0.714193 0.445672 0.365196
0.851762 0.468306 0.369485
0.944493 0.477382 0.399387
0.995527 0.470098 0.452390
0.000000 0.399265 0.396814
0.038695 0.428186 0.411673
0.184436 0.456617 0.423284
0.354197 0.486612 0.431465
0.547549 0.527451 0.433211
0.733425 0.563756 0.432843
0.867953 0.589461 0.440686
0.957843 0.600184 0.474020
0.996078 0.599020 0.531618
0.000000 0.514216 0.458824
0.005078 0.542096 0.476586
0.123162 0.576670 0.489828
0.336742 0.610210 0.496913
0.552482 0.647059 0.494608
0.742770 0.685577 0.493911
0.873897 0.710753 0.506418
0.961650 0.725061 0.544899
0.996078 0.725981 0.607843
0.000000 0.623162 0.523039
0.000000 0.653002 0.538649
0.041422 0.687715 0.548162
0.271247 0.721707 0.550107
0.534743 0.757598 0.545159
0.738067 0.792923 0.543061
0.872273 0.815319 0.558333
0.949556 0.826378 0.598514
0.992157 0.826470 0.661152
0.000000 0.723346 0.574510
0.000000 0.750268 0.586949
0.002574 0.778079 0.591130
0.123981 0.809804 0.586826
0.472672 0.843628 0.572947
0.714813 0.874816 0.565924
0.850858 0.898054 0.580882
0.934581 0.911052 0.628700
0.988235 0.926470 0.703247
0.000000 0.792157 0.607353
0.000000 0.815196 0.611581
0.000000 0.838235 0.606250
0.019117 0.866728 0.597672
0.277206 0.901960 0.580392
0.635601 0.938725 0.562745
0.826470 0.961764 0.572672
0.926961 0.976471 0.620098
0.988235 0.980392 0.695098
0.084314 0.084314 0.258823
0.138235 0.091912 0.264461
0.229902 0.107353 0.275980
0.350245 0.128677 0.281863
0.509804 0.154902 0.278431
0.681863 0.182353 0.272549
0.808333 0.195588 0.276471
0.893137 0.190441 0.292647
0.949020 0.174510 0.329411
0.072794 0.144118 0.297549
0.140379 0.155637 0.312714
0.235968 0.175184 0.325000
0.361979 0.200000 0.331526
0.523284 0.231127 0.331495
0.697733 0.260049 0.328493
0.828002 0.277573 0.333027
0.910784 0.282843 0.354412
0.968382 0.276960 0.389461
0.048039 0.224510 0.352941
0.129963 0.243873 0.372059
0.238358 0.267770 0.386274
0.371078 0.294240 0.395466
0.538726 0.326225 0.396079
0.713235 0.357353 0.396324
0.842525 0.376593 0.397059
0.933088 0.383027 0.413358
0.991667 0.379412 0.447059
0.013235 0.315196 0.414706
0.098437 0.339553 0.433977
0.233885 0.364951 0.448223
0.376654 0.396109 0.456924
0.551470 0.432108 0.462377
0.732414 0.464675 0.462224
0.861520 0.484682 0.462868
0.953094 0.493965 0.479963
0.996078 0.487500 0.519118
0.000000 0.418627 0.481372
0.049265 0.447549 0.503554
0.202696 0.478677 0.517647
0.373897 0.508701 0.526348
0.564706 0.548039 0.529411
0.745221 0.583456 0.530024
0.874020 0.604902 0.535294
0.961887 0.615073 0.557598
0.996078 0.613725 0.600000
0.000000 0.535294 0.554657
0.008425 0.564369 0.574755
0.139890 0.597426 0.589645
0.360172 0.628707 0.595098
0.572181 0.665932 0.597059
0.752298 0.702237 0.595282
0.881740 0.725429 0.604473
0.965686 0.738388 0.630239
0.996078 0.724755 0.667647
0.000000 0.646079 0.622059
0.000000 0.673100 0.640441
0.055392 0.705515 0.654044
0.309559 0.738174 0.655637
0.559559 0.770833 0.651471
0.750858 0.803554 0.647672
0.877084 0.826103 0.657966
0.952941 0.835172 0.683089
0.992157 0.836275 0.725000
0.000000 0.742156 0.681128
0.000000 0.765227 0.696354
0.006434 0.791912 0.700061
0.162347 0.822150 0.697825
0.498039 0.852206 0.684804
0.726072 0.883885 0.677512
0.861275 0.905576 0.686152
0.940196 0.918627 0.716238
0.991912 0.930637 0.767402
0.000000 0.805883 0.719608
0.000000 0.827206 0.729166
0.000000 0.848529 0.725980
0.028186 0.875735 0.715686
0.310785 0.912745 0.701961
0.655392 0.943382 0.681618
0.834804 0.965686 0.684314
0.934804 0.980637 0.718137
0.992157 0.988235 0.766667
0.103431 0.101961 0.337745
0.153431 0.103431 0.339890
0.240196 0.120589 0.352819
0.364216 0.141176 0.361274
0.526961 0.171323 0.361274
0.697549 0.195098 0.355515
0.818995 0.211765 0.359191
0.902941 0.211765 0.373039
0.956863 0.193627 0.396569
0.088052 0.157169 0.374694
0.155615 0.170772 0.387944
0.249479 0.188143 0.404994
0.381640 0.214331 0.415311
0.545741 0.246568 0.420098
0.714216 0.274625 0.413856
0.836321 0.294593 0.419240
0.918788 0.300674 0.431189
0.975981 0.294118 0.453431
0.059804 0.240196 0.433824
0.143995 0.259804 0.454350
0.255729 0.285662 0.474510
0.394991 0.313404 0.487577
0.562806 0.346630 0.485356
0.729412 0.376103 0.482414
0.851563 0.394516 0.483333
0.942632 0.401394 0.492126
0.992157 0.396446 0.514706
0.021630 0.334314 0.503431
0.114966 0.361206 0.525666
0.252681 0.389476 0.544347
0.404029 0.419003 0.553837
0.577206 0.453186 0.552911
0.747266 0.485034 0.554779
0.873529 0.503784 0.552941
0.960960 0.512056 0.562079
0.996078 0.508394 0.586765
0.003922 0.441422 0.575736
0.067126 0.472733 0.600735
0.232721 0.502635 0.619485
0.402727 0.533333 0.627788
0.588726 0.571324 0.627941
0.761489 0.604902 0.626900
0.885294 0.623101 0.626777
0.969301 0.631373 0.636458
0.996078 0.633333 0.659804
0.000000 0.557904 0.655882
0.022365 0.589591 0.681066
0.185080 0.620726 0.695603
0.391866 0.650743 0.699042
0.596599 0.685049 0.694393
0.766146 0.718895 0.692938
0.888067 0.740043 0.694240
0.970412 0.753914 0.708701
0.996078 0.753983 0.732904
0.000000 0.666054 0.727941
0.002574 0.694884 0.749525
0.091912 0.725000 0.760416
0.343474 0.755193 0.758931
0.587561 0.785539 0.750980
0.765411 0.814645 0.746936
0.882200 0.834590 0.747120
0.956495 0.845588 0.759528
0.996078 0.849020 0.786152
0.000000 0.755392 0.791177
0.000000 0.780614 0.806388
0.018122 0.804381 0.812883
0.200843 0.833885 0.808088
0.533578 0.863726 0.793474
0.742096 0.891728 0.785294
0.868628 0.910907 0.785294
0.946017 0.923040 0.798062
0.992157 0.934497 0.826961
0.000000 0.821078 0.837255
0.000000 0.840196 0.852451
0.000000 0.859927 0.851961
0.043260 0.886275 0.843566
0.340931 0.919608 0.827451
0.663051 0.951409 0.810784
0.847059 0.974633 0.801470
0.942156 0.988235 0.816176
0.992157 0.996078 0.839706
0.121569 0.118627 0.421569
0.168627 0.117647 0.417279
0.256618 0.136520 0.433334
0.386887 0.159681 0.445098
0.553921 0.189216 0.444608
0.715686 0.216054 0.436520
0.831373 0.230147 0.436030
0.910784 0.232721 0.442525
0.961765 0.223529 0.456863
0.103309 0.172427 0.459559
0.171354 0.186443 0.471078
0.269577 0.207138 0.491422
0.405086 0.233548 0.500613
0.574264 0.267647 0.502941
0.733333 0.293766 0.495711
0.849602 0.314001 0.492923
0.926103 0.320328 0.499617
0.980760 0.317034 0.514706
0.068628 0.260784 0.530392
0.164890 0.280331 0.541575
0.277880 0.307414 0.565074
0.422181 0.337653 0.575276
0.590319 0.370833 0.570220
0.750980 0.398070 0.561397
0.862500 0.417279 0.560049
0.952298 0.427421 0.567769
0.996078 0.421323 0.580392
0.036765 0.356250 0.599387
0.146247 0.385187 0.615426
0.280791 0.414093 0.634926
0.434926 0.445435 0.645527
0.607353 0.480760 0.645527
0.768183 0.507996 0.635064
0.881985 0.527359 0.632659
0.965640 0.536014 0.635570
0.996078 0.529534 0.646079
0.010294 0.465196 0.675000
0.104106 0.496998 0.694853
0.271569 0.526593 0.709069
0.439890 0.559436 0.714583
0.620588 0.598530 0.714706
0.778370 0.627451 0.709988
0.891667 0.644975 0.708701
0.970894 0.654350 0.710539
0.996078 0.652941 0.717647
0.000981 0.581127 0.751961
0.059406 0.613205 0.771354
0.244087 0.643842 0.786029
0.436474 0.674127 0.787194
0.629841 0.708456 0.781863
0.783334 0.738664 0.777037
0.897059 0.757353 0.774724
0.973529 0.767555 0.779871
0.996078 0.769485 0.789216
0.000000 0.687990 0.822304
0.017984 0.715104 0.842984
0.170159 0.744669 0.852696
0.406863 0.772365 0.849142
0.620221 0.802941 0.837378
0.781005 0.827573 0.828186
0.889155 0.845159 0.826470
0.958395 0.854963 0.830423
0.996078 0.857108 0.837255
0.000000 0.770956 0.894485
0.000751 0.794317 0.901792
0.054627 0.819853 0.909467
0.289921 0.846936 0.903385
0.568382 0.874448 0.884252
0.759421 0.899525 0.873039
0.877053 0.918658 0.868383
0.949954 0.930392 0.869562
0.992157 0.938235 0.880882
0.000000 0.835294 0.944117
0.000000 0.854534 0.955760
0.003187 0.873530 0.955147
0.087255 0.900490 0.949142
0.405882 0.931372 0.929902
0.696079 0.959314 0.908823
0.861275 0.977451 0.900980
0.953064 0.992157 0.903554
0.996078 0.992157 0.907843
0.145588 0.145588 0.510784
0.198591 0.137255 0.506862
0.282476 0.156373 0.522059
0.416667 0.183333 0.528248
0.582843 0.212500 0.523039
0.737071 0.238542 0.518627
0.846078 0.255270 0.514706
0.919118 0.258885 0.514767
0.972549 0.250980 0.522059
0.122978 0.191177 0.549510
0.199510 0.206372 0.560294
0.295312 0.230270 0.576624
0.438151 0.260026 0.581296
0.602175 0.292923 0.580882
0.755170 0.320144 0.573001
0.861658 0.340946 0.568627
0.934313 0.347611 0.572120
0.987806 0.344118 0.579963
0.068995 0.287255 0.622916
0.195588 0.306740 0.626838
0.307506 0.333915 0.645680
0.457231 0.367218 0.652145
0.621752 0.399204 0.649571
0.770879 0.426072 0.639706
0.878585 0.444148 0.634773
0.961336 0.455071 0.639139
0.996078 0.448529 0.642157
0.048836 0.386949 0.694976
0.188993 0.414047 0.703431
0.322334 0.444072 0.719056
0.475238 0.475559 0.721094
0.638817 0.510233 0.722549
0.791912 0.538128 0.715204
0.897289 0.555744 0.709252
0.970075 0.563955 0.704519
0.996078 0.561948 0.710294
0.034069 0.490931 0.766176
0.168076 0.528922 0.778952
0.327880 0.556005 0.789461
0.487592 0.590594 0.791330
0.659314 0.627941 0.790196
0.803186 0.656036 0.787316
0.906189 0.671814 0.779412
0.973958 0.681372 0.777910
0.996078 0.681127 0.779412
0.024326 0.609007 0.837255
0.142540 0.641712 0.854435
0.322196 0.673346 0.861888
0.498897 0.701539 0.861826
0.671661 0.733425 0.854259
0.810180 0.761458 0.848514
0.910478 0.778431 0.844776
0.976961 0.789216 0.844692
0.996078 0.789216 0.845282
0.012623 0.713235 0.905392
0.094516 0.741376 0.920374
0.292249 0.767800 0.925429
0.490456 0.792907 0.919424
0.670650 0.819914 0.907843
0.810248 0.845098 0.896921
0.899877 0.858242 0.892157
0.961642 0.868750 0.891360
0.996078 0.865196 0.887868
0.000490 0.793628 0.962745
0.035172 0.816238 0.973154
0.186795 0.839706 0.973974
0.426095 0.862745 0.966069
0.638603 0.889216 0.954167
0.789499 0.910945 0.938833
0.891682 0.926486 0.931204
0.953868 0.938235 0.930768
0.992157 0.934804 0.926470
0.000000 0.851470 0.992647
0.004351 0.870588 0.996078
0.045466 0.890564 0.996078
0.231863 0.916176 0.993934
0.510049 0.943137 0.988725
0.734130 0.968627 0.976961
0.873529 0.984314 0.969608
0.954779 0.992157 0.965686
0.996078 0.992157 0.957843
0.188235 0.184314 0.596078
0.230883 0.161274 0.588725
0.314706 0.183334 0.600000
0.453922 0.212745 0.600000
0.617647 0.243138 0.596078
0.758823 0.266667 0.588235
0.861765 0.283334 0.584314
0.929902 0.290196 0.584314
0.976471 0.282353 0.580392
0.141666 0.214215 0.630392
0.237745 0.233333 0.634743
0.333334 0.260294 0.653799
0.478616 0.294914 0.654228
0.640686 0.327941 0.650245
0.780576 0.354534 0.643444
0.875981 0.368627 0.636029
0.945588 0.378921 0.638236
0.992157 0.378921 0.642157
0.083333 0.317647 0.706863
0.241667 0.336887 0.703431
0.351961 0.366912 0.714706
0.498529 0.402451 0.716789
0.656373 0.435785 0.717157
0.795220 0.460907 0.710784
0.897059 0.479412 0.708578
0.972181 0.487622 0.707843
0.996078 0.483334 0.707843
0.078431 0.417647 0.773529
0.248039 0.448529 0.777267
0.373652 0.477574 0.788113
0.524510 0.511765 0.787684
0.678921 0.545833 0.785294
0.820098 0.572059 0.781373
0.912378 0.588725 0.777451
0.979596 0.600368 0.775674
0.996078 0.600490 0.772059
0.082353 0.525490 0.841176
0.255392 0.562010 0.844853
0.394608 0.593628 0.854902
0.553431 0.626471 0.854167
0.707843 0.660784 0.851961
0.834559 0.688235 0.852206
0.923040 0.702941 0.845098
0.981372 0.712010 0.839461
0.996078 0.709804 0.835295
0.111274 0.642647 0.906373
0.270772 0.677941 0.916176
0.421078 0.703554 0.921201
0.578431 0.733823 0.919118
0.728186 0.761274 0.912010
0.843627 0.787807 0.906434
0.925735 0.802941 0.903431
0.980882 0.809927 0.896875
0.996078 0.796569 0.883824
0.112745 0.744117 0.966667
0.264951 0.771568 0.974510
0.447549 0.797794 0.976716
0.605147 0.821569 0.971078
0.739706 0.843137 0.957843
0.845465 0.858333 0.946079
0.911765 0.869608 0.938235
0.965564 0.880024 0.933946
0.996078 0.877451 0.929412
0.105882 0.820588 0.996078
0.243199 0.844117 0.996078
0.441421 0.866667 0.996078
0.596446 0.885785 0.993934
0.721078 0.904412 0.988725
0.827635 0.918321 0.979412
0.903922 0.930025 0.972059
0.957414 0.938235 0.965196
0.992157 0.942156 0.961274
0.054902 0.874510 0.996078
0.120098 0.890196 0.996078
0.259804 0.908824 0.996078
0.442157 0.927941 0.996078
0.637255 0.947059 0.996078
0.790196 0.966176 0.996078
0.890197 0.981372 0.996078
0.961274 0.992157 0.996078
0.992157 0.996078 0.992157
