calib/LUT LIBRARY/classic_chrome_composed.cube
TITLE "Chromasmith composed - Classic Chrome"
#STD_q(x) = VLOG_q(T(x)), T derived from astia/velvia/classic_neg matched pairs
LUT_3D_SIZE 9
0.016455 0.015878 0.016617
0.088691 0.022599 0.024735
0.238292 0.037205 0.026774
0.389678 0.080371 0.013305
0.522916 0.105846 0.018377
0.642713 0.121104 0.038991
0.745186 0.134321 0.075070
0.818573 0.163815 0.129903
0.933321 0.164712 0.250893
0.008292 0.063929 0.028932
0.109257 0.091378 0.024722
0.260671 0.119574 0.014926
0.392598 0.145029 0.011244
0.535290 0.178643 0.008603
0.659961 0.221137 0.027599
0.760560 0.254874 0.115835
0.858479 0.284060 0.193234
0.949139 0.311908 0.286354
0.000094 0.168482 0.046000
0.102409 0.211254 0.057862
0.284993 0.221490 0.000150
0.420593 0.260504 0.006121
0.549771 0.291582 0.047666
0.671071 0.328312 0.037173
0.769966 0.366731 0.123784
0.870992 0.390231 0.238151
0.958751 0.455427 0.313948
0.000145 0.327796 0.085210
0.085877 0.309515 0.022724
0.271969 0.330535 0.000299
0.424597 0.359107 0.004379
0.555035 0.392554 0.021880
0.676027 0.419521 0.022126
0.793487 0.456668 0.058398
0.894341 0.511750 0.253900
0.957349 0.515287 0.390415
0.000281 0.370054 0.000700
0.001110 0.432415 0.034334
0.266607 0.431984 0.001949
0.428794 0.463654 0.010822
0.564382 0.495735 0.020415
0.689771 0.519694 0.031190
0.795291 0.560109 0.056233
0.953035 0.635823 0.450503
0.952850 0.606706 0.412547
0.002212 0.485839 0.008354
0.006005 0.515490 0.026371
0.337331 0.530105 0.010811
0.432357 0.566338 0.018962
0.578242 0.589355 0.030757
0.707000 0.625593 0.049297
0.794901 0.657306 0.116986
0.952622 0.725216 0.387248
0.953165 0.717005 0.469014
0.007907 0.583159 0.002792
0.009700 0.606394 0.036309
0.009376 0.612048 0.001884
0.420991 0.669730 0.081260
0.586663 0.687338 0.042515
0.718096 0.726399 0.064278
0.802400 0.758087 0.088509
0.931409 0.793985 0.366146
0.956937 0.794320 0.499019
0.016691 0.698764 0.005664
0.021278 0.737749 0.044255
0.017954 0.711636 0.007036
0.501853 0.752459 0.044275
0.609275 0.798952 0.067698
0.712503 0.825963 0.093941
0.816366 0.850516 0.121757
0.939081 0.864648 0.385170
0.965492 0.895916 0.528905
0.024077 0.776520 0.013644
0.026103 0.794546 0.014763
0.033449 0.850465 0.020603
0.037736 0.880093 0.024564
0.700053 0.893410 0.122520
0.804100 0.893263 0.135574
0.855076 0.960580 0.174184
0.894640 0.972423 0.295771
0.970645 0.968783 0.426389
0.009142 0.017368 0.062738
0.087709 0.027833 0.064790
0.228386 0.042541 0.082648
0.388537 0.082665 0.091651
0.529576 0.114840 0.106129
0.638664 0.131001 0.133333
0.745335 0.149005 0.148399
0.849856 0.149955 0.218688
0.943682 0.170374 0.269634
0.010587 0.079636 0.080996
0.099841 0.097801 0.095528
0.240204 0.131498 0.107242
0.387591 0.154770 0.114896
0.528021 0.194066 0.130284
0.658858 0.226943 0.148509
0.760483 0.262667 0.198456
0.860369 0.283914 0.265940
0.959271 0.354148 0.340374
0.000169 0.169706 0.101414
0.095466 0.216972 0.127941
0.259869 0.238806 0.126851
0.398041 0.271154 0.134680
0.533223 0.296885 0.143356
0.659141 0.334802 0.185853
0.768144 0.368160 0.233489
0.878210 0.394155 0.301264
0.918055 0.411571 0.192898
0.000377 0.306939 0.121097
0.089789 0.318424 0.137737
0.258950 0.344229 0.122286
0.403696 0.367812 0.114988
0.545979 0.399598 0.151651
0.672376 0.436015 0.211683
0.773697 0.472108 0.264806
0.941996 0.524803 0.307030
0.955546 0.548705 0.468838
0.000864 0.356027 0.126532
0.001782 0.421698 0.156563
0.253814 0.447379 0.065198
0.406187 0.476780 0.097174
0.554198 0.504901 0.110483
0.679844 0.542593 0.218315
0.791460 0.572047 0.298802
0.954162 0.583422 0.524687
0.953614 0.603568 0.472946
0.003330 0.476817 0.112528
0.008166 0.554557 0.147588
0.245544 0.551810 0.064364
0.405004 0.575996 0.036624
0.555480 0.603929 0.081195
0.693812 0.637683 0.176927
0.778725 0.666118 0.322980
0.953649 0.704048 0.519906
0.953513 0.709705 0.478649
0.011329 0.587120 0.170665
0.010710 0.600877 0.081413
0.011795 0.632689 0.010536
0.410770 0.670972 0.063088
0.561262 0.701337 0.066820
0.697695 0.734141 0.164159
0.791839 0.757293 0.339675
0.886117 0.782369 0.400861
0.957652 0.791851 0.539835
0.019838 0.685913 0.169936
0.020973 0.719359 0.092936
0.021808 0.741993 0.054418
0.395832 0.768973 0.038532
0.582888 0.798229 0.063459
0.697426 0.822857 0.114676
0.807254 0.830328 0.329071
0.910138 0.856693 0.425706
0.966350 0.887103 0.605492
0.026097 0.785584 0.014817
0.030227 0.819689 0.052297
0.034571 0.863101 0.022900
0.324973 0.865761 0.046328
0.512071 0.961294 0.101624
0.480587 0.961755 0.095903
0.832060 0.968094 0.171575
0.922142 0.977183 0.484479
0.973945 0.975438 0.508435
0.000740 0.020791 0.139430
0.080961 0.031048 0.142450
0.223850 0.049007 0.165909
0.373464 0.078032 0.182715
0.512927 0.114370 0.207211
0.645056 0.136394 0.229637
0.749167 0.152722 0.253117
0.858197 0.180434 0.309025
0.948070 0.151317 0.379104
0.000733 0.074401 0.147652
0.095808 0.107833 0.178564
0.233170 0.135285 0.195610
0.378051 0.160508 0.216319
0.521710 0.196409 0.234757
0.655167 0.231358 0.257466
0.760779 0.262734 0.284511
0.848668 0.296681 0.348458
0.961221 0.303199 0.327256
0.000596 0.198239 0.197379
0.083871 0.220085 0.215787
0.245059 0.247095 0.241719
0.388853 0.272355 0.250343
0.526280 0.305690 0.265448
0.653706 0.339724 0.286354
0.767859 0.372685 0.329039
0.951422 0.383793 0.411385
0.957809 0.475950 0.420636
0.000913 0.308338 0.234857
0.065245 0.320816 0.235303
0.244253 0.356102 0.269354
0.387622 0.381538 0.278636
0.536142 0.405848 0.292730
0.668523 0.442199 0.315742
0.754429 0.474475 0.341804
0.958002 0.492054 0.513744
0.955945 0.522500 0.446474
0.001938 0.403533 0.248351
0.003835 0.437257 0.251723
0.244764 0.459748 0.277900
0.397772 0.487167 0.319079
0.547894 0.516154 0.341880
0.680600 0.549342 0.347593
0.762054 0.588698 0.377785
0.953649 0.610566 0.538296
0.953502 0.625497 0.520492
0.006778 0.499110 0.256372
0.009554 0.527270 0.258971
0.219921 0.567458 0.303538
0.404907 0.596397 0.328039
0.557535 0.621719 0.348372
0.694456 0.650818 0.374965
0.780463 0.671237 0.414947
0.953537 0.693096 0.591299
0.954382 0.725080 0.545273
0.013501 0.588839 0.270859
0.015041 0.606693 0.267632
0.021274 0.650504 0.300542
0.407879 0.690933 0.323955
0.558841 0.720755 0.363332
0.694557 0.746916 0.392944
0.804194 0.762534 0.434169
0.909616 0.793358 0.522287
0.959844 0.809014 0.625416
0.024280 0.698309 0.295189
0.026795 0.723116 0.292721
0.032523 0.747563 0.426544
0.444235 0.767140 0.378538
0.597104 0.778548 0.327078
0.722787 0.791722 0.376240
0.806376 0.835511 0.416869
0.901779 0.868211 0.469091
0.968972 0.898233 0.646276
0.035814 0.799883 0.311180
0.032757 0.818584 0.117819
0.051281 0.908863 0.340865
0.046860 0.951353 0.032262
0.263833 0.964516 0.059424
0.520085 0.961547 0.102747
0.808779 0.967137 0.165196
0.941522 0.978921 0.487331
0.973960 0.980271 0.488785
0.001934 0.033005 0.217234
0.072717 0.023572 0.230775
0.193705 0.053525 0.258989
0.347121 0.069149 0.279604
0.492237 0.092592 0.297996
0.637948 0.140567 0.324366
0.748194 0.154151 0.347365
0.844628 0.183556 0.359182
0.953013 0.160359 0.405511
0.000698 0.086908 0.239964
0.102654 0.129392 0.274326
0.219352 0.141419 0.300767
0.358370 0.165876 0.321148
0.509146 0.201034 0.329304
0.648495 0.232301 0.350620
0.761045 0.269242 0.370106
0.873737 0.302685 0.410096
0.959191 0.345035 0.441225
0.001290 0.202325 0.298918
0.040961 0.216016 0.297830
0.235251 0.253356 0.332393
0.375799 0.276625 0.347497
0.512926 0.306833 0.362740
0.652958 0.344539 0.382319
0.757600 0.382208 0.412935
0.887451 0.449155 0.411357
0.958754 0.471718 0.494751
0.001219 0.294059 0.308812
0.002763 0.315162 0.315166
0.222650 0.364866 0.357451
0.375043 0.383370 0.368998
0.521011 0.410419 0.391088
0.662471 0.448294 0.413745
0.723071 0.481582 0.426300
0.954708 0.573358 0.558005
0.954633 0.549968 0.562671
0.002702 0.388146 0.325696
0.005684 0.450978 0.346435
0.227271 0.469189 0.373656
0.386991 0.493974 0.395859
0.538576 0.523846 0.418957
0.675463 0.554281 0.443964
0.772424 0.587797 0.470839
0.953245 0.636173 0.600159
0.953368 0.626128 0.557668
0.007524 0.487283 0.336642
0.010956 0.526998 0.374542
0.226206 0.572538 0.393964
0.390517 0.602549 0.421223
0.552645 0.626834 0.441389
0.687438 0.657648 0.472907
0.768109 0.675320 0.498878
0.954372 0.710034 0.608920
0.954996 0.718259 0.626227
0.017706 0.605954 0.385187
0.021280 0.637430 0.410120
0.022568 0.655074 0.407373
0.394113 0.701181 0.438032
0.554847 0.724259 0.456753
0.691073 0.750195 0.487150
0.795464 0.772832 0.527887
0.899471 0.798250 0.583149
0.960224 0.804669 0.637405
0.028428 0.711759 0.395635
0.032443 0.743637 0.425968
0.029365 0.715293 0.409459
0.407370 0.774650 0.406149
0.587082 0.791736 0.477250
0.711612 0.811122 0.509066
0.811653 0.847929 0.557157
0.886145 0.870319 0.573095
0.971529 0.899674 0.715535
0.041560 0.815900 0.428779
0.034872 0.757840 0.463382
0.050865 0.879959 0.458934
0.060537 0.942658 0.437602
0.231757 0.961451 0.361295
0.504252 0.961108 0.315043
0.716509 0.966260 0.398157
0.927069 0.980514 0.578781
0.978867 0.981070 0.627552
0.001037 0.025942 0.331691
0.058830 0.039042 0.322632
0.178080 0.022826 0.343218
0.325707 0.056188 0.366977
0.484344 0.097473 0.384660
0.634761 0.126806 0.399414
0.749827 0.166563 0.425733
0.856343 0.183671 0.456532
0.963438 0.218936 0.499318
0.001282 0.089488 0.327148
0.071506 0.117401 0.359180
0.197505 0.143664 0.387044
0.346745 0.169547 0.406578
0.494155 0.207426 0.420400
0.643344 0.235331 0.433463
0.763965 0.270080 0.452560
0.840584 0.287417 0.474817
0.961210 0.319867 0.515716
0.001462 0.207440 0.386642
0.003944 0.209526 0.383892
0.217095 0.260169 0.415708
0.355644 0.276969 0.434950
0.502299 0.307347 0.451587
0.649242 0.344413 0.470415
0.737176 0.404625 0.492261
0.958473 0.468460 0.588320
0.958917 0.435734 0.540835
0.002121 0.322425 0.382924
0.002427 0.321582 0.413729
0.212568 0.367179 0.443174
0.362981 0.387026 0.464831
0.512234 0.417460 0.483502
0.659470 0.451990 0.504588
0.774433 0.486818 0.525601
0.956609 0.511627 0.579240
0.954737 0.550697 0.574189
0.004966 0.408080 0.429948
0.006359 0.425470 0.437746
0.206658 0.478162 0.472326
0.377171 0.499319 0.494537
0.527566 0.528796 0.513654
0.665534 0.560633 0.537245
0.746357 0.591899 0.557797
0.953403 0.614971 0.661716
0.953862 0.655758 0.634796
0.009044 0.484738 0.422520
0.014043 0.540260 0.471379
0.183557 0.582992 0.487067
0.374391 0.609725 0.521009
0.542294 0.634717 0.543483
0.679982 0.664399 0.566621
0.776670 0.692994 0.595464
0.955865 0.704689 0.678798
0.955618 0.701299 0.676763
0.022195 0.628052 0.492399
0.024022 0.645201 0.508415
0.027494 0.675076 0.513792
0.378510 0.709623 0.546112
0.546552 0.730211 0.560770
0.684902 0.755807 0.587559
0.796358 0.778655 0.620715
0.948490 0.815838 0.683672
0.962489 0.814005 0.698216
0.032311 0.724068 0.507065
0.038264 0.763713 0.547441
0.364469 0.741852 0.523326
0.432279 0.776031 0.501620
0.569075 0.807079 0.570788
0.711734 0.819646 0.604369
0.813736 0.866154 0.624056
0.862140 0.880513 0.672438
0.972752 0.900359 0.759994
0.045910 0.822379 0.530531
0.046329 0.826777 0.523268
0.103769 0.864338 0.538444
0.074239 0.960023 0.569848
0.078926 0.942259 0.535526
0.520045 0.960810 0.366366
0.776613 0.970905 0.591966
0.885331 0.978854 0.638780
0.984406 0.987409 0.743206
0.001732 0.057322 0.479989
0.045868 0.021480 0.417004
0.152871 0.001601 0.440097
0.313172 0.046526 0.453005
0.471769 0.095448 0.472671
0.630524 0.145059 0.482542
0.748982 0.171539 0.501283
0.866420 0.209352 0.522079
0.964644 0.190876 0.563028
0.001439 0.091210 0.424705
0.055632 0.114495 0.436782
0.177824 0.148142 0.468764
0.333979 0.176831 0.489051
0.480651 0.210645 0.506696
0.635209 0.239581 0.518640
0.757626 0.271429 0.535780
0.886586 0.304191 0.556929
0.959855 0.389483 0.582601
0.002100 0.213038 0.453694
0.002459 0.210355 0.471851
0.198767 0.265569 0.509190
0.335598 0.277572 0.527631
0.489825 0.309046 0.541888
0.638833 0.344622 0.555288
0.755182 0.393566 0.571138
0.958842 0.427258 0.595324
0.958142 0.471858 0.610895
0.003016 0.332414 0.469167
0.003299 0.336952 0.516610
0.208187 0.373648 0.541030
0.347014 0.392033 0.557474
0.499698 0.420412 0.576371
0.652634 0.455579 0.593588
0.741686 0.497456 0.604415
0.956599 0.494734 0.613717
0.953868 0.589115 0.648044
0.007244 0.427886 0.526188
0.008000 0.435105 0.540881
0.204851 0.486987 0.569646
0.359608 0.507936 0.590490
0.514385 0.532998 0.610018
0.655756 0.564935 0.626536
0.753879 0.594548 0.640793
0.953825 0.633338 0.664047
0.954620 0.639536 0.683619
0.015858 0.541005 0.569317
0.016833 0.548403 0.569625
0.131014 0.596117 0.584892
0.357031 0.617596 0.619199
0.528468 0.637231 0.635650
0.669321 0.667839 0.653492
0.761969 0.695218 0.668214
0.957089 0.726455 0.732202
0.957437 0.738196 0.696552
0.023361 0.621870 0.574842
0.028376 0.656165 0.615124
0.190889 0.695386 0.594598
0.355250 0.714826 0.641514
0.528518 0.738665 0.655172
0.673604 0.760648 0.679907
0.796473 0.783756 0.701616
0.895266 0.812508 0.732144
0.963637 0.817645 0.742646
0.038174 0.742291 0.626452
0.040765 0.759786 0.618151
0.072658 0.786723 0.646278
0.300835 0.774873 0.610850
0.550353 0.799240 0.667571
0.707316 0.820888 0.687899
0.805811 0.867028 0.719614
0.856628 0.884557 0.751803
0.974370 0.909296 0.779147
0.052018 0.839959 0.647223
0.054706 0.858022 0.659277
0.060369 0.888628 0.676746
0.083591 0.959381 0.699171
0.085694 0.960203 0.659885
0.594898 0.963478 0.592486
0.793931 0.974660 0.725260
0.890982 0.981466 0.728709
0.987996 0.985245 0.834119
0.002805 0.083662 0.571301
0.026913 0.018288 0.472248
0.133159 0.000204 0.538210
0.297600 0.018840 0.542438
0.458627 0.076570 0.563624
0.609654 0.105253 0.570737
0.741420 0.158907 0.578127
0.853830 0.199716 0.595828
0.963085 0.223459 0.636286
0.002132 0.095195 0.495691
0.019307 0.081096 0.512057
0.165613 0.157698 0.563425
0.307651 0.187389 0.581091
0.464919 0.218905 0.595150
0.621889 0.242526 0.602251
0.751330 0.276282 0.593709
0.917428 0.304400 0.636496
0.958719 0.402901 0.643639
0.003044 0.223707 0.570669
0.002884 0.222235 0.575518
0.194897 0.256450 0.573577
0.359804 0.285074 0.609500
0.473846 0.314258 0.601878
0.629970 0.349713 0.610162
0.743334 0.399474 0.649948
0.956173 0.519445 0.684888
0.959102 0.438937 0.665822
0.003799 0.323596 0.596706
0.003980 0.323110 0.587517
0.210465 0.385815 0.630275
0.330462 0.394621 0.626998
0.486781 0.426194 0.642552
0.642243 0.459997 0.672662
0.754846 0.489546 0.684263
0.955938 0.526323 0.685014
0.954991 0.563301 0.703544
0.011488 0.456163 0.625306
0.009406 0.435641 0.623736
0.211449 0.492369 0.654672
0.346984 0.518478 0.671231
0.497074 0.539176 0.692489
0.643168 0.568847 0.705941
0.747645 0.602043 0.718828
0.955890 0.688790 0.748040
0.954641 0.635605 0.733393
0.018464 0.542320 0.656694
0.017798 0.538024 0.641586
0.128178 0.598675 0.676637
0.339959 0.625576 0.696803
0.514526 0.649762 0.722898
0.660175 0.674110 0.737912
0.773592 0.700001 0.747833
0.957510 0.723746 0.774811
0.958971 0.749405 0.771643
0.026921 0.631193 0.669788
0.030665 0.660011 0.688355
0.088088 0.708333 0.694999
0.430465 0.720843 0.721757
0.511926 0.740939 0.738447
0.656668 0.761291 0.760144
0.784659 0.782798 0.773819
0.847720 0.810251 0.789358
0.966996 0.835055 0.817083
0.041668 0.748504 0.719885
0.044480 0.768307 0.726990
0.048654 0.791465 0.740258
0.384015 0.787809 0.708532
0.630134 0.743225 0.738649
0.722973 0.809916 0.786373
0.796677 0.872666 0.804414
0.863722 0.892246 0.818614
0.978059 0.914738 0.857891
0.054687 0.840416 0.735344
0.060840 0.872064 0.754786
0.058059 0.862477 0.741358
0.157925 0.914706 0.766625
0.168198 0.937819 0.761349
0.723989 0.962015 0.779387
0.823565 0.964169 0.828953
0.908167 0.985262 0.820854
0.990014 0.993145 0.856028
0.002847 0.062772 0.562678
0.003085 0.012357 0.572102
0.113888 0.000536 0.626029
0.274952 0.023929 0.634938
0.443630 0.053757 0.651946
0.588688 0.084257 0.648310
0.727165 0.148895 0.658338
0.831102 0.239980 0.674541
0.960634 0.299783 0.684196
0.002947 0.103965 0.627751
0.003002 0.118223 0.636244
0.127615 0.169480 0.626259
0.265072 0.207303 0.642811
0.503667 0.216937 0.654138
0.651100 0.247114 0.665875
0.752946 0.308009 0.680366
0.943702 0.309838 0.704826
0.960037 0.401499 0.679749
0.003443 0.222017 0.664668
0.003353 0.232653 0.676073
0.089951 0.271090 0.657986
0.362766 0.290968 0.652285
0.496000 0.355308 0.693671
0.656181 0.360569 0.692755
0.715561 0.455622 0.730234
0.960461 0.433505 0.699446
0.960420 0.423681 0.732575
0.006589 0.355979 0.704707
0.004992 0.330720 0.679535
0.109855 0.411826 0.705878
0.367779 0.395201 0.685600
0.525378 0.407312 0.697611
0.645091 0.486732 0.731521
0.816856 0.500693 0.744247
0.955262 0.546044 0.752169
0.955095 0.545700 0.775955
0.011282 0.439926 0.692574
0.011702 0.440546 0.696610
0.050368 0.525291 0.730295
0.349319 0.522008 0.727330
0.496457 0.560617 0.754333
0.658369 0.595936 0.760946
0.751269 0.613032 0.784383
0.954664 0.608011 0.794889
0.954837 0.641975 0.797743
0.019141 0.537534 0.709938
0.021609 0.561722 0.724135
0.156099 0.616797 0.752361
0.362756 0.619733 0.764998
0.504050 0.667082 0.787331
0.664095 0.695823 0.802666
0.785598 0.719276 0.814493
0.959481 0.732605 0.860400
0.960228 0.750881 0.837615
0.031422 0.656494 0.737255
0.033711 0.676917 0.748752
0.047080 0.741088 0.790508
0.379740 0.721136 0.754304
0.529614 0.742744 0.791511
0.652709 0.781233 0.828762
0.795826 0.804904 0.848232
0.870961 0.818794 0.864256
0.969206 0.840069 0.871785
0.042515 0.741054 0.787418
0.045851 0.760489 0.788599
0.050799 0.798157 0.791564
0.236350 0.810457 0.810064
0.502979 0.822524 0.831151
0.646825 0.854277 0.858877
0.781355 0.879317 0.880785
0.876100 0.900711 0.889261
0.978331 0.908563 0.903943
0.059279 0.840929 0.826835
0.057414 0.822688 0.877482
0.085529 0.879148 0.826661
0.080807 0.897757 0.946736
0.829059 0.922513 0.899991
0.694016 0.959369 0.875879
0.753071 0.974929 0.866145
0.915125 0.987327 0.909460
0.991688 0.986808 0.925221
0.003118 0.028699 0.673255
0.003503 0.041033 0.710017
0.231233 0.005827 0.669899
0.183972 0.047740 0.750715
0.488420 0.088846 0.868310
0.590326 0.138483 0.930901
0.731603 0.212120 0.812965
0.894999 0.248192 0.685891
0.960255 0.364238 0.708027
0.003088 0.156988 0.666509
0.003848 0.157723 0.734273
0.182841 0.123412 0.808529
0.241933 0.178359 0.978473
0.521549 0.183000 0.926307
0.658946 0.257642 0.905927
0.742549 0.321476 0.848710
0.891931 0.275568 0.794781
0.957695 0.468205 0.792122
0.004512 0.172927 0.803622
0.005197 0.239165 0.875215
0.135841 0.244930 0.776801
0.196829 0.253602 0.988654
0.433191 0.391174 0.913584
0.750218 0.165668 0.921668
0.737914 0.466547 0.862169
0.880832 0.454661 0.911382
0.956930 0.488708 0.803147
0.009143 0.370479 0.795567
0.009403 0.384287 0.768890
0.029999 0.390939 0.971895
0.117431 0.250004 0.992008
0.340194 0.143040 0.994907
0.610745 0.470819 0.958306
0.798346 0.537705 0.962388
0.955796 0.572034 0.917684
0.955089 0.609969 0.832683
0.022014 0.536480 0.827927
0.026378 0.563502 0.897932
0.084787 0.471627 0.972195
0.231995 0.506713 0.967626
0.409265 0.384263 0.972231
0.640997 0.537439 0.964632
0.697699 0.631334 0.959341
0.951241 0.625703 0.959313
0.958272 0.703900 0.863150
0.026014 0.563878 0.883965
0.008188 0.077948 0.999861
0.151070 0.630245 0.859400
0.329809 0.539756 0.965021
0.440089 0.687795 0.952396
0.619704 0.720088 0.947829
0.772143 0.724790 0.958769
0.885420 0.769876 0.949335
0.962459 0.756514 0.923538
0.038871 0.693693 0.818659
0.050821 0.776735 0.881874
0.045750 0.721041 0.959587
0.191754 0.742635 0.958496
0.398127 0.771406 0.955520
0.611801 0.783950 0.947191
0.771880 0.777178 0.959661
0.886959 0.821381 0.960164
0.969769 0.827350 0.963435
0.053127 0.796087 0.874405
0.046042 0.725111 0.959041
0.057091 0.800754 0.956408
0.224494 0.802240 0.955804
0.424406 0.816291 0.953975
0.604361 0.856333 0.952590
0.754840 0.867866 0.955440
0.878303 0.882805 0.971260
0.979282 0.914549 0.948766
0.080986 0.945316 0.729226
0.058249 0.809591 0.954654
0.067562 0.858905 0.954447
0.262858 0.859412 0.952608
0.467653 0.888389 0.953773
0.626227 0.910904 0.959268
0.804703 0.935533 0.970936
0.905896 0.981016 0.982533
0.990423 0.994728 0.985148
