calib/LUT LIBRARY/classic_chrome_composed.cube
TITLE "Chromasmith composed - Classic Chrome"
#STD_q(x) = VLOG_q(T(x)), T derived from astia/velvia/classic_neg matched pairs
LUT_3D_SIZE 5
0.016455 0.015878 0.016617
0.238292 0.037205 0.026774
0.522916 0.105846 0.018377
0.745186 0.134321 0.075070
0.933321 0.164712 0.250893
0.000094 0.168482 0.046000
0.284993 0.221490 0.000150
0.549771 0.291582 0.047666
0.769966 0.366731 0.123784
0.958751 0.455427 0.313948
0.000281 0.370054 0.000700
0.266607 0.431984 0.001949
0.564382 0.495735 0.020415
0.795291 0.560109 0.056233
0.952850 0.606706 0.412547
0.007907 0.583159 0.002792
0.009376 0.612048 0.001884
0.586663 0.687338 0.042515
0.802400 0.758087 0.088509
0.956937 0.794320 0.499019
0.024077 0.776520 0.013644
0.033449 0.850465 0.020603
0.700053 0.893410 0.122520
0.855076 0.960580 0.174184
0.970645 0.968783 0.426389
0.000740 0.020791 0.139430
0.223850 0.049007 0.165909
0.512927 0.114370 0.207211
0.749167 0.152722 0.253117
0.948070 0.151317 0.379104
0.000596 0.198239 0.197379
0.245059 0.247095 0.241719
0.526280 0.305690 0.265448
0.767859 0.372685 0.329039
0.957809 0.475950 0.420636
0.001938 0.403533 0.248351
0.244764 0.459748 0.277900
0.547894 0.516154 0.341880
0.762054 0.588698 0.377785
0.953502 0.625497 0.520492
0.013501 0.588839 0.270859
0.021274 0.650504 0.300542
0.558841 0.720755 0.363332
0.804194 0.762534 0.434169
0.959844 0.809014 0.625416
0.035814 0.799883 0.311180
0.051281 0.908863 0.340865
0.263833 0.964516 0.059424
0.808779 0.967137 0.165196
0.973960 0.980271 0.488785
0.001037 0.025942 0.331691
0.178080 0.022826 0.343218
0.484344 0.097473 0.384660
0.749827 0.166563 0.425733
0.963438 0.218936 0.499318
0.001462 0.207440 0.386642
0.217095 0.260169 0.415708
0.502299 0.307347 0.451587
0.737176 0.404625 0.492261
0.958917 0.435734 0.540835
0.004966 0.408080 0.429948
0.206658 0.478162 0.472326
0.527566 0.528796 0.513654
0.746357 0.591899 0.557797
0.953862 0.655758 0.634796
0.022195 0.628052 0.492399
0.027494 0.675076 0.513792
0.546552 0.730211 0.560770
0.796358 0.778655 0.620715
0.962489 0.814005 0.698216
0.045910 0.822379 0.530531
0.103769 0.864338 0.538444
0.078926 0.942259 0.535526
0.776613 0.970905 0.591966
0.984406 0.987409 0.743206
0.002805 0.083662 0.571301
0.133159 0.000204 0.538210
0.458627 0.076570 0.563624
0.741420 0.158907 0.578127
0.963085 0.223459 0.636286
0.003044 0.223707 0.570669
0.194897 0.256450 0.573577
0.473846 0.314258 0.601878
0.743334 0.399474 0.649948
0.959102 0.438937 0.665822
0.011488 0.456163 0.625306
0.211449 0.492369 0.654672
0.497074 0.539176 0.692489
0.747645 0.602043 0.718828
0.954641 0.635605 0.733393
0.026921 0.631193 0.669788
0.088088 0.708333 0.694999
0.511926 0.740939 0.738447
0.784659 0.782798 0.773819
0.966996 0.835055 0.817083
0.054687 0.840416 0.735344
0.058059 0.862477 0.741358
0.168198 0.937819 0.761349
0.823565 0.964169 0.828953
0.990014 0.993145 0.856028
0.003118 0.028699 0.673255
0.231233 0.005827 0.669899
0.488420 0.088846 0.868310
0.731603 0.212120 0.812965
0.960255 0.364238 0.708027
0.004512 0.172927 0.803622
0.135841 0.244930 0.776801
0.433191 0.391174 0.913584
0.737914 0.466547 0.862169
0.956930 0.488708 0.803147
0.022014 0.536480 0.827927
0.084787 0.471627 0.972195
0.409265 0.384263 0.972231
0.697699 0.631334 0.959341
0.958272 0.703900 0.863150
0.038871 0.693693 0.818659
0.045750 0.721041 0.959587
0.398127 0.771406 0.955520
0.771880 0.777178 0.959661
0.969769 0.827350 0.963435
0.080986 0.945316 0.729226
0.067562 0.858905 0.954447
0.467653 0.888389 0.953773
0.804703 0.935533 0.970936
0.990423 0.994728 0.985148
