calib/LUT LIBRARY/classic_neg_composed.cube
TITLE "Chromasmith composed - classic_neg"
#STD_q(x) = VLOG_q(T(x)), T from astia/velvia/classic_neg matched pairs
LUT_3D_SIZE 9
0.028383 0.031278 0.027338
0.095959 0.041983 0.027174
0.196334 0.059799 0.016293
0.322365 0.101390 0.001467
0.474258 0.125788 0.000076
0.630359 0.137666 0.000055
0.760078 0.144079 0.001142
0.834308 0.161059 0.013973
0.916241 0.132761 0.069891
0.015536 0.088040 0.058271
0.103314 0.112768 0.047050
0.198012 0.132769 0.025566
0.311123 0.152153 0.008747
0.475704 0.176865 0.000136
0.647747 0.206579 0.000331
0.785993 0.232374 0.033147
0.875075 0.245776 0.072636
0.931918 0.246945 0.124433
0.007239 0.171237 0.102240
0.091607 0.200250 0.106141
0.197931 0.202509 0.011598
0.325900 0.232057 0.021153
0.494936 0.259971 0.042738
0.661838 0.289384 0.010333
0.794541 0.325170 0.061941
0.887298 0.339715 0.127481
0.949508 0.358753 0.163300
0.013139 0.293866 0.170930
0.062714 0.270165 0.105292
0.171380 0.284031 0.028352
0.309579 0.310827 0.040667
0.479878 0.347510 0.039609
0.660263 0.373675 0.000891
0.816637 0.409337 0.022441
0.907786 0.466587 0.168503
0.954367 0.431413 0.254208
0.010809 0.323512 0.087411
0.015355 0.386220 0.162742
0.145075 0.374393 0.043119
0.287329 0.409436 0.029775
0.469688 0.449665 0.019012
0.665635 0.478432 0.002568
0.815153 0.527361 0.043661
0.962135 0.590273 0.349478
0.959428 0.549927 0.300698
0.015876 0.438144 0.144867
0.018330 0.470499 0.178649
0.182631 0.477679 0.055611
0.271723 0.523512 0.051573
0.472464 0.560102 0.042069
0.699153 0.614246 0.077395
0.826721 0.657965 0.140783
0.964108 0.714033 0.317471
0.966886 0.707354 0.399269
0.019653 0.546942 0.151899
0.022869 0.579628 0.225482
0.020246 0.580833 0.160748
0.269498 0.664582 0.234466
0.439532 0.680915 0.057492
0.666018 0.737400 0.032461
0.808737 0.782930 0.071868
0.945248 0.815531 0.350396
0.972024 0.808824 0.462976
0.023892 0.687614 0.180378
0.029763 0.737643 0.292653
0.024383 0.702223 0.177925
0.278759 0.754756 0.093120
0.401361 0.811435 0.082685
0.605526 0.852423 0.063654
0.792948 0.882150 0.040614
0.947386 0.889732 0.406086
0.977365 0.918600 0.548229
0.024163 0.773779 0.128757
0.024657 0.789795 0.131868
0.029921 0.851004 0.221725
0.029255 0.877891 0.191530
0.544471 0.913297 0.288923
0.736648 0.921288 0.068519
0.803593 0.981258 0.219884
0.882143 0.991021 0.465174
0.963874 0.982552 0.513334
0.029504 0.040828 0.074074
0.102096 0.053753 0.065859
0.198559 0.071850 0.068815
0.335739 0.111140 0.063318
0.494931 0.139949 0.055605
0.638931 0.152098 0.052642
0.765609 0.160084 0.041080
0.863296 0.152458 0.068253
0.923403 0.133098 0.082109
0.028425 0.106007 0.106778
0.109384 0.121744 0.108363
0.201486 0.148483 0.109556
0.325473 0.167030 0.098725
0.487967 0.196100 0.090385
0.663637 0.219463 0.077795
0.792666 0.243840 0.095626
0.879862 0.250648 0.127959
0.945367 0.262402 0.165368
0.009279 0.174547 0.146755
0.100677 0.207966 0.159572
0.208751 0.224658 0.144171
0.330217 0.250456 0.136320
0.491786 0.271776 0.120197
0.668994 0.308236 0.129114
0.803498 0.336258 0.145561
0.896179 0.347428 0.178949
0.916209 0.343449 0.082273
0.013764 0.278570 0.191379
0.090171 0.285141 0.191697
0.196303 0.309116 0.168513
0.315744 0.330579 0.146897
0.498716 0.366427 0.151073
0.688481 0.409050 0.173737
0.814913 0.445497 0.198682
0.939701 0.467919 0.199604
0.959051 0.479937 0.347921
0.015555 0.320602 0.208451
0.018807 0.384351 0.249899
0.167122 0.403749 0.159931
0.303729 0.438502 0.167867
0.490782 0.474228 0.153113
0.690197 0.526083 0.212120
0.832989 0.560228 0.257243
0.963093 0.526202 0.419307
0.961711 0.549829 0.366701
0.019746 0.437878 0.236345
0.024424 0.526242 0.292164
0.147575 0.517842 0.197522
0.271498 0.545354 0.152989
0.467215 0.587771 0.166714
0.699842 0.640052 0.214645
0.825170 0.680529 0.319329
0.968860 0.691687 0.451337
0.967097 0.697774 0.407550
0.026622 0.566448 0.323644
0.024493 0.575407 0.259667
0.022854 0.608949 0.197616
0.254409 0.664303 0.218168
0.436260 0.706877 0.195309
0.677234 0.759637 0.250914
0.824893 0.788612 0.371794
0.914139 0.810308 0.401400
0.973816 0.806358 0.506578
0.031472 0.683579 0.371665
0.030838 0.718856 0.330607
0.030671 0.742833 0.306816
0.175228 0.772634 0.184232
0.374270 0.812467 0.093114
0.622692 0.852055 0.254080
0.828921 0.864493 0.396572
0.924043 0.884138 0.452445
0.980795 0.909065 0.618248
0.024775 0.782410 0.130552
0.034267 0.824048 0.350989
0.033101 0.862452 0.295639
0.060896 0.864569 0.155957
0.091367 0.947292 0.208072
0.060088 0.946148 0.192266
0.763273 0.985737 0.257997
0.917979 0.991768 0.605008
0.966641 0.986291 0.586346
0.024769 0.055059 0.138789
0.111548 0.067622 0.128707
0.209391 0.086874 0.132700
0.337687 0.115219 0.129964
0.491150 0.146903 0.129374
0.660586 0.163297 0.120916
0.780504 0.170525 0.118044
0.874665 0.178266 0.144641
0.929981 0.130330 0.179071
0.017157 0.106513 0.158342
0.122279 0.136529 0.171821
0.211758 0.157134 0.172533
0.331137 0.177519 0.171599
0.499111 0.205602 0.165127
0.674929 0.231691 0.158986
0.800382 0.251180 0.162802
0.878456 0.270347 0.206899
0.944273 0.218032 0.142661
0.015262 0.200070 0.221244
0.109268 0.216601 0.222192
0.218436 0.239076 0.228325
0.345008 0.260353 0.219926
0.507753 0.290080 0.213107
0.678194 0.321505 0.209058
0.812811 0.349543 0.227922
0.946529 0.308917 0.256113
0.954100 0.387436 0.273401
0.017588 0.285185 0.273180
0.090144 0.295216 0.264665
0.215127 0.331994 0.280662
0.337375 0.358853 0.275267
0.516974 0.385814 0.263476
0.699304 0.425007 0.261804
0.806078 0.457052 0.273249
0.959384 0.418336 0.385088
0.957130 0.445183 0.314388
0.020934 0.372860 0.312048
0.022253 0.407990 0.326677
0.202805 0.434963 0.323352
0.346031 0.470002 0.345207
0.533118 0.506492 0.342548
0.712111 0.544028 0.325020
0.812257 0.588290 0.345765
0.965163 0.564586 0.443730
0.964849 0.582369 0.425860
0.025037 0.472869 0.352517
0.027133 0.502445 0.366834
0.177486 0.554251 0.392848
0.336725 0.592407 0.396428
0.527621 0.628054 0.390454
0.728297 0.667695 0.388584
0.836164 0.691674 0.407705
0.971695 0.680109 0.531375
0.970942 0.721458 0.488176
0.029748 0.575049 0.404580
0.030394 0.595360 0.408078
0.033884 0.646044 0.455367
0.306078 0.702845 0.443182
0.499778 0.743919 0.454901
0.702970 0.779130 0.450755
0.846425 0.795481 0.456800
0.936992 0.818894 0.514449
0.978422 0.827154 0.608767
0.036051 0.703917 0.480936
0.037303 0.731169 0.494179
0.042796 0.761697 0.625540
0.328663 0.787694 0.527812
0.514831 0.805084 0.446831
0.731867 0.827390 0.447660
0.830965 0.869721 0.476175
0.918414 0.896189 0.503490
0.982638 0.918447 0.662937
0.042065 0.809727 0.558236
0.036824 0.824918 0.420771
0.048437 0.901289 0.663665
0.034981 0.932965 0.296157
0.033563 0.943832 0.254404
0.103526 0.947206 0.315695
0.708599 0.982530 0.283979
0.934990 0.992323 0.596377
0.964345 0.991003 0.576384
0.045840 0.075924 0.196453
0.123229 0.067634 0.190817
0.205338 0.100361 0.204919
0.330238 0.116322 0.203256
0.485383 0.137767 0.196413
0.667261 0.174542 0.199311
0.789617 0.180572 0.199217
0.870076 0.188622 0.195330
0.933306 0.143963 0.209497
0.027464 0.123648 0.228332
0.142298 0.158373 0.244244
0.223128 0.169299 0.253420
0.337232 0.189871 0.256850
0.504815 0.217697 0.245029
0.684101 0.241643 0.241490
0.810152 0.264149 0.242956
0.897099 0.276075 0.265728
0.950135 0.254699 0.262799
0.017008 0.209318 0.300876
0.095806 0.220309 0.289610
0.231419 0.251756 0.303533
0.356254 0.274170 0.305321
0.515589 0.301866 0.301926
0.695509 0.336205 0.299147
0.813268 0.368633 0.316170
0.911090 0.413146 0.301159
0.956997 0.391683 0.356643
0.019141 0.279605 0.329905
0.033594 0.297830 0.338645
0.221224 0.349922 0.362572
0.351219 0.370828 0.357901
0.525064 0.400875 0.358362
0.710306 0.441982 0.359335
0.780598 0.475227 0.367837
0.964235 0.517437 0.455560
0.963706 0.490885 0.457285
0.023214 0.366150 0.374030
0.026210 0.430186 0.414986
0.215067 0.455330 0.415223
0.355614 0.485787 0.420633
0.541635 0.523123 0.421227
0.723868 0.559476 0.423038
0.834286 0.594935 0.437736
0.969254 0.604332 0.526086
0.966764 0.586992 0.471711
0.027659 0.467877 0.419761
0.030848 0.513762 0.469835
0.205501 0.568897 0.476079
0.349504 0.608297 0.487994
0.547493 0.642350 0.483026
0.737488 0.682491 0.488882
0.831956 0.702452 0.498783
0.973400 0.703845 0.557520
0.974502 0.716360 0.582301
0.034684 0.603092 0.514115
0.037059 0.641192 0.552776
0.038098 0.659795 0.555662
0.322660 0.721187 0.554200
0.520040 0.752177 0.543952
0.714925 0.785909 0.543054
0.844188 0.808107 0.556675
0.932911 0.826507 0.584452
0.978627 0.822368 0.620401
0.040560 0.723775 0.577698
0.042888 0.757595 0.623500
0.040754 0.727039 0.591209
0.293692 0.794398 0.564811
0.528124 0.822420 0.590109
0.719798 0.846673 0.586295
0.844729 0.880141 0.609064
0.911522 0.898886 0.611547
0.985650 0.919422 0.734178
0.046630 0.827243 0.668488
0.045369 0.773491 0.666147
0.050430 0.879466 0.731375
0.052988 0.928824 0.769616
0.052326 0.941472 0.728047
0.156039 0.947968 0.650852
0.529022 0.969996 0.631512
0.924763 0.992247 0.676993
0.971657 0.987859 0.688490
0.069212 0.083894 0.286927
0.132080 0.094128 0.269972
0.216868 0.081990 0.269348
0.328541 0.114905 0.277329
0.496220 0.150455 0.275371
0.677388 0.172982 0.267492
0.802625 0.197717 0.279781
0.885372 0.197673 0.294285
0.949196 0.166359 0.309131
0.045297 0.133010 0.298725
0.141515 0.157471 0.316262
0.229119 0.178945 0.331776
0.351657 0.201774 0.336876
0.512902 0.232753 0.335407
0.696439 0.253910 0.325950
0.822753 0.274001 0.328209
0.883707 0.279217 0.340366
0.952984 0.244350 0.344671
0.028582 0.220923 0.378908
0.063553 0.223377 0.371366
0.242190 0.266500 0.385926
0.363402 0.285494 0.392391
0.530301 0.314261 0.391630
0.710229 0.347767 0.390281
0.805393 0.402924 0.411825
0.961576 0.400304 0.468795
0.957867 0.357004 0.401251
0.023085 0.310844 0.405180
0.025490 0.312518 0.434675
0.239995 0.363010 0.446847
0.372731 0.387385 0.454468
0.543900 0.420767 0.455507
0.727088 0.457751 0.456729
0.844129 0.488387 0.464569
0.962644 0.447880 0.467667
0.964656 0.492928 0.471443
0.028100 0.396518 0.479835
0.029132 0.414053 0.493611
0.230941 0.477179 0.516679
0.379551 0.504116 0.522134
0.558255 0.540544 0.522339
0.732901 0.578452 0.527348
0.822508 0.611897 0.541167
0.971365 0.581864 0.596256
0.972178 0.634516 0.576755
0.030950 0.473958 0.500766
0.035253 0.537396 0.570346
0.202670 0.590876 0.577049
0.369973 0.627546 0.592513
0.567247 0.661946 0.591938
0.748214 0.698685 0.592094
0.850223 0.726877 0.606028
0.976446 0.703431 0.643539
0.976190 0.698734 0.640177
0.040086 0.637347 0.628694
0.041373 0.657845 0.653284
0.044782 0.689375 0.671757
0.344664 0.736927 0.663570
0.542273 0.764677 0.648951
0.726942 0.795230 0.646681
0.855652 0.816273 0.654025
0.968669 0.837353 0.682108
0.981991 0.834185 0.694479
0.045612 0.742650 0.690294
0.047853 0.781715 0.745377
0.306795 0.766692 0.659718
0.347184 0.800718 0.645561
0.521413 0.838960 0.689132
0.732900 0.855356 0.680261
0.844794 0.897647 0.685970
0.899462 0.911694 0.723816
0.987353 0.919580 0.779914
0.050751 0.834279 0.759425
0.050836 0.837727 0.755400
0.069074 0.867352 0.778826
0.057472 0.940931 0.874120
0.056142 0.929410 0.836434
0.173361 0.948855 0.679875
0.701014 0.979483 0.744883
0.884515 0.990179 0.737966
0.977152 0.991551 0.790629
0.101661 0.126876 0.430853
0.146708 0.089035 0.351841
0.227841 0.057335 0.351696
0.344696 0.117545 0.357428
0.508108 0.160163 0.362713
0.692579 0.196744 0.357566
0.814294 0.211353 0.362545
0.900365 0.222869 0.371921
0.951561 0.155607 0.381879
0.074913 0.144263 0.385395
0.151039 0.163616 0.389048
0.239264 0.192097 0.413141
0.369069 0.218038 0.422041
0.528339 0.247538 0.426780
0.708281 0.269477 0.418888
0.829580 0.287734 0.421955
0.916882 0.293334 0.429812
0.958225 0.316341 0.442328
0.046731 0.233481 0.443591
0.054229 0.233687 0.459591
0.260022 0.284758 0.483002
0.379827 0.300550 0.491296
0.549167 0.330443 0.489885
0.720702 0.361500 0.486052
0.834473 0.402597 0.495046
0.960597 0.357724 0.467836
0.962932 0.408259 0.496970
0.029066 0.330041 0.493497
0.032155 0.339952 0.544955
0.273512 0.384902 0.550344
0.397428 0.407488 0.556656
0.566990 0.439168 0.559218
0.743574 0.476597 0.560262
0.832420 0.516573 0.568058
0.963992 0.434464 0.508390
0.970009 0.551128 0.576714
0.033016 0.428242 0.586395
0.034071 0.437058 0.602750
0.268195 0.501508 0.621344
0.404493 0.528754 0.630264
0.583771 0.561127 0.631603
0.747625 0.597589 0.631667
0.844121 0.625453 0.635433
0.972689 0.609897 0.608347
0.973907 0.620602 0.634576
0.039962 0.550596 0.673105
0.039912 0.559878 0.678378
0.201027 0.617144 0.688763
0.400077 0.649586 0.701337
0.591726 0.676610 0.692552
0.759558 0.712100 0.689571
0.849474 0.736511 0.691219
0.980109 0.736455 0.715883
0.979006 0.747747 0.674494
0.043426 0.639284 0.712422
0.046456 0.680985 0.768506
0.217788 0.723704 0.733982
0.368828 0.750206 0.762149
0.559358 0.779445 0.748791
0.738784 0.804309 0.744891
0.866920 0.823820 0.740583
0.939260 0.844128 0.752974
0.983879 0.838954 0.746273
0.050518 0.765704 0.812364
0.051147 0.780595 0.810294
0.098477 0.806388 0.837813
0.268572 0.800584 0.767609
0.549170 0.835431 0.778361
0.750313 0.859304 0.763054
0.854141 0.901957 0.782225
0.903359 0.917758 0.806268
0.988330 0.927466 0.800341
0.055132 0.850976 0.865909
0.055941 0.865757 0.883472
0.058013 0.890601 0.911200
0.060262 0.942436 0.959020
0.059710 0.941878 0.931998
0.341784 0.958197 0.812611
0.763971 0.983634 0.837522
0.897585 0.990712 0.807885
0.984779 0.988108 0.866766
0.124620 0.160835 0.530571
0.149276 0.092539 0.405674
0.246793 0.067113 0.449577
0.366748 0.107690 0.442204
0.528098 0.160135 0.455556
0.693449 0.182251 0.449192
0.819081 0.214860 0.449691
0.899874 0.230091 0.461566
0.956495 0.189061 0.482427
0.096195 0.156641 0.455409
0.146161 0.149394 0.461214
0.266323 0.214265 0.514790
0.386356 0.241688 0.526637
0.549703 0.269532 0.529593
0.719267 0.287041 0.518117
0.833915 0.302838 0.493750
0.940356 0.299517 0.524920
0.962529 0.342129 0.526814
0.089235 0.260931 0.565991
0.091518 0.259669 0.570297
0.283615 0.288984 0.548661
0.445678 0.323963 0.579732
0.558974 0.347120 0.562077
0.728266 0.378008 0.554457
0.839965 0.426281 0.596032
0.969191 0.475653 0.607437
0.965283 0.386141 0.565506
0.069310 0.344601 0.626291
0.065674 0.343048 0.616229
0.319188 0.415529 0.651699
0.419545 0.424958 0.636874
0.585962 0.459882 0.639038
0.760049 0.499759 0.657196
0.856701 0.524087 0.659784
0.969467 0.485198 0.610510
0.972155 0.532169 0.645010
0.046956 0.474289 0.706438
0.046543 0.453793 0.697125
0.320176 0.525518 0.714858
0.443495 0.558125 0.723981
0.613252 0.586235 0.727860
0.764131 0.617447 0.724332
0.854485 0.647293 0.728230
0.979446 0.693352 0.727619
0.976450 0.625702 0.698394
0.044773 0.568157 0.773058
0.043514 0.560883 0.753409
0.251541 0.636208 0.784002
0.434934 0.672023 0.785354
0.626950 0.703158 0.787744
0.778496 0.729420 0.782123
0.871645 0.748639 0.776615
0.982063 0.739524 0.766069
0.983030 0.768817 0.766455
0.048110 0.661960 0.817138
0.049916 0.693233 0.846429
0.194084 0.744893 0.845601
0.506028 0.767439 0.823898
0.593904 0.789546 0.829816
0.752843 0.811681 0.825677
0.870970 0.828195 0.815810
0.916081 0.850595 0.823821
0.987972 0.860281 0.828816
0.054193 0.777544 0.901874
0.055045 0.794896 0.913900
0.056769 0.814071 0.930239
0.397295 0.821849 0.844874
0.725125 0.794235 0.806824
0.812016 0.856240 0.848103
0.870779 0.912668 0.866591
0.919288 0.927331 0.870473
0.991456 0.933693 0.878312
0.058113 0.854314 0.940486
0.059754 0.881046 0.967078
0.059089 0.872071 0.951947
0.134803 0.919968 0.980686
0.113278 0.934085 0.982915
0.688919 0.973660 0.897788
0.856634 0.980256 0.904938
0.924001 0.992610 0.879220
0.984959 0.994417 0.889037
0.126229 0.143763 0.516163
0.147468 0.101892 0.512032
0.270093 0.086792 0.547191
0.393058 0.130624 0.549364
0.556646 0.162851 0.554034
0.699531 0.183727 0.538880
0.823787 0.225883 0.549737
0.898878 0.283091 0.576693
0.961767 0.256036 0.558981
0.141971 0.186403 0.598691
0.149535 0.199095 0.611176
0.268474 0.235400 0.591600
0.382216 0.269409 0.606327
0.620436 0.282890 0.592366
0.767278 0.304293 0.592957
0.852011 0.349984 0.611214
0.957104 0.306600 0.609280
0.964581 0.350091 0.576319
0.132077 0.281139 0.670394
0.136984 0.291312 0.684948
0.255275 0.319074 0.657051
0.473821 0.339564 0.629550
0.631782 0.408921 0.676725
0.782188 0.409035 0.653623
0.838966 0.507198 0.712096
0.966820 0.389665 0.609926
0.968576 0.389409 0.650478
0.121031 0.402129 0.755774
0.113467 0.372145 0.719089
0.291382 0.460194 0.754078
0.494978 0.442649 0.697431
0.661580 0.458768 0.691611
0.783483 0.542788 0.731363
0.906995 0.542614 0.722249
0.974378 0.526295 0.702941
0.975491 0.530511 0.730475
0.083298 0.475034 0.774870
0.086159 0.478188 0.778408
0.241657 0.575795 0.822229
0.494927 0.578227 0.782945
0.652777 0.624030 0.796537
0.798876 0.657071 0.786391
0.872023 0.671897 0.799951
0.978686 0.610360 0.767192
0.979973 0.649517 0.777243
0.060966 0.575882 0.828454
0.054407 0.602924 0.852362
0.334304 0.672837 0.857403
0.522116 0.682126 0.842730
0.662403 0.732720 0.852700
0.803791 0.759438 0.848351
0.891610 0.774278 0.843890
0.986326 0.765573 0.860484
0.985955 0.778732 0.839460
0.051968 0.696608 0.893256
0.053502 0.716707 0.909435
0.168159 0.781416 0.946919
0.483001 0.771048 0.859965
0.656204 0.798813 0.871871
0.782988 0.838062 0.893361
0.895522 0.856917 0.891607
0.943154 0.866326 0.896943
0.990108 0.868792 0.884558
0.056527 0.776514 0.959759
0.057398 0.792873 0.966048
0.058560 0.823416 0.973131
0.360894 0.848620 0.950726
0.618936 0.872398 0.934231
0.768536 0.905032 0.939800
0.879792 0.925361 0.938447
0.938516 0.937235 0.931376
0.993009 0.930414 0.920528
0.061286 0.861626 0.999866
0.063694 0.853305 0.999946
0.157033 0.896701 0.996961
0.224305 0.922274 0.999968
0.902848 0.955612 0.950884
0.724629 0.975610 0.969628
0.778772 0.985542 0.953983
0.943322 0.994302 0.950893
0.992818 0.990299 0.946361
0.178852 0.140188 0.632599
0.196785 0.162593 0.678533
0.381103 0.118022 0.589777
0.404421 0.184797 0.699776
0.753009 0.282563 0.798338
0.849351 0.368491 0.859841
0.870764 0.331286 0.751060
0.932122 0.275854 0.583629
0.964840 0.322017 0.606706
0.148630 0.234622 0.656332
0.184610 0.256368 0.733998
0.463568 0.268880 0.773682
0.746008 0.444874 0.916311
0.819543 0.400801 0.867760
0.869067 0.433371 0.857124
0.888536 0.435598 0.809390
0.945231 0.339252 0.724095
0.973868 0.459127 0.735555
0.235482 0.297566 0.810169
0.305209 0.392856 0.891048
0.388403 0.343944 0.775644
0.783557 0.537258 0.948001
0.769977 0.552784 0.902396
0.908029 0.367000 0.848208
0.890323 0.568130 0.849200
0.960695 0.559094 0.874556
0.975053 0.484951 0.753258
0.187968 0.452972 0.855500
0.164795 0.453215 0.833267
0.631009 0.597034 0.967261
0.759634 0.538168 0.951214
0.830901 0.472726 0.930076
0.879280 0.641903 0.939074
0.948602 0.694571 0.949507
0.984227 0.632620 0.890365
0.980992 0.625781 0.811227
0.165822 0.615352 0.935559
0.247817 0.667110 0.985753
0.706118 0.669130 0.980709
0.776123 0.697987 0.976850
0.841425 0.616993 0.953445
0.902477 0.711850 0.961610
0.916611 0.770588 0.969502
0.988789 0.724383 0.946623
0.985474 0.735362 0.858520
0.224540 0.661269 0.980828
0.699661 0.431769 0.941366
0.468628 0.716351 0.943387
0.805575 0.719077 0.975888
0.797255 0.802405 0.981904
0.866280 0.822651 0.975494
0.936348 0.828319 0.976821
0.969893 0.841502 0.958896
0.989944 0.800020 0.921406
0.111661 0.744857 0.968636
0.075998 0.817701 0.999773
0.495721 0.820581 0.999684
0.693070 0.845663 0.999491
0.778851 0.866609 0.998363
0.854837 0.870468 0.986870
0.931162 0.862683 0.983418
0.969101 0.883970 0.974423
0.993426 0.871753 0.964627
0.065637 0.831351 0.999859
0.358176 0.815832 0.999830
0.444291 0.869315 0.999682
0.664203 0.881365 0.999704
0.762747 0.894087 0.999483
0.831184 0.921620 0.997723
0.902066 0.925491 0.990688
0.962399 0.930859 0.991086
0.994435 0.938836 0.959022
0.061208 0.935492 0.974245
0.267860 0.866889 0.999738
0.324837 0.900950 0.999727
0.626414 0.918164 0.999788
0.725863 0.941126 0.999606
0.812459 0.956664 0.999629
0.912301 0.970123 0.999117
0.957331 0.992935 0.999018
0.995407 0.997259 0.992267
