calib/LUT LIBRARY/eterna_bleach_bypass_composed.cube
TITLE "Chromasmith composed - Eterna Bleach Bypass"
#STD_q(x) = VLOG_q(T(x)), T derived from astia/velvia/classic_neg matched pairs
LUT_3D_SIZE 5
0.044156 0.044430 0.045843
0.161711 0.074636 0.067822
0.334974 0.115388 0.071658
0.481955 0.129503 0.113228
0.617771 0.164883 0.199423
0.039200 0.150596 0.092975
0.207464 0.194430 0.073977
0.391648 0.247580 0.148790
0.592362 0.344887 0.246268
0.801554 0.481649 0.364099
0.065947 0.301570 0.104789
0.253366 0.370865 0.142175
0.471977 0.461630 0.221569
0.708432 0.582817 0.324209
0.889648 0.655198 0.471259
0.139282 0.501351 0.189008
0.181313 0.534477 0.209434
0.590072 0.691817 0.324826
0.802934 0.811743 0.388072
0.946671 0.851264 0.565470
0.233170 0.703861 0.238016
0.313745 0.778677 0.304867
0.765958 0.909245 0.444573
0.873354 0.958608 0.422874
0.954826 0.969302 0.598292
0.032427 0.055101 0.104119
0.163445 0.090877 0.141020
0.341389 0.134670 0.181167
0.506517 0.158746 0.213400
0.631448 0.167562 0.257836
0.066114 0.174303 0.165492
0.221066 0.220991 0.217033
0.405142 0.275956 0.260241
0.619637 0.370178 0.349883
0.818328 0.503996 0.423370
0.097392 0.341740 0.243168
0.303964 0.421780 0.318241
0.523008 0.514748 0.413753
0.735251 0.630605 0.493750
0.911254 0.677457 0.551084
0.170359 0.526103 0.337498
0.280102 0.608208 0.403845
0.633703 0.752371 0.533054
0.829209 0.823960 0.587832
0.959304 0.864551 0.670545
0.293259 0.753096 0.480661
0.396000 0.852990 0.561073
0.577624 0.913143 0.354154
0.852776 0.962037 0.436503
0.958838 0.978330 0.649796
0.057193 0.070474 0.204968
0.155745 0.076207 0.223883
0.335278 0.136683 0.276284
0.531623 0.190041 0.328038
0.689378 0.232963 0.349719
0.080036 0.187671 0.271860
0.236130 0.241952 0.323774
0.415621 0.300093 0.384893
0.635801 0.427428 0.484864
0.811224 0.466597 0.495884
0.125545 0.360265 0.353681
0.330486 0.457310 0.443488
0.543840 0.543297 0.533815
0.749425 0.645353 0.622649
0.934786 0.710915 0.663371
0.207508 0.583857 0.479302
0.304360 0.650417 0.535001
0.652597 0.771776 0.657496
0.839138 0.839389 0.719658
0.963330 0.868252 0.741720
0.274192 0.775284 0.589319
0.481396 0.849889 0.656361
0.502180 0.904351 0.688948
0.864882 0.972096 0.759538
0.976856 0.986703 0.836487
0.101712 0.121469 0.372007
0.148008 0.036289 0.333504
0.342847 0.135747 0.392569
0.548679 0.204698 0.440071
0.722333 0.261442 0.481987
0.119105 0.212586 0.396269
0.254166 0.251429 0.426412
0.431389 0.322749 0.489788
0.667295 0.445446 0.605365
0.833449 0.489164 0.621236
0.190625 0.425718 0.497136
0.382498 0.493591 0.572313
0.569559 0.573992 0.661839
0.772506 0.669168 0.751671
0.931565 0.694533 0.761576
0.246218 0.606768 0.591039
0.433946 0.718577 0.681775
0.663938 0.788561 0.774939
0.843481 0.842313 0.835311
0.971861 0.885660 0.865204
0.282785 0.797314 0.694591
0.357817 0.829880 0.726265
0.610564 0.931253 0.824460
0.902437 0.974041 0.903404
0.988225 0.994189 0.923401
0.112418 0.086129 0.432177
0.219482 0.064184 0.439214
0.445776 0.180635 0.605632
0.614615 0.283543 0.639630
0.803153 0.407688 0.622947
0.162561 0.197566 0.542092
0.281956 0.263016 0.558332
0.549078 0.446762 0.723367
0.741897 0.544755 0.786413
0.885703 0.557258 0.780681
0.275125 0.531301 0.650644
0.473470 0.510688 0.742616
0.578408 0.447558 0.751959
0.801610 0.702707 0.894650
0.956907 0.767104 0.891282
0.341633 0.689313 0.708644
0.484582 0.748849 0.815956
0.702659 0.830304 0.898099
0.871266 0.844301 0.943897
0.973751 0.883830 0.964927
0.378785 0.890651 0.751294
0.535713 0.876500 0.865712
0.777507 0.930483 0.936996
0.913800 0.965041 0.971727
0.995606 0.997275 0.993215
