calib/LUT LIBRARY/eterna_bleach_bypass_composed.cube
TITLE "Chromasmith composed - Eterna Bleach Bypass"
#STD_q(x) = VLOG_q(T(x)), T derived from astia/velvia/classic_neg matched pairs
LUT_3D_SIZE 9
0.044156 0.044430 0.045843
0.090669 0.057674 0.059280
0.161711 0.074636 0.067822
0.251322 0.102333 0.060164
0.334974 0.115388 0.071658
0.412336 0.121408 0.088643
0.481955 0.129503 0.113228
0.543718 0.156113 0.159961
0.617771 0.164883 0.199423
0.050422 0.088767 0.068356
0.114351 0.112505 0.079728
0.182800 0.129719 0.074146
0.260881 0.143817 0.073156
0.353065 0.160187 0.083596
0.442563 0.185875 0.110544
0.534158 0.224307 0.186459
0.616464 0.264839 0.240276
0.683572 0.301250 0.283072
0.039200 0.150596 0.092975
0.137183 0.186878 0.123211
0.207464 0.194430 0.073977
0.295354 0.221701 0.099536
0.391648 0.247580 0.148790
0.486087 0.285304 0.160220
0.592362 0.344887 0.246268
0.689372 0.391876 0.316591
0.801554 0.481649 0.364099
0.065696 0.268843 0.146243
0.150240 0.258489 0.132122
0.224624 0.279002 0.105260
0.320939 0.308739 0.136256
0.422435 0.348459 0.172909
0.525549 0.386991 0.200832
0.651654 0.452104 0.260380
0.780430 0.548941 0.393393
0.838415 0.550495 0.428180
0.065947 0.301570 0.104789
0.094466 0.359823 0.160000
0.253366 0.370865 0.142175
0.360205 0.412970 0.181448
0.471977 0.461630 0.221569
0.588509 0.509393 0.263978
0.708432 0.582817 0.324209
0.907840 0.694015 0.504975
0.889648 0.655198 0.471259
0.102548 0.407779 0.161589
0.174017 0.445091 0.201302
0.335006 0.474245 0.197353
0.414087 0.524638 0.232636
0.532030 0.573707 0.276358
0.663875 0.643392 0.334632
0.767116 0.703272 0.403892
0.925145 0.788855 0.491921
0.929958 0.776256 0.531683
0.139282 0.501351 0.189008
0.178474 0.533494 0.241368
0.181313 0.534477 0.209434
0.488642 0.657613 0.357620
0.590072 0.691817 0.324826
0.718066 0.762768 0.365032
0.802934 0.811743 0.388072
0.912146 0.854858 0.514300
0.946671 0.851264 0.565470
0.188371 0.622925 0.237508
0.218286 0.672217 0.305910
0.192772 0.636077 0.238479
0.566308 0.753635 0.330227
0.661033 0.819344 0.357858
0.750661 0.860593 0.379227
0.832300 0.891125 0.394855
0.922990 0.906144 0.538647
0.955189 0.929331 0.623411
0.233170 0.703861 0.238016
0.240298 0.719011 0.244293
0.313745 0.778677 0.304867
0.320656 0.797601 0.295480
0.765958 0.909245 0.444573
0.828395 0.917281 0.393436
0.873354 0.958608 0.422874
0.910538 0.970169 0.560982
0.954826 0.969302 0.598292
0.041778 0.049636 0.073228
0.095193 0.065465 0.085181
0.158975 0.082548 0.103623
0.258220 0.109528 0.121412
0.348193 0.126673 0.137310
0.420136 0.135268 0.154030
0.494533 0.147967 0.167528
0.565299 0.154952 0.197460
0.627011 0.171257 0.207341
0.064138 0.101573 0.098380
0.117532 0.117546 0.116062
0.184502 0.140537 0.131603
0.270554 0.155267 0.144886
0.363240 0.177341 0.164516
0.457453 0.200858 0.186351
0.544176 0.238364 0.228000
0.624110 0.271440 0.271459
0.730016 0.352825 0.315626
0.040021 0.152922 0.116106
0.141322 0.192080 0.153019
0.214556 0.210866 0.164535
0.300354 0.237359 0.181457
0.393402 0.259123 0.198353
0.499229 0.305013 0.245603
0.604552 0.355490 0.295807
0.704045 0.402399 0.347724
0.727349 0.417523 0.302707
0.063049 0.252358 0.154822
0.166140 0.270916 0.183801
0.243616 0.299386 0.197354
0.329724 0.326602 0.210606
0.439047 0.367555 0.249581
0.560266 0.423874 0.309447
0.672031 0.485708 0.369784
0.824174 0.571262 0.416648
0.867966 0.591626 0.488398
0.074188 0.294308 0.170783
0.095085 0.354876 0.206246
0.273817 0.395383 0.216411
0.375848 0.437487 0.259205
0.490433 0.484447 0.294328
0.622201 0.553230 0.375692
0.741705 0.610626 0.441258
0.893526 0.634993 0.547140
0.895453 0.652980 0.508322
0.110230 0.404800 0.208661
0.143062 0.482895 0.259504
0.321627 0.503086 0.264901
0.418494 0.541611 0.280638
0.540092 0.597388 0.338042
0.675248 0.665684 0.412884
0.775454 0.720228 0.492429
0.932852 0.762933 0.566401
0.930188 0.768672 0.537384
0.159973 0.517872 0.286829
0.204608 0.534419 0.264966
0.165489 0.554865 0.229449
0.480695 0.656416 0.346472
0.595177 0.712946 0.377875
0.721972 0.777677 0.445468
0.812605 0.816117 0.531761
0.883716 0.844706 0.551937
0.950201 0.849421 0.595797
0.200929 0.623921 0.338732
0.239045 0.661205 0.329080
0.215631 0.676862 0.313225
0.519327 0.760378 0.338146
0.646112 0.816292 0.354191
0.749657 0.859763 0.443028
0.836313 0.878043 0.542083
0.904835 0.900685 0.577023
0.959228 0.924362 0.678083
0.216593 0.707770 0.235855
0.244156 0.748323 0.350562
0.279719 0.781675 0.333171
0.531922 0.841174 0.333498
0.681525 0.934072 0.368943
0.666904 0.931638 0.365482
0.864301 0.963078 0.428304
0.930312 0.975384 0.665049
0.959490 0.975452 0.657345
0.032427 0.055101 0.104119
0.099909 0.072047 0.119498
0.163445 0.090877 0.141020
0.250368 0.112868 0.160746
0.341389 0.134670 0.181167
0.430639 0.145786 0.196959
0.506517 0.158746 0.213400
0.586689 0.186832 0.248081
0.631448 0.167562 0.257836
0.045147 0.097441 0.120573
0.125032 0.126578 0.152800
0.187412 0.146635 0.170767
0.268901 0.164139 0.190778
0.366370 0.185766 0.210954
0.465205 0.212847 0.236971
0.553132 0.246468 0.268283
0.634422 0.292879 0.322563
0.700766 0.290487 0.279722
0.066114 0.174303 0.165492
0.145972 0.197423 0.190825
0.221066 0.220991 0.217033
0.306933 0.243846 0.234270
0.405142 0.275956 0.260241
0.509052 0.318164 0.296194
0.619637 0.370178 0.349883
0.762008 0.403616 0.387203
0.818328 0.503996 0.423370
0.071354 0.256111 0.204533
0.167966 0.277735 0.227543
0.259467 0.317812 0.268225
0.347487 0.350448 0.295077
0.453319 0.384863 0.321007
0.574585 0.439160 0.367454
0.668425 0.492061 0.413446
0.846258 0.540126 0.510782
0.848908 0.560801 0.462242
0.097392 0.341740 0.243168
0.110833 0.374859 0.258635
0.303964 0.421780 0.318241
0.407166 0.465476 0.370984
0.523008 0.514748 0.413753
0.642782 0.570312 0.448429
0.735251 0.630605 0.493750
0.906923 0.661980 0.563582
0.911254 0.677457 0.551084
0.130979 0.435471 0.286418
0.206788 0.471838 0.316679
0.349967 0.536540 0.384152
0.468141 0.587664 0.434129
0.581269 0.637116 0.477441
0.702528 0.692855 0.518586
0.788529 0.730175 0.549206
0.939859 0.750490 0.624038
0.941479 0.785018 0.591148
0.170359 0.526103 0.337498
0.177321 0.544311 0.344347
0.280102 0.608208 0.403845
0.521313 0.697718 0.483545
0.633703 0.752371 0.533054
0.740886 0.797248 0.566232
0.829209 0.823960 0.587832
0.907513 0.854455 0.624733
0.959304 0.864551 0.670545
0.216402 0.645678 0.408250
0.225067 0.671545 0.421313
0.261948 0.708721 0.508134
0.587773 0.789144 0.553933
0.678194 0.814456 0.536786
0.772105 0.842603 0.569544
0.840515 0.883131 0.595084
0.903479 0.908341 0.612214
0.961525 0.932418 0.714805
0.293259 0.753096 0.480661
0.250949 0.752988 0.390190
0.396000 0.852990 0.561073
0.342685 0.846541 0.339997
0.577624 0.913143 0.354154
0.692820 0.938126 0.395661
0.852776 0.962037 0.436503
0.940300 0.976371 0.661434
0.958838 0.978330 0.649796
0.049132 0.069596 0.142911
0.101803 0.065666 0.155688
0.159779 0.097020 0.182551
0.239999 0.111635 0.203538
0.329544 0.127953 0.221694
0.434063 0.157937 0.249325
0.515482 0.170811 0.267412
0.586543 0.195469 0.280474
0.637695 0.178136 0.280584
0.052914 0.108604 0.164830
0.141223 0.142755 0.203499
0.192551 0.154257 0.223693
0.268603 0.173790 0.247132
0.366880 0.198964 0.266873
0.470067 0.225372 0.294187
0.565775 0.264225 0.325450
0.660429 0.309505 0.366546
0.735645 0.342973 0.355943
0.064717 0.179692 0.216941
0.135719 0.197032 0.230816
0.229147 0.230701 0.269171
0.312952 0.256693 0.295406
0.408466 0.288673 0.323945
0.522757 0.335516 0.363074
0.629177 0.391296 0.414148
0.760035 0.484524 0.451393
0.825668 0.505973 0.476002
0.077767 0.248013 0.242036
0.132422 0.273037 0.262502
0.267609 0.333480 0.324243
0.356026 0.360017 0.351073
0.460774 0.398188 0.388595
0.587876 0.455996 0.438297
0.658159 0.504604 0.472949
0.892232 0.624003 0.571608
0.881212 0.598132 0.567647
0.101580 0.333560 0.282349
0.141157 0.397004 0.321872
0.316670 0.439304 0.379058
0.416622 0.479481 0.420788
0.532468 0.529498 0.467389
0.655476 0.583250 0.515112
0.757768 0.637810 0.557634
0.924288 0.690034 0.625209
0.916148 0.679380 0.583969
0.135955 0.429206 0.326759
0.155423 0.470595 0.364876
0.370839 0.550725 0.441141
0.478369 0.601209 0.492267
0.593786 0.649502 0.537399
0.711827 0.704850 0.584026
0.789024 0.736524 0.607774
0.945266 0.768048 0.642095
0.950127 0.777060 0.660611
0.188417 0.551972 0.407734
0.202771 0.587535 0.437208
0.271130 0.617346 0.459687
0.535256 0.716964 0.554721
0.642852 0.760511 0.590724
0.747657 0.803523 0.625871
0.830850 0.833529 0.652632
0.905592 0.858516 0.674734
0.959762 0.860469 0.680498
0.229347 0.667072 0.469100
0.245076 0.701062 0.502078
0.303193 0.684332 0.495494
0.574887 0.794176 0.570448
0.688112 0.831928 0.628175
0.776697 0.859855 0.655571
0.852013 0.892518 0.687021
0.899875 0.909834 0.689961
0.967541 0.934543 0.775570
0.267683 0.764795 0.536944
0.250510 0.716542 0.528290
0.355634 0.829964 0.594713
0.311562 0.859188 0.601315
0.607218 0.933852 0.633083
0.714890 0.950073 0.613761
0.822818 0.963629 0.651783
0.937438 0.978775 0.729127
0.967455 0.980927 0.744044
0.057193 0.070474 0.204968
0.110915 0.085000 0.210576
0.155745 0.076207 0.223883
0.234252 0.106694 0.252003
0.335278 0.136683 0.276284
0.438160 0.156880 0.296161
0.531623 0.190041 0.328038
0.609481 0.210419 0.352893
0.689378 0.232963 0.349719
0.061353 0.113075 0.214276
0.136184 0.137918 0.249383
0.194819 0.159236 0.276056
0.275918 0.181560 0.301921
0.372431 0.212172 0.328832
0.478702 0.239161 0.354665
0.580018 0.278523 0.387058
0.645003 0.302779 0.412635
0.737852 0.328798 0.405442
0.080036 0.187671 0.271860
0.111991 0.192919 0.276543
0.236130 0.241952 0.323774
0.315957 0.264572 0.351655
0.415621 0.300093 0.384893
0.531873 0.348776 0.427163
0.635801 0.427428 0.484864
0.837559 0.511453 0.558721
0.811224 0.466597 0.495884
0.095290 0.277117 0.295673
0.108557 0.278957 0.316822
0.279020 0.342642 0.379097
0.368971 0.373615 0.414267
0.473603 0.417365 0.455816
0.599178 0.472370 0.507466
0.716302 0.529655 0.557270
0.861935 0.556915 0.569299
0.882801 0.600252 0.578796
0.125545 0.360265 0.353681
0.136407 0.377985 0.365731
0.330486 0.457310 0.443488
0.431907 0.494320 0.486363
0.543840 0.543297 0.533815
0.664675 0.598516 0.584405
0.749425 0.645353 0.622649
0.922927 0.670381 0.682067
0.934786 0.710915 0.663371
0.146963 0.433600 0.377112
0.173328 0.491530 0.427979
0.372769 0.567998 0.500163
0.491444 0.617788 0.557434
0.606752 0.666787 0.606808
0.719907 0.717565 0.651813
0.809471 0.756834 0.683283
0.951952 0.762535 0.712225
0.950842 0.758923 0.709870
0.207508 0.583857 0.479302
0.215145 0.603923 0.496863
0.304360 0.650417 0.535001
0.546652 0.732755 0.622581
0.652597 0.771776 0.657496
0.753437 0.810868 0.692997
0.839138 0.839389 0.719658
0.946069 0.869061 0.742233
0.963330 0.868252 0.741720
0.243328 0.687322 0.535686
0.286499 0.731478 0.580972
0.550979 0.764042 0.621320
0.598524 0.802939 0.628642
0.690919 0.847482 0.689622
0.785400 0.867802 0.719236
0.859725 0.905721 0.738183
0.893923 0.918341 0.771130
0.971815 0.935184 0.816465
0.274192 0.775284 0.589319
0.271998 0.777651 0.586772
0.481396 0.849889 0.656361
0.516919 0.921324 0.718066
0.502180 0.904351 0.688948
0.726431 0.952299 0.641554
0.864882 0.972096 0.759538
0.922672 0.979621 0.780502
0.976856 0.986703 0.836487
0.084716 0.099738 0.305969
0.110541 0.071582 0.262920
0.145052 0.038367 0.272320
0.236775 0.103827 0.305277
0.340319 0.141660 0.334627
0.452711 0.177733 0.360343
0.544787 0.203658 0.386673
0.635754 0.241007 0.414164
0.692973 0.223364 0.400141
0.077965 0.118157 0.276029
0.138526 0.138985 0.297266
0.198994 0.166178 0.328912
0.284853 0.192124 0.358092
0.380258 0.222475 0.388393
0.488892 0.252375 0.415972
0.590719 0.291597 0.450608
0.695437 0.334560 0.485577
0.789182 0.417178 0.506922
0.093408 0.195948 0.316477
0.097137 0.195053 0.327954
0.246210 0.253922 0.387005
0.323158 0.273351 0.413041
0.425895 0.311708 0.446863
0.540306 0.359256 0.487249
0.656497 0.428016 0.541206
0.814477 0.464175 0.541407
0.842834 0.518272 0.580440
0.116163 0.293026 0.355193
0.128320 0.300149 0.388294
0.299735 0.358618 0.445440
0.382369 0.387924 0.477226
0.486228 0.430712 0.520691
0.611085 0.487555 0.574058
0.704171 0.548697 0.620158
0.856954 0.542898 0.594795
0.909208 0.643072 0.661989
0.154478 0.388084 0.421755
0.158481 0.396781 0.433419
0.354491 0.476435 0.510502
0.447390 0.512874 0.552465
0.556203 0.558099 0.600956
0.673422 0.612727 0.652338
0.765345 0.656329 0.690137
0.929678 0.688875 0.688410
0.933520 0.695655 0.710017
0.195874 0.500871 0.488384
0.198360 0.509420 0.492950
0.374688 0.588558 0.563363
0.508199 0.636267 0.625557
0.617059 0.676798 0.670005
0.724659 0.725100 0.714351
0.804535 0.759783 0.740808
0.961681 0.784108 0.771648
0.960561 0.796482 0.733042
0.218448 0.585260 0.526321
0.235178 0.625658 0.565955
0.457157 0.705415 0.626873
0.553927 0.743541 0.684008
0.658207 0.784012 0.720866
0.756115 0.816473 0.757945
0.847124 0.843472 0.783862
0.914674 0.867333 0.800258
0.966467 0.870706 0.789009
0.259002 0.711564 0.607887
0.334916 0.740835 0.629326
0.437519 0.787837 0.680606
0.548603 0.796850 0.682259
0.689661 0.841885 0.748231
0.790218 0.869722 0.777604
0.862974 0.908283 0.809622
0.897307 0.922960 0.834547
0.973718 0.941280 0.836129
0.278854 0.793972 0.652609
0.280789 0.806865 0.664000
0.322584 0.837132 0.692163
0.371579 0.897590 0.741814
0.549687 0.932696 0.771225
0.776881 0.962675 0.763600
0.882377 0.977914 0.841536
0.932205 0.983710 0.842610
0.985004 0.989026 0.903134
0.101712 0.121469 0.372007
0.107998 0.068634 0.296108
0.148008 0.036289 0.333504
0.234726 0.082003 0.356771
0.342847 0.135747 0.392569
0.443642 0.159688 0.411586
0.548679 0.204698 0.440071
0.638957 0.243805 0.471463
0.722333 0.261442 0.481987
0.090828 0.124293 0.323333
0.122653 0.120469 0.336794
0.211921 0.178105 0.393694
0.292301 0.206388 0.422315
0.391205 0.237011 0.451954
0.496138 0.264172 0.476736
0.599872 0.304311 0.497105
0.730819 0.348996 0.553394
0.809807 0.443120 0.578071
0.119105 0.212586 0.396269
0.120093 0.211194 0.399601
0.254166 0.251429 0.426412
0.358120 0.290134 0.474502
0.431389 0.322749 0.489788
0.548432 0.371286 0.529815
0.667295 0.445446 0.605365
0.879162 0.577268 0.677008
0.833449 0.489164 0.621236
0.145085 0.296957 0.437288
0.143252 0.295735 0.431702
0.327781 0.380687 0.510775
0.391388 0.397548 0.524971
0.496958 0.444386 0.569301
0.623934 0.502472 0.634625
0.727451 0.552215 0.681223
0.881998 0.583527 0.679227
0.901445 0.621737 0.712283
0.190625 0.425718 0.497136
0.183263 0.406111 0.488898
0.382498 0.493591 0.572313
0.467942 0.533895 0.613427
0.569559 0.573992 0.661839
0.681714 0.623738 0.710807
0.772506 0.669168 0.751671
0.950072 0.746753 0.785650
0.931565 0.694533 0.761576
0.223489 0.514128 0.548153
0.216985 0.508604 0.536012
0.399675 0.602376 0.625538
0.522239 0.652183 0.680541
0.632201 0.695890 0.733298
0.732435 0.734846 0.773969
0.820222 0.767325 0.802859
0.959486 0.782352 0.818560
0.964971 0.806969 0.815364
0.246218 0.606768 0.591039
0.257299 0.638679 0.614608
0.433946 0.718577 0.681775
0.612295 0.761584 0.747824
0.663938 0.788561 0.774939
0.756145 0.818038 0.811311
0.843481 0.842313 0.835311
0.888901 0.866021 0.851290
0.971861 0.885660 0.865204
0.278496 0.723574 0.661650
0.281296 0.740584 0.671099
0.351969 0.775929 0.705507
0.610170 0.821303 0.756868
0.730745 0.799704 0.789834
0.809246 0.863307 0.843152
0.867196 0.914731 0.870963
0.909136 0.928935 0.883569
0.980743 0.946116 0.905475
0.282785 0.797314 0.694591
0.323700 0.830308 0.724920
0.357817 0.829880 0.726265
0.589958 0.914058 0.815861
0.610564 0.931253 0.824460
0.851411 0.969721 0.872269
0.902437 0.974041 0.903404
0.947251 0.988161 0.904800
0.988225 0.994189 0.923401
0.098583 0.108364 0.361619
0.095359 0.060991 0.355126
0.154308 0.040196 0.393316
0.242285 0.091575 0.422303
0.345812 0.127493 0.449498
0.439121 0.152982 0.462607
0.551912 0.208340 0.499208
0.658775 0.290314 0.555607
0.764017 0.333929 0.562053
0.114078 0.137587 0.414816
0.122682 0.147480 0.424087
0.210427 0.188778 0.437542
0.290787 0.225062 0.467699
0.427077 0.244898 0.497749
0.532414 0.280163 0.530066
0.635800 0.351060 0.583749
0.767598 0.368330 0.618130
0.816101 0.447916 0.614825
0.138646 0.219448 0.459914
0.142638 0.225866 0.469115
0.233637 0.267433 0.480917
0.372678 0.300771 0.507085
0.485352 0.378247 0.576526
0.592484 0.398777 0.603754
0.693183 0.517024 0.692864
0.837334 0.487885 0.652422
0.838439 0.482069 0.679748
0.180801 0.338110 0.517933
0.167823 0.311570 0.494344
0.313312 0.410635 0.562416
0.427488 0.408705 0.571470
0.527088 0.436754 0.608409
0.654927 0.541382 0.693637
0.790168 0.576882 0.742327
0.900557 0.608330 0.755700
0.904241 0.610542 0.778833
0.204534 0.418406 0.536698
0.206439 0.419332 0.538518
0.338384 0.524691 0.616719
0.488795 0.546922 0.655856
0.596061 0.604605 0.714553
0.713476 0.657276 0.762966
0.787518 0.682883 0.800683
0.927962 0.671610 0.815711
0.937827 0.704182 0.826841
0.238891 0.517160 0.581149
0.250404 0.543247 0.600527
0.447811 0.633789 0.687242
0.550056 0.654938 0.725849
0.646762 0.717044 0.779451
0.752404 0.757378 0.821860
0.838239 0.785176 0.850409
0.960677 0.793958 0.893978
0.961497 0.811698 0.880077
0.274590 0.640496 0.642905
0.282783 0.661244 0.656608
0.415012 0.747374 0.734484
0.594997 0.760082 0.761980
0.684640 0.793405 0.810077
0.769780 0.836928 0.856781
0.862390 0.862200 0.888400
0.909134 0.874386 0.904067
0.972073 0.891433 0.913662
0.304059 0.723460 0.698247
0.302205 0.740165 0.704145
0.326372 0.776557 0.722181
0.581120 0.837476 0.808676
0.706025 0.866145 0.853093
0.793134 0.898929 0.890954
0.871730 0.921361 0.917091
0.924057 0.936461 0.929384
0.983468 0.942818 0.938487
0.329219 0.811948 0.749620
0.348334 0.803868 0.769458
0.532185 0.880891 0.820189
0.533052 0.900635 0.871180
0.906162 0.950904 0.936084
0.855084 0.971830 0.925902
0.883601 0.982140 0.928217
0.957293 0.991552 0.954476
0.991941 0.991843 0.961336
0.112418 0.086129 0.432177
0.121938 0.101689 0.462566
0.219482 0.064184 0.439214
0.236258 0.121109 0.506593
0.445776 0.180635 0.605632
0.538304 0.235020 0.657139
0.614615 0.283543 0.639630
0.701876 0.302102 0.571766
0.803153 0.407688 0.622947
0.128119 0.173885 0.450313
0.142100 0.179747 0.497071
0.278311 0.179584 0.555948
0.411236 0.250400 0.655687
0.515542 0.262682 0.659628
0.612440 0.332491 0.698213
0.679475 0.393259 0.713345
0.739405 0.348778 0.678185
0.874243 0.535717 0.761547
0.162561 0.197566 0.542092
0.200062 0.258008 0.591608
0.281956 0.263016 0.558332
0.445010 0.313457 0.681673
0.549078 0.446762 0.723367
0.637195 0.265799 0.685479
0.741897 0.544755 0.786413
0.831627 0.541696 0.828991
0.885703 0.557258 0.780681
0.212896 0.364568 0.579919
0.212067 0.374704 0.568750
0.392406 0.424890 0.695528
0.415218 0.306291 0.674527
0.466295 0.234787 0.667145
0.692405 0.544016 0.807949
0.829198 0.620360 0.878959
0.927230 0.645438 0.889255
0.932609 0.674962 0.847995
0.275125 0.531301 0.650644
0.305279 0.563374 0.691861
0.473470 0.510688 0.742616
0.552126 0.556426 0.775850
0.578408 0.447558 0.751959
0.745086 0.611828 0.851339
0.801610 0.702707 0.894650
0.937788 0.699317 0.928357
0.956907 0.767104 0.891282
0.300348 0.563014 0.686216
0.292041 0.169155 0.634892
0.491571 0.658083 0.753883
0.602821 0.594627 0.802508
0.683226 0.744535 0.867166
0.770916 0.784296 0.900071
0.862741 0.794711 0.932614
0.921490 0.833440 0.943015
0.965187 0.819597 0.936927
0.341633 0.689313 0.708644
0.345464 0.764818 0.757136
0.484582 0.748849 0.815956
0.619124 0.792638 0.866228
0.702659 0.830304 0.898099
0.786271 0.845426 0.918464
0.871266 0.844301 0.943897
0.929662 0.880333 0.956386
0.973751 0.883830 0.964927
0.348740 0.782332 0.761047
0.409945 0.736785 0.791243
0.527982 0.828581 0.850939
0.653824 0.852902 0.890391
0.729690 0.873124 0.914870
0.806601 0.906699 0.937457
0.873613 0.917140 0.951603
0.935889 0.929793 0.970276
0.983112 0.948021 0.965651
0.378785 0.890651 0.751294
0.435737 0.815903 0.822237
0.535713 0.876500 0.865712
0.692848 0.902426 0.912195
0.777507 0.930483 0.936996
0.840289 0.948591 0.953746
0.913800 0.965041 0.971727
0.961165 0.990861 0.987420
0.995606 0.997275 0.993215
