calib/LUT LIBRARY/eterna_cinema_composed.cube
TITLE "Chromasmith composed - Eterna Cinema"
#STD_q(x) = VLOG_q(T(x)), T derived from astia/velvia/classic_neg matched pairs
LUT_3D_SIZE 9
0.066950 0.066699 0.072898
0.159391 0.078918 0.087488
0.266393 0.101601 0.073900
0.369501 0.150920 0.035355
0.468618 0.172787 0.044846
0.566293 0.179772 0.058161
0.658819 0.182552 0.071036
0.737837 0.200416 0.087881
0.880746 0.180993 0.107391
0.046581 0.141276 0.087331
0.177250 0.169356 0.077598
0.277283 0.191769 0.039418
0.369718 0.210527 0.028466
0.478421 0.230918 0.036636
0.582348 0.255737 0.047428
0.683113 0.275662 0.083747
0.795465 0.288693 0.133920
0.909860 0.297124 0.145798
0.014088 0.234995 0.102692
0.175218 0.263304 0.120415
0.293886 0.271575 0.004864
0.389626 0.295199 0.013113
0.491554 0.313036 0.052711
0.597719 0.337544 0.036026
0.701139 0.364811 0.079847
0.819272 0.375957 0.167028
0.931948 0.415158 0.077987
0.017745 0.351031 0.136639
0.161872 0.335161 0.071083
0.284985 0.351830 0.000400
0.393184 0.370614 0.001946
0.497404 0.396224 0.015455
0.603677 0.415508 0.024008
0.726637 0.443370 0.037962
0.847127 0.486784 0.150715
0.933960 0.462478 0.160494
0.009008 0.387704 0.004812
0.015973 0.436501 0.079398
0.282137 0.434620 0.000090
0.398732 0.461242 0.000788
0.509631 0.487160 0.003964
0.622175 0.505527 0.012937
0.730830 0.540506 0.027185
0.936545 0.584088 0.245454
0.932747 0.551073 0.185039
0.013288 0.483107 0.030331
0.044798 0.509541 0.057023
0.335026 0.521913 0.000192
0.406956 0.555586 0.000182
0.524383 0.576453 0.000426
0.640879 0.608961 0.004641
0.732393 0.637807 0.042396
0.930524 0.683897 0.141632
0.936172 0.665611 0.256882
0.010778 0.575183 0.009551
0.017966 0.596923 0.069942
0.012080 0.602830 0.003906
0.416898 0.660116 0.096991
0.534777 0.675960 0.000378
0.654434 0.715012 0.004527
0.743773 0.749387 0.015870
0.897885 0.769705 0.207785
0.939341 0.754319 0.291568
0.011622 0.694269 0.005458
0.019700 0.735508 0.069656
0.011125 0.709071 0.002655
0.474391 0.750488 0.000115
0.563410 0.802324 0.000098
0.654275 0.832568 0.001157
0.756039 0.857051 0.014930
0.901272 0.850718 0.220763
0.945722 0.882569 0.337487
0.009153 0.783752 0.000495
0.009027 0.804562 0.000422
0.015317 0.874488 0.000817
0.013729 0.909976 0.000786
0.646201 0.910292 0.043235
0.740531 0.908148 0.011604
0.793601 0.988790 0.021016
0.848869 0.999814 0.189069
0.944354 0.984449 0.246606
0.051654 0.073931 0.143070
0.160909 0.089345 0.147403
0.263166 0.108272 0.163933
0.373801 0.151676 0.162739
0.477418 0.178235 0.166469
0.567769 0.186134 0.179536
0.667141 0.193999 0.163250
0.778122 0.184179 0.199350
0.896629 0.183204 0.111514
0.059460 0.157423 0.151783
0.174134 0.172897 0.170370
0.271558 0.199098 0.179559
0.372757 0.215530 0.182353
0.479150 0.239556 0.186971
0.589923 0.258330 0.183542
0.692379 0.278901 0.207828
0.804264 0.287341 0.230802
0.934856 0.322568 0.113971
0.016874 0.233978 0.160249
0.173840 0.265216 0.189211
0.286439 0.278937 0.187628
0.383253 0.299782 0.190757
0.487123 0.315386 0.189602
0.598280 0.342229 0.210981
0.708502 0.364515 0.227405
0.831804 0.377458 0.243075
0.871220 0.390209 0.068828
0.018963 0.334753 0.168141
0.175443 0.339335 0.189526
0.288519 0.359726 0.176022
0.388727 0.376919 0.162951
0.501891 0.401428 0.186497
0.616626 0.429568 0.222443
0.717678 0.457993 0.244089
0.905843 0.492584 0.148332
0.939336 0.491373 0.280464
0.019683 0.372234 0.170902
0.021989 0.426750 0.191203
0.285432 0.448834 0.109266
0.395014 0.473018 0.132868
0.511519 0.496770 0.125456
0.626863 0.527499 0.215663
0.739198 0.549560 0.261566
0.941955 0.525286 0.354021
0.938027 0.545155 0.276916
0.020429 0.475061 0.153168
0.023146 0.546349 0.178146
0.287487 0.544410 0.096934
0.394684 0.567279 0.035298
0.513690 0.592209 0.071171
0.638302 0.620166 0.165709
0.729398 0.643871 0.282988
0.940755 0.649259 0.327767
0.936928 0.657085 0.271452
0.024536 0.578010 0.194614
0.027370 0.591166 0.112533
0.014361 0.624363 0.022130
0.407603 0.662362 0.068867
0.522837 0.692986 0.046311
0.647352 0.724028 0.143797
0.745857 0.741063 0.283557
0.846161 0.759923 0.296686
0.942195 0.749295 0.346387
0.025908 0.678026 0.192720
0.022790 0.714576 0.122556
0.020681 0.739950 0.084634
0.400899 0.772826 0.001994
0.543228 0.802945 0.000242
0.645237 0.827963 0.057179
0.757317 0.822779 0.264025
0.866652 0.841561 0.300207
0.951271 0.866924 0.432852
0.009224 0.794538 0.000698
0.022611 0.832571 0.078210
0.017228 0.886335 0.007440
0.368393 0.887263 0.000416
0.506783 0.998953 0.000185
0.485463 0.999479 0.000140
0.770900 0.999676 0.019905
0.883946 0.998799 0.360487
0.951348 0.991005 0.345598
0.022461 0.083671 0.213432
0.158653 0.097632 0.223363
0.263123 0.117046 0.241805
0.366250 0.146851 0.251297
0.468584 0.177739 0.263626
0.578205 0.189365 0.272087
0.678558 0.195367 0.274946
0.798746 0.206525 0.289881
0.911616 0.164112 0.306824
0.023185 0.151983 0.209251
0.176075 0.181948 0.241304
0.270948 0.201372 0.253870
0.368720 0.218355 0.268061
0.479030 0.240595 0.277860
0.593778 0.261271 0.285660
0.698221 0.279204 0.290435
0.798118 0.298239 0.322271
0.935884 0.280413 0.104540
0.025765 0.254453 0.235427
0.169006 0.266681 0.257761
0.282918 0.284308 0.280011
0.383280 0.300053 0.286157
0.489683 0.322384 0.294103
0.600323 0.345941 0.301266
0.714189 0.368677 0.319153
0.932345 0.352874 0.277804
0.938583 0.423071 0.217912
0.023655 0.333647 0.255068
0.157654 0.341926 0.264314
0.288990 0.369398 0.294507
0.389107 0.389677 0.301134
0.503440 0.407683 0.308867
0.619031 0.435512 0.315721
0.702609 0.460350 0.324115
0.943827 0.443852 0.356190
0.938421 0.466800 0.250774
0.025615 0.411166 0.261242
0.026133 0.440931 0.261835
0.294432 0.460035 0.293983
0.404487 0.482806 0.326809
0.522009 0.506429 0.340452
0.635140 0.532559 0.332890
0.715017 0.566078 0.345649
0.942153 0.550162 0.365337
0.941032 0.564864 0.339203
0.026980 0.496060 0.262236
0.046785 0.521537 0.261128
0.287064 0.559328 0.307054
0.416425 0.583696 0.325431
0.533836 0.605909 0.338275
0.651549 0.630724 0.351333
0.736159 0.647679 0.371813
0.945549 0.634009 0.428082
0.941777 0.671558 0.358735
0.028556 0.579968 0.272053
0.029163 0.596377 0.268281
0.072455 0.640048 0.287890
0.426008 0.679691 0.319098
0.543890 0.707927 0.346608
0.656580 0.732115 0.358198
0.761690 0.743041 0.371773
0.877276 0.764041 0.411467
0.949214 0.766090 0.461959
0.031534 0.690976 0.289418
0.032066 0.718627 0.288435
0.038502 0.744682 0.393520
0.464744 0.759827 0.364455
0.573652 0.771939 0.308906
0.679552 0.781018 0.335900
0.758246 0.825191 0.346869
0.858171 0.854282 0.350840
0.955175 0.879234 0.488657
0.035728 0.805296 0.297326
0.027797 0.829831 0.152879
0.072288 0.922096 0.321265
0.022131 0.984393 0.003026
0.350994 0.999894 0.000468
0.514563 0.999813 0.001798
0.748587 0.999673 0.019119
0.906738 0.998909 0.351240
0.950998 0.998758 0.328630
0.032402 0.102019 0.272610
0.155591 0.085199 0.295520
0.246959 0.124908 0.314080
0.349979 0.138732 0.329378
0.456252 0.157903 0.340298
0.577604 0.193236 0.354535
0.682997 0.197322 0.363054
0.787548 0.211253 0.347216
0.914832 0.173980 0.342406
0.023951 0.165042 0.279101
0.185899 0.198161 0.312795
0.266477 0.205650 0.334662
0.360556 0.222461 0.351770
0.474891 0.245007 0.357728
0.593817 0.263320 0.369906
0.704912 0.284651 0.372298
0.830897 0.300082 0.376145
0.945944 0.303892 0.266181
0.025925 0.255707 0.313000
0.129699 0.264349 0.318415
0.282757 0.289305 0.351831
0.380049 0.304899 0.367486
0.486089 0.325102 0.380095
0.606522 0.350957 0.390384
0.709873 0.377622 0.404119
0.848157 0.427318 0.352763
0.943370 0.417590 0.324800
0.026951 0.322925 0.313489
0.042131 0.339265 0.316117
0.281504 0.378419 0.367239
0.386523 0.392359 0.379710
0.498573 0.412602 0.398059
0.619882 0.441277 0.409999
0.677913 0.468336 0.412065
0.944423 0.512822 0.398984
0.945878 0.489385 0.409492
0.028785 0.399750 0.323525
0.030449 0.454396 0.336555
0.290331 0.469770 0.375206
0.401794 0.489513 0.395922
0.519835 0.513583 0.413417
0.636568 0.537009 0.427947
0.731015 0.564611 0.440041
0.946435 0.573770 0.450401
0.943512 0.565054 0.391051
0.030424 0.486613 0.328500
0.032734 0.522677 0.358110
0.297509 0.564211 0.385657
0.412113 0.589705 0.408921
0.536038 0.610351 0.426749
0.651371 0.637165 0.447157
0.728667 0.651249 0.460194
0.947002 0.651879 0.450959
0.948134 0.660422 0.476399
0.034060 0.596888 0.364134
0.035920 0.627815 0.384078
0.038515 0.644793 0.374747
0.425469 0.689561 0.420685
0.546353 0.710127 0.433555
0.658002 0.733269 0.449362
0.755992 0.751180 0.469015
0.866325 0.768021 0.488861
0.950279 0.760509 0.479596
0.036490 0.705885 0.371455
0.038934 0.740267 0.394796
0.044751 0.710024 0.375658
0.441699 0.767946 0.389090
0.572607 0.782911 0.444097
0.673869 0.798775 0.459615
0.766981 0.831775 0.481832
0.844639 0.852635 0.472176
0.961192 0.877953 0.586124
0.044743 0.819632 0.394788
0.041366 0.755970 0.425743
0.052702 0.887060 0.408481
0.060928 0.959817 0.404423
0.358926 0.998229 0.358313
0.527679 0.999716 0.316670
0.682223 0.999662 0.356164
0.891419 0.999618 0.461715
0.961216 0.992914 0.485909
0.026347 0.097378 0.361210
0.148888 0.111399 0.363513
0.240008 0.087468 0.387518
0.337378 0.127324 0.402816
0.454659 0.163964 0.414651
0.579581 0.183130 0.424970
0.691680 0.207850 0.439622
0.808197 0.211517 0.447691
0.949697 0.206184 0.380595
0.026533 0.166887 0.347155
0.164855 0.189177 0.380934
0.257845 0.208242 0.405580
0.358522 0.226464 0.425277
0.469920 0.251445 0.440444
0.596144 0.266746 0.450168
0.714424 0.285647 0.456253
0.798050 0.292127 0.462828
0.951311 0.284662 0.376006
0.030051 0.259327 0.383790
0.052458 0.261041 0.381353
0.277894 0.295440 0.424543
0.372329 0.307059 0.445958
0.485223 0.327141 0.463600
0.609933 0.351965 0.477871
0.695389 0.399366 0.487372
0.950046 0.412351 0.459213
0.947852 0.382391 0.393307
0.030578 0.345801 0.373412
0.031879 0.345358 0.398697
0.281661 0.381884 0.443123
0.386219 0.397406 0.466912
0.499400 0.420451 0.485371
0.623593 0.445546 0.501198
0.734810 0.471137 0.508136
0.947579 0.452571 0.438873
0.946481 0.489675 0.426124
0.033893 0.418471 0.409730
0.034513 0.433997 0.415859
0.284891 0.479416 0.461765
0.401955 0.495398 0.486883
0.518290 0.519081 0.504139
0.634316 0.544028 0.521696
0.711149 0.569474 0.535026
0.951438 0.550883 0.550081
0.949065 0.592590 0.501769
0.034682 0.485634 0.400559
0.037439 0.535887 0.439700
0.277878 0.575116 0.467789
0.409558 0.597708 0.501092
0.535935 0.618767 0.523303
0.649997 0.643261 0.541598
0.743090 0.665840 0.557230
0.952401 0.643567 0.559407
0.952236 0.639889 0.557073
0.039882 0.618744 0.453537
0.040768 0.636505 0.466603
0.056680 0.666757 0.466420
0.423570 0.697316 0.517088
0.546453 0.714280 0.530076
0.657384 0.735936 0.547084
0.760056 0.753518 0.565893
0.930024 0.775244 0.579181
0.955545 0.769340 0.569618
0.041996 0.719699 0.462596
0.046091 0.760366 0.489797
0.415413 0.730743 0.493568
0.464224 0.767049 0.472413
0.563516 0.797558 0.527988
0.678002 0.803894 0.550827
0.771706 0.850103 0.548671
0.822322 0.862709 0.588852
0.965343 0.876189 0.651434
0.049783 0.824158 0.473014
0.049897 0.828882 0.467903
0.237359 0.865384 0.486439
0.178781 0.984462 0.506977
0.186667 0.958327 0.479683
0.541503 0.999371 0.358670
0.739800 0.999640 0.519751
0.850168 0.999516 0.545655
0.971557 0.996113 0.633964
0.033097 0.137561 0.476950
0.136424 0.088545 0.442810
0.227114 0.024877 0.477958
0.333752 0.118478 0.478511
0.451334 0.164748 0.494682
0.583488 0.199854 0.504511
0.697589 0.213532 0.518005
0.825743 0.230773 0.517627
0.954654 0.183626 0.476403
0.031049 0.168587 0.426654
0.152719 0.188349 0.444543
0.251100 0.213180 0.475844
0.357190 0.233873 0.499550
0.467446 0.256196 0.521446
0.595972 0.271942 0.534907
0.714918 0.288299 0.544977
0.856467 0.301202 0.541052
0.952252 0.339954 0.461143
0.033321 0.264414 0.439368
0.033945 0.262756 0.454857
0.274000 0.302353 0.506906
0.366633 0.310425 0.531460
0.483497 0.330991 0.550268
0.607850 0.354183 0.563419
0.718176 0.389623 0.570494
0.951884 0.373987 0.474482
0.951394 0.415484 0.492156
0.035044 0.355788 0.446229
0.037610 0.360172 0.487088
0.288053 0.389906 0.531297
0.384199 0.404108 0.553439
0.498649 0.424843 0.575682
0.624258 0.450955 0.591749
0.706872 0.484710 0.596570
0.950461 0.436526 0.494615
0.951731 0.524771 0.535036
0.039062 0.437581 0.491280
0.040060 0.444343 0.503356
0.293580 0.488799 0.550956
0.398577 0.505079 0.575680
0.516366 0.524890 0.597488
0.633338 0.550100 0.614495
0.724280 0.572450 0.623895
0.952415 0.568652 0.551891
0.953220 0.574600 0.580460
0.042366 0.538475 0.522736
0.042542 0.545412 0.524627
0.247607 0.589503 0.553084
0.408155 0.606375 0.594024
0.534163 0.621504 0.614322
0.646439 0.646250 0.631522
0.731538 0.667578 0.638790
0.957128 0.666220 0.640380
0.953989 0.680672 0.581817
0.043704 0.614352 0.525663
0.045975 0.649745 0.559336
0.300604 0.685575 0.558123
0.416199 0.701602 0.605234
0.539524 0.721427 0.620002
0.652419 0.738088 0.642023
0.763086 0.754870 0.653948
0.866447 0.775199 0.668278
0.960030 0.771312 0.639093
0.049525 0.736908 0.562017
0.050685 0.754903 0.548254
0.193762 0.779867 0.582246
0.383535 0.764867 0.567082
0.555553 0.785051 0.621975
0.677361 0.801656 0.636624
0.767626 0.847883 0.654949
0.820102 0.865000 0.684455
0.967667 0.886910 0.678755
0.059041 0.839108 0.568399
0.062451 0.857598 0.577411
0.067081 0.890872 0.586648
0.080136 0.984507 0.605900
0.220269 0.989660 0.585077
0.599317 0.996640 0.537991
0.760999 0.997917 0.649877
0.861493 0.999614 0.645261
0.978931 0.987069 0.755128
0.038214 0.166468 0.551290
0.116897 0.084873 0.487474
0.219087 0.016247 0.562404
0.329008 0.086080 0.561374
0.448260 0.150295 0.580997
0.571742 0.171043 0.594875
0.695897 0.206416 0.599776
0.817510 0.226858 0.606531
0.961764 0.209006 0.573807
0.034338 0.174018 0.485193
0.103513 0.161180 0.507346
0.252289 0.224227 0.558951
0.349064 0.245407 0.583116
0.465310 0.265496 0.606712
0.592126 0.277069 0.620565
0.713451 0.294315 0.607943
0.899147 0.299392 0.631252
0.956228 0.351995 0.556349
0.039101 0.276523 0.539040
0.039395 0.274832 0.543156
0.276944 0.297859 0.564961
0.393171 0.318648 0.611002
0.477509 0.337473 0.609249
0.605393 0.360640 0.620685
0.712951 0.398556 0.658434
0.955960 0.460026 0.606182
0.956260 0.385534 0.586803
0.040923 0.353137 0.558679
0.040816 0.352697 0.550052
0.299312 0.403503 0.615965
0.379651 0.409029 0.620372
0.495117 0.432369 0.641885
0.622771 0.458278 0.676798
0.727817 0.479497 0.687416
0.955997 0.465542 0.604169
0.956752 0.499992 0.629341
0.044041 0.466025 0.578953
0.043879 0.448424 0.578206
0.307620 0.496674 0.634184
0.400157 0.518048 0.656465
0.513574 0.533623 0.684285
0.630606 0.555627 0.700690
0.724281 0.579993 0.711933
0.958883 0.623939 0.675727
0.957559 0.569939 0.663647
0.047036 0.542652 0.605329
0.046258 0.538850 0.590238
0.257841 0.594057 0.642520
0.405896 0.615414 0.671588
0.532272 0.633952 0.703604
0.643647 0.651355 0.721240
0.747689 0.669349 0.728273
0.961252 0.661542 0.712077
0.961095 0.690411 0.699028
0.048771 0.625897 0.612865
0.049773 0.653815 0.628386
0.232922 0.699064 0.644458
0.475849 0.704368 0.688267
0.533631 0.721710 0.705940
0.642905 0.736549 0.729807
0.753614 0.751287 0.739990
0.817083 0.774791 0.749103
0.967977 0.789917 0.752443
0.055798 0.741743 0.648514
0.057811 0.761256 0.652695
0.060545 0.784051 0.658342
0.446639 0.774522 0.661390
0.619649 0.720013 0.709642
0.696891 0.783664 0.749436
0.762687 0.852925 0.757053
0.832651 0.871896 0.767230
0.975848 0.891628 0.798872
0.066031 0.835795 0.646933
0.069937 0.870859 0.661239
0.067593 0.859027 0.647698
0.324556 0.923430 0.695588
0.337320 0.952765 0.691298
0.705970 0.974204 0.717197
0.793408 0.968058 0.773311
0.886487 0.999223 0.757056
0.981852 0.998957 0.790019
0.037253 0.147809 0.544989
0.047291 0.080165 0.564767
0.212282 0.026824 0.638203
0.323618 0.100092 0.645664
0.444095 0.135068 0.668432
0.559983 0.156836 0.674658
0.689482 0.203134 0.689239
0.801911 0.263505 0.701674
0.962719 0.266686 0.635770
0.041241 0.186627 0.600001
0.046709 0.199166 0.607483
0.234931 0.237289 0.614381
0.328646 0.263659 0.638747
0.501369 0.265849 0.669895
0.625591 0.282036 0.690313
0.724392 0.323041 0.704257
0.939835 0.300439 0.710040
0.958695 0.351321 0.614712
0.043802 0.279836 0.625607
0.044538 0.287851 0.636065
0.216670 0.313732 0.637127
0.400291 0.325095 0.653854
0.506295 0.375033 0.703996
0.636031 0.372859 0.711098
0.695503 0.454459 0.745562
0.959015 0.381873 0.642753
0.961851 0.374620 0.693856
0.047412 0.385731 0.658815
0.045713 0.363254 0.635153
0.241671 0.431495 0.683604
0.412093 0.411868 0.683251
0.530049 0.418405 0.706874
0.633452 0.484775 0.740433
0.794660 0.487119 0.756121
0.960733 0.485243 0.710798
0.963210 0.486324 0.750261
0.047610 0.455173 0.645005
0.048403 0.456395 0.648814
0.187620 0.530927 0.696129
0.409825 0.524131 0.716979
0.521131 0.554990 0.749672
0.647624 0.579628 0.760048
0.731415 0.589817 0.787398
0.963313 0.544614 0.769607
0.963333 0.577210 0.767895
0.050000 0.541525 0.658231
0.051100 0.563607 0.672009
0.291587 0.612031 0.721860
0.429546 0.610204 0.746490
0.531204 0.650243 0.771731
0.652932 0.670678 0.792016
0.761548 0.684632 0.804868
0.969798 0.672652 0.849751
0.967584 0.691746 0.808582
0.053154 0.651334 0.677437
0.054105 0.671086 0.687178
0.131147 0.730295 0.725259
0.445306 0.705048 0.720001
0.550538 0.721368 0.764850
0.643600 0.754903 0.806459
0.768845 0.771780 0.828719
0.846953 0.781572 0.846495
0.973632 0.795419 0.841367
0.060006 0.732155 0.717305
0.061301 0.751605 0.716676
0.064962 0.789152 0.710631
0.369781 0.796391 0.758033
0.538946 0.807083 0.796326
0.644909 0.838508 0.831145
0.758899 0.861397 0.857070
0.852498 0.880368 0.863191
0.980322 0.882541 0.874699
0.072101 0.834565 0.742687
0.074375 0.813833 0.802240
0.228286 0.877237 0.753824
0.116253 0.907332 0.867786
0.806676 0.912191 0.874330
0.696064 0.971432 0.838708
0.742577 0.992900 0.827389
0.900795 0.995530 0.877625
0.988578 0.986663 0.893991
0.042994 0.115816 0.651912
0.045203 0.136830 0.686660
0.298236 0.067086 0.683156
0.282429 0.144205 0.754654
0.515814 0.194266 0.916515
0.607757 0.243519 0.990550
0.715248 0.266051 0.872866
0.875519 0.261687 0.708546
0.962145 0.319622 0.664966
0.043678 0.231840 0.632756
0.047648 0.238892 0.699904
0.295468 0.217411 0.811459
0.377669 0.293362 0.995277
0.557392 0.277579 0.980528
0.662120 0.320071 0.972562
0.731763 0.352132 0.908620
0.880370 0.294704 0.848031
0.965260 0.417770 0.786179
0.051814 0.257473 0.771049
0.056977 0.318215 0.848359
0.264557 0.303911 0.766951
0.360029 0.356561 0.999016
0.495737 0.430954 0.953090
0.744269 0.250857 0.996859
0.726427 0.471890 0.903328
0.871306 0.451698 0.972115
0.965526 0.436759 0.801693
0.053279 0.406892 0.755970
0.051832 0.415232 0.725759
0.222587 0.447906 0.969658
0.312385 0.355373 0.998450
0.445065 0.281007 0.999560
0.629477 0.491945 0.996480
0.791288 0.538153 0.999590
0.972421 0.526844 0.966975
0.966874 0.548646 0.831072
0.057024 0.547890 0.785402
0.061976 0.574008 0.862301
0.284507 0.509969 0.973220
0.380522 0.535471 0.978764
0.493353 0.442558 0.999098
0.656699 0.548189 0.998720
0.700185 0.619524 0.998569
0.964419 0.588583 0.998837
0.970029 0.642914 0.861434
0.061164 0.573872 0.846602
0.178911 0.242648 0.998821
0.305427 0.624705 0.839037
0.441770 0.558780 0.980807
0.515241 0.672961 0.958715
0.634629 0.697790 0.967023
0.766732 0.698192 0.993684
0.875114 0.729263 0.978843
0.976166 0.702799 0.946971
0.059138 0.685688 0.758532
0.070552 0.764265 0.814017
0.123807 0.717222 0.908132
0.367913 0.734316 0.935533
0.492039 0.760760 0.947489
0.632948 0.763236 0.955493
0.764012 0.751326 0.988458
0.876286 0.786964 0.984842
0.982049 0.785694 0.988566
0.071425 0.784904 0.801637
0.072683 0.721370 0.901355
0.160564 0.795951 0.896072
0.396847 0.798398 0.926959
0.516635 0.810782 0.942213
0.632499 0.847020 0.948829
0.748133 0.851876 0.960330
0.868476 0.863514 0.988442
0.983514 0.890386 0.946721
0.079602 0.963194 0.632464
0.080146 0.803669 0.883073
0.128599 0.863358 0.878442
0.431534 0.864325 0.920293
0.559282 0.897106 0.934744
0.661700 0.918996 0.947486
0.800156 0.938253 0.967718
0.901100 0.986559 0.980625
0.990442 0.995662 0.982880
