calib/LUT LIBRARY/eterna_cinema_composed.cube
TITLE "Chromasmith composed - Eterna Cinema"
#STD_q(x) = VLOG_q(T(x)), T derived from astia/velvia/classic_neg matched pairs
LUT_3D_SIZE 5
0.066950 0.066699 0.072898
0.266393 0.101601 0.073900
0.468618 0.172787 0.044846
0.658819 0.182552 0.071036
0.880746 0.180993 0.107391
0.014088 0.234995 0.102692
0.293886 0.271575 0.004864
0.491554 0.313036 0.052711
0.701139 0.364811 0.079847
0.931948 0.415158 0.077987
0.009008 0.387704 0.004812
0.282137 0.434620 0.000090
0.509631 0.487160 0.003964
0.730830 0.540506 0.027185
0.932747 0.551073 0.185039
0.010778 0.575183 0.009551
0.012080 0.602830 0.003906
0.534777 0.675960 0.000378
0.743773 0.749387 0.015870
0.939341 0.754319 0.291568
0.009153 0.783752 0.000495
0.015317 0.874488 0.000817
0.646201 0.910292 0.043235
0.793601 0.988790 0.021016
0.944354 0.984449 0.246606
0.022461 0.083671 0.213432
0.263123 0.117046 0.241805
0.468584 0.177739 0.263626
0.678558 0.195367 0.274946
0.911616 0.164112 0.306824
0.025765 0.254453 0.235427
0.282918 0.284308 0.280011
0.489683 0.322384 0.294103
0.714189 0.368677 0.319153
0.938583 0.423071 0.217912
0.025615 0.411166 0.261242
0.294432 0.460035 0.293983
0.522009 0.506429 0.340452
0.715017 0.566078 0.345649
0.941032 0.564864 0.339203
0.028556 0.579968 0.272053
0.072455 0.640048 0.287890
0.543890 0.707927 0.346608
0.761690 0.743041 0.371773
0.949214 0.766090 0.461959
0.035728 0.805296 0.297326
0.072288 0.922096 0.321265
0.350994 0.999894 0.000468
0.748587 0.999673 0.019119
0.950998 0.998758 0.328630
0.026347 0.097378 0.361210
0.240008 0.087468 0.387518
0.454659 0.163964 0.414651
0.691680 0.207850 0.439622
0.949697 0.206184 0.380595
0.030051 0.259327 0.383790
0.277894 0.295440 0.424543
0.485223 0.327141 0.463600
0.695389 0.399366 0.487372
0.947852 0.382391 0.393307
0.033893 0.418471 0.409730
0.284891 0.479416 0.461765
0.518290 0.519081 0.504139
0.711149 0.569474 0.535026
0.949065 0.592590 0.501769
0.039882 0.618744 0.453537
0.056680 0.666757 0.466420
0.546453 0.714280 0.530076
0.760056 0.753518 0.565893
0.955545 0.769340 0.569618
0.049783 0.824158 0.473014
0.237359 0.865384 0.486439
0.186667 0.958327 0.479683
0.739800 0.999640 0.519751
0.971557 0.996113 0.633964
0.038214 0.166468 0.551290
0.219087 0.016247 0.562404
0.448260 0.150295 0.580997
0.695897 0.206416 0.599776
0.961764 0.209006 0.573807
0.039101 0.276523 0.539040
0.276944 0.297859 0.564961
0.477509 0.337473 0.609249
0.712951 0.398556 0.658434
0.956260 0.385534 0.586803
0.044041 0.466025 0.578953
0.307620 0.496674 0.634184
0.513574 0.533623 0.684285
0.724281 0.579993 0.711933
0.957559 0.569939 0.663647
0.048771 0.625897 0.612865
0.232922 0.699064 0.644458
0.533631 0.721710 0.705940
0.753614 0.751287 0.739990
0.967977 0.789917 0.752443
0.066031 0.835795 0.646933
0.067593 0.859027 0.647698
0.337320 0.952765 0.691298
0.793408 0.968058 0.773311
0.981852 0.998957 0.790019
0.042994 0.115816 0.651912
0.298236 0.067086 0.683156
0.515814 0.194266 0.916515
0.715248 0.266051 0.872866
0.962145 0.319622 0.664966
0.051814 0.257473 0.771049
0.264557 0.303911 0.766951
0.495737 0.430954 0.953090
0.726427 0.471890 0.903328
0.965526 0.436759 0.801693
0.057024 0.547890 0.785402
0.284507 0.509969 0.973220
0.493353 0.442558 0.999098
0.700185 0.619524 0.998569
0.970029 0.642914 0.861434
0.059138 0.685688 0.758532
0.123807 0.717222 0.908132
0.492039 0.760760 0.947489
0.764012 0.751326 0.988458
0.982049 0.785694 0.988566
0.079602 0.963194 0.632464
0.128599 0.863358 0.878442
0.559282 0.897106 0.934744
0.800156 0.938253 0.967718
0.990442 0.995662 0.982880
