calib/LUT LIBRARY/eterna_bleach_bypass_composed.cube
TITLE "Chromasmith composed - Eterna Bleach Bypass"
#STD_q(x) = VLOG_q(T(x)), T derived from astia/velvia/classic_neg matched pairs
LUT_3D_SIZE 33
0.044156 0.044430 0.045843
0.053685 0.046792 0.044091
0.063131 0.050196 0.051174
0.079243 0.057362 0.051353
0.090669 0.057674 0.059280
0.110103 0.071312 0.059286
0.129328 0.071117 0.057323
0.148719 0.081752 0.061641
0.161711 0.074636 0.067822
0.193139 0.097127 0.050408
0.208796 0.087339 0.087091
0.220597 0.090948 0.062059
0.251322 0.102333 0.060164
0.276421 0.113147 0.078703
0.295168 0.094920 0.085954
0.307082 0.103110 0.067635
0.334974 0.115388 0.071658
0.363720 0.115529 0.094420
0.373840 0.114771 0.095956
0.388680 0.112749 0.082374
0.412336 0.121408 0.088643
0.432417 0.124897 0.094365
0.450470 0.126460 0.116943
0.464074 0.125929 0.114633
0.481955 0.129503 0.113228
0.504271 0.138753 0.124939
0.512711 0.135213 0.131019
0.528395 0.149987 0.151294
0.543718 0.156113 0.159961
0.561471 0.158273 0.161681
0.596365 0.182164 0.185180
0.622209 0.221368 0.206540
0.617771 0.164883 0.199423
0.048531 0.054263 0.051809
0.057443 0.059528 0.054804
0.068495 0.063039 0.056889
0.083889 0.071575 0.062587
0.096800 0.076997 0.059988
0.114125 0.084169 0.069438
0.130303 0.089046 0.051805
0.148215 0.093601 0.071223
0.162092 0.096635 0.051936
0.193030 0.104708 0.059992
0.205800 0.102281 0.078497
0.230315 0.106464 0.055272
0.253892 0.112918 0.059704
0.277950 0.112929 0.092935
0.291232 0.108496 0.064830
0.314131 0.118242 0.068571
0.343105 0.128052 0.092719
0.361839 0.124843 0.114908
0.372755 0.127356 0.084327
0.394853 0.133870 0.086791
0.416993 0.138781 0.101397
0.440366 0.141873 0.121495
0.454718 0.142285 0.121693
0.471602 0.147709 0.110125
0.492854 0.155684 0.120186
0.508758 0.158436 0.133614
0.531217 0.159446 0.162357
0.550820 0.167500 0.170498
0.566503 0.176127 0.165520
0.580229 0.181838 0.176195
0.612343 0.210979 0.200300
0.627394 0.204117 0.210223
0.624953 0.208320 0.207722
0.054082 0.066356 0.059109
0.064359 0.070841 0.062588
0.074837 0.075587 0.065832
0.088823 0.082053 0.067190
0.104360 0.089556 0.067278
0.115942 0.090950 0.068868
0.132364 0.097022 0.057806
0.154281 0.099467 0.070659
0.171074 0.107804 0.049799
0.191785 0.112246 0.076848
0.204712 0.110914 0.053633
0.237161 0.116623 0.057326
0.261335 0.120875 0.078669
0.277782 0.118823 0.088317
0.296958 0.121879 0.066404
0.326200 0.131457 0.073003
0.346400 0.136008 0.102429
0.359033 0.136381 0.085452
0.383443 0.142950 0.085994
0.408894 0.148279 0.103897
0.433364 0.156461 0.138556
0.447819 0.156583 0.114821
0.462040 0.163008 0.109222
0.479615 0.170268 0.116620
0.505323 0.176676 0.150791
0.525524 0.180450 0.169289
0.544522 0.189211 0.171024
0.562504 0.196399 0.179064
0.582980 0.206940 0.198533
0.602120 0.208831 0.202654
0.622691 0.213368 0.205954
0.631901 0.225945 0.217242
0.649997 0.242996 0.229589
0.051697 0.076686 0.062742
0.072470 0.085245 0.069491
0.083406 0.090126 0.071667
0.095309 0.096435 0.073051
0.108313 0.100595 0.071456
0.121879 0.104065 0.065542
0.140047 0.108932 0.078258
0.150907 0.111224 0.053000
0.176204 0.116473 0.052475
0.195032 0.115988 0.081475
0.220561 0.123405 0.056509
0.240288 0.129270 0.067751
0.259919 0.132783 0.080537
0.274666 0.132196 0.064698
0.312996 0.137314 0.071677
0.328231 0.143590 0.090235
0.347835 0.147095 0.106504
0.365666 0.149188 0.083643
0.386708 0.155063 0.089486
0.417083 0.163586 0.119137
0.439900 0.167331 0.129721
0.453555 0.172935 0.114140
0.474942 0.182167 0.128564
0.500004 0.194562 0.158445
0.522541 0.200169 0.175946
0.538500 0.208891 0.180739
0.554196 0.215791 0.180859
0.580955 0.228575 0.212534
0.599043 0.233571 0.222205
0.614000 0.236847 0.218622
0.638393 0.248924 0.218044
0.652590 0.255803 0.232856
0.676249 0.274087 0.259793
0.050422 0.088767 0.068356
0.074578 0.095454 0.072941
0.084224 0.103450 0.073039
0.099931 0.108484 0.074536
0.114351 0.112505 0.079728
0.125705 0.117554 0.061617
0.144295 0.122281 0.082413
0.161907 0.124252 0.052411
0.182800 0.129719 0.074146
0.194090 0.131756 0.054943
0.230573 0.135920 0.059256
0.245231 0.143402 0.085891
0.260881 0.143817 0.073156
0.289786 0.148148 0.070090
0.313301 0.151941 0.074940
0.334626 0.157111 0.089337
0.353065 0.160187 0.083596
0.374103 0.165746 0.089253
0.396135 0.172396 0.102694
0.423154 0.179748 0.118209
0.442563 0.185875 0.110544
0.462958 0.194372 0.131426
0.485056 0.202367 0.150234
0.510612 0.213705 0.178158
0.534158 0.224307 0.186459
0.552673 0.236627 0.195979
0.570156 0.245780 0.208832
0.593838 0.252971 0.229322
0.616464 0.264839 0.240276
0.633646 0.273162 0.251273
0.651207 0.279557 0.250012
0.662732 0.281700 0.261547
0.683572 0.301250 0.283072
0.056250 0.105372 0.069486
0.081243 0.112850 0.079969
0.090959 0.116095 0.085576
0.103411 0.120693 0.077048
0.116499 0.124770 0.071377
0.132314 0.130979 0.079781
0.147541 0.133697 0.052791
0.166538 0.138327 0.055520
0.185948 0.145283 0.092645
0.212207 0.146594 0.059806
0.230596 0.152686 0.064206
0.247845 0.157099 0.072086
0.281338 0.158202 0.070587
0.298022 0.164594 0.074972
0.317129 0.167278 0.082496
0.333637 0.170504 0.082132
0.372501 0.176477 0.091592
0.384712 0.183316 0.097149
0.410414 0.192418 0.134381
0.430687 0.194501 0.116974
0.452396 0.206293 0.118864
0.472204 0.215571 0.135577
0.500787 0.229811 0.175342
0.525269 0.240605 0.192817
0.548557 0.254286 0.205720
0.568315 0.265857 0.218101
0.586740 0.275020 0.232886
0.611677 0.284209 0.245498
0.632690 0.293317 0.262132
0.648092 0.298967 0.271108
0.668062 0.308843 0.272426
0.686825 0.323523 0.264568
0.725683 0.363888 0.307849
0.074779 0.126897 0.089275
0.095740 0.135883 0.083573
0.095482 0.134055 0.074563
0.108243 0.137357 0.083286
0.117248 0.141144 0.065744
0.136915 0.148038 0.090215
0.154838 0.150508 0.057264
0.170963 0.155428 0.060970
0.193892 0.158895 0.062221
0.216154 0.165312 0.065379
0.236304 0.169572 0.080041
0.253224 0.171691 0.069332
0.282240 0.176726 0.074987
0.299929 0.184365 0.093758
0.326362 0.191331 0.116900
0.344819 0.191605 0.090271
0.373067 0.202324 0.098979
0.398287 0.211746 0.121053
0.420387 0.215965 0.120395
0.441865 0.219974 0.119730
0.464479 0.231584 0.129745
0.487548 0.240898 0.145812
0.514235 0.254032 0.162196
0.539754 0.273665 0.194251
0.560041 0.285537 0.218857
0.583400 0.298172 0.239580
0.608243 0.308266 0.255612
0.632923 0.321953 0.272430
0.650395 0.329045 0.289426
0.670921 0.337459 0.293735
0.692901 0.347242 0.288404
0.727047 0.375826 0.300621
0.759843 0.406335 0.325557
0.032612 0.136125 0.074342
0.070382 0.139965 0.074616
0.100541 0.151900 0.094898
0.113763 0.156666 0.087746
0.121329 0.156992 0.065357
0.134486 0.160590 0.059977
0.156472 0.168620 0.068035
0.176227 0.172780 0.081450
0.203383 0.174660 0.066726
0.220488 0.182788 0.070574
0.241606 0.190246 0.111655
0.267093 0.192698 0.078459
0.284570 0.196853 0.082229
0.305023 0.201703 0.086623
0.330351 0.206084 0.091218
0.356429 0.214731 0.099192
0.377327 0.219907 0.107061
0.403718 0.224966 0.112337
0.428552 0.230370 0.119199
0.457990 0.239207 0.130227
0.472601 0.254446 0.140966
0.504298 0.271251 0.192803
0.526375 0.280129 0.178968
0.549626 0.298763 0.202168
0.572980 0.313811 0.236442
0.600418 0.329138 0.260088
0.626465 0.338506 0.274073
0.651609 0.352308 0.297358
0.668503 0.358971 0.308239
0.690825 0.368563 0.306730
0.718763 0.385547 0.304393
0.752907 0.413268 0.314369
0.774394 0.431732 0.338654
0.039200 0.150596 0.092975
0.069931 0.163319 0.089116
0.102566 0.166360 0.073368
0.108216 0.164481 0.059006
0.137183 0.186878 0.123211
0.139392 0.175019 0.070307
0.161490 0.183759 0.068214
0.184004 0.193349 0.113029
0.207464 0.194430 0.073977
0.226718 0.199289 0.076422
0.242580 0.203760 0.079063
0.269873 0.213211 0.085715
0.295354 0.221701 0.099536
0.315415 0.220509 0.093355
0.337253 0.223193 0.097372
0.361699 0.237357 0.107318
0.391648 0.247580 0.148790
0.420541 0.255633 0.162650
0.432652 0.256373 0.128967
0.457695 0.269428 0.140149
0.486087 0.285304 0.160220
0.520378 0.306455 0.215122
0.539960 0.310387 0.190815
0.562063 0.328268 0.211165
0.592362 0.344887 0.246268
0.622037 0.360469 0.275062
0.644271 0.371757 0.296902
0.667997 0.383163 0.309341
0.689372 0.391876 0.316591
0.719928 0.405157 0.315809
0.751617 0.429652 0.324599
0.792494 0.469758 0.344831
0.801554 0.481649 0.364099
0.033815 0.154213 0.057589
0.053652 0.168706 0.049382
0.085283 0.169230 0.055301
0.113840 0.183302 0.087205
0.136983 0.198550 0.117564
0.145370 0.195890 0.082331
0.165572 0.201903 0.073838
0.190834 0.204818 0.076674
0.211499 0.221135 0.092081
0.229579 0.219798 0.085521
0.255743 0.222538 0.086966
0.276105 0.235138 0.094194
0.303507 0.246053 0.129517
0.331282 0.257281 0.162165
0.345316 0.250690 0.109385
0.367030 0.262229 0.117841
0.392830 0.267347 0.132060
0.420021 0.277718 0.133063
0.444170 0.286058 0.142110
0.467281 0.296122 0.152205
0.495047 0.310064 0.168304
0.520959 0.319311 0.174887
0.551987 0.333988 0.188683
0.579131 0.358792 0.232533
0.609365 0.373012 0.261226
0.640929 0.389764 0.288864
0.663752 0.404078 0.312596
0.690614 0.417721 0.327592
0.719776 0.428626 0.335080
0.741758 0.440682 0.337232
0.778372 0.463618 0.334606
0.801910 0.489316 0.356744
0.815499 0.539925 0.379731
0.042791 0.178938 0.098744
0.045413 0.195989 0.094479
0.099005 0.205819 0.120751
0.129972 0.214597 0.113353
0.131599 0.208292 0.070421
0.149240 0.217222 0.074724
0.171628 0.227809 0.102464
0.190987 0.226368 0.084049
0.215118 0.240659 0.100169
0.240170 0.246846 0.142554
0.260710 0.249255 0.101719
0.286489 0.255792 0.103517
0.302986 0.260987 0.108624
0.321466 0.267687 0.112422
0.351416 0.277243 0.120998
0.375946 0.285721 0.131760
0.401968 0.290987 0.134086
0.434110 0.290887 0.141348
0.456326 0.305459 0.152061
0.482671 0.328132 0.175012
0.511370 0.335307 0.181505
0.534542 0.343455 0.186992
0.562682 0.361785 0.201102
0.595266 0.387049 0.251911
0.628703 0.402165 0.281128
0.654162 0.414764 0.292928
0.681094 0.431704 0.322307
0.717201 0.451940 0.346864
0.735079 0.456968 0.344140
0.755992 0.467759 0.334627
0.799934 0.507942 0.347555
0.819638 0.525859 0.368717
0.828814 0.556360 0.391892
0.055641 0.227830 0.129700
0.045815 0.195890 0.089685
0.046601 0.207460 0.056656
0.116791 0.220635 0.068064
0.133444 0.223984 0.072999
0.167358 0.269674 0.162720
0.186311 0.252899 0.142013
0.199936 0.262263 0.122731
0.220055 0.255744 0.096349
0.239441 0.263739 0.103707
0.265623 0.273631 0.109235
0.293487 0.282853 0.121646
0.309058 0.281355 0.116703
0.333094 0.286128 0.120777
0.357382 0.300279 0.130314
0.392873 0.323084 0.179287
0.410241 0.316196 0.149595
0.434638 0.319516 0.151587
0.460790 0.332440 0.163293
0.500008 0.361543 0.214906
0.533530 0.378338 0.241002
0.549256 0.372725 0.201703
0.575589 0.389557 0.215560
0.609796 0.410386 0.235045
0.646648 0.436866 0.287447
0.672295 0.449216 0.303241
0.701915 0.467279 0.333617
0.732646 0.483072 0.368133
0.747875 0.488013 0.372100
0.764801 0.501724 0.358546
0.835562 0.555002 0.389771
0.830044 0.543425 0.384195
0.835795 0.554151 0.395019
0.065696 0.268843 0.146243
0.051656 0.236184 0.090445
0.063128 0.232495 0.063571
0.119964 0.250387 0.119762
0.150240 0.258489 0.132122
0.158760 0.259858 0.089109
0.181454 0.269742 0.103087
0.201086 0.285057 0.114492
0.224624 0.279002 0.105260
0.245712 0.282920 0.111691
0.274654 0.300514 0.121126
0.306104 0.317290 0.168725
0.320939 0.308739 0.136256
0.340773 0.312949 0.133448
0.365000 0.327810 0.144055
0.394740 0.342376 0.174017
0.422435 0.348459 0.172909
0.442752 0.348173 0.166434
0.471922 0.357454 0.177091
0.499322 0.376857 0.193504
0.525549 0.386991 0.200832
0.562758 0.399922 0.215228
0.591591 0.419412 0.230855
0.620467 0.434957 0.245334
0.651654 0.452104 0.260380
0.686956 0.477580 0.304149
0.718367 0.499014 0.348758
0.747633 0.514512 0.380906
0.780430 0.548941 0.393393
0.791101 0.518051 0.376536
0.808494 0.543333 0.379460
0.831094 0.551959 0.373578
0.838415 0.550495 0.428180
0.059233 0.269982 0.101175
0.054051 0.247033 0.094335
0.072731 0.278659 0.139480
0.096802 0.263139 0.122105
0.154257 0.273407 0.107552
0.165352 0.287416 0.107171
0.184334 0.285752 0.099308
0.205594 0.293943 0.106659
0.232045 0.306439 0.133799
0.255710 0.305479 0.121078
0.282334 0.316188 0.128124
0.303670 0.330672 0.150685
0.333931 0.339985 0.182391
0.347044 0.340508 0.147837
0.372200 0.353010 0.157837
0.393844 0.358670 0.164013
0.427451 0.364760 0.171387
0.455837 0.380087 0.183953
0.487813 0.399252 0.204272
0.512115 0.400851 0.203329
0.544977 0.403963 0.212720
0.577296 0.426157 0.228911
0.615978 0.461363 0.276506
0.643402 0.472644 0.284488
0.663368 0.477169 0.272092
0.704899 0.510746 0.322176
0.738490 0.526927 0.363637
0.750462 0.539491 0.386790
0.755880 0.531307 0.340564
0.825397 0.580956 0.358280
0.865578 0.617299 0.420147
0.852120 0.576566 0.432085
0.852885 0.574026 0.447949
0.056737 0.260989 0.099580
0.065685 0.284623 0.127638
0.064874 0.277061 0.128959
0.075738 0.291208 0.133624
0.112935 0.270461 0.079862
0.163617 0.296881 0.096960
0.209617 0.310946 0.118607
0.209399 0.315282 0.113570
0.252456 0.337959 0.186490
0.259570 0.333309 0.132927
0.293487 0.341640 0.139598
0.310571 0.348585 0.146155
0.334180 0.354609 0.151978
0.356716 0.368293 0.162164
0.394367 0.388782 0.187487
0.409928 0.386250 0.179118
0.445915 0.395197 0.188529
0.472781 0.416622 0.203391
0.521626 0.446574 0.273237
0.533099 0.429178 0.218239
0.560811 0.441705 0.230497
0.590073 0.463227 0.246377
0.633840 0.492557 0.290570
0.665873 0.516956 0.327443
0.680237 0.512438 0.289818
0.707435 0.535736 0.321853
0.727939 0.557544 0.361205
0.753813 0.574165 0.390663
0.820600 0.616409 0.425260
0.832918 0.537104 0.425924
0.866610 0.618554 0.422590
0.861105 0.594750 0.433905
0.874010 0.618909 0.453792
0.055839 0.267303 0.078432
0.071120 0.302385 0.139151
0.062542 0.296100 0.073407
0.056113 0.275581 0.066322
0.064481 0.304085 0.089045
0.150339 0.312752 0.107381
0.220455 0.361330 0.192385
0.225152 0.354137 0.142930
0.245123 0.350179 0.136393
0.269191 0.366256 0.144622
0.301735 0.375072 0.157212
0.325586 0.371986 0.158173
0.350920 0.380826 0.166553
0.373213 0.401293 0.180081
0.426035 0.439897 0.269548
0.425678 0.414506 0.195654
0.452983 0.425271 0.203738
0.484182 0.445398 0.217040
0.527645 0.466184 0.267747
0.543895 0.467574 0.237135
0.575976 0.476127 0.247811
0.602184 0.490965 0.260039
0.631857 0.511805 0.275666
0.659627 0.520341 0.285691
0.691790 0.542972 0.303689
0.717116 0.564082 0.335507
0.755342 0.587546 0.374085
0.770063 0.581948 0.339492
0.845124 0.625265 0.373625
0.868186 0.636718 0.404898
0.868672 0.605162 0.451228
0.881744 0.640926 0.458545
0.887285 0.639666 0.483875
0.065947 0.301570 0.104789
0.091097 0.355835 0.177766
0.129704 0.345134 0.135755
0.087808 0.358263 0.151067
0.094466 0.359823 0.160000
0.114008 0.323093 0.100200
0.212719 0.364790 0.162850
0.259853 0.362679 0.141036
0.253366 0.370865 0.142175
0.273615 0.386372 0.152393
0.330156 0.432254 0.250174
0.335185 0.401165 0.173116
0.360205 0.412970 0.181448
0.387990 0.426862 0.192439
0.417164 0.445408 0.219274
0.434285 0.442020 0.207869
0.471977 0.461630 0.221569
0.499211 0.473021 0.231020
0.521423 0.479847 0.237415
0.561982 0.490532 0.250509
0.588509 0.509393 0.263978
0.629260 0.541788 0.300465
0.642187 0.541273 0.288968
0.675884 0.557199 0.303521
0.708432 0.582817 0.324209
0.747042 0.606892 0.377596
0.768639 0.621741 0.382094
0.808701 0.644648 0.421739
0.907840 0.694015 0.504975
0.883880 0.631179 0.478821
0.885577 0.638237 0.476700
0.886554 0.655996 0.453418
0.889648 0.655198 0.471259
0.071880 0.326141 0.098314
0.114616 0.357523 0.157972
0.101702 0.394625 0.172447
0.093418 0.368937 0.166725
0.077675 0.353855 0.101439
0.084269 0.355973 0.137036
0.154873 0.348646 0.110534
0.253547 0.388327 0.146652
0.266496 0.399846 0.153637
0.287627 0.410458 0.163772
0.321839 0.429398 0.192278
0.351168 0.437069 0.205988
0.379796 0.447079 0.198227
0.406197 0.456368 0.207171
0.421717 0.462359 0.212809
0.455665 0.469970 0.221982
0.485024 0.492248 0.236593
0.523860 0.512849 0.262866
0.542970 0.511340 0.254555
0.577130 0.526490 0.268335
0.603803 0.549493 0.283378
0.670030 0.597401 0.390215
0.664032 0.574738 0.306566
0.692187 0.590397 0.319355
0.725620 0.615842 0.342848
0.758758 0.634220 0.368229
0.772667 0.645203 0.386579
0.843083 0.683450 0.438613
0.912943 0.687180 0.541959
0.903507 0.676629 0.507209
0.897418 0.675331 0.485424
0.896704 0.676433 0.479315
0.897490 0.667897 0.494417
0.093025 0.383086 0.142719
0.108281 0.408941 0.189186
0.109014 0.389929 0.167156
0.109219 0.391986 0.167284
0.134179 0.387196 0.120336
0.124786 0.388285 0.113950
0.133352 0.376261 0.112752
0.271641 0.431838 0.211619
0.292528 0.437371 0.201782
0.297559 0.436796 0.174868
0.326184 0.449247 0.187101
0.356806 0.454917 0.196033
0.399972 0.491050 0.234267
0.422935 0.487943 0.224195
0.436831 0.488739 0.225983
0.467913 0.500570 0.237143
0.505715 0.528474 0.255714
0.558639 0.559516 0.338395
0.554412 0.538707 0.267760
0.586335 0.558726 0.282675
0.620565 0.579765 0.298971
0.655247 0.599578 0.321914
0.680877 0.602566 0.320482
0.706024 0.621870 0.333252
0.729403 0.641020 0.345878
0.762797 0.655957 0.356463
0.786751 0.685943 0.390182
0.833832 0.702450 0.435967
0.918766 0.731182 0.524828
0.922064 0.722913 0.542627
0.917703 0.710689 0.538293
0.913005 0.706784 0.517213
0.912477 0.721543 0.499098
0.097107 0.389425 0.157369
0.088899 0.383336 0.122371
0.078218 0.362133 0.096826
0.097272 0.400231 0.127272
0.095758 0.395776 0.130223
0.151132 0.454910 0.205246
0.186821 0.423596 0.167081
0.288666 0.478340 0.255942
0.300925 0.460735 0.184304
0.315068 0.467190 0.204902
0.336800 0.472402 0.197080
0.372430 0.482041 0.209904
0.408824 0.511210 0.240455
0.442979 0.522274 0.272131
0.454686 0.515896 0.240559
0.484181 0.530460 0.250759
0.513847 0.548622 0.263607
0.553234 0.570341 0.299114
0.567922 0.568300 0.282089
0.606002 0.593853 0.300486
0.644665 0.608303 0.314470
0.663224 0.617239 0.321872
0.700217 0.628852 0.333916
0.722572 0.655924 0.348474
0.756576 0.678518 0.385316
0.770798 0.683195 0.364706
0.776743 0.698297 0.394085
0.861011 0.729667 0.461611
0.922483 0.773682 0.494087
0.922181 0.749228 0.519265
0.911281 0.723953 0.488462
0.911233 0.723274 0.488172
0.919858 0.744761 0.506554
0.102548 0.407779 0.161589
0.093242 0.397038 0.107707
0.107196 0.430939 0.144040
0.124760 0.445920 0.221015
0.174017 0.445091 0.201302
0.165081 0.443197 0.196495
0.094440 0.404177 0.110259
0.189989 0.441461 0.151727
0.335006 0.474245 0.197353
0.362749 0.513379 0.269411
0.354802 0.499643 0.211888
0.374037 0.504985 0.217556
0.414087 0.524638 0.232636
0.453459 0.546301 0.279401
0.466666 0.543554 0.251760
0.503993 0.569675 0.268486
0.532030 0.573707 0.276358
0.552293 0.585348 0.285049
0.593652 0.595903 0.299632
0.634712 0.637566 0.337678
0.663875 0.643392 0.334632
0.688499 0.652897 0.339503
0.711936 0.670442 0.348474
0.747559 0.693055 0.386285
0.767116 0.703272 0.403892
0.772254 0.710878 0.369506
0.782652 0.722783 0.396864
0.837492 0.752846 0.447446
0.925145 0.788855 0.491921
0.915312 0.737870 0.488259
0.927079 0.779621 0.511041
0.919256 0.745601 0.504993
0.929958 0.776256 0.531683
0.112857 0.441625 0.155390
0.151150 0.453994 0.186999
0.151619 0.447721 0.201574
0.139523 0.479269 0.242378
0.109448 0.413918 0.182544
0.118554 0.447725 0.177690
0.114067 0.447995 0.131958
0.144933 0.459716 0.149206
0.303880 0.494226 0.195568
0.360203 0.526589 0.233236
0.374019 0.530507 0.249727
0.383703 0.532819 0.227808
0.421881 0.545803 0.240895
0.449819 0.561782 0.256664
0.478003 0.569730 0.262284
0.536608 0.614871 0.317120
0.557461 0.606199 0.295056
0.580240 0.615625 0.303138
0.614737 0.637069 0.318775
0.654673 0.672115 0.364692
0.675652 0.676076 0.367363
0.699847 0.681339 0.348303
0.727713 0.704791 0.358764
0.752945 0.716333 0.366146
0.772331 0.724550 0.372011
0.777845 0.736160 0.375087
0.811374 0.755727 0.416878
0.859136 0.772419 0.463093
0.931046 0.788530 0.522122
0.930558 0.782611 0.528578
0.931684 0.792439 0.519907
0.926676 0.778464 0.507960
0.934801 0.794448 0.541862
0.131127 0.491252 0.162136
0.119954 0.469564 0.142952
0.114998 0.460944 0.132945
0.132005 0.467920 0.210351
0.131154 0.465018 0.214671
0.139586 0.484244 0.234159
0.139799 0.488542 0.224611
0.146353 0.484409 0.190513
0.316942 0.537401 0.212219
0.389046 0.546388 0.235745
0.381722 0.550957 0.232568
0.389333 0.574268 0.249926
0.430838 0.572451 0.251176
0.462742 0.587381 0.263733
0.503794 0.598321 0.278346
0.548989 0.646163 0.325280
0.580413 0.651690 0.359235
0.600565 0.643628 0.316505
0.635168 0.671235 0.331186
0.659207 0.684947 0.340047
0.675540 0.693184 0.345598
0.718581 0.720488 0.359964
0.743646 0.738756 0.375517
0.766365 0.748034 0.374438
0.788732 0.757682 0.382338
0.795573 0.764287 0.386055
0.831112 0.782019 0.455414
0.876117 0.794468 0.463946
0.933888 0.813593 0.519181
0.925681 0.780771 0.498651
0.936757 0.816110 0.530778
0.935033 0.818213 0.515737
0.932880 0.816438 0.502233
0.125133 0.472018 0.168845
0.116831 0.462980 0.137652
0.136369 0.479754 0.144779
0.163343 0.481327 0.152897
0.140523 0.497033 0.204681
0.148891 0.513662 0.182560
0.137260 0.498681 0.180666
0.167704 0.521222 0.230246
0.329177 0.546961 0.217551
0.359154 0.565921 0.231129
0.386778 0.573438 0.240490
0.404576 0.619510 0.320171
0.449159 0.607412 0.271486
0.481569 0.613980 0.276531
0.528361 0.631225 0.294695
0.550117 0.649450 0.304574
0.576107 0.669483 0.334386
0.614764 0.678904 0.327527
0.655702 0.714074 0.347026
0.679552 0.713483 0.350243
0.704417 0.730492 0.358845
0.725376 0.751829 0.365973
0.765143 0.769802 0.443552
0.777846 0.771169 0.379792
0.796189 0.784336 0.385074
0.824573 0.795489 0.410761
0.837648 0.802860 0.405905
0.847257 0.806785 0.458549
0.936267 0.835993 0.528348
0.941450 0.834586 0.545059
0.941946 0.833583 0.548166
0.940682 0.827510 0.546476
0.938631 0.833911 0.521553
0.139282 0.501351 0.189008
0.146368 0.512125 0.211407
0.127720 0.485483 0.156235
0.158957 0.528109 0.227705
0.178474 0.533494 0.241368
0.150068 0.521974 0.211087
0.150596 0.522606 0.212741
0.157974 0.532211 0.231859
0.181313 0.534477 0.209434
0.375833 0.594183 0.246045
0.402816 0.602172 0.252442
0.417136 0.633483 0.269904
0.488642 0.657613 0.357620
0.495659 0.642842 0.288517
0.540138 0.667175 0.306577
0.565956 0.677463 0.315637
0.590072 0.691817 0.324826
0.632455 0.721553 0.340723
0.675560 0.752612 0.411589
0.688646 0.745461 0.357187
0.718066 0.762768 0.365032
0.746288 0.777115 0.373254
0.768072 0.783647 0.389930
0.788800 0.796934 0.384893
0.802934 0.811743 0.388072
0.835944 0.821542 0.396579
0.830239 0.821944 0.397610
0.865454 0.828628 0.494922
0.912146 0.854858 0.514300
0.943016 0.858650 0.539191
0.941976 0.848305 0.536678
0.944560 0.839885 0.562488
0.946671 0.851264 0.565470
0.162046 0.546444 0.236173
0.167975 0.552702 0.261775
0.170336 0.558676 0.264243
0.200886 0.560681 0.249120
0.157987 0.539312 0.218154
0.149799 0.528808 0.194538
0.146159 0.531009 0.164225
0.151527 0.539703 0.177915
0.151580 0.538793 0.168518
0.296754 0.621080 0.264925
0.432937 0.633765 0.269962
0.452966 0.643976 0.278213
0.473864 0.660078 0.291274
0.504310 0.673006 0.299454
0.553107 0.712876 0.339368
0.586249 0.707846 0.328307
0.623697 0.727561 0.339542
0.652182 0.748586 0.348618
0.677649 0.766430 0.390757
0.683281 0.769216 0.358583
0.732321 0.800731 0.371856
0.762802 0.806829 0.379767
0.784531 0.817019 0.384798
0.800297 0.829136 0.388616
0.820843 0.835364 0.460233
0.835338 0.839458 0.396421
0.838407 0.843925 0.410501
0.873977 0.851380 0.516707
0.929306 0.866100 0.522581
0.944193 0.884476 0.535299
0.946069 0.869934 0.551840
0.948934 0.853445 0.584576
0.950937 0.871030 0.592887
0.140877 0.520364 0.159295
0.165097 0.553888 0.235932
0.151267 0.543894 0.170024
0.160855 0.557562 0.179566
0.180997 0.572662 0.238347
0.165064 0.565973 0.208033
0.177148 0.580375 0.255580
0.163128 0.570771 0.182492
0.166635 0.578720 0.185051
0.185198 0.600640 0.237686
0.335358 0.630106 0.277484
0.508333 0.678232 0.302415
0.493705 0.683430 0.299703
0.518682 0.697558 0.311903
0.560998 0.745109 0.401127
0.594334 0.741206 0.377548
0.637093 0.762908 0.347357
0.673254 0.781390 0.357215
0.690884 0.789144 0.361791
0.719698 0.810076 0.369966
0.746046 0.826921 0.427546
0.766365 0.825315 0.388129
0.797269 0.840000 0.388281
0.810902 0.848597 0.390798
0.834802 0.848519 0.472628
