calib/LUT LIBRARY/eterna_cinema_composed.cube
TITLE "Chromasmith composed - Eterna Cinema"
#STD_q(x) = VLOG_q(T(x)), T derived from astia/velvia/classic_neg matched pairs
LUT_3D_SIZE 33
0.066950 0.066699 0.072898
0.087126 0.068756 0.065004
0.105934 0.071140 0.078626
0.135265 0.081314 0.069292
0.159391 0.078918 0.087488
0.187893 0.100617 0.070775
0.219277 0.099175 0.060319
0.246327 0.115939 0.056974
0.266393 0.101601 0.073900
0.301908 0.142611 0.025435
0.321766 0.119156 0.101664
0.335915 0.130142 0.042554
0.369501 0.150920 0.035355
0.394515 0.166598 0.045718
0.420019 0.134827 0.067565
0.436360 0.152456 0.044232
0.468618 0.172787 0.044846
0.500256 0.170569 0.053910
0.513304 0.169218 0.055314
0.537348 0.167929 0.055933
0.566293 0.179772 0.058161
0.591630 0.183365 0.061175
0.612174 0.181249 0.068594
0.631833 0.180446 0.067818
0.658819 0.182552 0.071036
0.688978 0.189710 0.074579
0.704363 0.181663 0.077951
0.717598 0.196186 0.084091
0.737837 0.200416 0.087881
0.769320 0.199025 0.084712
0.829277 0.213363 0.091149
0.853898 0.247930 0.088762
0.880746 0.180993 0.107391
0.069260 0.082076 0.077122
0.086010 0.088804 0.078360
0.108667 0.092170 0.078019
0.137581 0.103423 0.085198
0.160960 0.112261 0.069848
0.189996 0.121227 0.084104
0.216565 0.131706 0.034934
0.242118 0.135498 0.072842
0.260823 0.142853 0.027646
0.298514 0.154866 0.033743
0.313379 0.147828 0.066444
0.344389 0.157766 0.028902
0.369796 0.168889 0.030407
0.395273 0.163742 0.075167
0.415606 0.161302 0.038979
0.441941 0.176302 0.040356
0.471369 0.188568 0.047093
0.494605 0.180918 0.092792
0.511924 0.188641 0.049114
0.539944 0.196311 0.051560
0.564845 0.201155 0.054699
0.592014 0.201925 0.067956
0.611248 0.201935 0.064792
0.637640 0.208023 0.063876
0.665598 0.213512 0.067057
0.685589 0.213117 0.069997
0.714829 0.206657 0.091266
0.741690 0.212158 0.091174
0.771135 0.218388 0.081684
0.795166 0.219062 0.085207
0.842508 0.239762 0.088795
0.883205 0.224986 0.097200
0.871145 0.232368 0.093895
0.072993 0.101285 0.083278
0.092891 0.106450 0.085338
0.113301 0.112359 0.088783
0.142329 0.121721 0.084253
0.169644 0.132752 0.073963
0.190867 0.133028 0.075841
0.216504 0.144313 0.040551
0.248006 0.145270 0.063574
0.269774 0.162089 0.017554
0.292750 0.166072 0.056586
0.312764 0.166229 0.022726
0.349613 0.173649 0.027141
0.374806 0.178124 0.042374
0.394277 0.174186 0.057149
0.419872 0.180821 0.036459
0.453356 0.194899 0.038810
0.472424 0.198142 0.058264
0.490989 0.201065 0.043977
0.522246 0.208879 0.046642
0.550290 0.213727 0.050334
0.576957 0.218214 0.089903
0.598027 0.221621 0.055590
0.618883 0.227880 0.057915
0.640259 0.233723 0.060146
0.667739 0.233992 0.072245
0.693855 0.232015 0.088497
0.720170 0.239043 0.080949
0.749697 0.240792 0.081754
0.780623 0.243898 0.090564
0.819107 0.240342 0.090904
0.860117 0.239570 0.090817
0.868145 0.247327 0.092549
0.888053 0.256607 0.092816
0.059691 0.119902 0.083308
0.100431 0.130015 0.088306
0.123869 0.137168 0.086806
0.146272 0.146003 0.082024
0.172107 0.150601 0.070833
0.195401 0.156153 0.050587
0.222755 0.161062 0.077306
0.240747 0.168094 0.020405
0.274393 0.175432 0.016611
0.296252 0.171408 0.065432
0.328284 0.183696 0.022444
0.348772 0.191232 0.029850
0.370406 0.194111 0.038299
0.390534 0.194891 0.029959
0.436194 0.202251 0.035346
0.449327 0.209974 0.038921
0.470881 0.212728 0.059147
0.497888 0.216667 0.041884
0.522448 0.223842 0.044154
0.553473 0.230637 0.053671
0.581286 0.232892 0.064229
0.601749 0.239718 0.053181
0.625883 0.246085 0.055569
0.651674 0.252706 0.072549
0.678584 0.253503 0.089834
0.698755 0.259436 0.080882
0.723730 0.262909 0.074798
0.760642 0.264665 0.120478
0.790749 0.264260 0.127441
0.818975 0.265673 0.087568
0.863614 0.268909 0.086688
0.884236 0.268516 0.090036
0.912068 0.276505 0.095904
0.046581 0.141276 0.087331
0.097676 0.147707 0.086121
0.116438 0.160340 0.075439
0.149155 0.165756 0.070314
0.177250 0.169356 0.077598
0.197047 0.178646 0.029916
0.224537 0.181196 0.072249
0.252619 0.187376 0.010759
0.277283 0.191769 0.039418
0.294617 0.196328 0.015597
0.337174 0.200999 0.021088
0.349971 0.207856 0.039588
0.369718 0.210527 0.028466
0.405516 0.215886 0.028541
0.432683 0.220774 0.031691
0.453653 0.227347 0.034388
0.478421 0.230918 0.036636
0.503430 0.236626 0.039419
0.526595 0.243444 0.041481
0.556178 0.250081 0.044593
0.582348 0.255737 0.047428
0.604066 0.260443 0.049805
0.628841 0.264016 0.061115
0.655031 0.269191 0.091879
0.683113 0.275662 0.083747
0.705949 0.282580 0.078416
0.728931 0.285632 0.093927
0.764464 0.283565 0.137961
0.795465 0.288693 0.133920
0.824614 0.289657 0.139855
0.859111 0.291305 0.092911
0.883496 0.287740 0.117889
0.909860 0.297124 0.145798
0.049652 0.168120 0.071288
0.099713 0.176092 0.085198
0.121373 0.179373 0.095987
0.149683 0.184279 0.061543
0.175861 0.189302 0.042543
0.200475 0.195798 0.053673
0.230199 0.202268 0.005041
0.255696 0.207260 0.008124
0.276379 0.210631 0.073944
0.312932 0.215413 0.015069
0.332423 0.222997 0.016550
0.351457 0.227268 0.021755
0.392991 0.228501 0.024425
0.411306 0.236538 0.025967
0.430973 0.240338 0.028435
0.451034 0.244416 0.030477
0.497561 0.250292 0.036368
0.509339 0.257205 0.036416
0.534211 0.262765 0.061547
0.561890 0.265905 0.042609
0.587482 0.274446 0.044994
0.608470 0.279819 0.047267
0.634570 0.286462 0.070090
0.661534 0.291512 0.097453
0.689717 0.297862 0.098675
0.713482 0.302921 0.106026
0.736481 0.305444 0.129817
0.770129 0.307372 0.135498
0.802867 0.307695 0.159499
0.829547 0.307278 0.164262
0.863744 0.310942 0.122083
0.895791 0.319322 0.083213
0.919192 0.337679 0.092285
0.070317 0.196868 0.099768
0.120022 0.206845 0.067708
0.122828 0.205622 0.045340
0.150798 0.207506 0.060193
0.170092 0.214230 0.016444
0.200743 0.218625 0.060830
0.234925 0.223995 0.004173
0.257231 0.228884 0.005547
0.287723 0.231977 0.008527
0.313116 0.238984 0.010989
0.333941 0.242307 0.020445
0.356647 0.245109 0.016271
0.389389 0.250772 0.020003
0.404424 0.259198 0.023271
0.431590 0.263775 0.053618
0.458775 0.266147 0.027806
0.490399 0.275372 0.030738
0.514415 0.282554 0.033188
0.541165 0.286207 0.036244
0.568749 0.288168 0.039737
0.593424 0.295555 0.042246
0.618180 0.300180 0.045284
0.646071 0.308039 0.047838
0.668553 0.318089 0.058987
0.689945 0.321819 0.090878
0.716758 0.325770 0.127381
0.747438 0.328019 0.145914
0.778708 0.332450 0.161419
0.805394 0.331659 0.196586
0.837958 0.333756 0.170810
0.875734 0.337956 0.101576
0.911586 0.349151 0.080297
0.934134 0.360957 0.082387
0.011700 0.218068 0.065740
0.053275 0.217777 0.045817
0.118253 0.226949 0.084156
0.150829 0.232776 0.051047
0.169697 0.235068 0.007829
0.197534 0.239012 0.000614
0.228835 0.246883 0.005629
0.257803 0.248467 0.017099
0.295845 0.250891 0.006743
0.312869 0.259231 0.008077
0.332723 0.262302 0.066240
0.366449 0.267791 0.013995
0.386167 0.271667 0.016219
0.408407 0.276426 0.018608
0.437799 0.280221 0.022329
0.466601 0.287588 0.025120
0.488870 0.291793 0.027436
0.519382 0.295863 0.031109
0.547791 0.299607 0.034797
0.582533 0.303218 0.039460
0.594294 0.314107 0.039314
0.620489 0.320880 0.073979
0.648935 0.327713 0.047967
0.670079 0.337326 0.052926
0.692358 0.342020 0.105042
0.721455 0.347474 0.143625
0.753434 0.349158 0.154209
0.785794 0.351819 0.195425
0.810396 0.352099 0.204033
0.845592 0.355589 0.152023
0.884781 0.363341 0.081244
0.920835 0.372308 0.078842
0.934133 0.378305 0.080022
0.014088 0.234995 0.102692
0.034516 0.245803 0.063681
0.118800 0.248385 0.018941
0.140360 0.247493 0.000178
0.175218 0.263304 0.120415
0.197178 0.257165 0.005845
0.232869 0.264045 0.000698
0.259517 0.267426 0.070037
0.293886 0.271575 0.004864
0.316332 0.275303 0.006460
0.335225 0.278694 0.007540
0.364662 0.287856 0.010286
0.389626 0.295199 0.013113
0.415444 0.294373 0.016370
0.441766 0.296221 0.019999
0.466161 0.308240 0.021461
0.491554 0.313036 0.052711
0.522351 0.318423 0.064224
0.543821 0.320870 0.030439
0.569990 0.328564 0.032991
0.597719 0.337544 0.036026
0.625211 0.346527 0.094926
0.653940 0.349821 0.043743
0.672727 0.359311 0.046706
0.701139 0.364811 0.079847
0.730920 0.369716 0.134486
0.757429 0.371360 0.180169
0.788851 0.374180 0.181641
0.819272 0.375957 0.167028
0.865071 0.380383 0.097665
0.901470 0.390468 0.074118
0.932458 0.408494 0.077951
0.931948 0.415158 0.077987
0.008393 0.245290 0.014202
0.018080 0.259216 0.000629
0.079524 0.256748 0.000392
0.133710 0.267771 0.029271
0.169412 0.277401 0.092788
0.196121 0.277875 0.010773
0.231620 0.282861 0.000552
0.269560 0.283734 0.002161
0.287749 0.297971 0.004419
0.313560 0.295664 0.003438
0.346192 0.297678 0.005745
0.365772 0.308734 0.007450
0.388982 0.315105 0.039725
0.415172 0.320158 0.115288
0.442655 0.320027 0.016220
0.464180 0.328933 0.017762
0.490640 0.331429 0.021554
0.521388 0.338911 0.024199
0.547681 0.343232 0.027343
0.571957 0.348341 0.030210
0.599397 0.356632 0.033058
0.627683 0.360882 0.036381
0.661224 0.366898 0.040273
0.677263 0.380368 0.043531
0.706623 0.384749 0.082173
0.738809 0.390184 0.125235
0.764440 0.393675 0.175166
0.798379 0.397403 0.180368
0.839788 0.399540 0.149704
0.871590 0.404025 0.098012
0.920937 0.410892 0.075320
0.931394 0.423029 0.076343
0.920530 0.468153 0.070260
0.013986 0.267081 0.093950
0.012748 0.285859 0.065523
0.063125 0.288127 0.104701
0.145261 0.294896 0.065708
0.165688 0.292474 0.000363
0.196516 0.300368 0.000479
0.224730 0.306761 0.008533
0.261312 0.306551 0.000648
0.285554 0.316747 0.001608
0.314027 0.316302 0.079569
0.341372 0.322030 0.003727
0.370959 0.326820 0.006584
0.388286 0.330686 0.007641
0.409179 0.335469 0.009046
0.441480 0.342037 0.012581
0.466024 0.347633 0.015196
0.495919 0.350741 0.018652
0.534297 0.348297 0.024520
0.555856 0.357157 0.026321
0.576854 0.372856 0.027301
0.608632 0.375448 0.031300
0.634692 0.377418 0.034604
0.660609 0.387553 0.036886
0.681268 0.400003 0.049835
0.712694 0.404939 0.095044
0.742139 0.409172 0.091526
0.770859 0.413452 0.152468
0.813587 0.419287 0.178138
0.841906 0.420478 0.123070
0.877003 0.424597 0.065968
0.926993 0.444529 0.073275
0.930448 0.449754 0.073984
0.923098 0.477972 0.071035
0.017019 0.313876 0.132786
0.012003 0.286610 0.051847
0.007433 0.301740 0.000292
0.128131 0.306764 0.000203
0.162277 0.308652 0.000356
0.184252 0.340957 0.140994
0.234018 0.325505 0.092498
0.251893 0.336477 0.022911
0.288237 0.330709 0.000696
0.310990 0.336315 0.000635
0.339253 0.343910 0.002627
0.368355 0.350106 0.003990
0.390281 0.347838 0.005602
0.417921 0.350078 0.008223
0.442189 0.360864 0.009906
0.468629 0.374847 0.036865
0.496128 0.370340 0.015856
0.525132 0.371365 0.019553
0.550958 0.378529 0.022148
0.578124 0.395427 0.033189
0.608980 0.403394 0.077556
0.638992 0.398990 0.031817
0.662887 0.408010 0.033920
0.693573 0.418616 0.036451
0.719690 0.430348 0.059976
0.748733 0.433777 0.068591
0.778320 0.439558 0.115930
0.812671 0.441378 0.194812
0.837326 0.441207 0.184997
0.860388 0.451608 0.079097
0.929262 0.472210 0.072223
0.930822 0.461938 0.074036
0.929654 0.470314 0.074807
0.017745 0.351031 0.136639
0.010718 0.326528 0.030897
0.009494 0.323376 0.000503
0.093509 0.330522 0.052935
0.161872 0.335161 0.071083
0.190062 0.340692 0.000673
0.224082 0.347252 0.001402
0.245636 0.359262 0.001161
0.284985 0.351830 0.000400
0.313031 0.352719 0.000614
0.342337 0.366870 0.001386
0.367140 0.376219 0.041336
0.393184 0.370614 0.001946
0.418513 0.373055 0.005852
0.440309 0.384102 0.007323
0.465481 0.392729 0.019576
0.497404 0.396224 0.015455
0.523892 0.393862 0.015884
0.554066 0.397786 0.019638
0.577528 0.410900 0.020984
0.603677 0.415508 0.024008
0.643577 0.418429 0.029168
0.667892 0.429263 0.031147
0.694505 0.436579 0.033734
0.726637 0.443370 0.037962
0.755527 0.454439 0.041220
0.780225 0.462426 0.112138
0.813319 0.465074 0.186101
0.847127 0.486784 0.150715
0.896816 0.456473 0.082145
0.910698 0.474088 0.071125
0.929656 0.469642 0.072241
0.933960 0.462478 0.160494
0.010576 0.357697 0.027593
0.010863 0.336552 0.031090
0.016028 0.360372 0.106653
0.031732 0.344552 0.057806
0.169841 0.352884 0.003544
0.183684 0.365292 0.001551
0.223914 0.362100 0.000178
0.253054 0.366567 0.000072
0.278911 0.375588 0.008162
0.316448 0.372987 0.000497
0.345186 0.380647 0.001363
0.361330 0.391353 0.008462
0.392140 0.393910 0.040757
0.413189 0.396773 0.003580
0.438027 0.405473 0.005228
0.461776 0.408267 0.006824
0.500738 0.410149 0.010171
0.526812 0.418887 0.012485
0.554160 0.430793 0.015214
0.582694 0.428668 0.018839
0.619997 0.425247 0.024295
0.648782 0.437008 0.026827
0.670426 0.457871 0.026893
0.698226 0.461902 0.029924
0.728815 0.460862 0.035836
0.758767 0.477659 0.042262
0.788965 0.481408 0.108625
0.797623 0.486814 0.175435
0.826636 0.481217 0.051165
0.918118 0.501421 0.066949
0.928889 0.522069 0.071527
0.931800 0.486029 0.125948
0.935466 0.480132 0.200460
0.010309 0.349436 0.022263
0.014187 0.367431 0.074963
0.015073 0.360376 0.086516
0.014602 0.372984 0.078512
0.079635 0.354716 0.000355
0.180599 0.373808 0.000156
0.247686 0.382898 0.000187
0.247169 0.386903 0.000066
0.288084 0.397788 0.098958
0.307221 0.399086 0.000263
0.347108 0.403300 0.000819
0.364722 0.407989 0.000652
0.392596 0.411125 0.001855
0.413189 0.420746 0.002511
0.447264 0.434523 0.006278
0.471693 0.430277 0.004268
0.511169 0.433146 0.007622
0.531683 0.447547 0.008769
0.565420 0.460314 0.098937
0.594978 0.448767 0.017235
0.622029 0.453407 0.020285
0.645129 0.465570 0.022163
0.675902 0.480649 0.025165
0.697836 0.492632 0.060918
0.732040 0.486784 0.033426
0.750773 0.499435 0.035316
0.756926 0.512499 0.065660
0.781910 0.518114 0.145156
0.865829 0.537283 0.151693
0.935204 0.451784 0.171490
0.929032 0.522953 0.073454
0.930230 0.502053 0.102927
0.932919 0.519833 0.162158
0.007803 0.357628 0.003053
0.015835 0.383941 0.088362
0.006568 0.384304 0.000361
0.007095 0.365737 0.000165
0.007451 0.391530 0.000172
0.133971 0.390667 0.000681
0.225073 0.422156 0.109823
0.244204 0.421997 0.002011
0.279120 0.416432 0.000132
0.304272 0.428907 0.000178
0.339873 0.433907 0.000241
0.374104 0.427921 0.000711
0.402776 0.431977 0.001107
0.419970 0.448263 0.000758
0.457600 0.466907 0.140063
0.478470 0.453567 0.001201
0.506257 0.458184 0.005493
0.531477 0.470790 0.006965
0.564570 0.478462 0.046829
0.590045 0.479345 0.012047
0.623359 0.479696 0.016805
0.646125 0.486698 0.019391
0.669953 0.498255 0.021238
0.700121 0.498770 0.026238
0.731197 0.510011 0.030587
0.747191 0.522099 0.032486
0.777757 0.532607 0.048327
0.822794 0.522429 0.046316
0.916029 0.537932 0.062989
0.928381 0.540595 0.066876
0.933829 0.507827 0.172069
0.931901 0.538879 0.148904
0.935948 0.535777 0.234940
0.009008 0.387704 0.004812
0.018665 0.430646 0.131020
0.042069 0.420928 0.010714
0.014962 0.436517 0.059910
0.015973 0.436501 0.079398
0.032240 0.404568 0.000930
0.214818 0.431234 0.024568
0.295305 0.426193 0.000126
0.282137 0.434620 0.000090
0.302466 0.446834 0.000150
0.338129 0.474801 0.135954
0.370503 0.454613 0.000114
0.398732 0.461242 0.000788
0.425536 0.469593 0.000730
0.448150 0.481597 0.001540
0.474931 0.476857 0.001148
0.509631 0.487160 0.003964
0.535825 0.492386 0.005445
0.558761 0.494249 0.006708
0.600441 0.495183 0.010583
0.622175 0.505527 0.012937
0.647329 0.524447 0.014389
0.667565 0.521016 0.017961
0.699682 0.526875 0.022257
0.730830 0.540506 0.027185
0.754774 0.551998 0.043047
0.780774 0.559925 0.039843
0.826144 0.568144 0.121371
0.936545 0.584088 0.245454
0.936819 0.527680 0.228755
0.935007 0.535463 0.217913
0.929971 0.554323 0.113625
0.932747 0.551073 0.185039
0.008018 0.412116 0.002980
0.018197 0.432481 0.061505
0.016518 0.468927 0.080344
0.016731 0.444814 0.092625
0.007723 0.438258 0.000259
0.012455 0.435547 0.027791
0.116304 0.424609 0.000243
0.273007 0.451293 0.000059
0.285572 0.460658 0.000071
0.307682 0.467970 0.000122
0.335310 0.481644 0.002638
0.367937 0.484504 0.002798
0.404112 0.489855 0.000399
0.432809 0.493930 0.000540
0.449157 0.496967 0.000541
0.488110 0.497963 0.001843
0.509832 0.512093 0.002383
0.542222 0.522316 0.003033
0.569539 0.517207 0.003963
0.601155 0.522776 0.006883
0.620334 0.536666 0.008976
0.661648 0.556493 0.182785
0.677250 0.545090 0.016853
0.705459 0.551942 0.021345
0.733429 0.566667 0.025304
0.763711 0.574927 0.032126
0.774139 0.581128 0.035655
0.858559 0.596746 0.107500
0.939918 0.575850 0.316409
0.936804 0.567117 0.261810
0.934793 0.567464 0.211971
0.933378 0.569784 0.187399
0.936352 0.559573 0.241044
0.011196 0.462421 0.022030
0.017857 0.481153 0.103655
0.015355 0.464651 0.060715
0.015280 0.466726 0.058818
0.029150 0.464544 0.000250
0.018255 0.466969 0.000200
0.040315 0.453843 0.000219
0.262091 0.486309 0.049132
0.289924 0.491679 0.006897
0.305592 0.491885 0.000151
0.333741 0.500492 0.000162
0.371825 0.500771 0.000289
0.401554 0.526775 0.001037
0.436589 0.520630 0.000258
0.454257 0.518304 0.000337
0.488029 0.523009 0.000569
0.515978 0.540291 0.000438
0.554680 0.550605 0.118620
0.570500 0.538660 0.001784
0.596216 0.549647 0.005365
0.623582 0.560564 0.008236
0.649961 0.570375 0.009761
0.684299 0.566218 0.016251
0.707252 0.577335 0.019539
0.725927 0.589212 0.022072
0.762888 0.594106 0.028599
0.776026 0.616087 0.030837
0.832262 0.618296 0.090717
0.936688 0.618545 0.266055
0.939000 0.609437 0.301217
0.939133 0.597569 0.301680
0.936932 0.595413 0.262425
0.933966 0.611548 0.211762
0.014288 0.465983 0.042708
0.008819 0.464979 0.002230
0.007300 0.446768 0.000303
0.008821 0.481046 0.001236
0.009279 0.476122 0.001608
0.018408 0.521651 0.071957
0.110474 0.491813 0.009095
0.253562 0.524855 0.119664
0.294992 0.514736 0.000199
0.305137 0.518181 0.002210
0.335761 0.520601 0.000255
0.378712 0.523590 0.000116
0.402942 0.544205 0.000347
0.437422 0.545654 0.026433
0.462155 0.539921 0.000116
0.491084 0.546808 0.000609
0.515782 0.557148 0.000436
0.547150 0.567504 0.008509
0.570743 0.562742 0.002201
0.600356 0.577310 0.005133
0.637762 0.581044 0.008396
0.655153 0.584258 0.010032
0.694599 0.584402 0.015538
0.708968 0.605102 0.017582
0.733163 0.617163 0.022598
0.758311 0.617749 0.025645
0.751729 0.630598 0.024210
0.861436 0.637382 0.144356
0.931510 0.666935 0.158965
0.935716 0.637795 0.246752
0.931955 0.614974 0.171403
0.932008 0.614283 0.171929
0.933950 0.634383 0.214244
0.013288 0.483107 0.030331
0.007755 0.478716 0.000215
0.009105 0.509862 0.005647
0.020364 0.514022 0.137479
0.044798 0.509541 0.057023
0.033249 0.509241 0.049502
0.007397 0.485367 0.000385
0.107347 0.511224 0.000256
0.335026 0.521913 0.000192
0.337912 0.548771 0.070516
0.343051 0.544027 0.000241
0.368140 0.544757 0.000045
0.406956 0.555586 0.000182
0.437891 0.566501 0.019555
0.461876 0.563283 0.000152
0.492842 0.579126 0.000305
0.524383 0.576453 0.000426
0.543033 0.582527 0.000460
0.585979 0.582036 0.002859
0.607847 0.610454 0.005934
0.640879 0.608961 0.004641
0.667577 0.609950 0.009502
0.688628 0.620649 0.013080
0.714816 0.633517 0.016697
0.732393 0.637807 0.042396
0.745816 0.645395 0.021428
0.748830 0.654632 0.022415
0.811269 0.669354 0.091666
0.930524 0.683897 0.141632
0.931468 0.628851 0.164186
0.933777 0.671231 0.207147
0.934005 0.635016 0.214052
0.936172 0.665611 0.256882
0.010226 0.518805 0.006983
0.015900 0.523260 0.022920
0.018646 0.514661 0.068401
0.021276 0.544639 0.148551
0.016829 0.487183 0.080764
0.013818 0.521584 0.025785
0.008350 0.527673 0.000687
0.010445 0.534833 0.000301
0.284512 0.545148 0.000070
0.331379 0.567944 0.000142
0.345384 0.568033 0.008751
0.364743 0.569041 0.000134
0.405121 0.573802 0.000191
0.429988 0.584057 0.000132
0.463887 0.583908 0.000146
0.502541 0.612900 0.008169
0.536596 0.601205 0.000353
0.560952 0.603528 0.001135
0.589097 0.614890 0.002587
0.612129 0.637925 0.001380
0.635285 0.636278 0.001620
0.668645 0.635225 0.008850
0.691898 0.651829 0.011812
0.717456 0.656403 0.015561
0.737561 0.659314 0.018882
0.741203 0.669673 0.018971
0.774395 0.681208 0.037931
0.839305 0.684222 0.124738
0.934747 0.680102 0.230388
0.935939 0.673352 0.247372
0.934911 0.684618 0.226687
0.933056 0.670129 0.195837
0.937080 0.685525 0.270508
0.008910 0.567989 0.001388
0.007661 0.548161 0.000179
0.007639 0.539862 0.000278
0.017559 0.537447 0.085426
0.018539 0.533988 0.100614
0.020275 0.550663 0.126212
0.018960 0.556391 0.100173
0.012368 0.555843 0.015887
0.271256 0.586006 0.000176
0.360438 0.581758 0.000140
0.349359 0.587578 0.000144
0.342558 0.607928 0.000112
0.401920 0.597004 0.000164
0.434010 0.605108 0.000145
0.479751 0.604928 0.000165
0.501924 0.640071 0.001345
0.535096 0.635503 0.041818
0.570894 0.624768 0.001659
0.597164 0.643269 0.002415
0.617694 0.651125 0.002406
0.633345 0.654683 0.002838
0.673355 0.669272 0.008445
0.692416 0.682291 0.011249
0.719141 0.684751 0.013644
0.745400 0.689157 0.020083
0.751857 0.695100 0.021331
0.788576 0.701601 0.108899
0.860834 0.704749 0.099873
0.933642 0.710641 0.211112
0.931633 0.673658 0.168907
0.935320 0.712110 0.238024
0.933518 0.715495 0.202742
0.931076 0.714796 0.154929
0.008395 0.548579 0.000737
0.007494 0.542040 0.000234
0.008146 0.556506 0.000334
0.016068 0.553808 0.000275
0.014861 0.567895 0.033253
0.009062 0.588437 0.002917
0.009537 0.574080 0.005639
0.016923 0.586848 0.059704
0.286350 0.592055 0.000162
0.310814 0.605835 0.000120
0.346453 0.606693 0.000097
0.329149 0.641796 0.080455
0.401951 0.627143 0.000208
0.442759 0.626061 0.000174
0.491559 0.630976 0.000107
0.507926 0.643883 0.000237
0.523937 0.657366 0.000804
0.570271 0.656185 0.001372
0.599015 0.681078 0.000770
0.628879 0.673916 0.001784
0.651039 0.682959 0.004155
0.667341 0.700416 0.006282
0.701616 0.704837 0.115693
0.724510 0.707061 0.013151
0.745935 0.717534 0.017550
0.776309 0.723458 0.026953
0.792614 0.729498 0.027572
0.803725 0.727485 0.095939
0.933525 0.738434 0.230408
0.936762 0.734391 0.258804
0.937596 0.731726 0.266450
0.937145 0.724754 0.264590
0.934186 0.734060 0.205837
0.010778 0.575183 0.009551
0.014771 0.582194 0.037338
0.008480 0.563251 0.000266
0.015981 0.596065 0.050917
0.017966 0.596923 0.069942
0.013973 0.592785 0.024588
0.014259 0.593202 0.025448
0.016589 0.599906 0.058878
0.012080 0.602830 0.003906
0.314598 0.629778 0.000073
0.351690 0.630402 0.000049
0.344655 0.660024 0.000169
0.416898 0.660116 0.096991
0.443918 0.651969 0.000140
0.486391 0.664420 0.000206
0.512514 0.668160 0.000202
0.534777 0.675960 0.000378
0.570747 0.693796 0.000658
0.600577 0.711308 0.062959
0.623925 0.703818 0.001547
0.654434 0.715012 0.004527
0.682867 0.723688 0.006706
0.701735 0.724827 0.009190
0.728062 0.734994 0.013303
0.743773 0.749387 0.015870
0.785774 0.752092 0.024130
0.775601 0.754866 0.021989
0.825914 0.747419 0.184811
0.897885 0.769705 0.207785
0.936227 0.768199 0.232730
0.935902 0.752647 0.235367
0.939131 0.739052 0.291394
0.939341 0.754319 0.291568
0.016790 0.613762 0.052582
0.020318 0.616072 0.110818
0.020321 0.621803 0.109658
0.016377 0.622446 0.046317
0.013649 0.610090 0.016214
0.010196 0.602531 0.003833
0.007659 0.606978 0.000252
0.008452 0.616360 0.000459
0.008537 0.615838 0.000425
0.160889 0.669356 0.008212
0.370236 0.656626 0.000115
0.390797 0.662241 0.000126
0.403127 0.675012 0.000312
0.438373 0.680411 0.000100
0.471379 0.708372 0.000530
0.521256 0.693816 0.000205
0.557629 0.702716 0.000523
0.582020 0.718349 0.000467
0.597905 0.729303 0.018321
0.609502 0.733370 0.000375
0.656166 0.755933 0.003295
0.689463 0.754927 0.005485
0.716833 0.758656 0.008337
0.734213 0.770596 0.011855
0.751689 0.770022 0.095355
0.775730 0.775800 0.020559
0.776993 0.781309 0.020636
0.831586 0.772751 0.228170
0.922169 0.782941 0.206655
0.935773 0.806764 0.208281
0.937563 0.783653 0.252370
0.941169 0.756385 0.323125
0.942285 0.779902 0.330298
0.007761 0.597255 0.000335
0.016247 0.622080 0.044310
0.008252 0.619948 0.000227
0.008655 0.634023 0.000450
0.014035 0.640586 0.019429
0.010434 0.639054 0.003081
0.017868 0.646480 0.059189
0.008588 0.647252 0.000544
0.008550 0.654200 0.000276
0.011924 0.671434 0.003253
0.226971 0.670290 0.006699
0.441098 0.684155 0.000120
0.418913 0.694530 0.000056
0.444347 0.701544 0.000310
0.463029 0.731922 0.101750
0.507903 0.723076 0.027585
0.557645 0.739718 0.000237
0.593178 0.750142 0.000360
0.610387 0.754218 0.000870
0.638833 0.768688 0.001878
0.654665 0.781497 0.038062
0.684320 0.775811 0.003421
0.725601 0.787595 0.010379
0.740278 0.796221 0.013688
0.765886 0.783115 0.115322
