calib/LUT LIBRARY/Lucifer at Brighton Beach.cube
TITLE "a beach preset v5.7"
#LUMIXPHOTOSTYLE STD
LUT_3D_SIZE 33
0.031827 0.029267 0.033781
0.059972 0.039523 0.035415
0.124347 0.051870 0.026369
0.153548 0.047440 0.012460
0.170880 0.043092 0.003910
0.188104 0.027986 0.001529
0.205548 0.033739 0.000467
0.235354 0.012624 0.002301
0.275283 0.017790 0.001576
0.289172 0.036437 0.001679
0.316006 0.031202 0.003336
0.403612 0.017035 0.003922
0.443137 0.011765 0.003922
0.485587 0.012082 0.002318
0.541422 0.007115 0.000487
0.562347 0.001396 0.000000
0.572463 0.000839 0.000381
0.602870 0.000000 0.000604
0.629466 0.000000 0.000000
0.629461 0.000000 0.000000
0.629456 0.000000 0.000000
0.629452 0.000000 0.000000
0.629449 0.000000 0.000000
0.629445 0.000000 0.000000
0.629442 0.000000 0.000000
0.590719 0.001670 0.001977
0.196328 0.018476 0.022012
0.023299 0.024705 0.030179
0.023295 0.024706 0.030186
0.023292 0.024707 0.030192
0.023291 0.024707 0.030194
0.023291 0.024707 0.030194
0.023291 0.024707 0.030194
0.029461 0.027983 0.031833
0.046246 0.036345 0.035143
0.106456 0.053518 0.031881
0.141787 0.052038 0.022611
0.158238 0.047046 0.008798
0.177298 0.039587 0.003680
0.196092 0.028186 0.001623
0.215030 0.025465 0.000780
0.244400 0.006472 0.001834
0.273940 0.013219 0.001484
0.306561 0.013027 0.001016
0.340312 0.021204 0.001773
0.392016 0.010563 0.001436
0.406999 0.011413 0.000793
0.471834 0.030133 0.001912
0.530478 0.012510 0.001245
0.542493 0.006121 0.000952
0.587315 0.001774 0.001681
0.618969 0.000120 0.000666
0.627175 0.000058 0.000225
0.627890 0.000000 0.000396
0.627795 0.000000 0.000465
0.627718 0.000000 0.000524
0.627649 0.000000 0.000577
0.627582 0.000000 0.000629
0.627513 0.000000 0.000683
0.627438 0.000000 0.000742
0.170976 0.048277 0.098124
0.034162 0.062184 0.126037
0.034233 0.062528 0.126891
0.034248 0.062600 0.127070
0.034248 0.062600 0.127070
0.034248 0.062600 0.127070
0.035383 0.033775 0.037916
0.088507 0.092316 0.031579
0.115075 0.084148 0.030197
0.133852 0.066360 0.020093
0.169427 0.063716 0.005274
0.186601 0.047429 0.002751
0.200522 0.033725 0.001696
0.216411 0.024610 0.000859
0.240963 0.006727 0.001521
0.265231 0.009546 0.001564
0.302304 0.004075 0.000930
0.335093 0.011983 0.000952
0.369323 0.009173 0.000755
0.390826 0.006304 0.000363
0.433892 0.022871 0.001572
0.482155 0.034026 0.002383
0.507924 0.021111 0.001169
0.546602 0.007757 0.001199
0.574153 0.001585 0.001580
0.606762 0.001215 0.001551
0.624006 0.000000 0.003554
0.623784 0.000000 0.003746
0.623706 0.000104 0.003911
0.623821 0.000384 0.004064
0.623939 0.000662 0.004213
0.624066 0.000956 0.004370
0.624207 0.001275 0.004539
0.378239 0.032499 0.069001
0.042064 0.074568 0.158089
0.031855 0.075951 0.161513
0.031696 0.076005 0.161682
0.031696 0.076005 0.161682
0.031696 0.076005 0.161682
0.046796 0.045728 0.039075
0.087723 0.091299 0.032048
0.119185 0.106628 0.031394
0.159563 0.124034 0.029012
0.167311 0.095475 0.010145
0.197170 0.088865 0.002639
0.211018 0.049841 0.001617
0.231979 0.031386 0.001013
0.246873 0.006909 0.001497
0.267772 0.010558 0.001523
0.302167 0.004806 0.000941
0.333968 0.011659 0.000952
0.365431 0.008930 0.000701
0.386886 0.004793 0.000315
0.418138 0.016795 0.001194
0.468427 0.039783 0.002997
0.477250 0.033434 0.001559
0.524725 0.011739 0.000772
0.555002 0.003852 0.001814
0.604208 0.001394 0.002099
0.621925 0.000199 0.003617
0.625013 0.002741 0.005227
0.625725 0.004392 0.006118
0.625970 0.004882 0.006362
0.626214 0.005369 0.006606
0.626472 0.005885 0.006864
0.626754 0.006448 0.007146
0.561731 0.014814 0.024924
0.136233 0.065888 0.141674
0.018673 0.080231 0.175405
0.018557 0.080280 0.175565
0.018557 0.080280 0.175565
0.018557 0.080280 0.175565
0.056186 0.056519 0.037077
0.087415 0.090898 0.032250
0.143208 0.126739 0.035391
0.188824 0.146418 0.037660
0.212488 0.159915 0.028940
0.228099 0.156602 0.015359
0.253953 0.151282 0.003471
0.259904 0.116311 0.001380
0.259359 0.039753 0.001070
0.277582 0.022250 0.001476
0.302223 0.025135 0.001389
0.335744 0.019389 0.001619
0.372001 0.011702 0.001048
0.392643 0.007495 0.000482
0.421631 0.017638 0.001054
0.468080 0.038279 0.002745
0.470698 0.034388 0.001438
0.512896 0.013220 0.000540
0.547593 0.006807 0.001683
0.602008 0.001743 0.002473
0.621048 0.000320 0.003467
0.625693 0.003287 0.005381
0.626868 0.006678 0.007261
0.627235 0.007411 0.007627
0.629089 0.008290 0.007545
0.633353 0.009453 0.006770
0.638015 0.010724 0.005922
0.643060 0.012100 0.005005
0.317231 0.050132 0.095240
0.013993 0.081877 0.180727
0.013898 0.081962 0.180997
0.013898 0.081962 0.180997
0.013898 0.081962 0.180997
0.061821 0.063069 0.035408
0.088053 0.091724 0.031896
0.141177 0.128467 0.036222
0.204415 0.160014 0.043113
0.216912 0.164709 0.025743
0.249448 0.180104 0.018078
0.268592 0.187132 0.014429
0.290112 0.181694 0.004431
0.314124 0.186489 0.000334
0.285177 0.075021 0.001008
0.294083 0.039394 0.001751
0.328160 0.026301 0.003640
0.404816 0.011828 0.002455
0.411396 0.013675 0.000929
0.442461 0.024750 0.001045
0.478821 0.033847 0.001910
0.485857 0.029113 0.001014
0.528304 0.017358 0.000562
0.546285 0.009322 0.001494
0.598819 0.002530 0.002296
0.620537 0.000405 0.003394
0.625911 0.002976 0.005153
0.627150 0.007241 0.007542
0.629579 0.008397 0.007453
0.635157 0.009945 0.006442
0.641004 0.011540 0.005379
0.647406 0.013285 0.004215
0.654346 0.015178 0.002953
0.481130 0.036156 0.051683
0.011337 0.082802 0.183721
0.011236 0.082896 0.184018
0.011236 0.082896 0.184018
0.011236 0.082896 0.184018
0.065143 0.066937 0.034337
0.088483 0.092282 0.031637
0.128284 0.122790 0.033345
0.208506 0.163238 0.038552
0.227432 0.169708 0.021136
0.261083 0.185599 0.016462
0.273431 0.202976 0.026451
0.290423 0.213760 0.013719
0.336303 0.231023 0.003833
0.344823 0.214579 0.000749
0.320727 0.108132 0.001519
0.321075 0.024936 0.002355
0.396263 0.014327 0.003201
0.438619 0.015495 0.002690
0.466573 0.028737 0.001515
0.505833 0.023910 0.000715
0.516462 0.016907 0.000342
0.540845 0.013496 0.000500
0.553783 0.010704 0.001276
0.597542 0.003229 0.001674
0.619557 0.000559 0.003286
0.625583 0.002332 0.004860
0.626682 0.006305 0.007074
0.627332 0.007605 0.007724
0.633268 0.009430 0.006785
0.640844 0.011496 0.005408
0.649138 0.013758 0.003900
0.658135 0.016212 0.002264
0.588740 0.026851 0.022519
0.011865 0.084110 0.188263
0.012354 0.084461 0.189489
0.012354 0.084461 0.189489
0.012354 0.084461 0.189489
0.067180 0.069297 0.033695
0.088700 0.092564 0.031499
0.123011 0.120846 0.031987
0.209652 0.164020 0.037155
0.239305 0.175315 0.019486
0.267550 0.191191 0.019831
0.272636 0.206269 0.038762
0.294263 0.235005 0.042381
0.318150 0.225032 0.008817
0.333338 0.233339 0.006111
0.360954 0.223779 0.003740
0.346671 0.114747 0.002417
0.366110 0.014377 0.002403
0.428949 0.020527 0.001429
0.471104 0.030104 0.000523
0.511771 0.020229 0.000532
0.542120 0.007360 0.000000
0.563941 0.005118 0.000553
0.582360 0.006599 0.001204
0.606285 0.002400 0.000962
0.618711 0.000641 0.003299
0.624560 0.001206 0.004422
0.625550 0.004041 0.005942
0.626363 0.005667 0.006755
0.627172 0.007286 0.007564
0.633839 0.009585 0.006682
0.644181 0.012406 0.004801
0.655392 0.015463 0.002763
0.629716 0.022775 0.011075
0.011799 0.084671 0.190193
0.012458 0.085115 0.191753
0.012458 0.085115 0.191753
0.012458 0.085115 0.191753
0.068501 0.070814 0.033312
0.088802 0.092697 0.031432
0.121302 0.120425 0.031506
0.206248 0.163525 0.042362
0.248260 0.179543 0.018243
0.266967 0.197938 0.033069
0.272239 0.218859 0.058664
0.291955 0.261553 0.071473
0.291564 0.279750 0.088807
0.323424 0.238961 0.064662
0.383452 0.242994 0.003815
0.391152 0.238822 0.002932
0.444405 0.277712 0.001581
0.439772 0.114138 0.000941
0.454318 0.029523 0.000000
0.505383 0.028779 0.000000
0.538885 0.012194 0.000000
0.572465 0.002738 0.000527
0.606402 0.002373 0.000970
0.621139 0.000987 0.000680
0.623390 0.000188 0.002700
0.623906 0.000000 0.003545
0.623808 0.000557 0.004200
0.624802 0.002546 0.005194
0.625790 0.004521 0.006182
0.626836 0.006613 0.007228
0.633248 0.009424 0.006789
0.646846 0.013133 0.004317
0.606676 0.023557 0.016973
0.010416 0.084324 0.188910
0.011257 0.084867 0.190823
0.011257 0.084867 0.190823
0.011257 0.084867 0.190823
0.069402 0.071838 0.033082
0.088849 0.092758 0.031400
0.121159 0.120657 0.031460
0.204338 0.163342 0.045332
0.254981 0.182717 0.017309
0.262827 0.209496 0.055725
0.273917 0.246081 0.086020
0.296649 0.292463 0.098241
0.298368 0.303006 0.107136
0.309272 0.321809 0.116615
0.352675 0.294383 0.054284
0.426817 0.293433 0.003554
0.464123 0.303057 0.001140
0.502359 0.302370 0.000344
0.469391 0.150402 0.000723
0.497088 0.037733 0.000692
0.541516 0.018343 0.000109
0.559918 0.010685 0.000637
0.588821 0.005050 0.000727
0.623620 0.000745 0.000602
0.625419 0.000000 0.002032
0.625023 0.000000 0.002428
0.624382 0.000000 0.003069
0.623859 0.000000 0.003592
0.623865 0.000670 0.004257
0.625117 0.003175 0.005509
0.626480 0.005902 0.006873
0.632964 0.009347 0.006841
0.532750 0.028058 0.036798
0.008662 0.083628 0.186401
0.008596 0.083739 0.186761
0.008596 0.083739 0.186761
0.008596 0.083739 0.186761
0.070047 0.072562 0.032943
0.088870 0.092786 0.031385
0.121332 0.121033 0.031428
0.203258 0.163272 0.047028
0.248436 0.179626 0.018218
0.255685 0.225618 0.085724
0.269375 0.283698 0.129269
0.303217 0.315614 0.116778
0.306894 0.324858 0.122328
0.312260 0.337676 0.130973
0.375434 0.363902 0.083417
0.347766 0.297312 0.129656
0.447897 0.325355 0.023152
0.513183 0.338545 0.001839
0.530668 0.327179 0.002035
0.531598 0.244562 0.000390
0.533818 0.032086 0.000128
0.536300 0.022798 0.001089
0.520592 0.056833 0.003805
0.591889 0.017076 0.001452
0.622813 0.000682 0.003457
0.624403 0.000000 0.003048
0.625115 0.000000 0.002336
0.624820 0.000000 0.002631
0.624235 0.000000 0.003216
0.623721 0.000000 0.003730
0.624493 0.001926 0.004885
0.626223 0.005388 0.006616
0.417154 0.035715 0.068174
0.008445 0.083643 0.186454
0.008319 0.083731 0.186737
0.008319 0.083731 0.186737
0.008319 0.083731 0.186737
0.070540 0.073109 0.032853
0.088880 0.092799 0.031379
0.121844 0.121510 0.031500
0.202666 0.163243 0.047962
0.231362 0.195676 0.051639
0.161199 0.361595 0.327593
0.183590 0.394027 0.333141
0.226914 0.396854 0.283900
0.267348 0.370823 0.213298
0.311914 0.342219 0.136330
0.384006 0.378549 0.084071
0.400019 0.396177 0.077033
0.442723 0.381583 0.027027
0.452143 0.350897 0.030354
0.526958 0.355554 0.004172
0.542495 0.342448 0.002184
0.538455 0.208937 0.001422
0.519401 0.031239 0.001392
0.518077 0.057190 0.003781
0.547988 0.074616 0.003305
0.608401 0.014454 0.003189
0.626484 0.003135 0.005302
0.624843 0.002626 0.005235
0.623537 0.000016 0.003929
0.624817 0.000000 0.002634
0.624473 0.000000 0.002978
0.623884 0.000000 0.003567
0.624023 0.000988 0.004415
0.321004 0.043988 0.093033
0.008154 0.083660 0.186519
0.007991 0.083748 0.186799
0.007991 0.083748 0.186799
0.007991 0.083748 0.186799
0.070933 0.073541 0.032793
0.088885 0.092805 0.031375
0.122784 0.122101 0.031764
0.202367 0.163241 0.048440
0.198747 0.238951 0.131680
0.055873 0.507701 0.585446
0.045410 0.542322 0.630908
0.071966 0.529401 0.587589
0.125544 0.489761 0.487004
0.199432 0.443610 0.355485
0.256513 0.464333 0.301814
0.328493 0.425131 0.178997
0.400527 0.417172 0.090670
0.476687 0.406700 0.019485
0.490870 0.371492 0.018033
0.540478 0.373030 0.002897
0.559705 0.370417 0.007612
0.508361 0.077705 0.003029
0.517073 0.057289 0.003774
0.534468 0.102060 0.003729
0.567101 0.080064 0.003622
0.612670 0.025924 0.005248
0.631567 0.008510 0.007095
0.627187 0.007316 0.007580
0.625700 0.004341 0.006092
0.624125 0.001192 0.004517
0.624424 0.000000 0.003027
0.623891 0.000000 0.003560
0.237215 0.052665 0.113327
0.011988 0.083356 0.183282
0.010078 0.083587 0.184925
0.010078 0.083587 0.184925
0.010078 0.083587 0.184925
0.071259 0.073896 0.032751
0.088887 0.092808 0.031374
0.120750 0.133860 0.048869
0.158328 0.251678 0.192833
0.099561 0.404768 0.418470
0.007046 0.576258 0.705987
0.000000 0.587862 0.725296
0.000000 0.588114 0.725425
0.001779 0.594187 0.726386
0.058558 0.573536 0.634882
0.142659 0.558301 0.512908
0.299693 0.483772 0.260954
0.415029 0.456481 0.102071
0.462570 0.459940 0.061082
0.500600 0.427103 0.008776
0.513853 0.399745 0.003883
0.549991 0.380052 0.002128
0.598510 0.395914 0.004559
0.591032 0.333845 0.000853
0.534259 0.118315 0.002973
0.541090 0.073607 0.002425
0.592634 0.052473 0.004461
0.639066 0.010521 0.005593
0.666048 0.018187 0.000826
0.651100 0.014293 0.003543
0.631370 0.008912 0.007131
0.625855 0.004652 0.006248
0.623748 0.000437 0.004140
0.172936 0.055925 0.117879
0.020038 0.082757 0.176702
0.017850 0.083038 0.178601
0.017850 0.083038 0.178601
0.017850 0.083038 0.178601
0.071536 0.074196 0.032720
0.088888 0.092809 0.031373
0.083522 0.271711 0.256237
0.067973 0.437959 0.492718
0.028477 0.533783 0.635889
0.000000 0.587654 0.725217
0.000000 0.588150 0.725450
0.000000 0.588215 0.725481
0.002385 0.597421 0.729447
0.007789 0.607842 0.725441
0.058632 0.602443 0.651358
0.197555 0.561310 0.448901
0.323135 0.528580 0.266491
0.349073 0.529763 0.245609
0.390152 0.529933 0.219829
0.521367 0.450091 0.012796
0.512003 0.427381 0.006932
0.595889 0.422358 0.000869
0.598879 0.389827 0.001832
0.594306 0.331369 0.000153
0.564050 0.195948 0.000149
0.557544 0.105803 0.000787
0.613784 0.128030 0.002953
0.660012 0.034988 0.000960
0.671226 0.019353 0.000043
0.669606 0.022143 0.000106
0.652565 0.014692 0.003277
0.627353 0.007648 0.007745
0.284782 0.038826 0.077797
0.025858 0.075339 0.157977
0.024354 0.077279 0.162802
0.024354 0.077279 0.162802
0.024354 0.077279 0.162802
0.053154 0.232458 0.241611
0.053930 0.286862 0.303984
0.027463 0.482235 0.569153
0.000000 0.587144 0.724977
0.000000 0.587705 0.725241
0.000000 0.588156 0.725453
0.000000 0.588235 0.725490
0.000000 0.588235 0.725490
0.002871 0.599718 0.731232
0.001870 0.612120 0.735367
0.007705 0.621004 0.728641
0.046918 0.618777 0.677476
0.105932 0.626851 0.601368
0.145762 0.611804 0.548283
0.220905 0.591004 0.457015
0.315249 0.571176 0.341584
0.574877 0.482195 0.014194
0.594656 0.458686 0.001938
0.581289 0.441199 0.002605
0.601509 0.359613 0.000056
0.610172 0.332565 0.000697
0.580910 0.209408 0.000872
0.598166 0.172602 0.001947
0.621244 0.095388 0.001569
0.652730 0.081863 0.002047
0.658398 0.055564 0.001586
0.659161 0.047125 0.001080
0.670401 0.020052 0.000017
0.562483 0.017244 0.018882
0.023782 0.074803 0.158363
0.024849 0.074916 0.158218
0.024849 0.074916 0.158218
0.024849 0.074916 0.158218
0.016964 0.482237 0.579967
0.013106 0.514843 0.622985
0.003480 0.574663 0.705520
0.000000 0.588235 0.725490
0.000000 0.588235 0.725490
0.000000 0.588235 0.725490
0.000000 0.588235 0.725490
0.000000 0.588235 0.725490
0.002710 0.611074 0.737022
0.001754 0.626488 0.743924
0.000845 0.638126 0.749908
0.000898 0.652341 0.757640
0.000028 0.684882 0.771910
0.031239 0.662932 0.722649
0.079488 0.648018 0.656923
0.172792 0.629652 0.537037
0.262548 0.613406 0.422879
0.577827 0.495751 0.043659
0.645284 0.484963 0.000036
0.647392 0.486108 0.000167
0.652808 0.449763 0.001362
0.649540 0.393151 0.007410
0.615667 0.223857 0.001940
0.614653 0.064164 0.001964
0.665337 0.028726 0.000741
0.668089 0.058278 0.001725
0.629079 0.117765 0.003777
0.646687 0.076363 0.002194
0.659426 0.038155 0.001460
0.071907 0.072813 0.153656
0.028358 0.077797 0.167552
0.028358 0.077797 0.167552
0.028358 0.077797 0.167552
0.000000 0.588235 0.725490
0.000000 0.588235 0.725490
0.000000 0.588235 0.725490
0.000000 0.588235 0.725490
0.000000 0.588235 0.725490
0.000000 0.588235 0.725490
0.000000 0.588235 0.725490
0.000000 0.588235 0.725490
0.001391 0.640949 0.751896
0.000478 0.669443 0.766367
0.000030 0.682687 0.773187
0.000195 0.682292 0.772817
0.000133 0.687832 0.774261
0.001734 0.673652 0.761642
0.026742 0.673163 0.728661
0.113408 0.654828 0.616102
0.190017 0.636962 0.517227
0.217800 0.635826 0.490042
0.593803 0.510818 0.065823
0.647371 0.486469 0.000039
0.647127 0.486240 0.000034
0.694607 0.486203 0.000069
0.708726 0.434919 0.010256
0.658302 0.238736 0.007502
0.669163 0.031880 0.000672
0.667132 0.089046 0.000017
0.655837 0.097304 0.001845
0.637394 0.113305 0.003416
0.637680 0.097439 0.002996
0.166782 0.075067 0.127765
0.066531 0.077951 0.160301
0.066531 0.077951 0.160301
0.066531 0.077951 0.160301
0.069759 0.506130 0.617538
0.000090 0.586429 0.723272
0.000000 0.588235 0.725490
0.000000 0.588235 0.725490
0.000000 0.588235 0.725490
0.000000 0.588235 0.725490
0.000000 0.588235 0.725490
0.000000 0.588235 0.725490
0.000705 0.653933 0.757064
0.000156 0.670750 0.764727
0.000000 0.677296 0.766783
0.000000 0.678009 0.765293
0.000000 0.674647 0.760918
0.000000 0.663166 0.749417
0.000000 0.685664 0.759574
0.000140 0.691743 0.762536
0.000461 0.693643 0.764357
0.078598 0.680156 0.675948
0.239608 0.649881 0.491253
0.600611 0.560131 0.111035
0.655431 0.504343 0.011108
0.647297 0.486424 0.000030
0.665557 0.491204 0.000297
0.740785 0.500420 0.002162
0.744188 0.366544 0.002270
0.661775 0.104863 0.000100
0.654965 0.128838 0.001015
0.664998 0.100261 0.002116
0.644042 0.110770 0.003110
0.388515 0.101272 0.064976
0.212289 0.090266 0.115462
0.212289 0.090266 0.115462
0.212289 0.090266 0.115462
0.197517 0.335255 0.393827
0.032380 0.427734 0.519042
0.008960 0.554292 0.681911
0.000000 0.588235 0.725490
0.000000 0.588235 0.725490
0.000000 0.588235 0.725490
0.000000 0.588235 0.725490
0.000000 0.588235 0.725490
0.000370 0.649488 0.753924
0.000046 0.667149 0.760501
0.000000 0.669645 0.759043
0.000000 0.667951 0.755078
0.000000 0.662976 0.749251
0.000085 0.658249 0.743078
0.000619 0.686842 0.759228
0.000397 0.688648 0.769432
0.001245 0.690566 0.771034
0.002882 0.694241 0.771546
0.034677 0.695193 0.745848
0.125518 0.688338 0.664452
0.562815 0.575848 0.166691
0.674375 0.544612 0.039394
0.657495 0.505789 0.014701
0.672221 0.500054 0.000883
0.758395 0.540147 0.000026
0.773612 0.498559 0.000580
0.671937 0.162587 0.001314
0.681607 0.113103 0.002412
0.670649 0.100007 0.002016
0.663930 0.003618 0.002176
0.570241 0.026689 0.022648
0.570241 0.026689 0.022648
0.570241 0.026689 0.022648
0.279122 0.206683 0.226469
0.083822 0.187348 0.207474
0.069881 0.325002 0.389709
0.045372 0.422732 0.515594
0.010514 0.553231 0.680979
0.002375 0.581002 0.716379
0.003055 0.579382 0.713957
0.000000 0.588235 0.725490
0.000199 0.644561 0.751035
0.000011 0.664230 0.759328
0.000000 0.666218 0.758768
0.000000 0.665856 0.758051
0.000000 0.663932 0.757374
0.000150 0.665154 0.759381
0.001040 0.685972 0.774105
0.000604 0.681052 0.791217
0.004139 0.680874 0.795688
0.013266 0.683319 0.795115
0.058982 0.693386 0.796118
0.162078 0.707988 0.772786
0.310012 0.706891 0.661988
0.460168 0.613241 0.299114
0.702626 0.570294 0.085581
0.687837 0.547779 0.063439
0.726416 0.541162 0.031328
0.778011 0.561714 0.006606
0.799782 0.560571 0.000194
0.682967 0.114113 0.002513
0.694435 0.065916 0.001933
0.694695 0.002193 0.001267
0.693645 0.003001 0.001527
0.693645 0.003001 0.001527
0.693645 0.003001 0.001527
0.271412 0.201104 0.220386
0.115670 0.051485 0.028510
0.141232 0.056861 0.048312
0.103051 0.214399 0.251165
0.075492 0.341183 0.412962
0.057188 0.414063 0.506107
0.014947 0.546068 0.671003
0.023320 0.536913 0.660835
0.007286 0.626724 0.731830
0.000013 0.662447 0.760254
0.000000 0.666146 0.763514
0.000000 0.667496 0.766128
0.000000 0.668495 0.770584
0.000000 0.671471 0.779837
0.000000 0.678431 0.796078
0.000000 0.678431 0.796078
0.004631 0.679809 0.795527
0.014655 0.682828 0.795245
0.101979 0.702080 0.798575
0.236153 0.729327 0.798300
0.327076 0.740489 0.772705
0.426706 0.722265 0.639224
0.467040 0.654233 0.333048
0.641808 0.583711 0.153082
0.709624 0.571323 0.078942
0.812384 0.595310 0.017666
0.800475 0.579753 0.012916
0.755602 0.413012 0.003038
0.702789 0.007347 0.001139
0.709195 0.004964 0.002130
0.709053 0.006320 0.003158
0.709053 0.006320 0.003158
0.709053 0.006320 0.003158
0.255982 0.189934 0.208198
0.116084 0.051569 0.028459
0.146962 0.035809 0.021575
0.148792 0.051595 0.044373
0.139230 0.134037 0.151661
0.119608 0.224679 0.265535
0.097933 0.325401 0.391355
0.074304 0.423875 0.518580
0.058116 0.518180 0.601560
0.036240 0.587718 0.673858
0.004157 0.659432 0.759981
0.000000 0.669950 0.774131
0.000000 0.672063 0.780090
0.000000 0.674972 0.788007
0.000000 0.678431 0.796078
0.000000 0.678431 0.796078
0.016960 0.673289 0.777141
0.023849 0.673825 0.775285
0.190604 0.716006 0.794233
0.359200 0.757658 0.811561
0.386611 0.761685 0.806923
0.425189 0.754773 0.760292
0.470617 0.773224 0.794747
0.602462 0.670632 0.354225
0.620200 0.612240 0.204266
0.709239 0.573157 0.087441
0.793083 0.591063 0.030290
0.806019 0.585606 0.014075
0.710660 0.062372 0.001796
0.722611 0.007168 0.001322
0.721410 0.007488 0.001840
0.721410 0.007488 0.001840
0.721410 0.007488 0.001840
0.218808 0.163022 0.178821
0.116468 0.051648 0.028412
0.147110 0.035364 0.021026
0.156602 0.026134 0.012295
0.176135 0.015127 0.002452
0.170669 0.070025 0.068474
0.167280 0.143932 0.162722
0.178504 0.207054 0.243206
0.161757 0.300272 0.337185
0.108454 0.441052 0.500255
0.129527 0.467578 0.537129
0.024805 0.635380 0.737461
0.000000 0.674548 0.786470
0.000000 0.676716 0.792075
0.000000 0.678431 0.796078
0.001112 0.678061 0.794781
0.020904 0.671464 0.771691
0.189628 0.712199 0.787775
0.334833 0.748955 0.804721
0.424985 0.771946 0.815339
0.426870 0.771771 0.815321
0.436295 0.771143 0.815346
0.474442 0.785434 0.824890
0.507527 0.795696 0.832602
0.551183 0.739180 0.636206
0.661944 0.661434 0.316686
0.708007 0.577681 0.107028
0.781048 0.583233 0.101005
0.795900 0.493263 0.026423
0.728151 0.007990 0.001354
0.735749 0.009338 0.001700
0.735749 0.009338 0.001700
0.735749 0.009338 0.001700
0.130852 0.099342 0.109299
0.116851 0.051726 0.028364
0.147166 0.035256 0.020904
0.158272 0.021000 0.005832
0.176237 0.015071 0.002435
0.187602 0.018924 0.003237
0.216889 0.015831 0.002137
0.245215 0.069774 0.068565
0.251051 0.112473 0.108291
0.233574 0.189844 0.199739
0.271076 0.244152 0.274744
0.118115 0.497799 0.577775
0.019175 0.649943 0.759660
0.000000 0.677594 0.794126
0.000000 0.678431 0.796078
0.002766 0.677509 0.792851
0.022621 0.670891 0.769687
0.349015 0.752750 0.806548
0.427451 0.772549 0.815686
0.428844 0.772489 0.815686
0.434344 0.772231 0.815688
0.448315 0.771554 0.815699
0.481252 0.789308 0.825961
0.514855 0.800034 0.834024
0.570322 0.808194 0.845628
0.698425 0.813502 0.870165
0.774965 0.760754 0.637727
0.730107 0.617330 0.221558
0.830112 0.628922 0.099603
0.779679 0.285526 0.040731
0.751985 0.095555 0.013964
0.751985 0.095555 0.013964
0.751985 0.095555 0.013964
0.032379 0.028049 0.031465
0.117255 0.051808 0.028315
0.147227 0.035140 0.020775
0.158410 0.020971 0.005803
0.176357 0.015006 0.002416
0.188359 0.016724 0.000362
0.216721 0.015890 0.002123
0.271323 0.018024 0.002355
0.292808 0.024857 0.001308
0.296457 0.064038 0.048214
0.412094 0.019270 0.008274
0.314449 0.204700 0.232303
0.174448 0.444806 0.519301
0.091504 0.568927 0.667200
0.075282 0.588613 0.690684
0.053477 0.618507 0.722263
0.039370 0.674587 0.770473
0.381360 0.760915 0.810317
0.427451 0.772549 0.815686
0.437004 0.771961 0.816094
0.452927 0.771112 0.816513
0.471965 0.771074 0.817107
0.493422 0.790391 0.827453
0.534867 0.802646 0.837276
0.615886 0.817629 0.855523
0.801095 0.873473 0.912735
0.827679 0.839639 0.897273
0.855692 0.851771 0.904714
0.811100 0.682335 0.325275
0.839216 0.635294 0.090196
0.838401 0.630183 0.089473
0.838401 0.630183 0.089473
0.838401 0.630183 0.089473
0.032387 0.028056 0.031481
0.117521 0.051773 0.028278
0.147293 0.035013 0.020632
0.158566 0.020939 0.005770
0.176500 0.014927 0.002392
0.188377 0.016803 0.000359
0.216645 0.015916 0.002117
0.270759 0.017845 0.002383
0.292806 0.024875 0.001308
0.314401 0.026588 0.003035
0.408005 0.016449 0.003922
0.443137 0.011765 0.003922
0.462405 0.091738 0.105077
0.443568 0.149168 0.174989
0.406488 0.193449 0.226995
0.323202 0.296146 0.344499
0.235513 0.463271 0.525128
0.471897 0.571435 0.604499
0.435255 0.742982 0.784468
0.477995 0.779840 0.825852
0.528142 0.780468 0.833453
0.571716 0.775381 0.838470
0.610861 0.768341 0.844243
0.648908 0.792911 0.854592
0.704726 0.835508 0.875595
0.807880 0.885110 0.918449
0.840175 0.836253 0.907228
0.859644 0.855722 0.911565
