calib/LUT LIBRARY/Lucifer at Brighton Beach.cube
TITLE "a beach preset v5.7"
#LUMIXPHOTOSTYLE STD
LUT_3D_SIZE 9
0.031827 0.029267 0.033781
0.170880 0.043092 0.003910
0.275283 0.017790 0.001576
0.443137 0.011765 0.003922
0.572463 0.000839 0.000381
0.629456 0.000000 0.000000
0.629442 0.000000 0.000000
0.023295 0.024706 0.030186
0.023291 0.024707 0.030194
0.056186 0.056519 0.037077
0.212488 0.159915 0.028940
0.259359 0.039753 0.001070
0.372001 0.011702 0.001048
0.470698 0.034388 0.001438
0.621048 0.000320 0.003467
0.629089 0.008290 0.007545
0.317231 0.050132 0.095240
0.013898 0.081962 0.180997
0.068501 0.070814 0.033312
0.248260 0.179543 0.018243
0.291564 0.279750 0.088807
0.444405 0.277712 0.001581
0.538885 0.012194 0.000000
0.623390 0.000188 0.002700
0.625790 0.004521 0.006182
0.606676 0.023557 0.016973
0.011257 0.084867 0.190823
0.070933 0.073541 0.032793
0.198747 0.238951 0.131680
0.125544 0.489761 0.487004
0.400527 0.417172 0.090670
0.559705 0.370417 0.007612
0.567101 0.080064 0.003622
0.625700 0.004341 0.006092
0.237215 0.052665 0.113327
0.010078 0.083587 0.184925
0.016964 0.482237 0.579967
0.000000 0.588235 0.725490
0.002710 0.611074 0.737022
0.000028 0.684882 0.771910
0.262548 0.613406 0.422879
0.652808 0.449763 0.001362
0.665337 0.028726 0.000741
0.659426 0.038155 0.001460
0.028358 0.077797 0.167552
0.279122 0.206683 0.226469
0.010514 0.553231 0.680979
0.000199 0.644561 0.751035
0.000000 0.663932 0.757374
0.004139 0.680874 0.795688
0.310012 0.706891 0.661988
0.726416 0.541162 0.031328
0.694435 0.065916 0.001933
0.693645 0.003001 0.001527
0.130852 0.099342 0.109299
0.176237 0.015071 0.002435
0.251051 0.112473 0.108291
0.019175 0.649943 0.759660
0.022621 0.670891 0.769687
0.434344 0.772231 0.815688
0.570322 0.808194 0.845628
0.830112 0.628922 0.099603
0.751985 0.095555 0.013964
0.032401 0.028073 0.031518
0.176858 0.014731 0.002334
0.292788 0.025025 0.001313
0.525912 0.004005 0.001335
0.587954 0.000000 0.000000
0.770497 0.704897 0.726538
0.807843 0.894118 0.921569
0.917891 0.916547 0.953842
0.934941 0.926792 0.944356
0.032410 0.028083 0.031541
0.177108 0.014594 0.002294
0.292734 0.025484 0.001326
0.514998 0.005028 0.001676
0.594892 0.000000 0.000000
0.631373 0.000000 0.000000
0.807843 0.894118 0.921569
0.938308 0.939742 0.972118
0.950245 0.944322 0.954580
0.022937 0.085745 0.193084
0.154943 0.056580 0.115013
0.260261 0.011012 0.053354
0.343761 0.000546 0.006819
0.433563 0.001344 0.000104
0.611359 0.000532 0.000906
0.665559 0.032643 0.000549
0.018148 0.084037 0.188391
0.019435 0.084113 0.188454
0.020161 0.081059 0.177959
0.218693 0.194332 0.204065
0.315001 0.169805 0.066970
0.419449 0.115247 0.024068
0.475611 0.065305 0.002986
0.628203 0.113765 0.001064
0.637015 0.102652 0.003348
0.007319 0.099783 0.220812
0.007350 0.098497 0.218896
0.000891 0.145731 0.303612
0.199185 0.255193 0.211585
0.315265 0.313502 0.170515
0.403854 0.199131 0.047159
0.444769 0.016817 0.015819
0.514295 0.002876 0.004054
0.584651 0.004095 0.001064
0.665007 0.009520 0.004287
0.000198 0.123456 0.278792
0.306155 0.100884 0.177288
0.217293 0.292226 0.209855
0.427165 0.432097 0.068626
0.430049 0.431324 0.075458
0.587979 0.398480 0.003877
0.586727 0.232600 0.000371
0.597842 0.014041 0.001401
0.676199 0.002816 0.000145
0.210689 0.096039 0.207928
0.308891 0.102474 0.178655
0.219900 0.295859 0.208918
0.441093 0.490652 0.112622
0.452334 0.509013 0.132086
0.553723 0.534066 0.050084
0.653227 0.483191 0.003084
0.643815 0.119622 0.001894
0.637006 0.102475 0.003348
0.125046 0.123769 0.225493
0.304952 0.273456 0.242437
0.220082 0.296062 0.208831
0.448888 0.510287 0.138093
0.498148 0.524560 0.112123
0.577711 0.551924 0.055946
0.671014 0.615984 0.074467
0.712593 0.539785 0.060027
0.714029 0.005924 0.001256
0.689602 0.009919 0.009649
0.039477 0.099432 0.204076
0.238851 0.117453 0.199216
0.394578 0.282187 0.071375
0.501033 0.525267 0.110374
0.591917 0.565373 0.071284
0.702458 0.644163 0.090361
0.752940 0.682358 0.121581
0.839216 0.635294 0.090196
0.744404 0.014424 0.003198
0.027942 0.090149 0.206290
0.167356 0.013979 0.069162
0.281232 0.002844 0.003641
0.401506 0.001011 0.000103
0.530747 0.000603 0.001500
0.670596 0.019670 0.000010
0.815664 0.892151 0.923373
0.933335 0.929287 0.954154
0.951333 0.944531 0.956026
0.027786 0.090260 0.206664
0.165232 0.024408 0.080272
0.277851 0.002816 0.004730
0.393964 0.000002 0.000053
0.539263 0.001118 0.001568
0.670619 0.019595 0.000002
0.670316 0.048365 0.033891
0.959154 0.953389 0.957255
0.446900 0.469180 0.515974
0.048874 0.110598 0.278837
0.166115 0.130401 0.243805
0.301882 0.155998 0.257537
0.347609 0.010163 0.091531
0.419118 0.004459 0.064458
0.491721 0.000543 0.004444
0.557708 0.000094 0.001097
0.673869 0.000701 0.001021
0.686387 0.000038 0.000019
0.003583 0.132134 0.292806
0.149177 0.184833 0.327551
0.296577 0.221794 0.269048
0.413801 0.193576 0.275848
0.450890 0.033250 0.129756
0.518358 0.002905 0.014644
0.594641 0.000566 0.001068
0.670681 0.004158 0.007598
0.017336 0.133777 0.292019
0.035449 0.109887 0.269400
0.001715 0.218642 0.364478
0.359062 0.333205 0.345714
0.425946 0.245332 0.193526
0.523674 0.263779 0.084890
0.588207 0.138492 0.012796
0.661532 0.129506 0.002502
0.709095 0.007607 0.003803
0.701699 0.009304 0.007257
0.624278 0.077046 0.103869
0.172595 0.351955 0.379504
0.315494 0.387469 0.344383
0.448673 0.427529 0.286645
0.492664 0.296013 0.185065
0.530344 0.181126 0.171775
0.608046 0.010951 0.036895
0.719491 0.000776 0.000757
0.735906 0.001158 0.003379
0.761650 0.104178 0.219372
0.192336 0.352768 0.364452
0.353695 0.419389 0.287578
0.510347 0.535291 0.112209
0.541336 0.526505 0.152275
0.598209 0.419338 0.101221
0.634418 0.126458 0.021057
0.721074 0.001587 0.001133
0.735030 0.002053 0.002534
0.804789 0.714743 0.314104
0.192181 0.352921 0.364675
0.456827 0.501582 0.174757
0.581296 0.572439 0.099666
0.617153 0.587026 0.094971
0.685044 0.626248 0.073844
0.775320 0.580459 0.034509
0.733633 0.013872 0.002277
0.739131 0.009447 0.001356
0.751862 0.689365 0.139368
0.185146 0.326565 0.358346
0.435159 0.483887 0.168321
0.514190 0.547492 0.114518
0.619595 0.588229 0.094122
0.712581 0.652870 0.094354
0.752616 0.684476 0.126956
0.839278 0.635482 0.090969
0.775958 0.203804 0.047263
0.066040 0.107249 0.270547
0.109255 0.143092 0.280598
0.360537 0.170914 0.277011
0.371123 0.002526 0.072756
0.544634 0.282953 0.046048
0.713709 0.654855 0.097931
0.751993 0.690087 0.140950
0.929692 0.924964 0.938347
0.752660 0.695385 0.152850
0.064956 0.107599 0.271869
0.102783 0.141353 0.276915
0.363850 0.184218 0.291117
0.371889 0.002814 0.061624
0.471866 0.000132 0.001958
0.587609 0.117849 0.017700
0.679620 0.165537 0.035011
0.924877 0.832435 0.835247
0.421528 0.453795 0.530924
0.016247 0.198684 0.335376
0.164813 0.182719 0.341994
0.291274 0.235839 0.341031
0.362837 0.043540 0.147423
0.423989 0.006886 0.101210
0.481205 0.012543 0.060868
0.529696 0.028481 0.151731
0.642490 0.001883 0.003795
0.687615 0.000428 0.015245
0.001223 0.172781 0.392685
0.099003 0.176551 0.413661
0.296742 0.253767 0.360725
0.439601 0.243003 0.364784
0.483019 0.178049 0.285739
0.491476 0.048765 0.170183
0.549719 0.049723 0.186715
0.691119 0.000059 0.014872
0.734847 0.003301 0.009162
0.010361 0.209348 0.339317
0.001492 0.211897 0.449557
0.289549 0.303793 0.445616
0.430513 0.364550 0.409536
0.537696 0.320908 0.404441
0.550052 0.139346 0.282673
0.604408 0.012336 0.126111
0.732577 0.002441 0.006882
0.740292 0.007126 0.007224
0.013535 0.200475 0.335774
0.000000 0.243137 0.352941
0.004070 0.278205 0.510245
0.474421 0.465939 0.473086
0.553673 0.378858 0.343291
0.611065 0.302058 0.260693
0.658587 0.065370 0.138054
0.761731 0.085468 0.078327
0.761554 0.105893 0.082763
0.507847 0.136646 0.245417
0.541321 0.339975 0.500946
0.281751 0.445402 0.458870
0.426020 0.518871 0.473925
0.561700 0.541384 0.400487
0.608113 0.426131 0.330174
0.636712 0.185798 0.287808
0.709429 0.033057 0.218513
0.731469 0.031495 0.178223
0.891392 0.612484 0.551080
0.000319 0.256229 0.509366
0.289465 0.444135 0.451540
0.418521 0.516056 0.449711
0.644798 0.643292 0.323961
0.686088 0.621854 0.135008
0.681874 0.515644 0.213881
0.751018 0.125828 0.176905
0.745358 0.067959 0.182870
0.873434 0.786754 0.436475
0.001113 0.253650 0.484509
0.292890 0.442195 0.446307
0.414147 0.500679 0.397814
0.694204 0.657499 0.217326
0.738797 0.690286 0.165590
0.745102 0.733336 0.250982
0.829622 0.654130 0.218514
0.751284 0.077868 0.185956
0.729321 0.713496 0.291381
0.080916 0.165733 0.412340
0.239938 0.245200 0.396293
0.376026 0.072665 0.108341
0.679856 0.645411 0.134113
0.744070 0.717403 0.202122
0.751848 0.737503 0.253019
0.817920 0.778414 0.282190
0.769120 0.748204 0.261276
0.163965 0.305925 0.324370
0.080012 0.162578 0.403374
0.234863 0.240708 0.391924
0.378184 0.031694 0.099206
0.484028 0.064593 0.027154
0.740439 0.698728 0.176962
0.764512 0.745314 0.255712
0.797821 0.576309 0.209456
0.777927 0.342149 0.137611
0.001014 0.240342 0.351933
0.061113 0.186177 0.426957
0.202985 0.272417 0.439203
0.355174 0.295063 0.427451
0.436870 0.061875 0.191012
0.493331 0.023240 0.100194
0.534053 0.042412 0.182286
0.633015 0.010588 0.078623
0.646476 0.009170 0.075671
0.222103 0.170592 0.350218
0.050023 0.235859 0.452338
0.255155 0.282705 0.467561
0.397096 0.311532 0.437772
0.515618 0.304833 0.429935
0.521534 0.122839 0.256614
0.565079 0.114655 0.270098
0.638623 0.012881 0.085394
0.715004 0.019343 0.157891
0.452670 0.134833 0.253331
0.000488 0.278548 0.493414
0.183940 0.282502 0.490936
0.446514 0.374110 0.497167
0.526958 0.363063 0.466707
0.600290 0.354329 0.482135
0.592293 0.170394 0.295838
0.700603 0.006189 0.079853
0.719163 0.050570 0.188868
0.000496 0.241676 0.352412
0.003281 0.373190 0.528771
0.059059 0.343164 0.529030
0.413223 0.420778 0.550672
0.549055 0.484617 0.535057
0.636329 0.430851 0.523834
0.667379 0.274440 0.385973
0.716604 0.088027 0.243468
0.729296 0.012474 0.179172
0.000225 0.242463 0.352698
0.000000 0.354850 0.497510
0.000000 0.394955 0.539284
0.136924 0.421169 0.583908
0.597413 0.583420 0.593071
0.674566 0.513797 0.473045
0.723112 0.411465 0.402296
0.756905 0.259725 0.360721
0.765983 0.166080 0.316210
0.000000 0.376471 0.525490
0.169124 0.413898 0.589782
0.000563 0.357793 0.685484
0.382521 0.531221 0.578793
0.579970 0.617131 0.574241
0.695616 0.653366 0.519210
0.718179 0.555482 0.469340
0.759263 0.297473 0.386165
0.779209 0.307974 0.399026
0.827013 0.439280 0.490292
0.952408 0.887586 0.830515
0.007413 0.342302 0.625796
0.333345 0.504060 0.573602
0.523418 0.587241 0.556834
0.706661 0.677196 0.540236
0.820847 0.776649 0.299762
0.827991 0.623040 0.348988
0.793344 0.342211 0.398213
0.964895 0.915663 0.817563
0.302592 0.507449 0.604803
0.210073 0.412221 0.554057
0.342558 0.516089 0.549259
0.514206 0.590864 0.530290
0.727170 0.697659 0.419453
0.829821 0.785594 0.306319
0.846283 0.792176 0.358720
0.837296 0.781720 0.350348
0.972549 0.929412 0.850980
0.031089 0.295236 0.484699
0.231458 0.264723 0.475667
0.340224 0.400851 0.507305
0.507362 0.543969 0.473475
0.763090 0.734071 0.332963
0.832463 0.787229 0.310345
0.846621 0.795443 0.358953
0.910271 0.863871 0.612293
0.323932 0.475060 0.518174
0.000000 0.378205 0.526791
0.200382 0.288101 0.488356
0.326264 0.322461 0.497296
0.439136 0.406816 0.527538
0.505272 0.088285 0.198408
0.548704 0.064560 0.210143
0.633239 0.014647 0.091358
0.634622 0.015650 0.092955
0.000000 0.376471 0.525490
0.000000 0.388634 0.534613
0.233235 0.290872 0.510098
0.360285 0.356557 0.520766
0.463699 0.416980 0.525786
0.565826 0.275303 0.411658
0.571376 0.097951 0.249703
0.648028 0.040259 0.141826
0.713326 0.000000 0.130067
0.385416 0.247546 0.435483
0.000366 0.372319 0.545959
0.133019 0.371773 0.520516
0.369524 0.381068 0.554201
0.507340 0.423705 0.525509
0.586178 0.392950 0.518815
0.640947 0.240853 0.384597
0.674303 0.070274 0.201300
0.718665 0.045746 0.182851
0.000000 0.376471 0.525490
0.001013 0.256580 0.609200
0.003217 0.303425 0.596627
0.329604 0.367848 0.577675
0.557590 0.503413 0.592392
0.631455 0.470558 0.573838
0.680117 0.376965 0.475312
0.759923 0.291535 0.397083
0.764644 0.233830 0.350850
0.087013 0.345450 0.450484
0.000000 0.418548 0.558297
0.000651 0.426877 0.565433
0.104966 0.426955 0.616304
0.513208 0.531340 0.645335
0.660567 0.594603 0.635303
0.738016 0.542519 0.602059
0.800625 0.392135 0.473062
0.805028 0.381958 0.450702
0.000000 0.311158 0.440968
0.057795 0.486321 0.604326
0.000000 0.467973 0.600925
0.000532 0.498221 0.625539
0.058251 0.466337 0.701582
0.722220 0.708103 0.720424
0.826079 0.713436 0.642882
0.854997 0.550698 0.537150
0.870340 0.539491 0.544078
0.000000 0.407843 0.549020
0.000000 0.520416 0.685187
0.000000 0.587213 0.723445
0.000396 0.478052 0.731963
0.622529 0.673204 0.713259
0.733293 0.717783 0.698074
0.826273 0.776460 0.681701
0.862496 0.546686 0.571014
0.880265 0.550569 0.585206
0.917647 0.670588 0.733333
0.341423 0.301143 0.284086
0.398907 0.222286 0.200202
0.374128 0.585672 0.680051
0.546645 0.640969 0.656182
0.695933 0.693372 0.657451
0.861432 0.821746 0.708417
0.926959 0.861537 0.709727
0.938051 0.825821 0.604207
0.980392 0.968660 0.953081
0.151463 0.026157 0.011784
0.280234 0.035346 0.024086
0.380221 0.585897 0.680186
0.567396 0.653422 0.653500
0.664360 0.680642 0.635740
0.811616 0.756374 0.636523
0.926735 0.877489 0.756413
0.969625 0.924275 0.838434
0.512949 0.490933 0.435193
0.186104 0.014388 0.000065
0.069878 0.407116 0.547564
0.307336 0.334295 0.560224
0.388088 0.391760 0.589123
0.519378 0.396677 0.519327
0.554671 0.094350 0.245114
0.890186 0.858816 0.752941
0.882811 0.821857 0.724365
0.000000 0.407843 0.549020
0.000000 0.436322 0.573701
0.012225 0.476423 0.587316
0.338179 0.344389 0.564913
0.388914 0.396263 0.593958
0.547609 0.352688 0.494977
0.577971 0.155284 0.309574
0.664517 0.077477 0.197847
0.753879 0.167562 0.264774
0.124078 0.441501 0.568558
0.001514 0.454287 0.589407
0.009387 0.472139 0.592968
0.373884 0.362469 0.564832
0.492898 0.466025 0.611695
0.602427 0.462702 0.582681
0.649285 0.280330 0.414422
0.676594 0.069153 0.198456
0.724903 0.054674 0.187079
0.013755 0.456546 0.590291
0.002386 0.376397 0.632010
0.000082 0.466798 0.606645
0.130156 0.456309 0.596076
0.514801 0.499329 0.639135
0.615397 0.470805 0.580577
0.680327 0.418816 0.516766
0.777316 0.337428 0.430644
0.806917 0.357676 0.443580
0.000000 0.407843 0.549020
0.000000 0.466667 0.600000
0.000107 0.339390 0.673535
0.016268 0.396431 0.691008
0.387103 0.490199 0.666223
0.645358 0.609985 0.682428
0.723039 0.587157 0.651223
0.811580 0.435433 0.498338
0.839108 0.447274 0.509830
0.938617 0.902011 0.828222
0.128005 0.127165 0.084694
0.096367 0.301358 0.298657
0.000000 0.529473 0.665769
0.074236 0.485556 0.730811
0.630915 0.658312 0.755045
0.767082 0.732663 0.758084
0.882926 0.626321 0.657647
0.896570 0.610239 0.646896
0.000000 0.407843 0.549020
0.055537 0.054781 0.051884
0.101503 0.119207 0.054356
0.000000 0.539612 0.686815
0.001367 0.628740 0.731347
0.460330 0.678384 0.765688
0.838997 0.831513 0.836887
0.926480 0.754209 0.721661
0.939342 0.684949 0.710786
0.000000 0.517007 0.668827
0.405469 0.624623 0.728955
0.173531 0.013665 0.002683
0.292777 0.025121 0.001316
0.336551 0.296631 0.333710
0.588985 0.743260 0.764758
0.863570 0.843069 0.757064
0.924771 0.885950 0.787948
0.940305 0.807165 0.732282
0.542130 0.635576 0.728638
0.148084 0.032164 0.020795
0.213029 0.010753 0.001982
0.408844 0.016337 0.003922
0.296307 0.594719 0.744930
0.581130 0.732402 0.757816
0.828569 0.827047 0.759703
0.930047 0.899825 0.815807
0.969422 0.926086 0.840779
0.092954 0.091088 0.068584
0.183940 0.017226 0.000181
0.303238 0.057209 0.002368
0.465458 0.031896 0.000000
0.572174 0.000361 0.000023
0.586558 0.088070 0.061610
0.559438 0.733854 0.765074
0.854620 0.843319 0.818602
0.883523 0.866594 0.821313
0.000264 0.477261 0.608843
0.219304 0.165736 0.022426
0.349016 0.250035 0.050349
0.088883 0.583878 0.599723
0.382166 0.600316 0.708995
0.521721 0.427007 0.490657
0.662810 0.102383 0.155552
0.765756 0.479387 0.533879
0.931722 0.902540 0.850334
0.000239 0.521335 0.692255
0.000000 0.527336 0.681084
0.000000 0.579362 0.711451
0.001872 0.652226 0.738286
0.259042 0.631593 0.732820
0.501335 0.613716 0.722391
0.712166 0.504132 0.602069
0.670588 0.082348 0.223522
0.738253 0.094774 0.215292
0.760869 0.633000 0.711110
0.000000 0.586201 0.723137
0.000000 0.580811 0.721388
0.000080 0.635917 0.722631
0.008402 0.673545 0.750219
0.580639 0.647465 0.768659
0.697584 0.478069 0.579078
0.785929 0.374861 0.460212
0.833326 0.431555 0.498123
0.000000 0.510077 0.652663
0.062673 0.593847 0.726001
0.000000 0.587085 0.723189
0.000683 0.642535 0.759397
0.010598 0.712311 0.784734
0.484921 0.682333 0.797034
0.677560 0.662712 0.758057
0.833035 0.515918 0.575047
0.843526 0.459344 0.522089
0.400986 0.383880 0.356081
0.054056 0.055453 0.034058
0.000000 0.588235 0.725490
0.001857 0.591605 0.759011
0.021268 0.691602 0.785599
0.332892 0.729072 0.798874
0.768283 0.770227 0.842919
0.879546 0.708153 0.752674
0.917636 0.674196 0.735410
0.232968 0.223513 0.210599
0.070196 0.072618 0.033100
0.217796 0.165697 0.024963
0.000000 0.588235 0.725490
0.001689 0.675661 0.787269
0.469976 0.751971 0.814521
0.705759 0.776917 0.855039
0.874742 0.838483 0.852578
0.947374 0.788889 0.801026
0.333928 0.319875 0.298017
0.065432 0.067620 0.033258
0.203796 0.192682 0.070046
0.000000 0.587864 0.725306
0.000257 0.678389 0.770747
0.015793 0.685489 0.794933
0.441523 0.770641 0.815788
0.943786 0.933993 0.938431
0.958973 0.908690 0.883519
0.031111 0.030850 0.035817
0.061483 0.278783 0.290016
0.000000 0.588235 0.725490
0.000279 0.654607 0.757251
0.000000 0.676471 0.791505
0.455080 0.781379 0.823377
0.807651 0.893145 0.920566
0.941709 0.916864 0.893195
0.976201 0.946591 0.885889
0.054420 0.054762 0.034118
0.184041 0.020879 0.000459
0.304042 0.048315 0.002540
0.474190 0.032326 0.000000
0.556434 0.017158 0.001141
0.597315 0.035601 0.003891
0.738401 0.435939 0.438027
0.831545 0.873556 0.858257
0.869181 0.876237 0.845751
0.009594 0.385236 0.489959
0.218585 0.165520 0.023483
0.377091 0.228818 0.003675
0.537113 0.352819 0.001822
0.599930 0.366959 0.000507
0.591738 0.194869 0.003388
0.676751 0.046816 0.000831
0.923613 0.913118 0.867987
0.946598 0.917260 0.885982
0.000000 0.563430 0.713817
0.000000 0.561547 0.709188
0.000000 0.587197 0.724546
0.338129 0.482389 0.250519
0.026551 0.666277 0.735507
0.120284 0.661476 0.723120
0.573436 0.578863 0.681721
0.696409 0.063871 0.160899
0.751443 0.152711 0.254376
0.670467 0.648052 0.730793
0.000000 0.588235 0.725490
0.000000 0.588235 0.725490
0.000098 0.646352 0.739087
0.078275 0.665253 0.682439
0.003800 0.710384 0.785315
0.550772 0.604574 0.726277
0.842114 0.525861 0.585933
0.835979 0.440034 0.504127
0.000000 0.588235 0.725490
0.304264 0.482599 0.562852
0.000000 0.588235 0.725490
0.000000 0.656323 0.754906
0.001946 0.705103 0.776336
0.023953 0.718269 0.790793
0.645857 0.677058 0.767623
0.863821 0.601089 0.651713
0.838055 0.457820 0.517593
0.026956 0.093879 0.117053
0.000000 0.587811 0.725291
0.000000 0.588235 0.725490
0.000000 0.658353 0.772024
0.000000 0.678431 0.796078
0.367210 0.755582 0.808076
0.784290 0.778838 0.856261
0.902434 0.873996 0.901105
0.918414 0.680266 0.740930
0.031111 0.030850 0.035817
0.100997 0.102899 0.031390
0.000000 0.586439 0.724645
0.000271 0.648827 0.753571
0.000000 0.678431 0.796078
0.471380 0.779756 0.825018
0.683350 0.815890 0.867218
0.907310 0.897890 0.921133
0.939224 0.853876 0.866416
0.031111 0.030850 0.035817
0.106786 0.106520 0.031340
0.066835 0.483544 0.548020
0.001379 0.612783 0.732797
0.000864 0.680924 0.761870
0.062423 0.694359 0.794165
0.506012 0.767187 0.822797
0.930511 0.927251 0.953623
0.946160 0.923713 0.930398
0.031111 0.030850 0.035817
0.104763 0.105988 0.031394
0.000000 0.580531 0.720721
0.002011 0.613509 0.736469
0.000048 0.666182 0.747467
0.040386 0.676773 0.775169
0.471381 0.774352 0.818006
0.878513 0.872869 0.918763
0.987324 0.982204 0.973866
