calib/LUT LIBRARY/Lucifer at Brighton Beach.cube
TITLE "a beach preset v5.7"
#LUMIXPHOTOSTYLE STD
LUT_3D_SIZE 5
0.031827 0.029267 0.033781
0.275283 0.017790 0.001576
0.572463 0.000839 0.000381
0.629442 0.000000 0.000000
0.023291 0.024707 0.030194
0.068501 0.070814 0.033312
0.291564 0.279750 0.088807
0.538885 0.012194 0.000000
0.625790 0.004521 0.006182
0.011257 0.084867 0.190823
0.016964 0.482237 0.579967
0.002710 0.611074 0.737022
0.262548 0.613406 0.422879
0.665337 0.028726 0.000741
0.028358 0.077797 0.167552
0.130852 0.099342 0.109299
0.251051 0.112473 0.108291
0.022621 0.670891 0.769687
0.570322 0.808194 0.845628
0.751985 0.095555 0.013964
0.032410 0.028083 0.031541
0.292734 0.025484 0.001326
0.594892 0.000000 0.000000
0.807843 0.894118 0.921569
0.950245 0.944322 0.954580
0.048874 0.110598 0.278837
0.301882 0.155998 0.257537
0.419118 0.004459 0.064458
0.557708 0.000094 0.001097
0.686387 0.000038 0.000019
0.035449 0.109887 0.269400
0.359062 0.333205 0.345714
0.523674 0.263779 0.084890
0.661532 0.129506 0.002502
0.701699 0.009304 0.007257
0.761650 0.104178 0.219372
0.353695 0.419389 0.287578
0.541336 0.526505 0.152275
0.634418 0.126458 0.021057
0.735030 0.002053 0.002534
0.751862 0.689365 0.139368
0.435159 0.483887 0.168321
0.619595 0.588229 0.094122
0.752616 0.684476 0.126956
0.775958 0.203804 0.047263
0.064956 0.107599 0.271869
0.363850 0.184218 0.291117
0.471866 0.000132 0.001958
0.679620 0.165537 0.035011
0.421528 0.453795 0.530924
0.001014 0.240342 0.351933
0.202985 0.272417 0.439203
0.436870 0.061875 0.191012
0.534053 0.042412 0.182286
0.646476 0.009170 0.075671
0.452670 0.134833 0.253331
0.183940 0.282502 0.490936
0.526958 0.363063 0.466707
0.592293 0.170394 0.295838
0.719163 0.050570 0.188868
0.000225 0.242463 0.352698
0.000000 0.394955 0.539284
0.597413 0.583420 0.593071
0.723112 0.411465 0.402296
0.765983 0.166080 0.316210
0.827013 0.439280 0.490292
0.007413 0.342302 0.625796
0.523418 0.587241 0.556834
0.820847 0.776649 0.299762
0.793344 0.342211 0.398213
0.972549 0.929412 0.850980
0.231458 0.264723 0.475667
0.507362 0.543969 0.473475
0.832463 0.787229 0.310345
0.910271 0.863871 0.612293
0.512949 0.490933 0.435193
0.069878 0.407116 0.547564
0.388088 0.391760 0.589123
0.554671 0.094350 0.245114
0.882811 0.821857 0.724365
0.124078 0.441501 0.568558
0.009387 0.472139 0.592968
0.492898 0.466025 0.611695
0.649285 0.280330 0.414422
0.724903 0.054674 0.187079
0.000000 0.407843 0.549020
0.000107 0.339390 0.673535
0.387103 0.490199 0.666223
0.723039 0.587157 0.651223
0.839108 0.447274 0.509830
0.000000 0.407843 0.549020
0.101503 0.119207 0.054356
0.001367 0.628740 0.731347
0.838997 0.831513 0.836887
0.939342 0.684949 0.710786
0.542130 0.635576 0.728638
0.213029 0.010753 0.001982
0.296307 0.594719 0.744930
0.828569 0.827047 0.759703
0.969422 0.926086 0.840779
0.054420 0.054762 0.034118
0.304042 0.048315 0.002540
0.556434 0.017158 0.001141
0.738401 0.435939 0.438027
0.869181 0.876237 0.845751
0.000000 0.563430 0.713817
0.000000 0.587197 0.724546
0.026551 0.666277 0.735507
0.573436 0.578863 0.681721
0.751443 0.152711 0.254376
0.000000 0.588235 0.725490
0.000000 0.588235 0.725490
0.001946 0.705103 0.776336
0.645857 0.677058 0.767623
0.838055 0.457820 0.517593
0.031111 0.030850 0.035817
0.000000 0.586439 0.724645
0.000000 0.678431 0.796078
0.683350 0.815890 0.867218
0.939224 0.853876 0.866416
0.031111 0.030850 0.035817
0.000000 0.580531 0.720721
0.000048 0.666182 0.747467
0.471381 0.774352 0.818006
0.987324 0.982204 0.973866
