calib/LUT LIBRARY/nostalgic_neg_composed.cube
TITLE "nostalgic_neg_composed_v1.0"
#LUMIXPHOTOSTYLE STD
LUT_3D_SIZE 5
0.047974 0.039085 0.057908
0.305098 0.043137 0.007059
0.494902 0.055392 0.000000
0.736176 0.110490 0.007157
0.901541 0.195658 0.065406
0.004762 0.233894 0.032026
0.289566 0.252101 0.005952
0.510902 0.282902 0.001255
0.756477 0.326969 0.005079
0.959757 0.369655 0.050420
0.013016 0.407843 0.101460
0.278431 0.440012 0.026042
0.538358 0.478309 0.000490
0.782387 0.510079 0.000413
0.976552 0.549510 0.003431
0.122794 0.590686 0.208742
0.320352 0.633604 0.174239
0.555618 0.685403 0.077435
0.789520 0.723732 0.012373
0.957271 0.747876 0.011275
0.356863 0.768758 0.395817
0.501961 0.819608 0.439216
0.682843 0.875000 0.454902
0.830882 0.917157 0.424020
0.925490 0.933333 0.301307
0.016471 0.031261 0.279776
0.273529 0.054739 0.192647
0.494118 0.074510 0.152941
0.754003 0.101716 0.125082
0.933660 0.211111 0.133551
0.000560 0.234734 0.268347
0.280367 0.275630 0.262541
0.509559 0.301042 0.229963
0.768830 0.327857 0.185936
0.975000 0.380229 0.189788
0.000082 0.420098 0.294363
0.274650 0.459734 0.279412
0.538603 0.491667 0.255331
0.791544 0.523039 0.249203
0.991585 0.554820 0.231209
0.038749 0.603455 0.358450
0.296827 0.649982 0.345241
0.554824 0.701412 0.317569
0.801350 0.742977 0.288332
0.973950 0.763119 0.263959
0.372549 0.784314 0.521569
0.513726 0.839804 0.556667
0.696569 0.900980 0.580392
0.847059 0.941176 0.564706
0.949020 0.956863 0.426025
0.003922 0.039216 0.444444
0.259384 0.046499 0.424370
0.494281 0.093954 0.349183
0.764799 0.121569 0.321569
0.957298 0.242702 0.309804
0.003004 0.246558 0.468669
0.239419 0.280663 0.457268
0.513603 0.320956 0.433333
0.778368 0.348071 0.399557
0.983088 0.400409 0.377288
0.010915 0.427059 0.483725
0.245463 0.472230 0.496580
0.541172 0.521585 0.498095
0.796029 0.541274 0.467206
0.995556 0.576863 0.441503
0.047485 0.620205 0.532396
0.298693 0.673203 0.556699
0.565093 0.721458 0.544435
0.811885 0.755535 0.530558
0.978542 0.776471 0.510248
0.369076 0.803922 0.639216
0.517647 0.851074 0.678151
0.699510 0.906373 0.693873
0.850572 0.949510 0.694118
0.968627 0.976471 0.650327
0.004516 0.066429 0.636007
0.185686 0.078333 0.619804
0.522241 0.117647 0.568852
0.760959 0.175948 0.504139
0.960131 0.277778 0.486275
0.000490 0.272059 0.673529
0.152878 0.299367 0.655218
0.503064 0.330515 0.626103
0.770453 0.380798 0.574577
0.988889 0.433088 0.557435
0.000467 0.454342 0.694304
0.157903 0.493557 0.686435
0.517717 0.537185 0.686555
0.789356 0.571989 0.662825
0.996639 0.599907 0.623810
0.008260 0.645807 0.705382
0.240568 0.689452 0.727654
0.548529 0.738480 0.739645
0.807665 0.777778 0.743613
0.989255 0.790353 0.708784
0.376993 0.816340 0.769412
0.520610 0.861002 0.793551
0.698039 0.913725 0.823641
0.859804 0.964510 0.839608
0.991634 0.988105 0.816340
0.128105 0.176471 0.756863
0.183088 0.161438 0.756373
0.467402 0.215768 0.725490
0.732680 0.275163 0.682353
0.936275 0.349455 0.658824
0.013100 0.312057 0.819191
0.084381 0.338337 0.817918
0.459695 0.372798 0.795518
0.752880 0.429902 0.763297
0.970261 0.495588 0.737745
0.021162 0.487458 0.854976
0.094891 0.527865 0.860591
0.465279 0.567240 0.870709
0.774586 0.610491 0.853119
0.988816 0.660349 0.818809
0.012337 0.676961 0.880882
0.215988 0.715354 0.906486
0.500506 0.752119 0.927704
0.780459 0.789299 0.935061
0.981536 0.825980 0.909314
0.372418 0.831373 0.898039
0.497386 0.862854 0.922331
0.639216 0.898039 0.946078
0.823420 0.952832 0.980501
0.992157 0.992157 0.992157
