calib/LUT LIBRARY/nostalgic_neg.cube
#Generated with Fujify color engine
#Website: https://fujify.me
#LUMIXPHOTOSTYLE STD
LUT_3D_SIZE 33
0.047059 0.039216 0.058824
0.085540 0.043014 0.043505
0.120343 0.043137 0.039461
0.159313 0.047059 0.031741
0.197549 0.047059 0.027941
0.228922 0.043750 0.023529
0.259804 0.046324 0.016421
0.283701 0.043137 0.012623
0.303921 0.043137 0.008823
0.330024 0.044240 0.007843
0.349264 0.044363 0.007843
0.369853 0.049632 0.005270
0.395588 0.049510 0.003922
0.418750 0.050980 0.003922
0.440196 0.053186 0.003922
0.468995 0.054902 0.003922
0.494118 0.056863 0.000000
0.526838 0.062745 0.000000
0.558088 0.066667 0.000000
0.588358 0.068260 0.000000
0.620098 0.072059 0.000000
0.651103 0.077206 0.000000
0.679412 0.087500 0.003922
0.709191 0.099142 0.005025
0.735294 0.110784 0.008823
0.759436 0.119363 0.015686
0.782598 0.130883 0.020343
0.809681 0.145711 0.028064
0.829412 0.157353 0.035784
0.856005 0.165441 0.043505
0.875245 0.176961 0.051225
0.894363 0.188358 0.058947
0.905882 0.196078 0.066667
0.047059 0.062377 0.058824
0.077941 0.066177 0.047182
0.120106 0.066299 0.039699
0.155503 0.069853 0.035294
0.194117 0.066407 0.027941
0.221917 0.066318 0.024123
0.255906 0.063212 0.019608
0.276811 0.062473 0.015590
0.299142 0.062469 0.011765
0.325035 0.062500 0.008912
0.346615 0.065112 0.007843
0.368627 0.067647 0.005308
0.394087 0.070220 0.003922
0.418700 0.071837 0.003922
0.441912 0.074211 0.003922
0.467092 0.080147 0.003922
0.498039 0.083824 0.001900
0.527141 0.087623 0.000000
0.559735 0.091422 0.000000
0.588431 0.095221 0.000000
0.621569 0.097595 0.000000
0.652371 0.105392 0.000000
0.682023 0.113273 0.001226
0.709103 0.122304 0.003956
0.736182 0.131005 0.007874
0.759436 0.141693 0.011792
0.783310 0.153309 0.016544
0.810275 0.164951 0.024264
0.836657 0.176593 0.031986
0.859804 0.184682 0.043505
0.882728 0.196201 0.051225
0.902084 0.207598 0.062749
0.917524 0.215441 0.070588
0.039461 0.089461 0.050980
0.070573 0.089576 0.047182
0.112745 0.089706 0.039446
0.148040 0.093360 0.031741
0.190196 0.089461 0.027482
0.218015 0.088680 0.024104
0.248330 0.086275 0.019608
0.275666 0.085731 0.012814
0.295282 0.088297 0.011765
0.318505 0.088358 0.008877
0.345343 0.091912 0.007843
0.368505 0.092034 0.005431
0.391666 0.095680 0.003922
0.417011 0.099487 0.003922
0.441805 0.101685 0.003922
0.465319 0.108824 0.003922
0.497916 0.112622 0.003799
0.528922 0.116552 0.000000
0.559696 0.120589 0.000000
0.592180 0.124510 0.000000
0.621415 0.128432 0.000000
0.654863 0.136275 0.000000
0.685861 0.139063 0.000000
0.712937 0.149211 0.003922
0.736274 0.157843 0.004167
0.762362 0.164828 0.008892
0.786321 0.176226 0.012745
0.813565 0.188113 0.021040
0.839982 0.199295 0.031863
0.863603 0.203922 0.039607
0.883318 0.215441 0.051225
0.906005 0.226953 0.062868
0.921569 0.238481 0.074510
0.032108 0.116544 0.047427
0.066533 0.116655 0.043148
0.105124 0.116766 0.035539
0.140073 0.120098 0.031741
0.182353 0.116544 0.024341
0.213660 0.115621 0.024084
0.244485 0.112990 0.016720
0.271079 0.113112 0.015686
0.295098 0.112346 0.011765
0.318524 0.113357 0.007946
0.341421 0.116429 0.007843
0.368137 0.120340 0.007843
0.391529 0.124249 0.003922
0.414828 0.130269 0.003922
0.441751 0.134069 0.003922
0.467329 0.137867 0.003922
0.498039 0.141666 0.001961
0.528726 0.145661 0.000000
0.557805 0.149472 0.000000
0.590905 0.154507 0.000000
0.623928 0.160554 0.000000
0.654909 0.165805 0.000000
0.685777 0.172304 0.000000
0.712849 0.179760 0.000103
0.739920 0.186856 0.003922
0.763358 0.194688 0.005067
0.787485 0.202520 0.008946
0.814158 0.211275 0.016666
0.840365 0.222916 0.027941
0.864514 0.227083 0.036362
0.890342 0.238603 0.047894
0.909804 0.250122 0.062511
0.929044 0.258089 0.074510
0.027941 0.143627 0.043627
0.054902 0.143735 0.036366
0.090410 0.143382 0.032078
0.131663 0.143627 0.024831
0.171017 0.143566 0.024019
0.205959 0.142601 0.016712
0.240686 0.139614 0.015778
0.264584 0.142387 0.012623
0.294608 0.142279 0.011765
0.318122 0.142310 0.010447
0.341421 0.145987 0.007843
0.364583 0.150980 0.007843
0.391176 0.154902 0.003922
0.414828 0.158823 0.003922
0.440411 0.162745 0.003922
0.468765 0.166666 0.003922
0.496324 0.171078 0.000000
0.530974 0.174970 0.000000
0.561305 0.180791 0.000000
0.590977 0.187868 0.000000
0.625184 0.191667 0.000000
0.656372 0.194454 0.000000
0.687255 0.202114 0.000000
0.716682 0.206985 0.000000
0.740196 0.213848 0.000123
0.766897 0.221675 0.003922
0.790441 0.229504 0.007935
0.817601 0.238281 0.012868
0.844179 0.246079 0.024019
0.867770 0.253355 0.032552
0.894149 0.261550 0.044087
0.914077 0.269837 0.059069
0.933333 0.280882 0.074510
0.019608 0.166789 0.039829
0.043872 0.166911 0.032089
0.075123 0.167034 0.028064
0.123897 0.167157 0.023897
0.162255 0.167325 0.019608
0.201375 0.166789 0.015782
0.236772 0.169478 0.012500
0.264572 0.169240 0.011765
0.291177 0.169730 0.009283
0.318088 0.172917 0.008946
0.345152 0.176716 0.007843
0.368505 0.180515 0.005672
0.393735 0.184314 0.003922
0.418501 0.188113 0.003922
0.441912 0.191912 0.003922
0.469033 0.195998 0.002164
0.498345 0.199816 0.001655
0.532517 0.205392 0.000000
0.561596 0.209659 0.000000
0.595952 0.217157 0.000000
0.625107 0.221078 0.000000
0.658755 0.225000 0.000000
0.689530 0.229535 0.000000
0.716594 0.236765 0.000000
0.744485 0.242126 0.000000
0.768482 0.249142 0.000858
0.794248 0.256488 0.004037
0.821446 0.264312 0.009069
0.847917 0.269240 0.017203
0.871634 0.276961 0.028431
0.894072 0.288358 0.039706
0.914686 0.295730 0.052535
0.936642 0.304044 0.070588
0.012500 0.193872 0.035294
0.031741 0.193895 0.028286
0.066177 0.194117 0.023774
0.104710 0.194240 0.020343
0.150000 0.197151 0.016176
0.191062 0.196676 0.012378
0.232215 0.197197 0.011765
0.263971 0.197220 0.011765
0.290931 0.200981 0.007843
0.318260 0.201716 0.007843
0.347304 0.204641 0.007843
0.372427 0.209559 0.004657
0.395129 0.213480 0.003922
0.421637 0.217402 0.003922
0.445833 0.221323 0.003922
0.472572 0.225245 0.002229
0.500000 0.234314 0.000000
0.534536 0.238113 0.000000
0.565518 0.241912 0.000000
0.596339 0.246010 0.000000
0.627145 0.250245 0.000000
0.660294 0.254044 0.000000
0.690441 0.259345 0.000000
0.719562 0.267647 0.000000
0.745649 0.272304 0.000000
0.771898 0.276922 0.000000
0.797687 0.284069 0.001333
0.824747 0.291912 0.005270
0.848530 0.296967 0.012990
0.874579 0.304044 0.021078
0.898039 0.311075 0.032598
0.918015 0.319486 0.044952
0.943627 0.327206 0.063480
0.007843 0.213113 0.031373
0.024115 0.216912 0.024483
0.053922 0.217034 0.023774
0.095914 0.220588 0.019608
0.138725 0.220465 0.015686
0.182698 0.220822 0.011899
0.227696 0.223284 0.011765
0.259984 0.223349 0.008513
0.291820 0.226961 0.007843
0.321320 0.227696 0.007843
0.345343 0.231495 0.005737
0.375490 0.235294 0.004217
0.399510 0.239093 0.003922
0.424491 0.242892 0.003922
0.449755 0.247066 0.003922
0.475980 0.250892 0.003922
0.503922 0.257782 0.000000
0.536309 0.263235 0.000000
0.568995 0.269248 0.000000
0.598529 0.273529 0.000000
0.630560 0.277328 0.000000
0.661910 0.281128 0.000000
0.692724 0.284927 0.000000
0.721817 0.291544 0.000000
0.748805 0.295466 0.000000
0.777516 0.303309 0.000000
0.800773 0.307230 0.000161
0.825846 0.315073 0.004056
0.852343 0.319486 0.009084
0.875613 0.326838 0.016134
0.898162 0.334681 0.024877
0.922032 0.342551 0.037351
0.948162 0.350367 0.055760
0.003922 0.236275 0.031373
0.019363 0.240073 0.027543
0.046079 0.240196 0.022610
0.084437 0.243750 0.019700
0.130759 0.246691 0.016176
0.175889 0.244945 0.012378
0.222978 0.250245 0.010968
0.258333 0.248805 0.007843
0.290196 0.251716 0.007843
0.322059 0.251961 0.007843
0.349264 0.255883 0.004902
0.378278 0.260447 0.003922
0.403064 0.263971 0.003922
0.428340 0.269577 0.003922
0.453248 0.273774 0.003922
0.481342 0.277573 0.003922
0.509314 0.281373 0.000490
0.541728 0.287255 0.000000
0.572794 0.291177 0.000000
0.602053 0.296691 0.000000
0.632966 0.301593 0.000000
0.664216 0.307230 0.000000
0.694792 0.311029 0.000000
0.723591 0.317647 0.000000
0.754412 0.322549 0.000000
0.778278 0.326471 0.000000
0.802757 0.330392 0.000000
0.829749 0.338695 0.001440
0.852818 0.342524 0.005270
0.882200 0.350276 0.011857
0.906556 0.355270 0.020833
0.929780 0.361979 0.029657
0.955882 0.370588 0.048039
0.003922 0.259436 0.030270
0.015441 0.263236 0.028642
0.041123 0.267034 0.026417
0.080411 0.264622 0.022530
0.126471 0.267279 0.018643
0.172794 0.270271 0.014756
0.219646 0.271201 0.010869
0.255151 0.274261 0.008084
0.288389 0.277941 0.007843
0.319975 0.279837 0.007843
0.349142 0.282208 0.004267
0.377072 0.285784 0.003922
0.406939 0.289706 0.003922
0.430514 0.293627 0.003922
0.460555 0.296584 0.003922
0.486179 0.302056 0.003336
0.515135 0.304534 0.000000
0.546105 0.313235 0.000000
0.577076 0.318260 0.000000
0.607598 0.322629 0.000000
0.636842 0.327574 0.000000
0.669608 0.331372 0.000000
0.700957 0.335171 0.000000
0.728006 0.341789 0.000000
0.755055 0.345711 0.000000
0.782104 0.349632 0.000000
0.806656 0.354083 0.000000
0.833652 0.359631 0.000000
0.860647 0.365809 0.001455
0.886378 0.369711 0.005392
0.910715 0.377328 0.013113
0.933823 0.385049 0.024789
0.959681 0.389951 0.040319
0.003922 0.282598 0.037990
0.014254 0.283785 0.034191
0.040763 0.286519 0.030147
0.078922 0.290441 0.023782
0.125245 0.293290 0.020098
0.168873 0.294363 0.015878
0.210310 0.298284 0.011765
0.247917 0.301248 0.008701
0.285968 0.302206 0.007843
0.317157 0.305369 0.005905
0.348882 0.307981 0.003922
0.377152 0.308701 0.003922
0.406894 0.312959 0.003922
0.433341 0.317892 0.001226
0.463189 0.321813 0.001226
0.490035 0.326387 0.001432
0.521568 0.331618 0.002696
0.551800 0.335417 0.002658
0.580928 0.341421 0.001180
0.611895 0.346439 0.000000
0.642861 0.350735 0.000000
0.673828 0.354534 0.000000
0.701256 0.361029 0.000000
0.731840 0.364951 0.000000
0.758885 0.369547 0.000000
0.785930 0.373652 0.000000
0.810554 0.377451 0.000000
0.840863 0.383716 0.000000
0.867065 0.391329 0.000000
0.891299 0.396323 0.003922
0.918306 0.401639 0.008088
0.937745 0.408088 0.017157
0.963480 0.413235 0.031373
0.003922 0.301838 0.044363
0.014135 0.305760 0.040483
0.040809 0.309681 0.035539
0.078799 0.313603 0.029040
0.123775 0.317203 0.024019
0.162377 0.320833 0.021779
0.209436 0.321193 0.015073
0.244976 0.324510 0.012328
0.279780 0.328309 0.007843
0.313235 0.329289 0.005994
0.344118 0.331985 0.003922
0.373775 0.335784 0.003922
0.404917 0.335662 0.002313
0.435237 0.339461 0.001348
0.464093 0.344976 0.000000
0.493892 0.348897 0.001367
0.525490 0.353493 0.003248
0.557740 0.356005 0.003206
0.587944 0.360662 0.000758
0.617337 0.366176 0.000000
0.646706 0.369976 0.000000
0.677669 0.373775 0.000000
0.704710 0.380270 0.000000
0.732855 0.386263 0.000000
0.763358 0.393015 0.000000
0.790514 0.396814 0.000000
0.814453 0.402704 0.000000
0.844765 0.407721 0.000000
0.870879 0.411811 0.000000
0.895221 0.417153 0.000126
0.918543 0.423568 0.004167
0.941666 0.427451 0.011930
0.964706 0.432598 0.024877
0.003922 0.322549 0.054902
0.015441 0.328845 0.049556
0.040686 0.332690 0.043382
0.079044 0.336397 0.038113
0.120098 0.340196 0.030392
0.162883 0.343995 0.022671
0.208364 0.344608 0.018137
0.244240 0.347671 0.014216
0.275980 0.351471 0.010662
0.310386 0.352451 0.007843
0.340962 0.355147 0.005147
0.372549 0.358946 0.003922
0.402512 0.358824 0.002390
0.432843 0.362622 0.001471
0.462898 0.368137 0.000827
0.495910 0.372059 0.000781
0.530147 0.375980 0.001226
0.563434 0.377819 0.000000
0.593628 0.383823 0.000000
0.624510 0.389338 0.000000
0.654473 0.393137 0.000000
0.683962 0.399510 0.000000
0.710999 0.404197 0.000000
0.740196 0.408456 0.000000
0.767647 0.413725 0.000000
0.791345 0.419439 0.000000
0.818352 0.424510 0.000000
0.845358 0.429044 0.000000
0.874387 0.435294 0.000000
0.897809 0.439093 0.000000
0.922457 0.442892 0.003922
0.945466 0.448161 0.008012
0.968627 0.454412 0.021078
0.003922 0.344240 0.065074
0.017770 0.348039 0.061152
0.046668 0.351838 0.053554
0.080515 0.357230 0.044240
0.122748 0.357598 0.036520
0.163235 0.359926 0.026834
0.207790 0.365142 0.020045
0.243118 0.369014 0.014951
0.276103 0.372886 0.012347
0.308659 0.374510 0.008498
0.339101 0.378309 0.006748
0.370098 0.380580 0.003922
0.400092 0.381985 0.003922
0.430813 0.385784 0.001593
0.463725 0.391299 0.000000
0.497438 0.396458 0.000000
0.532966 0.401103 0.000000
0.568528 0.405147 0.000000
0.601348 0.408004 0.000000
0.631285 0.412500 0.000000
0.661244 0.417754 0.000000
0.689273 0.422671 0.000000
0.717034 0.427819 0.000000
0.745140 0.431618 0.000000
0.768229 0.438358 0.000000
0.795240 0.442279 0.000000
0.819623 0.446936 0.000000
0.849261 0.450735 0.000000
0.878018 0.456771 0.000000
0.901620 0.463481 0.000000
0.924732 0.467547 0.000245
0.949338 0.473652 0.005588
0.968627 0.477573 0.013358
0.007843 0.365196 0.074510
0.021568 0.369064 0.069064
0.050000 0.371324 0.063481
0.085991 0.375245 0.052206
0.126961 0.379167 0.044118
0.167279 0.383088 0.032744
0.207108 0.387010 0.024678
0.241912 0.388726 0.018750
0.276225 0.390931 0.013971
0.305875 0.397672 0.010532
0.338480 0.401470 0.007843
0.369631 0.402696 0.004680
0.400061 0.405147 0.003922
0.430637 0.410539 0.001593
0.463725 0.414461 0.000000
0.498667 0.420466 0.000000
0.537255 0.424265 0.000000
0.571147 0.430147 0.000000
0.605897 0.435034 0.000000
0.636727 0.435662 0.000000
0.666912 0.441912 0.000000
0.697794 0.447181 0.000000
0.723530 0.450980 0.000000
0.749027 0.457598 0.000000
0.775061 0.462071 0.000000
0.799134 0.466299 0.000000
0.822227 0.470098 0.000000
0.853163 0.477206 0.000000
0.879902 0.481128 0.000000
0.905063 0.485256 0.000000
0.928539 0.489109 0.000107
0.953255 0.493015 0.004045
0.972549 0.498530 0.011765
0.009927 0.382721 0.084437
0.027148 0.386642 0.078799
0.055875 0.390564 0.071209
0.092280 0.396151 0.063358
0.131587 0.400015 0.051976
0.169730 0.402328 0.042237
0.210907 0.406250 0.030270
0.244853 0.410172 0.022549
0.277972 0.414093 0.018229
0.307230 0.420833 0.013848
0.338932 0.424633 0.009927
0.369711 0.427225 0.006637
0.400123 0.429871 0.003922
0.430760 0.433701 0.003922
0.464759 0.439828 0.000912
0.498660 0.443627 0.000000
0.539216 0.448468 0.000000
0.576957 0.455147 0.000000
0.610662 0.458946 0.000000
0.641422 0.463481 0.000000
0.674479 0.466544 0.000000
0.702799 0.470343 0.000000
0.729818 0.476838 0.000000
0.755733 0.481346 0.000000
0.779933 0.485662 0.000000
0.803029 0.489461 0.000000
0.829703 0.496446 0.000000
0.857066 0.500693 0.000000
0.883594 0.504779 0.000000
0.906985 0.508578 0.000000
0.932100 0.512377 0.000000
0.955327 0.516177 0.003922
0.976471 0.522059 0.007843
0.013725 0.405883 0.098040
0.032966 0.411704 0.090319
0.063726 0.415563 0.084436
0.100122 0.419424 0.074877
0.138726 0.423284 0.063481
0.175674 0.427145 0.051593
0.214706 0.431005 0.039951
0.245588 0.435294 0.030270
0.277941 0.439216 0.022549
0.307904 0.444546 0.018198
0.338848 0.449755 0.012378
0.369118 0.453554 0.008517
0.398775 0.458088 0.005882
0.432047 0.462745 0.003922
0.463971 0.468873 0.000858
0.498529 0.470711 0.000000
0.538235 0.477451 0.000000
0.575858 0.480270 0.000000
0.610539 0.486274 0.000000
0.645588 0.491789 0.000000
0.677206 0.492892 0.000000
0.706679 0.498039 0.000000
0.735049 0.501961 0.000000
0.760723 0.506985 0.000000
0.785294 0.510784 0.000000
0.810416 0.517647 0.000000
0.833946 0.521568 0.000000
0.862929 0.526103 0.000000
0.887991 0.529902 0.000000
0.911091 0.533701 0.000000
0.936029 0.539338 0.000000
0.959130 0.545098 0.000061
0.976471 0.549019 0.003922
0.019608 0.429044 0.109558
0.042704 0.434862 0.101838
0.073299 0.440564 0.097794
0.111642 0.444363 0.086397
0.148162 0.448162 0.077328
0.183375 0.451961 0.065522
0.219654 0.455760 0.053554
0.249789 0.460417 0.042770
0.281832 0.464338 0.034191
0.309899 0.469581 0.026471
0.338764 0.474877 0.020182
0.367873 0.478677 0.013603
0.398039 0.483946 0.008532
0.430013 0.490196 0.004669
0.463725 0.493995 0.003922
0.498660 0.499632 0.000862
0.538174 0.505515 0.000000
0.575865 0.507345 0.000000
0.611589 0.512201 0.000000
0.646335 0.516912 0.000000
0.680392 0.521860 0.000000
0.710558 0.526999 0.000000
0.737584 0.528309 0.000000
0.764610 0.532108 0.000000
0.790655 0.537286 0.000000
0.814741 0.542770 0.000000
0.841376 0.547426 0.000000
0.868792 0.551226 0.000000
0.893505 0.556633 0.000000
0.918555 0.562377 0.000000
0.939828 0.566299 0.000000
0.961029 0.570221 0.000000
0.978309 0.574142 0.002084
0.029167 0.452206 0.119363
0.050138 0.456005 0.117157
0.086275 0.461872 0.109558
0.123162 0.465970 0.101838
0.158333 0.469608 0.090196
0.191421 0.473407 0.080415
0.224510 0.477941 0.067647
0.255384 0.483578 0.057851
0.284436 0.488787 0.048100
0.310416 0.494240 0.038113
0.339215 0.498039 0.030392
0.369953 0.503186 0.022671
0.400061 0.509559 0.014951
0.429940 0.513358 0.010455
0.464691 0.518872 0.006602
0.498667 0.524878 0.003922
0.539216 0.528676 0.003922
0.577696 0.532353 0.000912
0.612776 0.536274 0.000000
0.647595 0.541092 0.000000
0.680392 0.546967 0.000000
0.711274 0.551593 0.000000
0.740288 0.555883 0.000000
0.768497 0.559804 0.000000
0.793260 0.564155 0.000000
0.818635 0.567164 0.000000
0.845665 0.570588 0.000000
0.876004 0.579144 0.000000
0.899510 0.583334 0.000000
0.922465 0.587255 0.000000
0.945695 0.591284 0.000000
0.964951 0.597289 0.000000
0.980392 0.599020 0.000000
0.038480 0.475368 0.131005
0.065441 0.479167 0.128676
0.100000 0.482965 0.122572
0.133088 0.486765 0.114951
0.166375 0.490564 0.107230
0.197549 0.494612 0.095837
0.232353 0.498897 0.084245
0.261255 0.504063 0.074058
0.289614 0.511428 0.062837
0.314338 0.516954 0.055270
0.343015 0.522427 0.044853
0.372924 0.528922 0.034861
0.401087 0.532721 0.026593
0.431460 0.538113 0.018872
0.464622 0.544240 0.012462
0.502551 0.548786 0.008590
0.539216 0.555760 0.005882
0.579756 0.559559 0.003922
0.614706 0.565564 0.003922
0.647618 0.571078 0.000946
0.680392 0.572549 0.000000
0.711274 0.576846 0.000000
0.739836 0.582843 0.000000
0.768015 0.586274 0.000000
0.795496 0.590073 0.000000
0.822182 0.595117 0.000000
0.849265 0.600858 0.000000
0.878056 0.604780 0.000000
0.901394 0.608900 0.000000
0.924483 0.612990 0.000000
0.947327 0.616789 0.000000
0.966494 0.620588 0.000000
0.980392 0.624388 0.000000
0.051471 0.498530 0.146569
0.082230 0.502328 0.142647
0.110294 0.506127 0.137806
0.144960 0.509926 0.130270
0.176287 0.514216 0.123039
0.205622 0.518137 0.115058
0.238205 0.525245 0.106648
0.265564 0.529044 0.095466
0.293872 0.533211 0.084191
0.319317 0.537745 0.073698
0.348499 0.547825 0.065227
0.375965 0.552083 0.051854
0.404044 0.558272 0.042095
0.434314 0.563603 0.030515
0.467004 0.568045 0.023437
0.502543 0.575122 0.015074
0.539951 0.578922 0.010539
0.579749 0.585493 0.006694
0.615778 0.590441 0.003922
0.646186 0.595113 0.002926
0.678554 0.601041 0.000000
0.708961 0.605760 0.000000
0.739920 0.609559 0.000000
0.766544 0.614415 0.000000
0.792157 0.620098 0.000000
0.820267 0.624020 0.000000
0.847273 0.627941 0.000000
0.878202 0.632476 0.000000
0.903738 0.636275 0.000000
0.926823 0.640074 0.000000
0.949755 0.643873 0.000000
0.968872 0.647595 0.000000
0.980392 0.647549 0.000000
0.065441 0.520343 0.159559
0.096201 0.525490 0.155717
0.127206 0.529373 0.151961
0.157108 0.533456 0.148162
0.187622 0.537377 0.141789
0.214985 0.542436 0.135206
0.244853 0.548407 0.126348
0.272721 0.552501 0.118064
0.298376 0.557996 0.108977
0.325969 0.563725 0.099265
0.352382 0.570642 0.088848
0.377233 0.577478 0.077328
0.407353 0.582966 0.063496
0.437312 0.587312 0.049019
0.468995 0.594485 0.038358
0.503167 0.598916 0.027347
0.542463 0.607353 0.016422
0.579741 0.613075 0.011275
0.613258 0.619730 0.006717
0.646389 0.625245 0.003922
0.678079 0.629044 0.003922
0.709042 0.633728 0.000000
0.736083 0.639338 0.000000
0.762967 0.643260 0.000000
0.791820 0.646875 0.000000
0.820171 0.651961 0.000000
0.849747 0.653669 0.000000
0.879132 0.656985 0.000000
0.903600 0.661106 0.000000
0.929052 0.668378 0.000000
0.952168 0.674471 0.000000
0.968872 0.674632 0.000000
0.979044 0.674632 0.000000
0.082108 0.540932 0.175000
0.111887 0.544853 0.171201
0.142815 0.551302 0.167402
0.172419 0.553807 0.163603
0.199265 0.562408 0.160723
0.225192 0.567770 0.154343
0.252696 0.572304 0.145818
0.278309 0.577183 0.139415
0.306189 0.583088 0.131066
0.330905 0.587232 0.122771
0.356265 0.597304 0.115548
0.382300 0.602328 0.102259
0.412041 0.608364 0.088971
0.441184 0.613848 0.073530
0.474311 0.618873 0.058088
0.507023 0.629289 0.044654
0.545098 0.633701 0.029167
0.579733 0.639545 0.017731
0.613189 0.644608 0.011275
0.646316 0.649135 0.007843
0.675705 0.655882 0.004688
0.705622 0.660225 0.003922
0.735784 0.664951 0.001226
0.762155 0.668750 0.000000
0.791850 0.672549 0.000000
0.818528 0.676348 0.000000
0.847764 0.680147 0.000000
0.876769 0.687255 0.000000
0.903432 0.691177 0.000000
0.926593 0.695098 0.000000
0.949679 0.697794 0.000000
0.964913 0.697794 0.000000
0.972549 0.697794 0.000000
0.103064 0.564093 0.186520
0.131128 0.569083 0.186608
0.158265 0.575613 0.186520
0.184314 0.579412 0.182598
0.207475 0.583349 0.178815
0.233456 0.591544 0.172549
0.261435 0.598652 0.168222
0.284804 0.602692 0.161029
0.311611 0.608058 0.154412
0.336152 0.613971 0.148407
0.362132 0.620811 0.140150
0.389216 0.627562 0.131116
0.416575 0.633211 0.116054
0.445056 0.639258 0.103067
0.478179 0.646936 0.084207
0.511397 0.652968 0.066326
0.547610 0.660172 0.046998
0.582326 0.664557 0.031005
0.615939 0.672794 0.021683
0.645098 0.679412 0.015196
0.674724 0.683211 0.008946
0.705281 0.687010 0.006874
0.730392 0.691567 0.004680
0.761275 0.695401 0.003129
0.788235 0.701348 0.000827
0.817398 0.705270 0.000000
0.844447 0.709191 0.000000
0.873970 0.714216 0.000000
0.899862 0.717999 0.000000
0.926490 0.720956 0.000000
0.944730 0.721990 0.000000
0.959804 0.720956 0.000034
0.966421 0.724878 0.003922
0.122549 0.591176 0.202941
0.146660 0.594976 0.204810
0.172610 0.598774 0.201961
0.195956 0.602941 0.198407
0.219118 0.610294 0.195466
0.243106 0.618015 0.194118
0.269363 0.621998 0.187439
0.293505 0.627236 0.181679
0.318628 0.633334 0.176471
0.343474 0.638940 0.170558
0.370220 0.644853 0.164951
0.395925 0.652573 0.154657
0.423652 0.660294 0.144975
0.453432 0.664492 0.129075
0.483027 0.672794 0.113419
0.515196 0.679534 0.093873
0.551470 0.684804 0.071568
0.585907 0.694976 0.054626
0.616973 0.698775 0.039461
0.646170 0.703155 0.027819
0.674755 0.709804 0.019730
0.703094 0.717003 0.013726
0.731066 0.720895 0.009497
0.760172 0.724786 0.004902
0.788235 0.728676 0.004657
0.817279 0.732567 0.003279
0.841973 0.736458 0.000981
0.872886 0.740809 0.000000
0.898162 0.744608 0.000000
0.921324 0.744485 0.000000
0.939460 0.744362 0.000000
0.951011 0.744240 0.001072
0.955882 0.748039 0.007843
0.138971 0.614338 0.218260
0.162132 0.618164 0.221228
0.185486 0.622182 0.217647
0.211233 0.629657 0.217402
0.230867 0.633456 0.217402
0.254645 0.639974 0.213615
0.281863 0.648897 0.209720
0.303496 0.652884 0.203431
0.327972 0.658119 0.197335
0.353550 0.664216 0.194731
0.378163 0.669830 0.189660
0.403604 0.675735 0.181446
0.432598 0.683778 0.169608
0.461661 0.691177 0.159559
0.490694 0.699272 0.142769
0.524946 0.704990 0.121955
0.556189 0.712377 0.105392
0.591667 0.720221 0.086485
0.620826 0.724518 0.069248
0.648774 0.731759 0.052819
0.675322 0.737377 0.040640
0.705147 0.741176 0.029534
0.730982 0.745243 0.020956
0.759555 0.749632 0.014097
0.787255 0.753432 0.011857
0.811757 0.757043 0.007843
0.838074 0.760172 0.004780
0.867781 0.763970 0.004646
0.894240 0.767770 0.003922
0.913603 0.767647 0.003922
0.928799 0.767525 0.003922
0.940441 0.767402 0.004045
0.948162 0.771201 0.008701
0.159069 0.636765 0.236765
0.179144 0.642111 0.237500
0.204657 0.649020 0.240441
0.223966 0.652887 0.236834
0.247059 0.657751 0.234712
0.270220 0.664338 0.233579
0.294118 0.669470 0.230990
0.319034 0.675858 0.227167
0.339706 0.683578 0.222182
0.365893 0.689009 0.220420
0.390181 0.695328 0.215426
0.417034 0.700727 0.209789
0.446109 0.710263 0.200490
0.473529 0.716368 0.191177
0.503677 0.725659 0.176149
0.533410 0.730124 0.160639
0.566177 0.739829 0.145588
0.598407 0.745220 0.127719
0.626884 0.751149 0.109069
0.652137 0.759069 0.093451
0.679198 0.762990 0.076164
0.703914 0.768260 0.062630
0.730897 0.774755 0.048285
0.759850 0.778677 0.036558
0.786520 0.782598 0.028493
0.811113 0.786520 0.020795
0.833717 0.789844 0.016421
