calib/LUT LIBRARY/nostalgic_neg.cube
#Generated with Fujify color engine
#Website: https://fujify.me
#LUMIXPHOTOSTYLE STD
LUT_3D_SIZE 5
0.047059 0.039216 0.058824
0.303921 0.043137 0.008823
0.494118 0.056863 0.000000
0.735294 0.110784 0.008823
0.905882 0.196078 0.066667
0.003922 0.236275 0.031373
0.290196 0.251716 0.007843
0.509314 0.281373 0.000490
0.754412 0.322549 0.000000
0.955882 0.370588 0.048039
0.013725 0.405883 0.098040
0.277941 0.439216 0.022549
0.538235 0.477451 0.000000
0.785294 0.510784 0.000000
0.976471 0.549019 0.003922
0.122549 0.591176 0.202941
0.318628 0.633334 0.176471
0.551470 0.684804 0.071568
0.788235 0.728676 0.004657
0.955882 0.748039 0.007843
0.356863 0.772549 0.400000
0.502941 0.822549 0.438236
0.678431 0.876470 0.454902
0.826470 0.917647 0.424510
0.925490 0.933333 0.301961
0.019608 0.030392 0.280392
0.275490 0.053921 0.194117
0.494118 0.076470 0.157353
0.756617 0.098039 0.124510
0.932353 0.210785 0.135294
0.000735 0.237010 0.266667
0.285723 0.278615 0.256863
0.507720 0.300490 0.226838
0.768382 0.327451 0.188726
0.976471 0.380637 0.188971
0.000000 0.419118 0.291667
0.275245 0.458578 0.282721
0.537500 0.486519 0.256373
0.791176 0.524755 0.250490
0.992157 0.552451 0.228432
0.031373 0.602941 0.352696
0.292157 0.652941 0.346385
0.550980 0.702941 0.315441
0.803493 0.741176 0.285233
0.971569 0.760784 0.262010
0.367647 0.784314 0.518628
0.514706 0.838235 0.554167
0.696079 0.896079 0.581373
0.845833 0.941176 0.565686
0.949020 0.956863 0.433333
0.003922 0.037255 0.443137
0.259804 0.047059 0.421569
0.491176 0.093137 0.347059
0.763235 0.123529 0.322549
0.956863 0.241177 0.311764
0.000000 0.248039 0.466667
0.239216 0.282231 0.457353
0.513235 0.320588 0.430882
0.776471 0.347549 0.395098
0.988235 0.401471 0.378922
0.000000 0.427451 0.483333
0.236030 0.475981 0.495098
0.538726 0.519608 0.494608
0.794118 0.541667 0.463971
0.996078 0.573529 0.441177
0.013726 0.620588 0.526961
0.275613 0.672671 0.544117
0.558088 0.721814 0.538480
0.810049 0.754534 0.522059
0.976471 0.771568 0.504412
0.370588 0.801961 0.641177
0.523039 0.853431 0.677941
0.700981 0.906862 0.700000
0.853921 0.950491 0.694608
0.972549 0.976471 0.649020
0.003922 0.071569 0.634314
0.186520 0.078676 0.619608
0.519118 0.121078 0.570588
0.763971 0.167647 0.501225
0.964706 0.279411 0.485294
0.000000 0.272549 0.672794
0.147978 0.299816 0.653737
0.500000 0.330024 0.628922
0.772549 0.375858 0.575919
0.992157 0.433333 0.557843
0.000000 0.453432 0.691667
0.147672 0.493260 0.686397
0.511765 0.536274 0.687255
0.793260 0.574265 0.661765
0.996078 0.600980 0.628921
0.000981 0.647059 0.705882
0.229473 0.691789 0.726593
0.536642 0.739829 0.738848
0.807598 0.775552 0.736091
0.988235 0.791912 0.705882
0.375491 0.815686 0.766667
0.522304 0.861765 0.797304
0.692157 0.915686 0.828922
0.860294 0.963480 0.842157
0.988235 0.988235 0.817647
0.129412 0.172549 0.756863
0.182353 0.159804 0.757843
0.470588 0.209804 0.721569
0.733333 0.276471 0.682353
0.937255 0.349020 0.658824
0.009804 0.313725 0.817647
0.079167 0.341176 0.813971
0.453431 0.377941 0.796568
0.752942 0.429412 0.765931
0.971569 0.492157 0.736274
0.000000 0.486274 0.854902
0.067647 0.528922 0.860785
0.452941 0.566667 0.874510
0.772058 0.608823 0.857843
0.988235 0.656863 0.819608
0.000981 0.677451 0.879412
0.209804 0.718627 0.909804
0.495588 0.751471 0.927941
0.780393 0.792157 0.934313
0.985294 0.826470 0.913725
0.372549 0.831373 0.898039
0.492157 0.861765 0.921569
0.637255 0.900000 0.949020
0.822549 0.952941 0.980392
0.992157 0.992157 0.988235
