calib/LUT LIBRARY/nostalgic_neg.cube
#Generated with Fujify color engine
#Website: https://fujify.me
#LUMIXPHOTOSTYLE STD
LUT_3D_SIZE 9
0.047059 0.039216 0.058824
0.197549 0.047059 0.027941
0.303921 0.043137 0.008823
0.395588 0.049510 0.003922
0.494118 0.056863 0.000000
0.620098 0.072059 0.000000
0.735294 0.110784 0.008823
0.829412 0.157353 0.035784
0.905882 0.196078 0.066667
0.027941 0.143627 0.043627
0.171017 0.143566 0.024019
0.294608 0.142279 0.011765
0.391176 0.154902 0.003922
0.496324 0.171078 0.000000
0.625184 0.191667 0.000000
0.740196 0.213848 0.000123
0.844179 0.246079 0.024019
0.933333 0.280882 0.074510
0.003922 0.236275 0.031373
0.130759 0.246691 0.016176
0.290196 0.251716 0.007843
0.403064 0.263971 0.003922
0.509314 0.281373 0.000490
0.632966 0.301593 0.000000
0.754412 0.322549 0.000000
0.852818 0.342524 0.005270
0.955882 0.370588 0.048039
0.003922 0.322549 0.054902
0.120098 0.340196 0.030392
0.275980 0.351471 0.010662
0.402512 0.358824 0.002390
0.530147 0.375980 0.001226
0.654473 0.393137 0.000000
0.767647 0.413725 0.000000
0.874387 0.435294 0.000000
0.968627 0.454412 0.021078
0.013725 0.405883 0.098040
0.138726 0.423284 0.063481
0.277941 0.439216 0.022549
0.398775 0.458088 0.005882
0.538235 0.477451 0.000000
0.677206 0.492892 0.000000
0.785294 0.510784 0.000000
0.887991 0.529902 0.000000
0.976471 0.549019 0.003922
0.051471 0.498530 0.146569
0.176287 0.514216 0.123039
0.293872 0.533211 0.084191
0.404044 0.558272 0.042095
0.539951 0.578922 0.010539
0.678554 0.601041 0.000000
0.792157 0.620098 0.000000
0.903738 0.636275 0.000000
0.980392 0.647549 0.000000
0.122549 0.591176 0.202941
0.219118 0.610294 0.195466
0.318628 0.633334 0.176471
0.423652 0.660294 0.144975
0.551470 0.684804 0.071568
0.674755 0.709804 0.019730
0.788235 0.728676 0.004657
0.898162 0.744608 0.000000
0.955882 0.748039 0.007843
0.213726 0.687255 0.283824
0.292034 0.707782 0.289155
0.385539 0.733823 0.288848
0.485662 0.760478 0.279105
0.597059 0.789461 0.255882
0.695098 0.812377 0.197181
0.788603 0.833824 0.123162
0.883395 0.844608 0.069547
0.932843 0.852451 0.061765
0.356863 0.772549 0.400000
0.425980 0.795588 0.423039
0.502941 0.822549 0.438236
0.589216 0.847059 0.448529
0.678431 0.876470 0.454902
0.753432 0.895588 0.443137
0.826470 0.917647 0.424510
0.898529 0.933333 0.376961
0.925490 0.933333 0.301961
0.035294 0.035784 0.181863
0.171078 0.046630 0.121446
0.287255 0.050980 0.080515
0.386459 0.054902 0.057047
0.494363 0.066667 0.043873
0.621569 0.077267 0.030392
0.744117 0.107720 0.030515
0.844179 0.157414 0.050980
0.917157 0.203922 0.077941
0.015747 0.135356 0.152328
0.151417 0.146622 0.124349
0.284023 0.155653 0.101807
0.389621 0.166896 0.081005
0.498039 0.184069 0.065993
0.627045 0.199349 0.047978
0.748851 0.217770 0.035064
0.852880 0.246454 0.050490
0.944179 0.285233 0.096630
0.006985 0.236642 0.146079
0.133333 0.255071 0.131234
0.291054 0.263634 0.114828
0.396446 0.272028 0.096997
0.504963 0.287010 0.085356
0.636658 0.308333 0.067295
0.760662 0.323529 0.053615
0.869899 0.342647 0.049847
0.963725 0.373530 0.089093
0.003922 0.328921 0.164522
0.114032 0.347771 0.148637
0.283916 0.357108 0.124908
0.400965 0.364905 0.099387
0.521078 0.377941 0.089308
0.651356 0.397059 0.088779
0.773008 0.420052 0.075689
0.887830 0.434643 0.065089
0.978922 0.458333 0.090686
0.005882 0.411765 0.190196
0.117157 0.431127 0.172580
0.272549 0.445895 0.140380
0.397948 0.460968 0.117800
0.539216 0.480392 0.091422
0.672641 0.495588 0.092494
0.783823 0.514706 0.100061
0.897794 0.533333 0.085294
0.986029 0.545343 0.074510
0.017831 0.502451 0.224816
0.143321 0.521301 0.213113
0.278294 0.541008 0.192218
0.400123 0.562194 0.164691
0.542310 0.585110 0.130392
0.684314 0.604235 0.102926
0.800597 0.621890 0.089936
0.909130 0.640158 0.085356
0.986458 0.651471 0.066667
0.067524 0.595098 0.274142
0.193888 0.618351 0.267770
0.305147 0.642709 0.255515
0.417126 0.668995 0.231572
0.549020 0.695405 0.194608
0.678554 0.717968 0.152635
0.797763 0.733058 0.120251
0.906005 0.749280 0.095358
0.963725 0.759436 0.069485
0.206434 0.691238 0.352083
0.294777 0.717762 0.361167
0.390732 0.741666 0.365579
0.489821 0.768198 0.361496
0.603125 0.795803 0.341360
0.699510 0.821239 0.304549
0.798590 0.841560 0.245619
0.891981 0.857238 0.184705
0.944118 0.867218 0.171262
0.360784 0.776471 0.457844
0.429902 0.799510 0.476961
0.510661 0.827328 0.493505
0.599510 0.857353 0.506495
0.689706 0.887745 0.517892
0.763725 0.907353 0.507659
0.841177 0.930392 0.495098
0.910294 0.949020 0.445098
0.940686 0.949020 0.355883
0.019608 0.030392 0.280392
0.139706 0.037868 0.244608
0.275490 0.053921 0.194117
0.379902 0.066667 0.171078
0.494118 0.076470 0.157353
0.625490 0.089216 0.141789
0.756617 0.098039 0.124510
0.864093 0.142647 0.118750
0.932353 0.210785 0.135294
0.004412 0.123897 0.269363
0.122840 0.143995 0.249387
0.282353 0.165809 0.228891
0.391666 0.181066 0.211152
0.498039 0.193627 0.195956
0.630698 0.209804 0.174740
0.760754 0.218719 0.152819
0.872595 0.245910 0.143536
0.956373 0.296568 0.172549
0.000735 0.237010 0.266667
0.110447 0.260110 0.264522
0.285723 0.278615 0.256863
0.399571 0.290472 0.242862
0.507720 0.300490 0.226838
0.639338 0.315901 0.205331
0.768382 0.327451 0.188726
0.886244 0.342647 0.173131
0.976471 0.380637 0.188971
0.000000 0.332843 0.277941
0.102037 0.352451 0.276654
0.285018 0.368137 0.270129
0.404121 0.380224 0.259099
0.518873 0.391176 0.250551
0.653860 0.406051 0.234697
0.782690 0.423928 0.218107
0.902145 0.435294 0.204504
0.988235 0.462255 0.211764
0.000000 0.419118 0.291667
0.097059 0.440441 0.289277
0.275245 0.458578 0.282721
0.404289 0.473039 0.272426
0.537500 0.486519 0.256373
0.671324 0.505882 0.255270
0.791176 0.524755 0.250490
0.909252 0.537255 0.231189
0.992157 0.552451 0.228432
0.000981 0.506373 0.310539
0.098652 0.532277 0.309987
0.266666 0.552727 0.300950
0.398652 0.573958 0.290288
0.541360 0.594608 0.275674
0.686627 0.613496 0.265885
0.801930 0.629749 0.264032
0.915379 0.645267 0.258287
0.992157 0.656863 0.242157
0.031373 0.602941 0.352696
0.165656 0.629259 0.355239
0.292157 0.652941 0.346385
0.410968 0.679442 0.335355
0.550980 0.702941 0.315441
0.684497 0.724142 0.297243
0.803493 0.741176 0.285233
0.913848 0.755882 0.275551
0.971569 0.760784 0.262010
0.194731 0.699387 0.422916
0.294761 0.722595 0.434804
0.394240 0.749296 0.445374
0.496645 0.776394 0.444439
0.608701 0.804963 0.434620
0.707307 0.829059 0.407200
0.803340 0.848622 0.372978
0.902941 0.864262 0.337959
0.951593 0.872059 0.323039
0.367647 0.784314 0.518628
0.436887 0.810417 0.537990
0.514706 0.838235 0.554167
0.607353 0.867034 0.571936
0.696079 0.896079 0.581373
0.771568 0.916299 0.578064
0.845833 0.941176 0.565686
0.922059 0.959926 0.531250
0.949020 0.956863 0.433333
0.007843 0.031373 0.360294
0.107047 0.035294 0.340686
0.270588 0.046079 0.310294
0.380821 0.071507 0.272856
0.492157 0.086275 0.259559
0.625490 0.100490 0.246017
0.762500 0.107720 0.228799
0.875981 0.142647 0.216973
0.945098 0.223529 0.223039
0.000000 0.127451 0.360294
0.091399 0.145979 0.352229
0.275352 0.162745 0.339231
0.391552 0.187255 0.313879
0.499112 0.204075 0.294761
0.630882 0.217647 0.282116
0.767938 0.231465 0.264706
0.885700 0.252367 0.248100
0.964522 0.308333 0.261765
0.000000 0.240196 0.371691
0.073146 0.259145 0.367141
0.274020 0.282905 0.363235
0.399525 0.301471 0.351011
0.509314 0.314522 0.337255
0.640119 0.325689 0.316774
0.775490 0.338756 0.295282
0.896569 0.350444 0.277282
0.984314 0.389829 0.287010
0.000000 0.335846 0.377880
0.068811 0.355882 0.377091
0.267785 0.378508 0.378569
0.401961 0.394462 0.373935
0.521783 0.408119 0.370313
0.655162 0.418773 0.348039
0.782843 0.431863 0.326195
0.909873 0.444477 0.311052
0.992157 0.470098 0.315686
0.000000 0.419608 0.388970
0.068107 0.445925 0.393535
0.266667 0.469424 0.395650
0.409804 0.487040 0.393934
0.539216 0.504534 0.383333
0.673591 0.515196 0.374234
0.793627 0.529412 0.357659
0.919608 0.545098 0.345343
0.996078 0.563235 0.341912
0.000000 0.514216 0.400981
0.070274 0.541177 0.410899
0.259299 0.566667 0.411274
0.400529 0.587806 0.408655
0.545374 0.605331 0.398591
0.685784 0.621569 0.386619
0.803309 0.637071 0.381985
0.922748 0.654588 0.376271
0.994608 0.667157 0.364216
0.019118 0.610784 0.436765
0.143229 0.636780 0.444531
0.288082 0.663725 0.444363
0.411167 0.688818 0.436152
0.552267 0.712500 0.423039
0.689537 0.730928 0.413097
0.807844 0.748192 0.404504
0.917907 0.760156 0.399908
0.975490 0.763725 0.390563
0.183640 0.707169 0.496385
0.293183 0.730722 0.508870
0.395527 0.757353 0.519838
0.498798 0.783716 0.521278
0.611029 0.811183 0.512745
0.711205 0.834620 0.497296
0.808579 0.855407 0.473008
0.911252 0.868896 0.448659
0.960600 0.875981 0.442157
0.368627 0.792157 0.577451
0.438236 0.819118 0.596569
0.525000 0.848529 0.614951
0.610355 0.873039 0.630882
0.697304 0.899265 0.638235
0.776409 0.925490 0.642647
0.850000 0.946079 0.632353
0.926470 0.968627 0.607843
0.959314 0.960784 0.528921
0.003922 0.037255 0.443137
0.072549 0.042647 0.435539
0.259804 0.047059 0.421569
0.394853 0.062010 0.390686
0.491176 0.093137 0.347059
0.626961 0.109804 0.332598
0.763235 0.123529 0.322549
0.883579 0.158334 0.310049
0.956863 0.241177 0.311764
0.000000 0.139215 0.452941
0.053156 0.147059 0.453125
0.247978 0.162745 0.437132
0.394271 0.178431 0.417065
0.497916 0.208088 0.385784
0.633027 0.227543 0.370006
0.771691 0.241789 0.357782
0.891238 0.262224 0.342892
0.972304 0.320588 0.348774
0.000000 0.248039 0.466667
0.037316 0.262745 0.462684
0.239216 0.282231 0.457353
0.395343 0.300858 0.451164
0.513235 0.320588 0.430882
0.642279 0.335784 0.412561
0.776471 0.347549 0.395098
0.902757 0.360478 0.376593
0.988235 0.401471 0.378922
0.000000 0.340686 0.473775
0.033579 0.357414 0.470496
0.238848 0.379718 0.473407
0.396722 0.401501 0.472855
0.524632 0.423407 0.467157
0.658395 0.434804 0.453156
0.786765 0.440625 0.429105
0.913388 0.453769 0.408977
0.993382 0.483088 0.409559
0.000000 0.427451 0.483333
0.033579 0.449632 0.490686
0.236030 0.475981 0.495098
0.397304 0.497671 0.499265
0.538726 0.519608 0.494608
0.675123 0.534926 0.486520
0.794118 0.541667 0.463971
0.921446 0.553431 0.446078
0.996078 0.573529 0.441177
0.000000 0.524020 0.498039
0.036765 0.549510 0.509069
0.235662 0.576164 0.514154
0.395037 0.599295 0.519884
0.548652 0.621446 0.517770
0.687316 0.638021 0.507537
0.803615 0.650184 0.497243
0.925980 0.663879 0.483578
0.996078 0.663235 0.459069
0.013726 0.620588 0.526961
0.117463 0.645649 0.539522
0.275613 0.672671 0.544117
0.407476 0.699694 0.544608
0.558088 0.721814 0.538480
0.693321 0.741115 0.530637
0.810049 0.754534 0.522059
0.919546 0.768566 0.513174
0.976471 0.771568 0.504412
0.175490 0.715196 0.577206
0.294822 0.741666 0.590931
0.395895 0.765196 0.600735
0.500490 0.791759 0.604595
0.609436 0.815441 0.599510
0.715196 0.840931 0.591575
0.814890 0.859927 0.572610
0.915410 0.879442 0.557353
0.968627 0.880147 0.546323
0.370588 0.801961 0.641177
0.442402 0.823284 0.658578
0.523039 0.853431 0.677941
0.612745 0.878431 0.690196
0.700981 0.906862 0.700000
0.776961 0.927696 0.700735
0.853921 0.950491 0.694608
0.934313 0.972549 0.683333
0.972549 0.976471 0.649020
0.000000 0.050980 0.539216
0.042035 0.050980 0.533640
0.228922 0.058211 0.522426
0.394118 0.066667 0.502390
0.507353 0.098040 0.459314
0.626042 0.124510 0.423101
0.764706 0.141176 0.414093
0.885601 0.179412 0.400490
0.960784 0.258824 0.400490
0.000000 0.148530 0.552941
0.023116 0.159911 0.547832
0.216146 0.170588 0.533869
0.384398 0.181012 0.519094
0.511765 0.206128 0.497794
0.632843 0.237745 0.462822
0.769976 0.256664 0.450383
0.895282 0.279213 0.436397
0.973836 0.333823 0.434008
0.000000 0.259191 0.562378
0.012623 0.270956 0.559084
0.196477 0.286274 0.552604
0.372595 0.301960 0.549081
0.513726 0.320588 0.531434
0.642969 0.347182 0.503692
0.775367 0.361765 0.488358
0.905116 0.374525 0.472702
0.992157 0.413725 0.468015
0.000000 0.349081 0.576042
0.008157 0.367647 0.569654
0.191866 0.383073 0.570267
0.374801 0.403087 0.569830
0.520833 0.425000 0.565870
0.658395 0.447694 0.547143
0.785524 0.455653 0.527374
0.915686 0.466177 0.507835
0.996078 0.497549 0.501899
0.000000 0.440686 0.585539
0.010785 0.459161 0.586336
0.194240 0.481373 0.593260
0.376532 0.503952 0.596415
0.530269 0.527819 0.597181
0.674510 0.550490 0.586213
0.796569 0.557231 0.568934
0.924449 0.565196 0.546078
0.996078 0.587010 0.534559
0.000000 0.537745 0.601961
0.011895 0.560853 0.610302
0.196844 0.584191 0.615104
0.375973 0.608356 0.618451
0.539492 0.631373 0.621875
0.685669 0.653493 0.616751
0.805254 0.665303 0.603064
0.927144 0.675551 0.584636
0.996078 0.686765 0.568750
0.005883 0.634682 0.619608
0.087393 0.658686 0.632583
0.256189 0.680484 0.636765
0.397380 0.707353 0.641835
0.555392 0.732905 0.645711
0.695021 0.752329 0.642662
0.810509 0.766575 0.632139
0.919393 0.775980 0.618290
0.983334 0.783333 0.612868
0.160049 0.726654 0.652267
0.294332 0.747656 0.664032
0.391269 0.769577 0.677757
0.493076 0.796078 0.684873
0.610784 0.824755 0.688052
0.718627 0.848530 0.686221
0.816605 0.868030 0.676945
0.922549 0.881863 0.660884
0.972549 0.884191 0.648529
0.370098 0.809314 0.702451
0.449510 0.834497 0.724020
0.523529 0.858824 0.739216
0.608333 0.884804 0.751961
0.698039 0.911764 0.765686
0.780331 0.935723 0.771568
0.860785 0.960784 0.769731
0.942156 0.980392 0.764706
0.984314 0.988235 0.761274
0.003922 0.071569 0.634314
0.018628 0.066667 0.626470
0.186520 0.078676 0.619608
0.373774 0.099020 0.594485
0.519118 0.121078 0.570588
0.632966 0.146446 0.522304
0.763971 0.167647 0.501225
0.884191 0.203309 0.489216
0.964706 0.279411 0.485294
0.000000 0.164093 0.652696
0.003432 0.171890 0.649403
0.169485 0.187255 0.636152
0.359513 0.200000 0.618581
0.511091 0.218443 0.603432
0.640686 0.249280 0.562377
0.772059 0.275643 0.536213
0.892157 0.298422 0.523208
0.976961 0.352451 0.518750
0.000000 0.272549 0.672794
0.000000 0.283885 0.657782
0.147978 0.299816 0.653737
0.347304 0.313511 0.644209
0.500000 0.330024 0.628922
0.644914 0.352941 0.600122
0.772549 0.375858 0.575919
0.906863 0.394485 0.564461
0.992157 0.433333 0.557843
0.000000 0.363480 0.682475
0.000000 0.378447 0.666896
0.144700 0.397304 0.666299
0.347151 0.410861 0.664905
0.506863 0.432292 0.660111
0.657629 0.452344 0.642494
0.783946 0.470833 0.615349
0.911719 0.482583 0.599924
0.996078 0.511397 0.592525
0.000000 0.453432 0.691667
0.000000 0.471446 0.684007
0.147672 0.493260 0.686397
0.348530 0.509804 0.684804
0.511765 0.536274 0.687255
0.666360 0.558824 0.679473
0.793260 0.574265 0.661765
0.916973 0.581801 0.644301
0.996078 0.600980 0.628921
0.000000 0.551593 0.698040
0.002896 0.573361 0.701133
0.151287 0.595956 0.707843
0.347656 0.615303 0.708823
0.518198 0.640747 0.713725
0.677022 0.665870 0.711902
0.803768 0.680729 0.703554
0.923530 0.689338 0.688619
0.996078 0.698530 0.667157
0.000981 0.647059 0.705882
0.059804 0.669761 0.719700
0.229473 0.691789 0.726593
0.377114 0.712990 0.731127
0.536642 0.739829 0.738848
0.687898 0.758701 0.741023
0.807598 0.775552 0.736091
0.920251 0.788603 0.725215
0.988235 0.791912 0.705882
0.145588 0.734436 0.731863
0.286673 0.755101 0.740518
0.386734 0.777543 0.752206
0.482629 0.799693 0.760738
0.597243 0.827390 0.772487
0.714629 0.853783 0.779320
0.817984 0.872396 0.775429
0.922289 0.888665 0.764338
0.980392 0.891667 0.745098
0.375491 0.815686 0.766667
0.450367 0.839216 0.782353
0.522304 0.861765 0.797304
0.599510 0.885417 0.812255
0.692157 0.915686 0.828922
0.776961 0.940809 0.839338
0.860294 0.963480 0.842157
0.945220 0.984314 0.841667
0.988235 0.988235 0.817647
0.051960 0.110784 0.710294
0.051960 0.098529 0.710784
0.165441 0.117157 0.701348
0.347427 0.141666 0.670711
0.497549 0.163725 0.652451
0.633333 0.191973 0.630883
0.745098 0.220588 0.592647
0.867647 0.252022 0.580944
0.960784 0.306372 0.573529
0.009252 0.183334 0.734313
0.015862 0.194493 0.733770
0.134543 0.211091 0.720787
0.335677 0.228638 0.700023
0.487776 0.250031 0.685294
0.634689 0.275291 0.662278
0.759099 0.309804 0.628309
0.875981 0.337201 0.616123
0.975981 0.375981 0.608395
0.000000 0.291667 0.757843
0.000000 0.300245 0.750812
0.096844 0.318229 0.743014
0.320205 0.332981 0.733333
0.477145 0.349816 0.719853
0.635539 0.368183 0.700352
0.768628 0.395772 0.669516
0.898483 0.421247 0.655714
0.988112 0.456005 0.647549
0.000000 0.380086 0.776164
0.000000 0.393972 0.761764
0.093076 0.414338 0.764706
0.318359 0.426854 0.758824
0.480086 0.444056 0.753339
0.640357 0.463312 0.741498
0.780347 0.486443 0.716283
0.907621 0.506334 0.694202
0.992157 0.535968 0.684804
0.000000 0.468873 0.789215
0.000000 0.489706 0.777267
0.097978 0.508946 0.780392
0.314890 0.525490 0.777022
0.481863 0.545466 0.779534
0.647733 0.571477 0.776930
0.789522 0.589277 0.761213
0.911765 0.604902 0.742188
0.992157 0.624265 0.726961
0.000000 0.565686 0.792586
0.000000 0.589852 0.794179
0.100092 0.611688 0.802849
0.313917 0.629121 0.804649
0.483640 0.649510 0.809651
0.656081 0.675000 0.808915
0.795849 0.695588 0.803646
0.918850 0.711910 0.792157
0.996078 0.720772 0.771568
0.000858 0.661765 0.797549
0.035861 0.682552 0.808732
0.193688 0.704933 0.821017
0.349954 0.720267 0.828539
0.506250 0.741728 0.834191
0.671615 0.767785 0.839200
0.800643 0.787378 0.838480
0.916421 0.803431 0.833242
0.992157 0.806863 0.814216
0.167524 0.746998 0.805393
0.283724 0.765694 0.820650
0.375996 0.784819 0.832093
0.465932 0.803815 0.844952
0.579197 0.830668 0.858854
0.700038 0.857683 0.870351
0.814384 0.879534 0.873208
0.918742 0.899027 0.869003
0.984314 0.895160 0.845159
0.375981 0.827451 0.836274
0.446569 0.847059 0.851899
0.511764 0.866667 0.864093
0.587439 0.886275 0.879718
0.674020 0.913725 0.895098
0.767157 0.942463 0.908640
0.853431 0.965686 0.918750
0.942156 0.984314 0.918689
0.992157 0.988235 0.899510
0.129412 0.172549 0.756863
0.141666 0.145588 0.761274
0.182353 0.159804 0.757843
0.325980 0.181373 0.733333
0.470588 0.209804 0.721569
0.605882 0.240686 0.708333
0.733333 0.276471 0.682353
0.833334 0.314215 0.662255
0.937255 0.349020 0.658824
0.078921 0.210785 0.783824
0.083824 0.222487 0.779902
0.144363 0.242034 0.780882
0.312806 0.263726 0.768137
0.462745 0.287010 0.754412
0.605882 0.317647 0.740502
0.740686 0.349878 0.717524
0.848101 0.383824 0.697549
0.956863 0.418628 0.697059
0.009804 0.313725 0.817647
0.008823 0.321201 0.814706
0.079167 0.341176 0.813971
0.293015 0.357475 0.806863
0.453431 0.377941 0.796568
0.607353 0.399510 0.781250
0.752942 0.429412 0.765931
0.871569 0.461275 0.744117
0.971569 0.492157 0.736274
0.000000 0.395588 0.843137
0.000000 0.414706 0.834130
0.062990 0.434436 0.843873
0.286274 0.450490 0.845588
0.452941 0.466912 0.840931
0.613725 0.487255 0.827512
0.761152 0.510662 0.811765
0.884314 0.543321 0.788726
0.980392 0.572059 0.777451
0.000000 0.486274 0.854902
0.000000 0.505392 0.849265
0.067647 0.528922 0.860785
0.291176 0.547549 0.866667
0.452941 0.566667 0.874510
0.618628 0.588235 0.873774
0.772058 0.608823 0.857843
0.897794 0.635784 0.835295
0.988235 0.656863 0.819608
0.000000 0.582353 0.864216
0.000000 0.607843 0.870282
0.098652 0.629044 0.883824
0.300000 0.646078 0.895037
0.462745 0.664461 0.903431
0.628431 0.686765 0.908885
0.776838 0.710294 0.905269
0.903922 0.730208 0.885110
0.988235 0.737745 0.860294
0.000981 0.677451 0.879412
0.043015 0.699632 0.894118
0.209804 0.718627 0.909804
0.351838 0.734191 0.921569
0.495588 0.751471 0.927941
0.643260 0.771936 0.937255
0.780393 0.792157 0.934313
0.900858 0.811274 0.926471
0.985294 0.826470 0.913725
0.176471 0.757843 0.886275
0.275552 0.777022 0.901532
0.358579 0.792647 0.916666
0.450612 0.809436 0.929412
0.560049 0.832598 0.939215
0.673223 0.853738 0.949510
0.788726 0.873039 0.956863
0.899571 0.895098 0.956434
0.984314 0.903432 0.941666
0.372549 0.831373 0.898039
0.434314 0.847059 0.909804
0.492157 0.861765 0.921569
0.557843 0.880882 0.935784
0.637255 0.900000 0.949020
0.729902 0.926961 0.966176
0.822549 0.952941 0.980392
0.930392 0.980392 0.988235
0.992157 0.992157 0.988235
