calib/LUT LIBRARY/nostalgic_neg_composed.cube
TITLE "nostalgic_neg_composed_v1.0"
#LUMIXPHOTOSTYLE STD
LUT_3D_SIZE 9
0.047974 0.039085 0.057908
0.196280 0.050478 0.026747
0.305098 0.043137 0.007059
0.395490 0.051078 0.003922
0.494902 0.055392 0.000000
0.615686 0.074510 0.000000
0.736176 0.110490 0.007157
0.832579 0.157265 0.031373
0.901541 0.195658 0.065406
0.026580 0.144444 0.041830
0.172299 0.148102 0.021277
0.292810 0.141737 0.010271
0.387990 0.155882 0.000408
0.503023 0.172549 0.000000
0.622617 0.192157 0.000000
0.737171 0.219274 0.000000
0.843791 0.247549 0.022958
0.931849 0.285851 0.076100
0.004762 0.233894 0.032026
0.131137 0.243765 0.018039
0.289566 0.252101 0.005952
0.402852 0.264100 0.004920
0.510902 0.282902 0.001255
0.629412 0.303081 0.001190
0.756477 0.326969 0.005079
0.852784 0.342353 0.004627
0.959757 0.369655 0.050420
0.004923 0.322236 0.058990
0.120690 0.339554 0.033536
0.271653 0.350980 0.015126
0.404744 0.361607 0.007527
0.533266 0.377417 0.000879
0.657904 0.394056 0.003799
0.769070 0.413409 0.000886
0.873766 0.435294 0.004395
0.970588 0.455882 0.020098
0.013016 0.407843 0.101460
0.136397 0.423039 0.064645
0.278431 0.440012 0.026042
0.399020 0.455392 0.005882
0.538358 0.478309 0.000490
0.680331 0.494608 0.000000
0.782387 0.510079 0.000413
0.881801 0.532353 0.000000
0.976552 0.549510 0.003431
0.070088 0.496788 0.157113
0.187959 0.513118 0.138028
0.306545 0.532781 0.101961
0.412187 0.555234 0.066908
0.548191 0.579508 0.038940
0.679521 0.602451 0.026035
0.790709 0.618522 0.023529
0.896161 0.635405 0.023750
0.973784 0.650399 0.018882
0.122794 0.590686 0.208742
0.223592 0.610333 0.197635
0.320352 0.633604 0.174239
0.424899 0.654466 0.146654
0.555618 0.685403 0.077435
0.678002 0.705760 0.028615
0.789520 0.723732 0.012373
0.897915 0.743729 0.006287
0.957271 0.747876 0.011275
0.222316 0.689169 0.289542
0.301235 0.708351 0.297676
0.395848 0.737639 0.302730
0.494538 0.764706 0.287675
0.605011 0.792157 0.265723
0.698270 0.816148 0.218762
0.793847 0.838134 0.143272
0.885258 0.846696 0.089906
0.933240 0.854435 0.077684
0.356863 0.768758 0.395817
0.427451 0.796078 0.420098
0.501961 0.819608 0.439216
0.587745 0.850980 0.447059
0.682843 0.875000 0.454902
0.749020 0.894118 0.447059
0.830882 0.917157 0.424020
0.898529 0.933333 0.379608
0.925490 0.933333 0.301307
0.034667 0.035294 0.183529
0.169314 0.050490 0.121765
0.285098 0.051667 0.081176
0.387451 0.058824 0.058263
0.492059 0.066667 0.046275
0.619510 0.078529 0.034118
0.745098 0.109804 0.031373
0.840980 0.156471 0.049804
0.918824 0.203922 0.077647
0.015593 0.130439 0.150327
0.151063 0.140679 0.131897
0.279686 0.148863 0.102196
0.384804 0.160504 0.081933
0.498396 0.177825 0.064100
0.625490 0.192717 0.044678
0.742330 0.212380 0.033449
0.845134 0.241640 0.049626
0.940243 0.281699 0.097946
0.008007 0.229412 0.143219
0.134143 0.248179 0.126611
0.290265 0.256140 0.114138
0.396385 0.265196 0.099142
0.508808 0.281295 0.083722
0.635767 0.302096 0.065044
0.760100 0.316215 0.052537
0.868161 0.338002 0.052350
0.956699 0.367565 0.092239
0.003828 0.323810 0.163585
0.114076 0.346779 0.148529
0.282353 0.355182 0.127811
0.397829 0.362955 0.095098
0.525210 0.375350 0.089776
0.652784 0.394275 0.088157
0.770909 0.418111 0.072870
0.885924 0.434454 0.067787
0.975910 0.456583 0.092997
0.006069 0.411018 0.186648
0.118824 0.436627 0.174510
0.274296 0.449412 0.146667
0.400630 0.464916 0.119608
0.542118 0.485412 0.090588
0.671989 0.497479 0.091106
0.784957 0.516876 0.104147
0.899216 0.536078 0.086196
0.985714 0.547899 0.075257
0.022502 0.502895 0.220822
0.142980 0.522196 0.213176
0.279396 0.539312 0.191128
0.401541 0.562185 0.162535
0.545725 0.585569 0.134039
0.685714 0.604972 0.101821
0.804278 0.624029 0.089840
0.909176 0.639843 0.090745
0.986555 0.651541 0.068908
0.067134 0.595612 0.274230
0.190826 0.619048 0.263235
0.306373 0.643137 0.255672
0.419608 0.670188 0.232093
0.550980 0.693697 0.200630
0.682143 0.717507 0.157423
0.795518 0.733333 0.118768
0.907703 0.749020 0.095168
0.960878 0.760317 0.067507
0.218487 0.694118 0.362372
0.302574 0.720037 0.370282
0.400061 0.744179 0.374203
0.500910 0.771639 0.373039
0.611274 0.798591 0.354534
0.706311 0.822917 0.328493
0.804902 0.842647 0.273950
0.891850 0.861213 0.217157
0.944180 0.871589 0.189570
0.363922 0.776471 0.455033
0.434804 0.800000 0.481667
0.505882 0.827451 0.494006
0.598529 0.858333 0.505882
0.690196 0.882647 0.512941
0.766863 0.909608 0.504608
0.843922 0.929412 0.493333
0.907647 0.948333 0.438922
0.937990 0.948897 0.356250
0.016471 0.031261 0.279776
0.145191 0.039122 0.247059
0.273529 0.054739 0.192647
0.380882 0.067157 0.172549
0.494118 0.074510 0.152941
0.623203 0.089461 0.145098
0.754003 0.101716 0.125082
0.859384 0.141176 0.117740
0.933660 0.211111 0.133551
0.001722 0.119177 0.271353
0.121497 0.135472 0.251194
0.282567 0.158004 0.225668
0.388312 0.172395 0.207612
0.500250 0.187665 0.192513
0.630303 0.206916 0.171408
0.756259 0.212293 0.149623
0.872299 0.240998 0.142531
0.957516 0.293371 0.171522
0.000560 0.234734 0.268347
0.107843 0.258027 0.264461
0.280367 0.275630 0.262541
0.400811 0.289723 0.239824
0.509559 0.301042 0.229963
0.637761 0.316698 0.205187
0.768830 0.327857 0.185936
0.886458 0.345159 0.172794
0.975000 0.380229 0.189788
0.011402 0.329484 0.281336
0.114112 0.350400 0.281138
0.293199 0.365686 0.273529
0.406046 0.378431 0.259858
0.525711 0.395084 0.250152
0.657143 0.408571 0.234398
0.783377 0.425637 0.220661
0.900746 0.440431 0.201381
0.984168 0.468482 0.209513
0.000082 0.420098 0.294363
0.103064 0.440931 0.293382
0.274650 0.459734 0.279412
0.402941 0.475429 0.271078
0.538603 0.491667 0.255331
0.667157 0.507353 0.253922
0.791544 0.523039 0.249203
0.913235 0.542034 0.230637
0.991585 0.554820 0.231209
0.014052 0.507761 0.320588
0.112194 0.534191 0.312806
0.276367 0.554386 0.307602
0.404963 0.574510 0.296201
0.547426 0.598591 0.280392
0.687307 0.616099 0.274372
0.797759 0.633551 0.265297
0.912132 0.650858 0.259375
0.983905 0.663154 0.245507
0.038749 0.603455 0.358450
0.171059 0.626667 0.355294
0.296827 0.649982 0.345241
0.415686 0.677381 0.339216
0.554824 0.701412 0.317569
0.690546 0.725000 0.300560
0.801350 0.742977 0.288332
0.913725 0.755765 0.277490
0.973950 0.763119 0.263959
0.206611 0.701401 0.430364
0.297218 0.725855 0.439307
0.395043 0.749464 0.445061
0.499625 0.779391 0.445056
0.611856 0.805016 0.438030
0.709069 0.831373 0.418873
0.806592 0.851564 0.375219
0.902417 0.866393 0.343912
0.951933 0.873389 0.321681
0.372549 0.784314 0.521569
0.433725 0.807549 0.532745
0.513726 0.839804 0.556667
0.607843 0.866667 0.576471
0.696569 0.900980 0.580392
0.776471 0.917647 0.576373
0.847059 0.941176 0.564706
0.920882 0.956961 0.529412
0.949020 0.956863 0.426025
0.007582 0.032157 0.360131
0.106569 0.032157 0.339902
0.269804 0.047843 0.313613
0.379118 0.074804 0.277647
0.491765 0.090196 0.254902
0.619832 0.106331 0.246275
0.756471 0.106471 0.223235
0.875196 0.143431 0.216176
0.943922 0.224837 0.224052
0.002984 0.127707 0.360443
0.091413 0.142326 0.349899
0.271771 0.160535 0.338189
0.388173 0.185808 0.308932
0.496957 0.202231 0.291616
0.632431 0.214753 0.281855
0.765917 0.233852 0.262457
0.881542 0.249561 0.243205
0.957971 0.311424 0.263427
0.003758 0.239297 0.373366
0.075490 0.258333 0.369118
0.269484 0.279757 0.365093
0.398039 0.301042 0.352022
0.514216 0.313235 0.341317
0.639277 0.324694 0.321691
0.777315 0.337255 0.295264
0.895588 0.352451 0.275980
0.980229 0.388072 0.283252
0.000000 0.332516 0.376062
0.068691 0.355914 0.379696
0.266124 0.376290 0.379306
0.400713 0.395603 0.378966
0.524731 0.407843 0.367426
0.651471 0.419485 0.348100
0.783250 0.433832 0.324427
0.907274 0.446237 0.310247
0.990768 0.470507 0.315196
0.001120 0.418487 0.389076
0.066169 0.442702 0.390974
0.265993 0.466054 0.392708
0.410683 0.488979 0.392765
0.542982 0.502023 0.383380
0.672891 0.516589 0.373794
0.791954 0.528398 0.356660
0.918270 0.544538 0.344227
0.995915 0.563480 0.341095
0.004085 0.512337 0.405637
0.075061 0.536642 0.412806
0.264706 0.565686 0.412255
0.403431 0.586642 0.408333
0.549571 0.602880 0.398468
0.687666 0.621758 0.385705
0.803989 0.633671 0.378499
0.922488 0.652880 0.375797
0.992565 0.664542 0.362255
0.026961 0.609314 0.435784
0.144975 0.633088 0.446507
0.292879 0.660475 0.444307
0.414645 0.687623 0.434436
0.560601 0.711275 0.429412
0.693347 0.728361 0.414216
0.801326 0.744546 0.411323
0.915625 0.760049 0.397365
0.976471 0.763235 0.388889
0.206245 0.704720 0.506899
0.309804 0.729301 0.520795
0.413695 0.758371 0.534178
0.513508 0.784913 0.536383
0.623640 0.810881 0.530793
0.719669 0.836336 0.514583
0.814434 0.853268 0.492756
0.916432 0.872521 0.464015
0.961728 0.875817 0.446768
0.365359 0.792810 0.576688
0.438842 0.819981 0.600093
0.528350 0.846650 0.615686
0.616176 0.875000 0.631373
0.698133 0.894118 0.639216
0.775980 0.925490 0.639052
0.855964 0.944526 0.631291
0.926144 0.967974 0.607283
0.961329 0.960240 0.526688
0.003922 0.039216 0.444444
0.070588 0.046487 0.439379
0.259384 0.046499 0.424370
0.394199 0.062092 0.396650
0.494281 0.093954 0.349183
0.626225 0.113562 0.333824
0.764799 0.121569 0.321569
0.879167 0.161111 0.309804
0.957298 0.242702 0.309804
0.000000 0.133894 0.451989
0.058333 0.145588 0.451225
0.246238 0.158960 0.433561
0.393826 0.173050 0.413934
0.503595 0.204575 0.385212
0.625627 0.226357 0.369357
0.770046 0.243554 0.356863
0.885784 0.260539 0.338562
0.965342 0.317753 0.345098
0.003004 0.246558 0.468669
0.039951 0.261642 0.462010
0.239419 0.280663 0.457268
0.397090 0.300253 0.452245
0.513603 0.320956 0.433333
0.643340 0.339013 0.417444
0.778368 0.348071 0.399557
0.902328 0.360601 0.379167
0.983088 0.400409 0.377288
0.012505 0.338069 0.480873
0.049510 0.353738 0.473591
0.245370 0.375817 0.476906
0.402430 0.395747 0.478597
0.531189 0.416605 0.466483
0.659477 0.434967 0.457407
0.788388 0.439980 0.431780
0.911397 0.456924 0.415012
0.992520 0.482643 0.411910
0.010915 0.427059 0.483725
0.047501 0.445788 0.493179
0.245463 0.472230 0.496580
0.405113 0.497195 0.503996
0.541172 0.521585 0.498095
0.676422 0.535196 0.486863
0.796029 0.541274 0.467206
0.919028 0.554322 0.448661
0.995556 0.576863 0.441503
0.013426 0.522699 0.503157
0.057285 0.548871 0.513130
0.248971 0.573284 0.518382
0.402154 0.597073 0.522784
0.553189 0.620501 0.518541
0.687892 0.640147 0.508235
0.801961 0.651471 0.497440
0.921072 0.664979 0.486374
0.991307 0.666601 0.464118
0.047485 0.620205 0.532396
0.146921 0.646838 0.548081
0.298693 0.673203 0.556699
0.422672 0.698101 0.554718
0.565093 0.721458 0.544435
0.694662 0.741721 0.541721
0.811885 0.755535 0.530558
0.916763 0.771500 0.521900
0.978542 0.776471 0.510248
0.189449 0.717647 0.583007
0.300963 0.744670 0.596791
0.400538 0.767551 0.604383
0.506233 0.796078 0.607073
0.616185 0.820107 0.603280
0.719857 0.842995 0.598075
0.815533 0.863206 0.578393
0.914011 0.881355 0.560356
0.966573 0.881793 0.549113
0.369076 0.803922 0.639216
0.444118 0.824020 0.654902
0.517647 0.851074 0.678151
0.611274 0.878431 0.686111
0.699510 0.906373 0.693873
0.776471 0.929412 0.705882
0.850572 0.949510 0.694118
0.934314 0.973039 0.685294
0.968627 0.976471 0.650327
0.000112 0.051204 0.540616
0.040441 0.051634 0.532190
0.226797 0.059395 0.520915
0.395425 0.067320 0.501961
0.504412 0.094281 0.455801
0.627369 0.126471 0.419608
0.764332 0.145005 0.415686
0.881209 0.180474 0.399918
0.964706 0.259368 0.403595
0.002148 0.144538 0.551167
0.026287 0.160233 0.548407
0.213599 0.167299 0.530803
0.384855 0.179108 0.516160
0.511887 0.205882 0.498958
0.629902 0.236642 0.461642
0.764846 0.254902 0.450420
0.891667 0.279412 0.438235
0.969199 0.335948 0.437255
0.000840 0.257796 0.565733
0.012885 0.269958 0.561835
0.197439 0.285394 0.554062
0.375140 0.304272 0.549230
0.518627 0.320238 0.537115
0.645658 0.348459 0.503011
0.773109 0.360224 0.491076
0.903151 0.376471 0.474510
0.992717 0.411765 0.466667
0.000373 0.350233 0.576564
0.008754 0.367717 0.569398
0.195518 0.385994 0.572549
0.376261 0.406022 0.569958
0.527171 0.426120 0.568347
0.659765 0.450118 0.548863
0.784314 0.456898 0.526417
0.913165 0.469328 0.507003
0.993184 0.499160 0.501961
0.000000 0.439216 0.584220
0.011485 0.459804 0.590896
0.202001 0.482273 0.592157
0.377801 0.505812 0.596218
0.536555 0.532773 0.595448
0.673647 0.553490 0.584235
0.795508 0.560285 0.568556
0.922759 0.565336 0.544678
0.994958 0.592157 0.533240
0.002241 0.538375 0.608217
0.016157 0.561961 0.612627
0.199440 0.584944 0.619888
0.383102 0.609198 0.619109
0.545333 0.632549 0.624706
0.685246 0.656702 0.622179
0.806043 0.666281 0.602829
0.929882 0.675922 0.588627
0.996172 0.687302 0.570401
0.018356 0.635294 0.621861
0.100203 0.658621 0.633942
0.256807 0.679216 0.633333
0.405756 0.706705 0.643643
0.562813 0.732725 0.644828
0.695037 0.749142 0.644975
0.815686 0.764706 0.632701
0.917106 0.776606 0.620149
0.983007 0.784804 0.609559
0.173717 0.726158 0.658406
0.298223 0.748591 0.671814
0.398444 0.769872 0.685839
0.502580 0.797248 0.691090
0.615870 0.823713 0.694608
0.722672 0.845159 0.688542
0.820028 0.870098 0.683333
0.926471 0.883333 0.668260
0.973121 0.884314 0.653350
0.364837 0.807712 0.698039
0.450000 0.834886 0.728595
0.522059 0.859150 0.745098
0.607843 0.886368 0.752754
0.697631 0.909314 0.768137
0.777043 0.936765 0.772549
0.859477 0.960784 0.772549
0.940196 0.983742 0.764706
0.984205 0.988235 0.760784
0.004516 0.066429 0.636007
0.019720 0.066555 0.631933
0.185686 0.078333 0.619804
0.378039 0.098431 0.599510
0.522241 0.117647 0.568852
0.630882 0.145000 0.522745
0.760959 0.175948 0.504139
0.883361 0.203361 0.486275
0.960131 0.277778 0.486275
0.002334 0.158263 0.649113
0.007459 0.164937 0.647751
0.180065 0.181961 0.632941
0.360364 0.190756 0.616457
0.516647 0.212764 0.601230
0.637037 0.247567 0.560930
0.771709 0.271709 0.534454
0.887735 0.292118 0.520800
0.970588 0.348086 0.512325
0.000490 0.272059 0.673529
0.000184 0.283640 0.655576
0.152878 0.299367 0.655218
0.352197 0.317512 0.643137
0.503064 0.330515 0.626103
0.644719 0.354649 0.600506
0.770453 0.380798 0.574577
0.906311 0.396446 0.567096
0.988889 0.433088 0.557435
0.011765 0.360131 0.680019
0.012745 0.374449 0.668627
0.157938 0.394371 0.667932
0.358418 0.409060 0.665652
0.512377 0.431189 0.660662
0.659393 0.446932 0.640987
0.784381 0.469574 0.615551
0.908088 0.482721 0.602880
0.991258 0.511601 0.592974
0.000467 0.454342 0.694304
0.004902 0.466597 0.679062
0.157903 0.493557 0.686435
0.347339 0.508753 0.683473
0.517717 0.537185 0.686555
0.670168 0.564566 0.678081
0.789356 0.571989 0.662825
0.922619 0.583333 0.643277
0.996639 0.599907 0.623810
0.019608 0.553922 0.699020
0.035539 0.570527 0.704350
0.181011 0.596698 0.709598
0.368441 0.615997 0.711547
0.529718 0.640380 0.718750
0.678634 0.667748 0.718120
0.803735 0.683660 0.703081
0.924632 0.693934 0.690074
0.996569 0.702451 0.669118
0.008260 0.645807 0.705382
0.076961 0.668627 0.725000
0.240568 0.689452 0.727654
0.383940 0.711236 0.734205
0.548529 0.738480 0.739645
0.686410 0.756457 0.742596
0.807665 0.777778 0.743613
0.920772 0.789583 0.723958
0.989255 0.790353 0.708784
0.168721 0.738282 0.733800
0.298116 0.761707 0.745944
0.395009 0.781390 0.759501
0.491408 0.805134 0.768485
0.606613 0.833833 0.777470
0.720728 0.857143 0.786835
0.819085 0.874379 0.773856
0.926028 0.895809 0.771396
0.984314 0.895705 0.752754
0.376993 0.816340 0.769412
0.454118 0.839216 0.788796
0.520610 0.861002 0.793551
0.600490 0.886765 0.812647
0.698039 0.913725 0.823641
0.773137 0.940686 0.835294
0.859804 0.964510 0.839608
0.945882 0.984314 0.847059
0.991634 0.988105 0.816340
0.050221 0.110563 0.709804
0.047157 0.098824 0.710294
0.167619 0.121681 0.701961
0.348137 0.138235 0.674314
0.502745 0.165980 0.647451
0.630588 0.192941 0.631373
0.744412 0.220686 0.592549
0.871275 0.252647 0.583824
0.959085 0.305359 0.576340
0.013154 0.182353 0.735539
0.020557 0.191651 0.730867
0.137863 0.208857 0.720757
0.337071 0.224755 0.700306
0.489627 0.251360 0.684503
0.634077 0.271805 0.660717
0.759596 0.308734 0.627094
0.875142 0.334851 0.612524
0.972876 0.372304 0.607108
0.003268 0.283733 0.754975
0.004046 0.295425 0.748210
0.112295 0.311076 0.741123
0.326416 0.327560 0.735893
0.484967 0.343355 0.720261
0.635893 0.364760 0.701089
0.770337 0.395023 0.669633
0.893246 0.416620 0.651229
0.985694 0.450908 0.647059
0.001389 0.379902 0.779330
0.000550 0.391606 0.764156
0.111485 0.413613 0.762745
0.319669 0.426532 0.757782
0.486550 0.442656 0.752322
0.641892 0.463119 0.743791
0.781985 0.486765 0.717157
0.906433 0.506089 0.695218
0.991585 0.536438 0.682435
0.000000 0.468219 0.786193
0.003370 0.484804 0.778554
0.104264 0.508061 0.779707
0.314537 0.523191 0.777417
0.484130 0.545711 0.778493
0.646110 0.572486 0.778115
0.786477 0.586072 0.756863
0.914461 0.602574 0.740502
0.992892 0.621405 0.724591
0.002241 0.570962 0.791877
0.006660 0.587302 0.794896
0.113480 0.612500 0.802267
0.323259 0.629074 0.807775
0.487208 0.652412 0.808528
0.654964 0.673638 0.809337
0.797228 0.696957 0.807775
0.916838 0.718270 0.793526
0.995588 0.724265 0.773203
0.012255 0.661111 0.801062
0.053125 0.681250 0.809436
0.201471 0.706863 0.824020
0.354902 0.722917 0.831556
0.517647 0.741544 0.835968
0.673814 0.770272 0.839658
0.799256 0.790399 0.839824
0.919363 0.803922 0.832721
0.990033 0.809804 0.815359
0.187827 0.749755 0.809232
0.291422 0.769914 0.828002
0.385827 0.785896 0.839972
0.472207 0.805166 0.848428
0.591360 0.838603 0.863848
0.709942 0.860888 0.872996
0.821017 0.881556 0.877328
0.923039 0.901961 0.876348
0.987418 0.902533 0.852042
0.376580 0.827451 0.832026
0.450980 0.847549 0.855392
0.513819 0.866573 0.866947
0.587827 0.886193 0.878922
0.675980 0.914052 0.894363
0.772362 0.941176 0.906536
0.855065 0.964624 0.917647
0.942810 0.984722 0.917647
0.991119 0.992157 0.897347
0.128105 0.176471 0.756863
0.144281 0.146160 0.764706
0.183088 0.161438 0.756373
0.324183 0.181046 0.733333
0.467402 0.215768 0.725490
0.603676 0.239706 0.705882
0.732680 0.275163 0.682353
0.833742 0.313235 0.662745
0.936275 0.349455 0.658824
0.076012 0.209095 0.781811
0.082843 0.220895 0.780453
0.142306 0.239814 0.779727
0.311347 0.261588 0.766956
0.462684 0.284069 0.750919
0.604167 0.315074 0.738358
0.740336 0.349370 0.715196
0.846507 0.380025 0.692892
0.954330 0.416422 0.693137
0.013100 0.312057 0.819191
0.011018 0.316962 0.817803
0.084381 0.338337 0.817918
0.293869 0.352941 0.804295
0.459695 0.372798 0.795518
0.609263 0.398513 0.782218
0.752880 0.429902 0.763297
0.868161 0.462309 0.741674
0.970261 0.495588 0.737745
0.010106 0.399170 0.840196
0.020105 0.418669 0.832146
0.083680 0.432760 0.840543
0.295609 0.451919 0.839878
0.460536 0.469539 0.836509
0.612971 0.489955 0.822443
0.760022 0.515359 0.813072
0.882574 0.548246 0.785142
0.977197 0.575381 0.773856
0.021162 0.487458 0.854976
0.026063 0.505038 0.849834
0.094891 0.527865 0.860591
0.308810 0.547252 0.861972
0.465279 0.567240 0.870709
0.619774 0.585197 0.867164
0.774586 0.610491 0.853119
0.896229 0.639879 0.834329
0.988816 0.660349 0.818809
0.004330 0.584804 0.868464
0.001961 0.604412 0.871078
0.112773 0.624986 0.880952
0.305453 0.646998 0.894792
0.468067 0.662815 0.902661
0.623652 0.688725 0.909804
0.778220 0.712338 0.904314
0.905392 0.729412 0.882353
0.988072 0.741176 0.864052
0.012337 0.676961 0.880882
0.054269 0.696268 0.892030
0.215988 0.715354 0.906486
0.356119 0.729547 0.916092
0.500506 0.752119 0.927704
0.644485 0.772304 0.938419
0.780459 0.789299 0.935061
0.899873 0.811828 0.927641
0.981536 0.825980 0.909314
0.181699 0.758824 0.886710
0.269143 0.775095 0.902030
0.357718 0.788806 0.917362
0.452706 0.804706 0.929725
0.558053 0.831162 0.935504
0.675651 0.854403 0.950517
0.789696 0.874510 0.956632
0.899419 0.893609 0.956209
0.985341 0.902521 0.938842
0.372418 0.831373 0.898039
0.430882 0.843627 0.910588
0.497386 0.862854 0.922331
0.556058 0.881951 0.938059
0.639216 0.898039 0.946078
0.730618 0.925892 0.961890
0.823420 0.952832 0.980501
0.926569 0.980392 0.984804
0.992157 0.992157 0.992157
