calib/LUT LIBRARY/nostalgic_neg_composed.cube
TITLE "nostalgic_neg_composed_v1.0"
#LUMIXPHOTOSTYLE STD
LUT_3D_SIZE 33
0.047974 0.039085 0.057908
0.087481 0.039417 0.039517
0.121133 0.043028 0.038671
0.159608 0.047059 0.031275
0.196280 0.050478 0.026747
0.226144 0.039542 0.022876
0.257745 0.046667 0.015588
0.279706 0.043137 0.011373
0.305098 0.043137 0.007059
0.328137 0.047059 0.007059
0.349129 0.043246 0.003922
0.363801 0.054198 0.003922
0.395490 0.051078 0.003922
0.419608 0.050980 0.003922
0.437843 0.054510 0.003922
0.469510 0.055000 0.003922
0.494902 0.055392 0.000000
0.521569 0.062745 0.000000
0.556275 0.066667 0.000000
0.589706 0.067157 0.000294
0.615686 0.074510 0.000000
0.650196 0.078922 0.000000
0.679236 0.090598 0.004223
0.708606 0.097930 0.007081
0.736176 0.110490 0.007157
0.758371 0.118451 0.012670
0.783987 0.129303 0.022658
0.807843 0.145196 0.023235
0.832579 0.157265 0.031373
0.852702 0.168914 0.046676
0.877941 0.176569 0.051275
0.894771 0.189356 0.059757
0.901541 0.195658 0.065406
0.046950 0.063072 0.056318
0.075870 0.065946 0.044818
0.118500 0.064194 0.035124
0.158114 0.070755 0.035962
0.189216 0.064973 0.025936
0.221193 0.067084 0.025031
0.251226 0.064461 0.014134
0.268546 0.066095 0.017320
0.294201 0.063913 0.006592
0.325163 0.061846 0.006536
0.347619 0.067414 0.009991
0.367157 0.069199 0.003676
0.392402 0.075163 0.005719
0.419514 0.075163 0.000187
0.438480 0.076471 0.003186
0.464461 0.079248 0.003186
0.496945 0.083083 0.000000
0.524405 0.087443 0.000000
0.559886 0.091340 0.000000
0.588509 0.094938 0.000000
0.618273 0.099124 0.000000
0.650654 0.106863 0.000000
0.680620 0.114546 0.000000
0.705048 0.122069 0.003254
0.735257 0.139697 0.011321
0.759690 0.139444 0.010488
0.780726 0.153859 0.011765
0.808252 0.166095 0.019444
0.834200 0.177291 0.029457
0.854657 0.185703 0.041748
0.882186 0.197247 0.049729
0.904682 0.209124 0.063866
0.915251 0.215577 0.064597
0.039216 0.089760 0.049782
0.063399 0.091258 0.042484
0.104403 0.090270 0.035812
0.145811 0.094029 0.030660
0.187553 0.090367 0.029412
0.217647 0.091176 0.022304
0.246168 0.086988 0.017469
0.271339 0.087276 0.009095
0.293709 0.090196 0.006863
0.318468 0.089558 0.009302
0.342595 0.090780 0.010513
0.368137 0.094199 0.003350
0.391610 0.095577 0.003192
0.411514 0.098623 0.000000
0.442647 0.103023 0.003268
0.466119 0.109804 0.003192
0.499040 0.113725 0.000000
0.529248 0.117647 0.000000
0.562791 0.121477 0.003192
0.586928 0.130642 0.005306
0.620180 0.132680 0.000000
0.650433 0.137073 0.000000
0.683771 0.137922 0.000000
0.711520 0.150000 0.003268
0.735829 0.158824 0.006952
0.756362 0.168294 0.003922
0.784559 0.181127 0.013644
0.810579 0.189512 0.021705
0.836963 0.199583 0.029287
0.858824 0.205474 0.037745
0.879768 0.219786 0.046078
0.904148 0.229864 0.063273
0.918083 0.238235 0.071678
0.026797 0.117429 0.046078
0.063317 0.117647 0.044526
0.097813 0.116893 0.033937
0.138681 0.121212 0.032799
0.178350 0.117810 0.021078
0.210606 0.118004 0.021480
0.243478 0.113896 0.015431
0.269526 0.113562 0.013971
0.293672 0.114884 0.010160
0.312702 0.114408 0.007161
0.340850 0.117729 0.003922
0.370856 0.121569 0.009002
0.393777 0.124638 0.003666
0.414052 0.128840 0.003268
0.442499 0.133333 0.003830
0.465499 0.136754 0.003338
0.503513 0.144363 0.003186
0.530556 0.146078 0.000000
0.557516 0.152288 0.000000
0.589836 0.154222 0.004562
0.623780 0.164456 0.003254
0.654081 0.167898 0.003283
0.683007 0.171732 0.000000
0.713559 0.181060 0.000334
0.736343 0.190698 0.006110
0.760376 0.199265 0.003268
0.788736 0.204839 0.008427
0.811674 0.212312 0.014957
0.838726 0.223284 0.028595
0.862397 0.228497 0.033551
0.891059 0.241961 0.045255
0.908363 0.251621 0.064266
0.924401 0.262745 0.075817
0.026580 0.144444 0.041830
0.053318 0.144570 0.036275
0.089499 0.147277 0.034074
0.130830 0.146099 0.024531
0.172299 0.148102 0.021277
0.202645 0.141724 0.012585
0.237173 0.141176 0.016748
0.263480 0.144444 0.011356
0.292810 0.141737 0.010271
0.316258 0.141748 0.009804
0.341503 0.145180 0.005882
0.361998 0.149020 0.006536
0.387990 0.155882 0.000408
0.412314 0.158431 0.002275
0.438780 0.163486 0.006972
0.468954 0.167647 0.003268
0.503023 0.172549 0.000000
0.531601 0.175832 0.000000
0.559282 0.180476 0.003254
0.588956 0.187675 0.001281
0.622617 0.192157 0.000000
0.654735 0.196162 0.000000
0.686846 0.203431 0.000000
0.713361 0.208390 0.003192
0.737171 0.219274 0.000000
0.765123 0.224280 0.006174
0.788324 0.231373 0.004011
0.811765 0.238965 0.007927
0.843791 0.247549 0.022958
0.865359 0.254902 0.026797
0.894045 0.266812 0.046478
0.911056 0.275261 0.055903
0.931849 0.285851 0.076100
0.022876 0.168627 0.038126
0.042353 0.165490 0.031451
0.074510 0.168627 0.028218
0.127288 0.169690 0.022876
0.160876 0.169357 0.016325
0.196412 0.168461 0.014602
0.237091 0.168709 0.011111
0.262107 0.172367 0.011218
0.286199 0.170588 0.010558
0.316830 0.172467 0.007271
0.343821 0.175832 0.005746
0.366208 0.179808 0.000417
0.391748 0.187500 0.003268
0.414706 0.188146 0.004278
0.441302 0.191573 0.003338
0.470343 0.195915 0.003268
0.502417 0.197355 0.003192
0.528577 0.203588 0.000000
0.560703 0.211193 0.000000
0.595349 0.216051 0.000000
0.619191 0.219691 0.000000
0.658824 0.226634 0.003186
0.686548 0.231464 0.000000
0.713225 0.238632 0.000083
0.741013 0.243954 0.000000
0.765686 0.254739 0.006863
0.790989 0.255569 0.003421
0.816258 0.263235 0.009641
0.847059 0.270766 0.018627
0.869906 0.278431 0.028645
0.893954 0.293873 0.039134
0.912365 0.295958 0.049140
0.932462 0.305447 0.068845
0.013519 0.192363 0.038596
0.030065 0.192157 0.029608
0.068877 0.193226 0.026809
0.102718 0.196973 0.020021
0.148003 0.196514 0.017429
0.188235 0.196578 0.012335
0.228281 0.197285 0.011991
0.260494 0.197749 0.013362
0.286625 0.200140 0.008613
0.317949 0.201433 0.005581
0.346726 0.202072 0.006511
0.372549 0.211345 0.003922
0.396386 0.213379 0.005921
0.422367 0.216703 0.004430
0.444748 0.220588 0.003992
0.477124 0.224837 0.004537
0.504742 0.237433 0.001141
0.530339 0.238075 0.000998
0.564006 0.243767 0.001120
0.597647 0.248078 0.001176
0.625597 0.251194 0.000499
0.660463 0.255971 0.001640
0.688120 0.260131 0.001153
0.718289 0.266738 0.002781
0.742637 0.270742 0.001153
0.771218 0.281653 0.001611
0.793512 0.283565 0.001141
0.820890 0.291101 0.004827
0.847059 0.301307 0.015105
0.871499 0.309734 0.021218
0.897059 0.312293 0.030015
0.917219 0.321640 0.043137
0.941457 0.329318 0.063585
0.008678 0.209679 0.033542
0.025460 0.216410 0.028778
0.053955 0.216227 0.022989
0.094975 0.220098 0.023897
0.142608 0.219608 0.019421
0.184111 0.219675 0.012847
0.226144 0.224027 0.012823
0.258640 0.223958 0.009436
0.289993 0.225085 0.005544
0.323063 0.228011 0.008279
0.345580 0.231304 0.004885
0.374939 0.235723 0.001900
0.397386 0.239651 0.001805
0.425112 0.243550 0.006742
0.447549 0.247610 0.002267
0.479490 0.252039 0.004918
0.510613 0.262434 0.000934
0.533874 0.263354 0.001555
0.572181 0.269853 0.003922
0.602404 0.274510 0.001328
0.631643 0.278431 0.000541
0.662929 0.282292 0.004228
0.695066 0.286654 0.000886
0.719743 0.291278 0.001082
0.749265 0.295956 0.001777
0.776906 0.303206 0.001245
0.797295 0.310277 0.004462
0.826953 0.314970 0.001930
0.848988 0.322751 0.012200
0.874203 0.332475 0.021078
0.896608 0.336881 0.023716
0.921814 0.342953 0.041238
0.947059 0.349918 0.054493
0.004762 0.233894 0.032026
0.017367 0.238445 0.025700
0.046508 0.240316 0.026006
0.091194 0.243137 0.021105
0.131137 0.243765 0.018039
0.173739 0.243838 0.010994
0.221604 0.250838 0.015829
0.248880 0.248039 0.010784
0.289566 0.252101 0.005952
0.322709 0.251979 0.008841
0.349490 0.256078 0.005725
0.376261 0.263445 0.004972
0.402852 0.264100 0.004920
0.429176 0.271216 0.002353
0.458683 0.275000 0.008543
0.486845 0.278431 0.004920
0.510902 0.282902 0.001255
0.539146 0.287885 0.004482
0.574545 0.291622 0.001569
0.604471 0.301412 0.004549
0.629412 0.303081 0.001190
0.664314 0.306381 0.000998
0.692392 0.309804 0.001176
0.729342 0.317857 0.001681
0.756477 0.326969 0.005079
0.777020 0.326745 0.001725
0.803782 0.333543 0.004482
0.832799 0.338253 0.004920
0.852784 0.342353 0.004627
0.883053 0.349230 0.011485
0.907665 0.357790 0.017611
0.930513 0.365394 0.037289
0.959757 0.369655 0.050420
0.005042 0.259944 0.033707
0.013585 0.261835 0.030042
0.038344 0.266106 0.029816
0.083713 0.263866 0.021289
0.124860 0.267087 0.023529
0.173476 0.270660 0.017184
0.222353 0.271765 0.013020
0.253361 0.275490 0.009384
0.290267 0.278859 0.008770
0.318980 0.279608 0.009020
0.347969 0.283333 0.007843
0.377469 0.290125 0.004991
0.408627 0.293569 0.004549
0.434664 0.294678 0.004412
0.463173 0.298039 0.007415
0.487216 0.299216 0.001176
0.514636 0.306653 0.002171
0.547899 0.317647 0.002171
0.580952 0.317647 0.001120
0.602314 0.324012 0.005464
0.638025 0.329412 0.001541
0.667787 0.329972 0.000560
0.701471 0.334524 0.001611
0.734664 0.341737 0.004972
0.757983 0.345738 0.000560
0.780602 0.353151 0.002031
0.806233 0.354552 0.000630
0.836495 0.361985 0.004482
0.860574 0.366246 0.001751
0.887629 0.370553 0.005348
0.912111 0.378162 0.016225
0.931942 0.386148 0.024225
0.960317 0.392717 0.043137
0.007516 0.281781 0.042157
0.016048 0.279940 0.037406
0.044521 0.285121 0.032295
0.084922 0.289588 0.026369
0.127941 0.293627 0.019914
0.170168 0.290896 0.018627
0.210723 0.296752 0.011213
0.247794 0.301042 0.010662
0.285294 0.301541 0.006232
0.316360 0.304105 0.006311
0.345658 0.308995 0.002365
0.376127 0.309666 0.004885
0.401961 0.313174 0.002083
0.436703 0.317525 0.002083
0.461369 0.318060 0.001032
0.489461 0.324816 0.000858
0.523836 0.331985 0.004779
0.554902 0.339342 0.004048
0.582759 0.340771 0.001014
0.609923 0.344444 0.003090
0.645984 0.349336 0.001328
0.672684 0.352468 0.001014
0.703860 0.362684 0.001716
0.737571 0.364516 0.003605
0.762204 0.368560 0.001082
0.786520 0.375980 0.003799
0.811132 0.378495 0.001328
0.840230 0.387627 0.000541
0.867341 0.391728 0.005331
0.887857 0.396354 0.005779
0.916929 0.402154 0.012207
0.938480 0.407904 0.018873
0.959722 0.412337 0.033333
0.005065 0.301552 0.049428
0.018711 0.305322 0.039776
0.039351 0.309195 0.038066
0.081066 0.313664 0.033272
0.129855 0.317647 0.028400
0.163895 0.320149 0.025017
0.208088 0.318199 0.017463
0.244818 0.324308 0.016620
0.278498 0.328282 0.010435
0.314154 0.325490 0.009620
0.343264 0.332891 0.002720
0.370859 0.336646 0.005477
0.400858 0.337316 0.005147
0.431776 0.341522 0.004325
0.462475 0.345030 0.001555
0.495037 0.349081 0.001471
0.530234 0.352498 0.003922
0.557539 0.356795 0.001487
0.586275 0.363971 0.000980
0.621632 0.366856 0.004175
0.648344 0.372549 0.002028
0.678983 0.374020 0.001042
0.707464 0.380961 0.004238
0.732928 0.385328 0.001555
0.765370 0.392036 0.001569
0.795705 0.397261 0.000996
0.816565 0.403854 0.004327
0.843995 0.408272 0.001103
0.871284 0.412207 0.002214
0.893982 0.416633 0.001690
0.919776 0.425658 0.006443
0.940686 0.428554 0.015257
0.963154 0.435294 0.026307
0.004923 0.322236 0.058990
0.017617 0.327843 0.053394
0.043439 0.329713 0.046275
0.081481 0.336259 0.040212
0.120690 0.339554 0.033536
0.167157 0.343444 0.025797
0.209677 0.344213 0.017647
0.241785 0.347870 0.016768
0.271653 0.350980 0.015126
0.313915 0.352815 0.012207
0.341717 0.358621 0.009939
0.374142 0.360723 0.005453
0.404744 0.361607 0.007527
0.429615 0.362272 0.001623
0.462010 0.366544 0.001471
0.501708 0.372929 0.001328
0.533266 0.377417 0.000879
0.563664 0.378554 0.000490
0.594647 0.388235 0.001432
0.623732 0.392360 0.001826
0.657904 0.394056 0.003799
0.684781 0.400871 0.001743
0.711662 0.407224 0.001445
0.741912 0.408456 0.004779
0.769070 0.413409 0.000886
0.791360 0.421936 0.003064
0.818689 0.424020 0.000797
0.848134 0.431436 0.000949
0.873766 0.435294 0.004395
0.898407 0.439706 0.001103
0.922707 0.446616 0.002593
0.947632 0.449894 0.011282
0.970588 0.455882 0.020098
0.005664 0.344553 0.066667
0.020620 0.347249 0.065971
0.048297 0.351496 0.054971
0.082995 0.355437 0.045847
0.124930 0.356793 0.037115
0.165918 0.356863 0.028877
0.208078 0.364000 0.020784
0.239146 0.367647 0.014286
0.275936 0.371979 0.012264
0.310667 0.375765 0.009098
0.336695 0.373459 0.008403
0.366275 0.379465 0.007344
0.400392 0.383608 0.004471
0.429859 0.384727 0.001032
0.463173 0.391586 0.000570
0.503686 0.396000 0.000549
0.535014 0.400420 0.000910
0.567927 0.407773 0.000560
0.602139 0.408200 0.003066
0.633412 0.412392 0.000549
0.662815 0.419538 0.000070
0.691907 0.423886 0.003494
0.717726 0.428078 0.000549
0.745938 0.431443 0.001050
0.766947 0.438655 0.000560
0.794958 0.443067 0.000490
0.820868 0.447129 0.000000
0.847699 0.451541 0.000000
0.874440 0.455392 0.000980
0.902389 0.462674 0.000499
0.922799 0.466820 0.001538
0.947479 0.476961 0.008053
0.967600 0.481793 0.009991
0.008007 0.361275 0.071078
0.025219 0.368084 0.069563
0.048039 0.372549 0.059804
0.086152 0.373468 0.052451
0.128676 0.380821 0.043199
0.168557 0.384314 0.029902
0.210355 0.388174 0.025061
0.244056 0.388787 0.017708
0.275000 0.392647 0.016667
0.302757 0.396078 0.012806
0.337393 0.400413 0.011765
0.369001 0.403984 0.008715
0.399326 0.404841 0.004412
0.431579 0.412246 0.003990
0.463554 0.415811 0.000311
0.500306 0.420098 0.000490
0.544547 0.424510 0.000429
0.570098 0.431303 0.000000
0.605760 0.438909 0.000000
0.639216 0.436274 0.003370
0.665196 0.443627 0.000000
0.693015 0.447120 0.000000
0.725858 0.451961 0.003064
0.750980 0.458824 0.000000
0.776164 0.460172 0.000000
0.801471 0.468015 0.000061
0.823599 0.471008 0.000490
0.854902 0.478799 0.000000
0.880331 0.483211 0.000000
0.907999 0.488017 0.003859
0.926094 0.491403 0.000905
0.954167 0.495588 0.008272
0.971078 0.498856 0.014216
0.015196 0.384314 0.086601
0.024939 0.386887 0.076225
0.057843 0.392034 0.074571
0.092953 0.396446 0.060233
0.133403 0.403361 0.052451
0.167953 0.407292 0.045098
0.212806 0.408272 0.029902
0.241457 0.409648 0.032680
0.276742 0.415747 0.018763
0.310110 0.419975 0.016728
0.337465 0.420588 0.009804
0.364583 0.427512 0.009314
0.400490 0.431434 0.005331
0.426961 0.435294 0.000980
0.463848 0.442647 0.000551
0.505453 0.444118 0.000490
0.540196 0.450980 0.000000
0.570588 0.457721 0.000000
0.610417 0.459375 0.000000
0.641176 0.463095 0.000000
0.668995 0.466912 0.000429
0.701348 0.471569 0.000000
0.727451 0.478922 0.000000
0.755331 0.482353 0.003431
0.779216 0.487339 0.002353
0.803027 0.494255 0.000482
0.830331 0.498468 0.000000
0.859375 0.502451 0.002880
0.878922 0.509804 0.000490
0.902328 0.510233 0.000000
0.933762 0.514767 0.000429
0.960907 0.518627 0.006679
0.974837 0.522059 0.007516
0.013016 0.407843 0.101460
0.031735 0.411222 0.092006
0.061751 0.414913 0.087655
0.105538 0.419470 0.078294
0.136397 0.423039 0.064645
0.176777 0.426900 0.052451
0.215686 0.431373 0.037745
0.244669 0.435233 0.036397
0.278431 0.440012 0.026042
0.306373 0.446569 0.017787
0.339277 0.450368 0.017647
0.365625 0.454351 0.010233
0.399020 0.455392 0.005882
0.429350 0.465257 0.008824
0.465380 0.470098 0.001042
0.498529 0.474020 0.000980
0.538358 0.478309 0.000490
0.572426 0.479350 0.000490
0.607706 0.486068 0.000550
0.640427 0.491061 0.006574
0.680331 0.494608 0.000000
0.704094 0.495631 0.000482
0.731528 0.502023 0.000000
0.759804 0.505944 0.003064
0.782387 0.510079 0.000413
0.806311 0.517279 0.000000
0.835172 0.521630 0.000000
0.861274 0.525490 0.000000
0.881801 0.532353 0.000000
0.909804 0.534007 0.000123
0.935784 0.538095 0.000000
0.958962 0.546700 0.005247
0.976552 0.549510 0.003431
0.032907 0.428304 0.117306
0.058027 0.434620 0.110478
0.084706 0.434174 0.103137
0.125628 0.443000 0.100585
0.164522 0.446262 0.095159
0.198109 0.453852 0.081863
0.225000 0.453799 0.068076
0.259681 0.459069 0.060723
0.290196 0.462745 0.053431
0.318321 0.469730 0.043566
0.342795 0.473638 0.036601
0.376058 0.477743 0.031029
0.403248 0.481863 0.028002
0.434343 0.487106 0.024124
0.463708 0.493498 0.026281
0.502390 0.497549 0.020343
0.542770 0.505086 0.018873
0.575661 0.506194 0.016246
0.614104 0.509873 0.022635
0.643315 0.520440 0.017112
0.678369 0.522067 0.016122
0.706158 0.529756 0.015961
0.731127 0.530270 0.012316
0.763959 0.534392 0.010084
0.791331 0.538768 0.014035
0.809926 0.543076 0.008701
0.841270 0.550700 0.006100
0.866323 0.554592 0.007430
0.894547 0.559130 0.007353
0.911662 0.563261 0.008806
0.937862 0.567136 0.007070
0.954718 0.570772 0.008395
0.966993 0.574918 0.008660
0.043546 0.451144 0.129412
0.060260 0.455233 0.124827
0.102786 0.462539 0.123013
0.138174 0.466667 0.111275
0.170121 0.470152 0.102397
0.205022 0.474303 0.098934
0.234069 0.480882 0.084191
0.264890 0.479596 0.075613
0.295808 0.492495 0.068898
0.318505 0.493627 0.059804
0.345534 0.497728 0.046187
0.376883 0.501342 0.047196
0.403860 0.508395 0.038113
0.436874 0.512145 0.036582
0.472171 0.517509 0.029790
0.506005 0.524265 0.030208
0.547588 0.529474 0.019608
0.571379 0.532783 0.024768
0.612010 0.537132 0.021507
0.647930 0.541176 0.017865
0.673615 0.545580 0.022360
0.704657 0.553002 0.018689
0.740803 0.557485 0.015686
0.764981 0.561679 0.021190
0.789201 0.565973 0.016893
0.820853 0.569997 0.015562
0.842312 0.571311 0.016925
0.873775 0.581434 0.011275
0.895363 0.585683 0.010022
0.916133 0.586928 0.012659
0.939796 0.597735 0.012262
0.958946 0.601471 0.011458
0.973856 0.605310 0.013235
0.058678 0.474074 0.142774
0.080229 0.475000 0.136275
0.116776 0.481972 0.133878
0.144877 0.483071 0.124220
0.175928 0.490437 0.120362
0.207677 0.493400 0.112510
0.244297 0.498371 0.096769
0.273440 0.504813 0.090553
0.293965 0.508021 0.079857
0.325711 0.515603 0.073074
0.352206 0.517096 0.067525
0.379902 0.527233 0.061275
0.405413 0.531953 0.045788
0.440257 0.536152 0.049203
0.472658 0.546133 0.036438
0.511019 0.548302 0.029384
0.549080 0.555777 0.030468
0.580944 0.559624 0.024634
0.614416 0.564154 0.020989
0.646940 0.564944 0.027451
0.674234 0.572218 0.021983
0.709141 0.576139 0.019000
0.739367 0.583771 0.022262
0.765755 0.584866 0.021762
0.796410 0.589009 0.016239
0.816285 0.596895 0.019662
0.846396 0.602706 0.019774
0.875670 0.601878 0.014692
0.896471 0.608446 0.017798
0.919880 0.612636 0.018736
0.944214 0.619718 0.013587
0.959012 0.620682 0.016492
0.971097 0.623965 0.015033
0.070088 0.496788 0.157113
0.093373 0.500323 0.152048
0.124899 0.505506 0.148966
0.149406 0.507926 0.138304
0.187959 0.513118 0.138028
0.212151 0.517481 0.126981
0.253152 0.523982 0.122172
0.277548 0.525214 0.112345
0.306545 0.532781 0.101961
0.332790 0.536591 0.093756
0.361502 0.546368 0.089036
0.384977 0.551229 0.075283
0.412187 0.555234 0.066908
0.446732 0.563126 0.062200
0.472411 0.567633 0.047556
0.513665 0.572066 0.045490
0.548191 0.579508 0.038940
0.581427 0.584423 0.036928
0.619663 0.591218 0.027893
0.651777 0.595098 0.032414
0.679521 0.602451 0.026035
0.711848 0.606241 0.022480
0.743382 0.607904 0.030821
0.763344 0.612582 0.024346
0.790709 0.618522 0.023529
0.816515 0.622756 0.022425
0.845806 0.627070 0.024074
0.874694 0.627880 0.020221
0.896161 0.635405 0.023750
0.921127 0.639381 0.018614
0.941059 0.646532 0.030495
0.960730 0.649619 0.021569
0.973784 0.650399 0.018882
0.093028 0.522440 0.179666
0.121461 0.526618 0.174161
0.144682 0.531194 0.169222
0.177299 0.534769 0.164982
0.209334 0.539575 0.163380
0.235656 0.543590 0.155716
0.262524 0.548081 0.146700
0.294670 0.554377 0.138746
0.312941 0.559216 0.133997
0.341839 0.566308 0.127920
0.370558 0.572670 0.122956
0.390997 0.577078 0.107374
0.420989 0.584921 0.097100
0.453695 0.589382 0.087300
0.481248 0.596741 0.073902
0.517426 0.601878 0.068710
0.555371 0.609058 0.057056
0.584314 0.613273 0.052851
0.620271 0.620657 0.046838
0.651634 0.624129 0.041939
0.679879 0.631554 0.039638
0.710191 0.635460 0.036012
0.738470 0.639271 0.034079
0.767361 0.644284 0.034027
0.792102 0.648274 0.030765
0.818791 0.652723 0.030011
0.848627 0.656591 0.028175
0.875283 0.662082 0.030820
0.898205 0.665396 0.027948
0.921016 0.672135 0.028942
0.943275 0.676388 0.026843
0.956540 0.677250 0.026108
0.969136 0.676761 0.025563
0.092490 0.543840 0.179948
0.121193 0.545796 0.178566
0.145425 0.553649 0.175000
0.181552 0.556808 0.172218
0.208021 0.563874 0.171895
0.232941 0.570308 0.164874
0.258161 0.573598 0.151450
0.284477 0.577397 0.148420
0.314002 0.585639 0.141287
0.338912 0.590334 0.134493
0.365852 0.597526 0.130075
0.387683 0.602596 0.116101
0.417840 0.609942 0.100138
0.449495 0.617528 0.089661
0.479260 0.622590 0.079426
0.515051 0.629163 0.063076
0.554783 0.636720 0.049970
0.579895 0.640983 0.040044
0.616294 0.645844 0.032146
0.648265 0.652066 0.026063
0.675725 0.658603 0.021486
0.709804 0.662027 0.016073
0.736229 0.668658 0.013575
0.758906 0.672742 0.011047
0.790764 0.675284 0.012126
0.815389 0.677778 0.009031
0.846396 0.681966 0.006462
0.879216 0.688179 0.005714
0.896197 0.692216 0.006061
0.921182 0.694173 0.006904
0.942102 0.701688 0.004847
0.957081 0.700654 0.007516
0.967248 0.702977 0.006609
0.106046 0.564297 0.189542
0.127964 0.564947 0.185701
0.154760 0.574936 0.190907
0.185869 0.576944 0.183840
0.208092 0.583878 0.183691
0.237037 0.591970 0.176595
0.264773 0.597904 0.170521
0.289461 0.601777 0.161275
0.310539 0.607721 0.152635
0.339824 0.614604 0.146653
0.362527 0.619483 0.138873
0.390850 0.623467 0.130470
0.418932 0.630832 0.121433
0.442888 0.637784 0.104700
0.480672 0.646499 0.086337
0.515957 0.652941 0.072008
0.553875 0.658201 0.056334
0.582944 0.659695 0.036601
0.614402 0.669101 0.031575
0.642342 0.676385 0.028929
0.676253 0.681481 0.012512
0.710345 0.684787 0.017985
0.732088 0.689325 0.010022
0.762092 0.693433 0.009213
0.789926 0.697025 0.006423
0.819048 0.702770 0.004544
0.847806 0.707937 0.006909
0.875118 0.714537 0.004665
0.897417 0.715780 0.003175
0.924930 0.722316 0.003424
0.940047 0.720572 0.004719
0.955294 0.721737 0.004818
0.962010 0.724183 0.007108
0.122794 0.590686 0.208742
0.146078 0.591483 0.201409
0.173930 0.598012 0.203811
0.193847 0.603043 0.200609
0.223592 0.610333 0.197635
0.246045 0.617782 0.196619
0.271833 0.619546 0.189356
0.299844 0.626580 0.181886
0.320352 0.633604 0.174239
0.346467 0.638282 0.172425
0.370868 0.642266 0.165328
0.399189 0.649425 0.152130
0.424899 0.654466 0.146654
0.459477 0.662686 0.131491
0.486072 0.673225 0.114334
0.522004 0.677249 0.096732
0.555618 0.685403 0.077435
0.588358 0.691667 0.058946
0.618301 0.697007 0.051049
0.648366 0.701089 0.034236
0.678002 0.705760 0.028615
0.704506 0.711662 0.022429
0.731590 0.720075 0.019546
0.763480 0.725919 0.010110
0.789520 0.723732 0.012373
0.816973 0.731311 0.007782
0.848100 0.736213 0.007721
0.874235 0.743172 0.009219
0.897915 0.743729 0.006287
0.921366 0.743881 0.006423
0.937994 0.744416 0.005058
0.951554 0.744495 0.006154
0.957271 0.747876 0.011275
0.139925 0.614852 0.221777
0.161226 0.615852 0.220657
0.187504 0.622200 0.218478
0.211954 0.629728 0.217457
0.234926 0.634743 0.217279
0.258411 0.638252 0.214173
0.284283 0.642702 0.209835
0.307292 0.647794 0.205086
0.333198 0.655308 0.195132
0.356365 0.661936 0.197323
0.381311 0.672426 0.190625
0.409013 0.673891 0.184727
0.437162 0.681108 0.169312
0.467896 0.688674 0.157975
0.494324 0.697145 0.145029
0.528229 0.704637 0.125303
0.563787 0.712561 0.111213
0.589385 0.719405 0.094456
0.621911 0.724121 0.079365
0.650551 0.730944 0.064338
0.674645 0.735294 0.051454
0.707252 0.740243 0.042079
0.733645 0.744974 0.031248
0.764841 0.749087 0.027654
0.788805 0.751550 0.021569
0.814338 0.753248 0.015257
0.841650 0.759770 0.014740
0.871157 0.763694 0.014738
0.895282 0.767157 0.009375
0.914276 0.770485 0.012728
0.927115 0.768964 0.016415
0.942463 0.767341 0.011213
0.948448 0.771160 0.014624
0.162652 0.635481 0.234547
0.181149 0.641348 0.235982
0.207558 0.646631 0.240357
0.226190 0.651821 0.233613
0.246902 0.658275 0.237412
0.274367 0.662674 0.236791
0.297269 0.670518 0.233053
0.323608 0.673961 0.229255
0.343726 0.680261 0.219739
0.367857 0.692647 0.221779
0.391294 0.694431 0.217569
0.420321 0.701176 0.210196
0.449510 0.709734 0.197479
0.477355 0.716571 0.190081
0.503173 0.724635 0.181818
0.539636 0.730322 0.164986
0.571137 0.743922 0.147451
0.599572 0.745098 0.131836
0.628992 0.755252 0.109524
0.653490 0.759686 0.097255
0.675651 0.763708 0.079430
0.702101 0.768347 0.067017
0.732000 0.774745 0.053882
0.761996 0.778895 0.042282
0.787395 0.783193 0.031022
0.813025 0.785364 0.027241
0.836435 0.787736 0.019323
0.866036 0.794888 0.016737
