calib/LUT LIBRARY/provia_composed.cube
TITLE "Chromasmith composed - Provia"
#STD_q(x) = VLOG_q(T(x)), T derived from astia/velvia/classic_neg matched pairs
LUT_3D_SIZE 33
0.035869 0.035575 0.038465
0.052901 0.036769 0.033356
0.070412 0.037696 0.042961
0.101958 0.046138 0.035680
0.131578 0.044217 0.050870
0.173530 0.058640 0.038184
0.221820 0.057189 0.033555
0.259415 0.072165 0.029214
0.291288 0.058389 0.045661
0.336762 0.096324 0.002211
0.367479 0.070702 0.065700
0.387120 0.081333 0.018976
0.429658 0.100928 0.006752
0.461642 0.116037 0.018262
0.499534 0.079614 0.049247
0.518694 0.098294 0.012348
0.558166 0.118991 0.004154
0.600481 0.112515 0.035936
0.617532 0.109880 0.039583
0.647331 0.108005 0.021203
0.682837 0.119371 0.021909
0.714194 0.121580 0.028629
0.740493 0.115417 0.066187
0.765168 0.112979 0.064542
0.796794 0.113621 0.064513
0.831201 0.118800 0.080187
0.850000 0.105905 0.102055
0.864584 0.122371 0.120280
0.888105 0.125171 0.133766
0.920803 0.119515 0.142759
0.961846 0.127174 0.190146
0.994004 0.171441 0.174241
0.994385 0.070302 0.305501
0.035212 0.045921 0.039653
0.049279 0.051470 0.040291
0.068539 0.053931 0.039514
0.099543 0.061679 0.045606
0.130010 0.069873 0.032785
0.171273 0.077600 0.043451
0.210919 0.087337 0.009890
0.249671 0.089934 0.035615
0.276217 0.097853 0.005777
0.330810 0.108509 0.008774
0.353715 0.099638 0.033980
0.393575 0.110497 0.001700
0.428535 0.120038 0.000379
0.462138 0.112465 0.041779
0.490942 0.109314 0.005452
0.522171 0.126362 0.001929
0.560675 0.137987 0.019995
0.591490 0.125320 0.059800
0.612592 0.136338 0.010638
0.647139 0.145478 0.009487
0.678902 0.148073 0.023195
0.713025 0.145318 0.051341
0.737391 0.143498 0.052001
0.768714 0.151378 0.030188
0.801702 0.155492 0.041162
0.826467 0.151026 0.063490
0.861516 0.136081 0.126992
0.892059 0.139889 0.138691
0.919436 0.145161 0.123803
0.939473 0.141518 0.149918
0.983860 0.161542 0.174376
0.997063 0.132716 0.240502
0.993748 0.145236 0.216103
0.036209 0.061407 0.043645
0.051438 0.064908 0.044435
0.070906 0.070068 0.046824
0.100659 0.078676 0.041375
0.138728 0.088649 0.032278
0.169749 0.088483 0.034925
0.207521 0.100642 0.011972
0.256361 0.100310 0.026943
0.285970 0.117589 0.000515
0.321394 0.119667 0.020542
0.349273 0.120199 0.000450
0.397460 0.129133 0.000169
0.433049 0.131364 0.012532
0.459599 0.124604 0.026192
0.491742 0.134619 0.001108
0.534998 0.150549 0.001352
0.560973 0.150610 0.025385
0.584687 0.155241 0.006757
0.623323 0.164550 0.003022
0.659290 0.166920 0.015428
0.691267 0.168238 0.061967
0.719065 0.173732 0.020793
0.743915 0.181745 0.008320
0.769788 0.186859 0.012826
0.803099 0.181436 0.063865
0.834852 0.174234 0.101982
0.865371 0.181046 0.096125
0.897233 0.178597 0.112790
0.929452 0.176254 0.154781
0.966097 0.165125 0.176596
0.992876 0.158080 0.191746
0.997953 0.165407 0.210579
0.998547 0.172758 0.233502
0.024383 0.077986 0.041450
0.054341 0.086707 0.043638
0.077151 0.093135 0.040747
0.102534 0.102957 0.034921
0.136411 0.108273 0.025602
0.170687 0.114032 0.013340
0.213021 0.118392 0.030849
0.240815 0.124782 0.002471
0.290504 0.133149 0.000327
0.325709 0.125405 0.025157
0.365644 0.143297 0.000116
0.394516 0.150984 0.002684
0.424830 0.153279 0.006561
0.450301 0.155408 0.000212
0.510318 0.162083 0.000397
0.529291 0.169316 0.004179
0.557323 0.170721 0.018479
0.590010 0.178212 0.000379
0.621324 0.185397 0.000586
0.660923 0.189387 0.020465
0.695978 0.189698 0.032396
0.720892 0.199186 0.008907
0.750299 0.204727 0.018736
0.781690 0.208783 0.052497
0.814789 0.205995 0.083052
0.838846 0.211529 0.081783
0.867295 0.213415 0.077740
0.906924 0.208744 0.149499
0.940459 0.203531 0.174673
0.973657 0.200042 0.162363
0.992659 0.198670 0.167769
0.994916 0.191102 0.212510
0.997651 0.192873 0.277275
0.014778 0.098050 0.042851
0.048164 0.104602 0.038622
0.062345 0.119806 0.025346
0.100905 0.125784 0.020481
0.137309 0.129100 0.026730
0.167611 0.140240 0.004098
0.210514 0.142907 0.022370
0.253467 0.150127 0.000228
0.291830 0.154573 0.004997
0.315122 0.161521 0.000057
0.374202 0.166276 0.000068
0.394163 0.172596 0.002356
0.420774 0.176444 0.000446
0.465974 0.183143 0.000112
0.501910 0.188309 0.000098
0.531778 0.193916 0.001399
0.561945 0.199375 0.000170
0.593468 0.205392 0.000356
0.623721 0.211106 0.002892
0.661666 0.216706 0.006967
0.693756 0.224804 0.001335
0.721240 0.226537 0.009934
0.752300 0.227614 0.026347
0.784165 0.230425 0.065577
0.818756 0.235839 0.067786
0.845170 0.241695 0.073558
0.870812 0.242305 0.097283
0.909138 0.234378 0.152900
0.943803 0.236607 0.166432
0.960476 0.232066 0.197005
0.980001 0.226627 0.194602
0.988231 0.217298 0.238529
0.995602 0.224628 0.279216
0.009848 0.128992 0.021413
0.042114 0.137629 0.031919
0.061824 0.140899 0.040154
0.095253 0.148968 0.010305
0.129858 0.155284 0.004718
0.168179 0.162919 0.007121
0.212748 0.171548 0.000548
0.253147 0.176964 0.000269
0.284419 0.180632 0.015299
0.334728 0.187126 0.000130
0.363093 0.196231 0.000101
0.390950 0.200927 0.000199
0.445976 0.201791 0.000157
0.469053 0.211493 0.000160
0.497499 0.214746 0.000225
0.523073 0.220106 0.000046
0.582941 0.225683 0.000124
0.598180 0.233177 0.000090
0.631026 0.234818 0.012379
0.666326 0.239506 0.000682
0.697560 0.250653 0.000269
0.724268 0.253690 0.003035
0.757273 0.256462 0.033699
0.789586 0.260113 0.059611
0.822306 0.264410 0.072507
0.849578 0.267608 0.088203
0.875185 0.267567 0.117535
0.914537 0.265486 0.139701
0.940513 0.259611 0.186154
0.958698 0.253797 0.212759
0.979306 0.252320 0.208940
0.993710 0.259886 0.173780
0.999599 0.271007 0.265884
0.016892 0.164571 0.041787
0.052086 0.179571 0.011101
0.055270 0.178015 0.002587
0.086639 0.180267 0.007353
0.113780 0.189079 0.000281
0.159975 0.193642 0.007790
0.210852 0.201654 0.000424
0.248330 0.207043 0.000150
0.292875 0.210759 0.000163
0.328670 0.219578 0.000210
0.361888 0.221981 0.000180
0.391434 0.226603 0.000312
0.435604 0.233279 0.000201
0.457795 0.240593 0.000031
0.494009 0.244330 0.003773
0.528479 0.249332 0.000055
0.568469 0.260009 0.000109
0.601714 0.264376 0.000338
0.636211 0.268950 0.000299
0.671285 0.271990 0.000314
0.702058 0.279106 0.000284
0.733843 0.280915 0.001971
0.769021 0.287358 0.003695
0.795374 0.295535 0.020338
0.819261 0.295953 0.054882
0.849104 0.296586 0.093829
0.884701 0.294678 0.125728
0.915390 0.294788 0.158642
0.937117 0.288202 0.209065
0.964447 0.285608 0.212229
0.991281 0.285173 0.186573
0.999559 0.289696 0.213629
0.999820 0.294175 0.287153
0.000886 0.195574 0.010747
0.006954 0.195004 0.002257
0.044881 0.206685 0.017561
0.075988 0.214604 0.002738
0.105201 0.217934 0.000221
0.143764 0.223458 0.000453
0.194286 0.233039 0.000154
0.242886 0.233423 0.000132
0.298041 0.236834 0.000254
0.324066 0.247450 0.000067
0.354104 0.248829 0.002048
0.399724 0.256788 0.000096
0.425781 0.261137 0.000113
0.456777 0.266251 0.000065
0.496157 0.270118 0.000053
0.533478 0.278352 0.000116
0.564346 0.281438 0.000116
0.604449 0.285543 0.000162
0.641098 0.290208 0.000299
0.685954 0.292282 0.000255
0.700559 0.303723 0.000229
0.733486 0.304145 0.018603
0.769690 0.312535 0.002695
0.794428 0.320538 0.010460
0.818350 0.321076 0.056669
0.851088 0.322715 0.100753
0.888518 0.320261 0.126143
0.918647 0.317120 0.184876
0.942222 0.312789 0.211297
0.975229 0.311814 0.192981
0.997846 0.314066 0.170851
0.999619 0.315160 0.205953
0.999685 0.315227 0.279289
0.000447 0.218523 0.035844
0.002093 0.233870 0.006505
0.039399 0.236674 0.000216
0.056034 0.235691 0.000270
0.099303 0.255214 0.037621
0.135802 0.248553 0.000101
0.192748 0.256694 0.000213
0.236737 0.258570 0.002679
0.287114 0.264960 0.000224
0.322627 0.269419 0.000169
0.350778 0.273587 0.000189
0.390049 0.284491 0.000133
0.427035 0.291177 0.000100
0.463228 0.290125 0.000058
0.497369 0.292348 0.000110
0.527406 0.306721 0.000193
0.564668 0.305981 0.000942
0.605615 0.310016 0.003849
0.632151 0.317365 0.000293
0.665366 0.325101 0.000256
0.701187 0.331081 0.000107
0.733462 0.335175 0.024749
0.771839 0.338723 0.002594
0.793893 0.347134 0.007041
0.827018 0.347914 0.035719
0.860311 0.348169 0.086150
0.886287 0.344966 0.143552
0.919573 0.343265 0.165132
0.952182 0.340755 0.174185
0.993140 0.339005 0.155405
0.998364 0.342594 0.168607
0.999637 0.353737 0.221208
0.999296 0.359095 0.260578
0.000420 0.233177 0.000107
0.000495 0.251509 0.000122
0.007404 0.248086 0.000469
0.039262 0.263014 0.000387
0.085465 0.274670 0.008796
0.125036 0.275422 0.000219
0.182587 0.282105 0.000205
0.241828 0.282083 0.000243
0.270991 0.300136 0.000226
0.313892 0.296912 0.000164
0.359640 0.299110 0.000158
0.384681 0.312538 0.000112
0.420232 0.316539 0.000210
0.453197 0.320609 0.014361
0.492000 0.322756 0.000131
0.520311 0.332439 0.000164
0.558779 0.332091 0.000205
0.598222 0.341570 0.000135
0.631912 0.345223 0.000186
0.664408 0.349332 0.000160
0.699986 0.355425 0.000133
0.737425 0.360690 0.000184
0.778623 0.364176 0.000142
0.796224 0.371258 0.006234
0.830818 0.370973 0.030404
0.866342 0.371269 0.074613
0.890604 0.370006 0.134517
0.927112 0.368927 0.159805
0.972796 0.365437 0.164499
0.986851 0.364108 0.163852
0.998562 0.363036 0.159183
0.999407 0.370851 0.217879
0.999420 0.429028 0.153561
0.000113 0.262625 0.019507
0.000062 0.287981 0.000666
0.001152 0.290969 0.023180
0.049266 0.298164 0.001652
0.074181 0.295972 0.000355
0.113164 0.306172 0.000418
0.162434 0.312845 0.000472
0.218355 0.313063 0.000213
0.260462 0.324920 0.000281
0.306940 0.321589 0.003465
0.346296 0.329447 0.000174
0.386514 0.334806 0.000152
0.412538 0.338269 0.000183
0.440929 0.343912 0.000181
0.484077 0.350570 0.000168
0.518931 0.355127 0.000186
0.559298 0.358325 0.000131
0.612800 0.353908 0.000257
0.639557 0.362442 0.000203
0.666441 0.375408 0.000088
0.709548 0.377157 0.000123
0.742848 0.381729 0.000069
0.774665 0.388811 0.000150
0.797658 0.393657 0.004977
0.835187 0.393557 0.029194
0.868868 0.394129 0.042372
0.896675 0.392668 0.111138
0.942291 0.392201 0.157194
0.968666 0.389480 0.140307
0.985604 0.389264 0.105923
0.999237 0.403461 0.122961
0.999348 0.403443 0.199023
0.999294 0.438052 0.180627
0.000117 0.324111 0.046133
0.000104 0.289302 0.000263
0.000120 0.308558 0.000289
0.019567 0.314724 0.000314
0.060968 0.317409 0.000371
0.073913 0.356384 0.040120
0.164713 0.337789 0.006530
0.193169 0.350154 0.000409
0.253750 0.343219 0.000194
0.293508 0.348981 0.000163
0.332513 0.357320 0.000174
0.376045 0.362991 0.000213
0.408031 0.360702 0.000211
0.447997 0.362570 0.000229
0.478609 0.374940 0.000137
0.515486 0.384872 0.000229
0.556536 0.381920 0.000175
0.593916 0.382259 0.000231
0.627656 0.388942 0.000064
0.663290 0.400079 0.000274
0.700930 0.405118 0.003853
0.743768 0.405066 0.000153
0.773138 0.411550 0.000101
0.810602 0.418146 0.000004
0.839760 0.423685 0.013393
0.872715 0.422610 0.028068
0.903416 0.422441 0.078396
0.938057 0.417219 0.164664
0.957122 0.412732 0.174684
0.973336 0.422430 0.109979
0.999240 0.429299 0.208551
0.999450 0.418427 0.214078
0.999451 0.429294 0.228729
0.000131 0.370712 0.045237
0.000077 0.341601 0.000286
0.000117 0.337087 0.000298
0.006853 0.345560 0.000616
0.050561 0.351570 0.000230
0.086874 0.357358 0.000540
0.139244 0.364978 0.000383
0.170322 0.378961 0.000385
0.238941 0.369743 0.000196
0.285948 0.371480 0.000229
0.325877 0.387584 0.000212
0.364695 0.393746 0.000218
0.408016 0.387693 0.000243
0.439977 0.391291 0.000111
0.468324 0.402742 0.000148
0.505200 0.408206 0.000261
0.550143 0.411063 0.000271
0.585895 0.408874 0.000085
0.627459 0.411185 0.000119
0.657820 0.422551 0.000106
0.693362 0.427814 0.000140
0.744595 0.428719 0.000166
0.775354 0.436345 0.000064
0.809001 0.440343 0.000015
0.847692 0.444619 0.000301
0.879211 0.447845 0.007796
0.903168 0.448467 0.066820
0.934336 0.444345 0.146498
0.960770 0.464062 0.133720
0.991491 0.419776 0.153889
0.999485 0.439547 0.123272
0.999404 0.428229 0.172850
0.999535 0.424689 0.330893
0.000053 0.380761 0.000154
0.000066 0.354564 0.000238
0.000142 0.382311 0.016521
0.000151 0.364260 0.000819
0.051080 0.371839 0.000369
0.067485 0.387231 0.000448
0.126412 0.383532 0.000317
0.174602 0.389874 0.000130
0.222649 0.397490 0.000306
0.281978 0.396041 0.000228
0.323047 0.403977 0.000227
0.349584 0.413532 0.000248
0.397118 0.413373 0.000190
0.424284 0.419138 0.000237
0.458109 0.427746 0.000200
0.492610 0.429488 0.000185
0.547263 0.429840 0.000082
0.582837 0.437951 0.000112
0.619593 0.447029 0.000147
0.660093 0.445370 0.000106
0.713059 0.439211 0.000050
0.747420 0.450273 0.000200
0.772450 0.463800 0.000231
0.808888 0.465803 0.000270
0.847746 0.466291 0.000139
0.880733 0.474103 0.003182
0.912521 0.468922 0.058365
0.917147 0.472126 0.114308
0.949989 0.468166 0.017012
0.999301 0.477110 0.042858
0.999432 0.492512 0.201439
0.999723 0.453764 0.299552
0.999229 0.446049 0.349376
0.000138 0.370720 0.000571
0.000065 0.393039 0.000460
0.000144 0.383764 0.005833
0.000055 0.398800 0.000070
0.003143 0.375552 0.000261
0.050222 0.399301 0.000299
0.160522 0.408532 0.000323
0.150732 0.413692 0.000290
0.223133 0.422302 0.000429
0.255007 0.425978 0.000126
0.316260 0.430113 0.000193
0.344602 0.434680 0.000230
0.386859 0.437499 0.000161
0.414677 0.447443 0.000178
0.463288 0.459103 0.000363
0.499030 0.455191 0.000125
0.556681 0.456338 0.000329
0.581735 0.470743 0.000124
0.622768 0.475335 0.004647
0.672569 0.468481 0.000091
0.707269 0.471851 0.000189
0.736797 0.482711 0.000072
0.774962 0.489746 0.000021
0.799311 0.496939 0.002646
0.845909 0.494296 0.000042
0.866949 0.501833 0.000346
0.870587 0.510315 0.016324
0.895891 0.511189 0.061491
0.977991 0.518990 0.124393
0.999654 0.411726 0.344727
0.999465 0.494016 0.206964
0.999160 0.472849 0.278372
0.999715 0.494298 0.303767
0.000120 0.380307 0.000210
0.000020 0.412939 0.000684
0.000095 0.413683 0.000367
0.000065 0.390918 0.000113
0.000006 0.421751 0.000065
0.014183 0.418757 0.000408
0.095424 0.453710 0.004039
0.133660 0.454157 0.000297
0.196971 0.447479 0.000139
0.232610 0.461724 0.000088
0.292951 0.465705 0.000280
0.351010 0.458315 0.000145
0.393480 0.461663 0.000107
0.414190 0.479496 0.000131
0.459309 0.491475 0.008400
0.502921 0.480539 0.000365
0.538316 0.485839 0.000159
0.572577 0.497764 0.000108
0.619128 0.497967 0.000205
0.656352 0.502458 0.000090
0.701692 0.501062 0.000173
0.732172 0.506537 0.000115
0.763020 0.516127 0.000065
0.803086 0.514751 0.000184
0.840072 0.522218 0.000109
0.858509 0.527520 0.000406
0.894553 0.530813 0.010451
0.943379 0.526435 0.000567
0.999095 0.522288 0.026454
0.999317 0.515697 0.126639
0.999567 0.479854 0.315828
0.999665 0.517683 0.285377
0.999559 0.512165 0.352123
0.000074 0.417951 0.000230
0.000119 0.466954 0.025507
0.000165 0.457180 0.000306
0.000131 0.476374 0.000379
0.000118 0.475308 0.002188
0.000270 0.436890 0.000222
0.073769 0.466233 0.000233
0.216772 0.459594 0.000298
0.187579 0.470030 0.000367
0.216741 0.483816 0.000469
0.263611 0.507593 0.008643
0.337886 0.488827 0.000446
0.372401 0.495632 0.000164
0.411071 0.503678 0.000173
0.445618 0.513305 0.000360
0.486497 0.507961 0.000258
0.533461 0.518262 0.000120
0.571160 0.522204 0.000121
0.605116 0.522984 0.000088
0.665386 0.521036 0.000062
0.692644 0.530278 0.000170
0.724863 0.544119 0.000086
0.754075 0.543050 0.000144
0.797494 0.546207 0.000144
0.834194 0.555731 0.000039
0.863776 0.556300 0.002393
0.893228 0.562508 0.002510
0.937975 0.561549 0.054199
0.999309 0.562192 0.334511
0.999536 0.502862 0.349959
0.999653 0.512191 0.335695
0.999549 0.536655 0.244627
0.999479 0.531143 0.300151
0.000066 0.446365 0.000200
0.000096 0.471138 0.000468
0.000043 0.513842 0.000798
0.000042 0.484690 0.000580
0.000053 0.478221 0.000290
0.000119 0.475672 0.000078
0.005210 0.460100 0.000418
0.163729 0.489542 0.000110
0.180013 0.500259 0.000106
0.210650 0.507909 0.000357
0.260845 0.520387 0.000286
0.317847 0.521261 0.000303
0.366999 0.527825 0.000280
0.410812 0.531027 0.000222
0.436168 0.533433 0.000193
0.494575 0.533461 0.000354
0.524162 0.546611 0.000141
0.572264 0.553390 0.000217
0.612895 0.548268 0.000198
0.658418 0.552320 0.000066
0.681677 0.565614 0.000182
0.725227 0.570039 0.041602
0.761219 0.569354 0.000200
0.797222 0.574274 0.000140
0.831856 0.583156 0.000062
0.870134 0.585300 0.000292
0.880442 0.588431 0.001991
0.965929 0.588864 0.064936
0.999636 0.557234 0.412516
0.999463 0.549518 0.360140
0.999573 0.551336 0.312757
0.999623 0.554293 0.294103
0.999680 0.541154 0.343305
0.000195 0.506945 0.000341
0.000147 0.527158 0.002160
0.000095 0.509130 0.000417
0.000095 0.511605 0.000371
0.000145 0.507743 0.000326
0.000171 0.510785 0.000440
0.000139 0.495302 0.000451
0.126156 0.528285 0.000278
0.172549 0.533889 0.000113
0.190564 0.535430 0.000241
0.241803 0.543212 0.000317
0.307170 0.542563 0.000347
0.346677 0.567757 0.000286
0.405114 0.560716 0.000178
0.435667 0.557883 0.000164
0.484157 0.562175 0.000264
0.522761 0.578366 0.000158
0.574537 0.577528 0.000926
0.607518 0.572816 0.000133
0.640270 0.582352 0.000166
0.678548 0.591423 0.000146
0.715608 0.596981 0.000186
0.764415 0.592582 0.000178
0.792498 0.601959 0.000272
0.816379 0.611251 0.000084
0.865368 0.613107 0.000085
0.875799 0.630391 0.000816
0.941617 0.618439 0.024642
0.999798 0.609449 0.336692
0.999800 0.598618 0.378761
0.999474 0.583698 0.386188
0.999513 0.582760 0.347322
0.999471 0.603308 0.289427
0.000210 0.511809 0.000419
0.000186 0.509858 0.000108
0.000012 0.488506 0.000459
0.000119 0.527856 0.000312
0.000112 0.522332 0.000305
0.000042 0.573073 0.000557
0.000861 0.538720 0.000243
0.086333 0.569200 0.005360
0.157315 0.561503 0.000217
0.180108 0.563386 0.000181
0.230876 0.566578 0.000383
0.303912 0.568441 0.000255
0.339036 0.588079 0.000272
0.395395 0.586268 0.000357
0.438114 0.582081 0.000039
0.476285 0.587759 0.000138
0.512926 0.597302 0.000129
0.561892 0.602629 0.000245
0.597118 0.599362 0.000146
0.636759 0.612360 0.000178
0.692405 0.613045 0.000233
0.717586 0.615886 0.000230
0.774457 0.612207 0.000147
0.788808 0.631045 0.000135
0.820612 0.637235 0.000044
0.854871 0.640376 0.000158
0.842328 0.650245 0.000035
0.958798 0.635573 0.076716
0.999298 0.663605 0.203466
0.999761 0.633847 0.305736
0.999583 0.608053 0.257848
0.999557 0.607346 0.257721
0.999390 0.630470 0.278969
0.000109 0.531865 0.000261
0.000108 0.526259 0.000256
0.000122 0.561562 0.000342
0.000148 0.562106 0.022622
0.000052 0.559440 0.000468
0.000049 0.559566 0.000462
0.000275 0.533685 0.000673
0.000065 0.561177 0.000212
0.223456 0.569178 0.000270
0.215877 0.594591 0.000742
0.233879 0.591896 0.000299
0.270283 0.593081 0.000330
0.330944 0.603017 0.000277
0.384137 0.610205 0.000374
0.422148 0.608108 0.000045
0.463412 0.623467 0.000089
0.517326 0.618122 0.000115
0.545468 0.623534 0.000114
0.612003 0.619656 0.000117
0.637108 0.645598 0.000245
0.689627 0.642679 0.000326
0.728990 0.643894 0.000128
0.754260 0.652741 0.000092
0.790267 0.658226 0.000037
0.812800 0.658771 0.000047
0.829590 0.669763 0.000090
0.831109 0.675704 0.000129
0.906266 0.681929 0.012947
0.999299 0.685019 0.176650
0.999609 0.624887 0.239131
0.999578 0.674707 0.249044
0.999477 0.631141 0.276308
0.999422 0.666928 0.300925
0.000071 0.572317 0.000206
0.000038 0.577058 0.000400
0.000050 0.565207 0.000574
0.000036 0.596207 0.025601
0.000094 0.535005 0.001676
0.000103 0.575690 0.000359
0.000267 0.581770 0.000325
0.000092 0.589341 0.000285
0.111426 0.598078 0.000228
0.196961 0.618334 0.000156
0.223668 0.617033 0.000195
0.244156 0.620746 0.000307
0.314477 0.623645 0.000222
0.355345 0.632706 0.000139
0.409378 0.631812 0.000127
0.464628 0.657078 0.000312
0.528094 0.644260 0.000121
0.564175 0.645655 0.000137
0.603962 0.656355 0.000115
0.633940 0.674690 0.000126
0.671989 0.670903 0.000093
0.718698 0.670278 0.000181
0.746879 0.683359 0.000193
0.784797 0.684466 0.000114
0.813191 0.684299 0.000162
0.814734 0.693882 0.000135
0.857396 0.701606 0.000699
0.929836 0.695677 0.033081
0.999394 0.683121 0.265064
0.999471 0.676060 0.286182
0.999327 0.690618 0.257922
0.999333 0.673778 0.242436
0.999548 0.690629 0.303143
0.000046 0.627803 0.000223
0.000118 0.605487 0.000295
0.000038 0.596871 0.000185
0.000048 0.591643 0.000984
0.000056 0.586824 0.003270
0.000110 0.604399 0.011611
0.000179 0.612503 0.001331
0.000035 0.613878 0.000332
0.072460 0.642656 0.000295
0.232196 0.633500 0.000182
0.205759 0.641016 0.000206
0.178750 0.662696 0.000141
0.291404 0.649888 0.000136
0.347096 0.656855 0.000055
0.424471 0.654573 0.000131
0.449270 0.688389 0.000326
0.507104 0.678086 0.000303
0.568651 0.668560 0.000170
0.600576 0.686268 0.000226
0.631702 0.691684 0.000252
0.655509 0.694426 0.000277
0.711386 0.704900 0.000102
0.739202 0.712514 0.000128
0.777860 0.712228 0.000136
0.813931 0.711858 0.000074
0.822989 0.716382 0.000144
0.866364 0.723536 0.005789
0.953814 0.718328 0.019667
0.999321 0.717299 0.220953
0.999194 0.678408 0.215252
0.999469 0.723716 0.251935
0.999366 0.728525 0.213687
0.999268 0.728388 0.176511
0.000018 0.605083 0.000253
0.000073 0.598586 0.000238
0.000194 0.614800 0.000407
0.000067 0.612125 0.000308
0.000006 0.629234 0.000279
0.000019 0.649325 0.000365
0.000014 0.633459 0.000396
0.000023 0.647147 0.000414
0.084248 0.650579 0.000234
0.126845 0.663293 0.000259
0.177565 0.664442 0.000150
0.116184 0.700313 0.000228
0.274930 0.681699 0.000176
0.349436 0.679545 0.000047
0.425467 0.682915 0.000148
0.447807 0.695424 0.000091
0.475189 0.706546 0.000323
0.546776 0.704122 0.000171
0.586912 0.725666 0.000176
0.638656 0.715816 0.000230
0.671349 0.722798 0.000120
0.686952 0.737090 0.000145
0.737028 0.737992 0.001504
0.776845 0.732970 0.000120
0.802829 0.739546 0.000101
0.849464 0.745493 0.000243
0.871800 0.748110 0.000215
0.880554 0.751055 0.004443
0.999240 0.750949 0.209402
0.999243 0.748232 0.259101
0.999519 0.746694 0.268833
0.999438 0.738176 0.271401
0.999304 0.751125 0.204971
0.000005 0.635777 0.000310
0.000091 0.643742 0.000540
0.000140 0.622034 0.000386
0.000032 0.658287 0.000401
0.000018 0.657956 0.000433
0.000013 0.656323 0.000347
0.000013 0.656941 0.000348
0.000037 0.662630 0.000352
0.000043 0.666528 0.000244
0.113650 0.689285 0.000179
0.165404 0.691591 0.000046
0.138234 0.721470 0.000183
0.270802 0.715494 0.000333
0.326696 0.708896 0.000048
0.390709 0.720686 0.000096
0.438667 0.722476 0.000089
0.473823 0.729341 0.000120
0.525045 0.746045 0.000177
0.570140 0.758283 0.000406
0.619668 0.746266 0.000049
0.655669 0.754192 0.000218
0.700623 0.756537 0.000188
0.739694 0.753713 0.000369
0.769739 0.759973 0.000209
0.788811 0.770646 0.000106
0.854751 0.766773 0.000114
0.838864 0.771737 0.000123
0.897578 0.773013 0.042764
0.974446 0.793096 0.086625
0.999249 0.787893 0.208046
0.999317 0.771973 0.222633
0.999528 0.754645 0.290960
0.999363 0.772585 0.282597
0.000095 0.678590 0.000564
0.000077 0.678588 0.002032
0.000074 0.685082 0.002055
0.000026 0.687326 0.000417
0.000021 0.675410 0.000489
0.000010 0.665909 0.000299
0.000007 0.673347 0.000519
0.000144 0.680954 0.000550
0.000290 0.682215 0.000464
0.000783 0.737304 0.000453
0.180012 0.719427 0.000055
0.211428 0.725321 0.000135
0.233569 0.736423 0.000178
0.286050 0.742453 0.000071
0.334938 0.768778 0.000328
0.439923 0.749714 0.000171
0.493270 0.757338 0.000188
0.523693 0.770111 0.000274
0.556023 0.776999 0.000173
0.567154 0.779719 0.000265
0.636025 0.792922 0.000205
0.699903 0.785076 0.000112
0.740153 0.785123 0.000058
0.762154 0.793760 0.000101
0.791797 0.808117 0.000621
0.833459 0.790834 0.000089
0.833709 0.799326 0.000149
0.897777 0.803466 0.051500
0.995629 0.806916 0.121065
0.999237 0.833787 0.153162
0.999384 0.806835 0.221284
0.999527 0.773599 0.316379
0.999604 0.800519 0.311058
0.000028 0.661991 0.000296
0.000115 0.688215 0.000389
0.000028 0.687533 0.000337
0.000252 0.701643 0.000502
0.000030 0.708534 0.000408
0.000010 0.706214 0.000482
0.000064 0.715244 0.000234
0.000221 0.716454 0.000556
0.000075 0.725527 0.000445
0.000020 0.742573 0.000545
0.004167 0.737589 0.000249
0.284681 0.747495 0.000094
0.235772 0.759678 0.000060
0.276674 0.767480 0.000208
0.283691 0.794689 0.000202
0.394856 0.781888 0.000254
0.459959 0.795467 0.000226
0.520961 0.800019 0.000377
0.553541 0.800025 0.000264
0.594183 0.810225 0.000394
0.623567 0.824360 0.000219
0.685520 0.806623 0.000130
0.737605 0.812204 0.000135
0.762133 0.817733 0.000212
0.809776 0.821425 0.002151
