calib/LUT LIBRARY/provia_composed.cube
TITLE "Chromasmith composed - Provia"
#STD_q(x) = VLOG_q(T(x)), T derived from astia/velvia/classic_neg matched pairs
LUT_3D_SIZE 9
0.035869 0.035575 0.038465
0.131578 0.044217 0.050870
0.291288 0.058389 0.045661
0.429658 0.100928 0.006752
0.558166 0.118991 0.004154
0.682837 0.119371 0.021909
0.796794 0.113621 0.064513
0.888105 0.125171 0.133766
0.994385 0.070302 0.305501
0.014778 0.098050 0.042851
0.137309 0.129100 0.026730
0.291830 0.154573 0.004997
0.420774 0.176444 0.000446
0.561945 0.199375 0.000170
0.693756 0.224804 0.001335
0.818756 0.235839 0.067786
0.943803 0.236607 0.166432
0.995602 0.224628 0.279216
0.000447 0.218523 0.035844
0.099303 0.255214 0.037621
0.287114 0.264960 0.000224
0.427035 0.291177 0.000100
0.564668 0.305981 0.000942
0.701187 0.331081 0.000107
0.827018 0.347914 0.035719
0.952182 0.340755 0.174185
0.999296 0.359095 0.260578
0.000131 0.370712 0.045237
0.050561 0.351570 0.000230
0.238941 0.369743 0.000196
0.408016 0.387693 0.000243
0.550143 0.411063 0.000271
0.693362 0.427814 0.000140
0.847692 0.444619 0.000301
0.960770 0.464062 0.133720
0.999535 0.424689 0.330893
0.000074 0.417951 0.000230
0.000118 0.475308 0.002188
0.187579 0.470030 0.000367
0.372401 0.495632 0.000164
0.533461 0.518262 0.000120
0.692644 0.530278 0.000170
0.834194 0.555731 0.000039
0.999309 0.562192 0.334511
0.999479 0.531143 0.300151
0.000109 0.531865 0.000261
0.000052 0.559440 0.000468
0.223456 0.569178 0.000270
0.330944 0.603017 0.000277
0.517326 0.618122 0.000115
0.689627 0.642679 0.000326
0.812800 0.658771 0.000047
0.999299 0.685019 0.176650
0.999422 0.666928 0.300925
0.000005 0.635777 0.000310
0.000018 0.657956 0.000433
0.000043 0.666528 0.000244
0.270802 0.715494 0.000333
0.473823 0.729341 0.000120
0.655669 0.754192 0.000218
0.788811 0.770646 0.000106
0.974446 0.793096 0.086625
0.999363 0.772585 0.282597
0.000033 0.769214 0.000506
0.000007 0.813898 0.000259
0.000024 0.785135 0.000326
0.284968 0.818638 0.000139
0.403409 0.860244 0.000416
0.575547 0.870951 0.000289
0.756494 0.875942 0.000465
0.968473 0.889033 0.074574
0.999342 0.912912 0.246460
0.000071 0.866440 0.000438
0.000088 0.889494 0.000393
0.000187 0.959964 0.000284
0.000031 0.991277 0.000331
0.482217 0.959421 0.000315
0.693538 0.931321 0.000093
0.737930 0.990983 0.000156
0.822727 0.999658 0.007730
0.994700 0.999527 0.090882
0.027528 0.037536 0.108834
0.133432 0.048936 0.107789
0.285038 0.061054 0.127606
0.432327 0.098311 0.121138
0.566189 0.121668 0.125194
0.679382 0.123261 0.155115
0.800782 0.123832 0.166371
0.923170 0.094574 0.263726
0.995900 0.069846 0.329318
0.019793 0.113850 0.113413
0.131842 0.130444 0.126680
0.278136 0.162341 0.129292
0.420183 0.178259 0.126412
0.556843 0.204821 0.128737
0.697254 0.221530 0.134575
0.820564 0.237248 0.184875
0.943055 0.229914 0.263146
0.999663 0.244772 0.342092
0.000197 0.215229 0.112741
0.098756 0.255099 0.133337
0.273294 0.269246 0.118363
0.410208 0.291944 0.111237
0.550442 0.306282 0.105226
0.691436 0.328102 0.139145
0.826101 0.341529 0.181177
0.962929 0.338435 0.256277
0.993091 0.351800 0.101178
0.000157 0.348437 0.096802
0.060409 0.352690 0.115190
0.239640 0.372969 0.074924
0.392431 0.388521 0.047333
0.546533 0.409173 0.070290
0.693644 0.428914 0.126017
0.818797 0.447248 0.173267
0.998712 0.458730 0.199822
0.999087 0.458616 0.416144
0.000245 0.395212 0.089829
0.000070 0.458474 0.108448
0.186909 0.481493 0.005978
0.360335 0.502656 0.006354
0.527312 0.520999 0.006058
0.680174 0.538688 0.082470
0.824850 0.548091 0.167026
0.999564 0.493400 0.473311
0.999280 0.522357 0.388001
0.000100 0.516666 0.037006
0.000041 0.595682 0.053887
0.121195 0.591219 0.001894
0.306594 0.613039 0.000406
0.489490 0.629998 0.000247
0.668407 0.645220 0.014552
0.787080 0.656013 0.146104
0.999435 0.645170 0.385410
0.999571 0.656690 0.320452
0.000047 0.629994 0.072600
0.000045 0.648713 0.006491
0.000032 0.690942 0.000500
0.253262 0.719407 0.000247
0.441885 0.745357 0.000250
0.632705 0.765808 0.000314
0.774075 0.770713 0.108074
0.915914 0.784162 0.152533
0.999447 0.764687 0.346561
0.000111 0.742814 0.032419
0.000022 0.787785 0.005230
0.000021 0.819069 0.000148
0.124199 0.848631 0.000388
0.368141 0.863455 0.000272
0.565921 0.876307 0.000270
0.762757 0.869721 0.048170
0.924111 0.881364 0.132289
0.999456 0.892036 0.370225
0.000106 0.879670 0.000212
0.000059 0.921152 0.000520
0.000035 0.972150 0.000554
0.019006 0.971564 0.000123
0.030609 0.999956 0.000321
0.002668 0.999985 0.000276
0.671138 0.999453 0.000204
0.867497 0.999666 0.128246
0.988923 0.998302 0.167962
0.007096 0.039721 0.211345
0.133783 0.050238 0.215044
0.285363 0.064342 0.239474
0.423778 0.087939 0.248825
0.553428 0.115618 0.262837
0.688470 0.122387 0.280501
0.808496 0.120374 0.302918
0.939129 0.117683 0.363990
0.995096 0.042630 0.474487
0.003180 0.104727 0.205706
0.135488 0.138465 0.235787
0.277092 0.160734 0.245642
0.415447 0.178040 0.258104
0.554733 0.201345 0.265945
0.697144 0.219221 0.277971
0.823068 0.231561 0.296427
0.930003 0.241029 0.362749
0.999641 0.186891 0.350817
0.000052 0.238937 0.232164
0.095425 0.253404 0.245352
0.267280 0.271486 0.264788
0.408897 0.286665 0.262399
0.548692 0.308120 0.263997
0.688297 0.326908 0.270033
0.826372 0.339806 0.304942
0.999463 0.283355 0.417441
0.999431 0.376747 0.390222
0.000052 0.342938 0.242992
0.050823 0.350643 0.240062
0.236298 0.377016 0.264315
0.384154 0.394496 0.259191
0.541334 0.407399 0.256953
0.690252 0.428094 0.261908
0.794182 0.447522 0.276356
0.999632 0.387964 0.508504
0.999616 0.428890 0.400558
0.000143 0.435954 0.231958
0.000122 0.469939 0.224053
0.195557 0.482380 0.238556
0.364559 0.499605 0.268078
0.527957 0.516537 0.271994
0.682291 0.535929 0.253974
0.782889 0.564145 0.269306
0.999398 0.524990 0.474666
0.999349 0.544058 0.441227
0.000261 0.532997 0.208142
0.000140 0.560343 0.202614
0.110963 0.593929 0.230856
0.321527 0.613103 0.231872
0.497593 0.629037 0.230913
0.669515 0.645058 0.237212
0.789244 0.655003 0.268568
0.999778 0.623476 0.497316
0.999603 0.670998 0.406789
0.000129 0.626725 0.190966
0.000074 0.645888 0.178492
0.000029 0.690737 0.202730
0.255193 0.724075 0.181136
0.444232 0.746230 0.198977
0.626844 0.764476 0.201641
0.792206 0.768281 0.229137
0.944397 0.782823 0.317408
0.999466 0.779641 0.462728
0.000079 0.751288 0.171682
0.000105 0.782781 0.156723
0.000110 0.806094 0.319614
0.242001 0.815042 0.210195
0.446324 0.822821 0.109225
0.642201 0.824134 0.140739
0.756491 0.870488 0.149582
0.903630 0.895295 0.182134
0.999357 0.902618 0.424469
0.000061 0.878332 0.137931
0.000060 0.915402 0.000355
0.000119 0.994034 0.130309
0.000000 1.000000 0.000290
0.000000 1.000000 0.000290
0.013535 0.999954 0.000299
0.610253 0.999654 0.000169
0.908234 0.999657 0.133799
0.984664 0.999680 0.142769
0.017592 0.051842 0.302665
0.137571 0.036290 0.323791
0.264082 0.066904 0.348892
0.405902 0.074138 0.368426
0.540289 0.087758 0.380131
0.685822 0.121825 0.395501
0.810662 0.116611 0.419523
0.927728 0.123053 0.425146
0.999281 0.051222 0.503021
0.001071 0.115988 0.312985
0.150853 0.155980 0.341292
0.272785 0.161821 0.368523
0.404312 0.178304 0.383349
0.548434 0.201268 0.381063
0.693989 0.215917 0.394374
0.826081 0.232698 0.403337
0.953731 0.234895 0.442194
0.999812 0.221081 0.485882
0.000168 0.237338 0.348415
0.056522 0.247042 0.343774
0.267662 0.272970 0.371793
0.404463 0.286755 0.381675
0.541857 0.304903 0.387238
0.691540 0.325418 0.392335
0.813731 0.345386 0.412535
0.959440 0.386927 0.376626
0.999470 0.366715 0.494286
0.000294 0.325835 0.335147
0.000505 0.344408 0.338185
0.222531 0.382516 0.371238
0.379672 0.392197 0.373525
0.531699 0.406123 0.384330
0.685017 0.428053 0.389767
0.754063 0.453362 0.388454
0.999764 0.479758 0.524461
0.999551 0.451573 0.545378
0.000199 0.417809 0.330070
0.000198 0.479466 0.337960
0.186432 0.487502 0.357584
0.358045 0.502500 0.366071
0.519675 0.519736 0.372120
0.677450 0.534745 0.382535
0.799127 0.555381 0.395707
0.999546 0.550677 0.548215
0.999486 0.542393 0.493636
0.000093 0.517480 0.312992
0.000047 0.556543 0.346805
0.128719 0.593760 0.344373
0.311296 0.614533 0.354025
0.495952 0.628229 0.355599
0.661427 0.647261 0.369275
0.771175 0.655593 0.385704
0.999795 0.643609 0.510931
0.999615 0.653729 0.532295
0.000180 0.639224 0.329821
0.000132 0.673151 0.348647
0.000115 0.691849 0.337580
0.242830 0.729683 0.332003
0.444624 0.744567 0.326401
0.623864 0.762626 0.333502
0.774110 0.775443 0.358827
0.927451 0.786526 0.407842
0.999348 0.772749 0.484895
0.000091 0.763283 0.296388
0.000124 0.801386 0.321479
0.000095 0.765957 0.312585
0.190776 0.825635 0.248923
0.430166 0.830619 0.308897
0.610721 0.841546 0.319069
0.759963 0.873324 0.344945
0.873762 0.890686 0.342394
0.999405 0.897165 0.538274
0.000047 0.892488 0.288607
0.000176 0.817150 0.363079
0.000189 0.971233 0.296723
0.000119 0.999483 0.236715
0.000091 0.999756 0.116632
0.019448 0.999931 0.031822
0.365880 0.999702 0.077844
0.870821 0.999677 0.261784
0.986727 0.999789 0.344885
0.022424 0.040955 0.430522
0.130795 0.053386 0.422115
0.265391 0.027883 0.453504
0.395199 0.056574 0.473232
0.538405 0.089341 0.482545
0.687729 0.102953 0.493597
0.815902 0.124886 0.514640
0.945094 0.113132 0.550693
0.999650 0.074927 0.617418
0.001199 0.115481 0.408920
0.130748 0.140747 0.441335
0.263195 0.160561 0.469281
0.402315 0.178669 0.486171
0.540895 0.204574 0.492322
0.693531 0.214834 0.500169
0.832609 0.227264 0.510926
0.924204 0.224457 0.533465
0.999819 0.185828 0.596427
0.000183 0.238059 0.449228
0.008522 0.240508 0.445649
0.261726 0.276935 0.473847
0.395432 0.283972 0.491560
0.538773 0.301087 0.501352
0.691555 0.319996 0.508201
0.787658 0.366518 0.509411
0.999608 0.356024 0.623669
0.999363 0.322249 0.573907
0.000303 0.350330 0.417104
0.000409 0.348576 0.455603
0.225675 0.380877 0.478406
0.379034 0.391017 0.495366
0.528656 0.408101 0.502909
0.684847 0.425830 0.510131
0.821311 0.443270 0.517953
0.999820 0.406360 0.589879
0.999633 0.451702 0.561085
0.000276 0.433381 0.453323
0.000239 0.450923 0.459074
0.177789 0.491831 0.481128
0.358735 0.501791 0.494062
0.514612 0.518498 0.498512
0.668475 0.535954 0.508204
0.765731 0.557607 0.517027
0.999852 0.519159 0.653666
0.999691 0.571200 0.590354
0.000149 0.511380 0.421641
0.000104 0.564589 0.467074
0.089705 0.601264 0.465059
0.304250 0.616424 0.485746
0.490796 0.630276 0.493020
0.654470 0.649358 0.498870
0.780664 0.668491 0.512747
0.999605 0.630703 0.624543
0.999565 0.626279 0.623776
0.000158 0.657957 0.460341
0.000166 0.677062 0.474539
0.000163 0.710847 0.471912
0.234157 0.733227 0.477217
0.441749 0.745299 0.469744
0.617669 0.762409 0.475399
0.776028 0.774580 0.494797
0.986328 0.789273 0.550952
0.999445 0.779342 0.576559
0.000285 0.772441 0.438812
0.000128 0.818569 0.475623
0.175273 0.777071 0.432003
0.231689 0.819318 0.376824
0.399377 0.846134 0.436660
0.610244 0.844501 0.455982
0.749304 0.892398 0.435759
0.827169 0.899222 0.496458
0.999479 0.891908 0.616898
0.000031 0.894510 0.423701
0.000029 0.900440 0.411931
0.000696 0.946464 0.414361
0.000202 0.999767 0.412115
0.000150 0.999822 0.370293
0.009747 0.999728 0.081430
0.529147 0.999789 0.315747
0.784907 0.999593 0.368404
0.983687 0.999504 0.536911
0.029073 0.072841 0.588664
0.135240 0.028799 0.531406
0.263214 0.000276 0.571358
0.395468 0.042398 0.576997
0.535977 0.084223 0.589957
0.687949 0.119697 0.591428
0.818633 0.126444 0.609525
0.958991 0.133691 0.626388
0.999835 0.044921 0.710026
0.005239 0.113405 0.518410
0.126622 0.135235 0.532441
0.257452 0.162650 0.566038
0.400762 0.183214 0.585890
0.536886 0.204524 0.599793
0.690306 0.215113 0.608686
0.828320 0.224263 0.619899
0.973095 0.222420 0.637626
0.999689 0.266476 0.653204
0.000249 0.241489 0.527073
0.000269 0.239168 0.549067
0.260237 0.278913 0.587492
0.390609 0.281169 0.609530
0.536320 0.298290 0.617797
0.686197 0.315761 0.621253
0.812867 0.346023 0.619465
0.999735 0.309887 0.652710
0.999753 0.359255 0.651884
0.000296 0.356740 0.521688
0.000082 0.359596 0.580032
0.240554 0.381961 0.601420
0.377430 0.391046 0.615127
0.526399 0.405490 0.626580
0.681973 0.424341 0.630474
0.780421 0.454730 0.624809
0.999782 0.384906 0.646354
0.999654 0.490360 0.649123
0.000287 0.449014 0.569025
0.000404 0.456185 0.584346
0.194918 0.494620 0.605794
0.353893 0.505192 0.620808
0.512585 0.517260 0.629696
0.664035 0.535900 0.633691
0.780460 0.553440 0.635876
0.999776 0.541190 0.648711
0.999483 0.547345 0.676023
0.000215 0.560776 0.592788
0.000344 0.568487 0.592450
0.059919 0.612365 0.594413
0.303799 0.619311 0.621305
0.489214 0.628301 0.624831
0.648418 0.647915 0.626938
0.762865 0.667453 0.625932
0.999783 0.653715 0.700953
0.999708 0.673976 0.630269
0.000221 0.647088 0.574417
0.000303 0.685293 0.617373
0.054084 0.724565 0.568042
0.228615 0.734262 0.613255
0.430633 0.750082 0.607127
0.609409 0.761508 0.617543
0.778389 0.773977 0.621998
0.915523 0.791529 0.643216
0.999726 0.778175 0.652085
0.000240 0.787670 0.598980
0.000211 0.809615 0.579537
0.001198 0.839964 0.607548
0.096972 0.817611 0.546343
0.399196 0.828615 0.591711
0.611920 0.838945 0.589096
0.740649 0.884568 0.597350
0.817173 0.897022 0.633793
0.999539 0.901550 0.645618
0.000196 0.910026 0.582956
0.000148 0.931974 0.593925
0.000112 0.966995 0.606375
0.000193 0.999902 0.607327
0.000224 0.999858 0.542176
0.118729 0.999816 0.372016
0.579170 0.999857 0.530387
0.798495 0.999730 0.520107
0.991098 0.996328 0.700092
0.033423 0.100804 0.691139
0.123793 0.023670 0.593624
0.264233 0.000167 0.683791
0.399196 0.009924 0.689050
0.537535 0.059994 0.707288
0.677923 0.073893 0.715685
0.814491 0.109675 0.712596
0.945057 0.122680 0.726733
0.999808 0.069705 0.800730
0.012649 0.115813 0.599081
0.097051 0.096494 0.625690
0.265338 0.170428 0.680199
0.392253 0.191350 0.698606
0.533314 0.209631 0.712285
0.683447 0.214831 0.717230
0.822770 0.226712 0.695711
0.999807 0.207104 0.748923
0.999663 0.277927 0.735137
0.000463 0.249417 0.666960
0.000129 0.247219 0.672257
0.273269 0.268047 0.670412
0.427513 0.281832 0.714399
0.528914 0.300938 0.696618
0.680531 0.317935 0.695017
0.802846 0.348855 0.730240
0.999789 0.407773 0.742402
0.999521 0.318141 0.751101
0.000240 0.343767 0.683411
0.000237 0.343670 0.671504
0.262727 0.388275 0.717399
0.375956 0.389698 0.709947
0.522444 0.407361 0.717406
0.678302 0.424705 0.745238
0.804862 0.439059 0.747588
0.999778 0.415529 0.739655
0.999590 0.456333 0.752004
0.000288 0.472340 0.692347
0.000384 0.452531 0.693990
0.227572 0.493688 0.723557
0.359351 0.510718 0.733981
0.510390 0.519056 0.753761
0.660483 0.535858 0.755434
0.778203 0.556797 0.756690
0.999757 0.602802 0.754454
0.999631 0.537927 0.761729
0.000308 0.557852 0.715411
0.000299 0.554617 0.692903
0.082061 0.609467 0.727565
0.306065 0.624316 0.737121
0.490248 0.637102 0.757758
0.647706 0.649708 0.760319
0.785107 0.664621 0.755785
0.999701 0.645696 0.779310
0.999761 0.680857 0.755038
0.000299 0.653588 0.708420
0.000408 0.685486 0.726277
0.014165 0.738262 0.718724
0.346167 0.729557 0.731299
0.434103 0.746974 0.742637
0.602575 0.757670 0.754768
0.768263 0.767785 0.751975
0.850275 0.791717 0.754600
0.999595 0.793806 0.774475
0.000243 0.790345 0.741037
0.000159 0.814060 0.744288
0.000070 0.842084 0.756232
0.214971 0.821474 0.683388
0.575526 0.739447 0.730042
0.665538 0.811871 0.766506
0.733002 0.884581 0.747961
0.830334 0.898246 0.750419
0.999651 0.899908 0.792213
0.000056 0.904102 0.725234
0.000175 0.942168 0.741467
0.000261 0.930590 0.725333
0.001356 0.981837 0.738388
0.000162 0.997864 0.716184
0.456575 0.997430 0.653472
0.685416 0.995891 0.724490
0.836425 0.999718 0.687641
0.984893 0.999672 0.738012
0.043047 0.077016 0.683188
0.086460 0.015144 0.705837
0.269324 0.000139 0.789098
0.401023 0.014578 0.803431
0.540730 0.033218 0.826304
0.666517 0.050119 0.821892
0.804829 0.096974 0.824991
0.920425 0.166931 0.824947
0.999722 0.153864 0.842772
0.036913 0.121839 0.758746
0.044812 0.137411 0.768697
0.245271 0.183274 0.757097
0.365861 0.210921 0.773804
0.579771 0.200376 0.794945
0.721676 0.210466 0.806631
0.827285 0.252217 0.809944
0.999577 0.194379 0.856351
0.999635 0.274438 0.790197
0.003993 0.244162 0.788959
0.002115 0.254613 0.802327
0.189496 0.282694 0.777309
0.438614 0.284496 0.771535
0.558401 0.332606 0.816720
0.714979 0.320274 0.811570
0.770425 0.406689 0.835174
0.999795 0.310403 0.806597
0.999682 0.298175 0.859890
0.000360 0.370718 0.823608
0.000306 0.347538 0.792916
0.178566 0.415573 0.818951
0.427107 0.383506 0.794342
0.575459 0.381756 0.806876
0.686769 0.447969 0.827298
0.883171 0.436407 0.837845
0.999555 0.433184 0.841420
0.999747 0.430669 0.882598
0.000612 0.452471 0.791700
0.000326 0.453995 0.797084
0.059987 0.532244 0.831539
0.381728 0.510552 0.821341
0.520873 0.537697 0.844307
0.681412 0.558746 0.834107
0.788326 0.563299 0.862270
0.999683 0.500129 0.884720
0.999814 0.540178 0.870718
0.000254 0.550751 0.796355
0.000345 0.574548 0.813525
0.141633 0.621908 0.838563
0.367138 0.610158 0.847316
0.495259 0.653143 0.857442
0.660691 0.669477 0.862559
0.805355 0.680405 0.862923
0.999793 0.649859 0.930732
0.999743 0.674874 0.875386
0.000358 0.679397 0.805829
0.000256 0.702523 0.817554
0.000892 0.774413 0.861754
0.302857 0.730733 0.788118
0.476295 0.743616 0.830464
0.607694 0.777922 0.868083
0.786964 0.787300 0.873524
0.889051 0.790996 0.886148
0.999664 0.794276 0.875357
0.000134 0.776680 0.854634
0.000281 0.800570 0.850196
0.000253 0.847604 0.837989
0.093002 0.851378 0.853478
0.383245 0.848458 0.866698
0.546558 0.873766 0.884102
0.723689 0.886694 0.889799
0.853456 0.898530 0.877472
0.999662 0.886749 0.886121
0.000212 0.898715 0.879056
0.000277 0.872808 0.965115
0.001303 0.937657 0.862523
0.000593 0.936353 0.999914
0.761791 0.935304 0.889353
0.456444 0.995152 0.844221
0.548223 0.999613 0.808333
0.860642 0.998793 0.854965
0.993879 0.990288 0.873428
0.094087 0.034204 0.829905
0.100444 0.049198 0.877176
0.379881 0.001127 0.853706
0.364865 0.040322 0.953506
0.639436 0.060387 0.999497
0.743673 0.101193 0.999696
0.828358 0.154583 0.994815
0.978232 0.153259 0.843350
0.999954 0.230141 0.851334
0.021544 0.179058 0.802803
0.042371 0.179256 0.896330
0.378242 0.122425 0.986331
0.543805 0.180258 0.999777
0.690011 0.155485 0.999680
0.782470 0.210848 0.999497
0.838966 0.261059 0.999517
0.993054 0.179668 0.986700
0.999737 0.343676 0.943451
0.069791 0.191547 0.979758
0.087387 0.256333 0.999526
0.298548 0.248604 0.952181
0.555211 0.253196 0.999713
0.593662 0.364078 0.999747
0.874006 0.102381 0.999644
0.816739 0.408409 0.999719
0.977512 0.366486 0.999748
0.999767 0.365761 0.953837
0.000744 0.381897 0.951259
0.000742 0.396189 0.915202
0.348658 0.389607 0.999725
0.513234 0.255426 0.999637
0.649146 0.146726 0.999189
0.744997 0.427573 0.999532
0.904267 0.471085 0.999793
0.999863 0.455550 0.999565
0.999731 0.499485 0.950041
0.000556 0.545361 0.977197
0.000354 0.573304 0.999874
0.412509 0.464814 0.999764
0.510963 0.492448 0.999750
0.648276 0.362093 0.999514
0.770633 0.493332 0.999650
0.794513 0.583131 0.999634
0.999890 0.522010 0.999684
0.999751 0.610299 0.952824
0.000351 0.573754 0.999924
0.436356 0.121653 0.999746
0.225766 0.628475 0.986183
0.559057 0.519502 0.999602
0.547497 0.670357 0.999675
0.674850 0.693616 0.999755
0.837730 0.678693 0.999642
0.938179 0.714455 0.999607
0.999584 0.673741 0.997470
0.000242 0.717416 0.925508
0.000435 0.815926 0.985821
0.066338 0.739290 0.999746
0.341015 0.751302 0.999894
0.476234 0.774670 0.999821
0.636428 0.774462 0.999680
0.814904 0.743536 0.999685
0.925039 0.780941 0.999452
0.999750 0.768800 0.999353
0.000461 0.840525 0.973835
0.000851 0.749686 0.999749
0.019229 0.836562 0.999759
0.291500 0.825112 0.999890
0.448199 0.831664 0.999690
0.569807 0.868340 0.999646
0.731936 0.865160 0.998023
0.893123 0.864896 0.999709
0.998192 0.891399 0.967206
0.000074 0.998785 0.663024
0.000394 0.849950 0.999944
0.000510 0.900828 0.999961
0.223615 0.899572 0.999831
0.379296 0.926989 0.999636
0.531753 0.942038 0.999814
0.749998 0.950506 0.999424
0.868197 0.990738 0.994214
0.989138 0.995638 0.981303
