calib/LUT LIBRARY/provia_composed.cube
TITLE "Chromasmith composed - Provia"
#STD_q(x) = VLOG_q(T(x)), T derived from astia/velvia/classic_neg matched pairs
LUT_3D_SIZE 5
0.035869 0.035575 0.038465
0.291288 0.058389 0.045661
0.558166 0.118991 0.004154
0.796794 0.113621 0.064513
0.994385 0.070302 0.305501
0.000447 0.218523 0.035844
0.287114 0.264960 0.000224
0.564668 0.305981 0.000942
0.827018 0.347914 0.035719
0.999296 0.359095 0.260578
0.000074 0.417951 0.000230
0.187579 0.470030 0.000367
0.533461 0.518262 0.000120
0.834194 0.555731 0.000039
0.999479 0.531143 0.300151
0.000005 0.635777 0.000310
0.000043 0.666528 0.000244
0.473823 0.729341 0.000120
0.788811 0.770646 0.000106
0.999363 0.772585 0.282597
0.000071 0.866440 0.000438
0.000187 0.959964 0.000284
0.482217 0.959421 0.000315
0.737930 0.990983 0.000156
0.994700 0.999527 0.090882
0.007096 0.039721 0.211345
0.285363 0.064342 0.239474
0.553428 0.115618 0.262837
0.808496 0.120374 0.302918
0.995096 0.042630 0.474487
0.000052 0.238937 0.232164
0.267280 0.271486 0.264788
0.548692 0.308120 0.263997
0.826372 0.339806 0.304942
0.999431 0.376747 0.390222
0.000143 0.435954 0.231958
0.195557 0.482380 0.238556
0.527957 0.516537 0.271994
0.782889 0.564145 0.269306
0.999349 0.544058 0.441227
0.000129 0.626725 0.190966
0.000029 0.690737 0.202730
0.444232 0.746230 0.198977
0.792206 0.768281 0.229137
0.999466 0.779641 0.462728
0.000061 0.878332 0.137931
0.000119 0.994034 0.130309
0.000000 1.000000 0.000290
0.610253 0.999654 0.000169
0.984664 0.999680 0.142769
0.022424 0.040955 0.430522
0.265391 0.027883 0.453504
0.538405 0.089341 0.482545
0.815902 0.124886 0.514640
0.999650 0.074927 0.617418
0.000183 0.238059 0.449228
0.261726 0.276935 0.473847
0.538773 0.301087 0.501352
0.787658 0.366518 0.509411
0.999363 0.322249 0.573907
0.000276 0.433381 0.453323
0.177789 0.491831 0.481128
0.514612 0.518498 0.498512
0.765731 0.557607 0.517027
0.999691 0.571200 0.590354
0.000158 0.657957 0.460341
0.000163 0.710847 0.471912
0.441749 0.745299 0.469744
0.776028 0.774580 0.494797
0.999445 0.779342 0.576559
0.000031 0.894510 0.423701
0.000696 0.946464 0.414361
0.000150 0.999822 0.370293
0.529147 0.999789 0.315747
0.983687 0.999504 0.536911
0.033423 0.100804 0.691139
0.264233 0.000167 0.683791
0.537535 0.059994 0.707288
0.814491 0.109675 0.712596
0.999808 0.069705 0.800730
0.000463 0.249417 0.666960
0.273269 0.268047 0.670412
0.528914 0.300938 0.696618
0.802846 0.348855 0.730240
0.999521 0.318141 0.751101
0.000288 0.472340 0.692347
0.227572 0.493688 0.723557
0.510390 0.519056 0.753761
0.778203 0.556797 0.756690
0.999631 0.537927 0.761729
0.000299 0.653588 0.708420
0.014165 0.738262 0.718724
0.434103 0.746974 0.742637
0.768263 0.767785 0.751975
0.999595 0.793806 0.774475
0.000056 0.904102 0.725234
0.000261 0.930590 0.725333
0.000162 0.997864 0.716184
0.685416 0.995891 0.724490
0.984893 0.999672 0.738012
0.094087 0.034204 0.829905
0.379881 0.001127 0.853706
0.639436 0.060387 0.999497
0.828358 0.154583 0.994815
0.999954 0.230141 0.851334
0.069791 0.191547 0.979758
0.298548 0.248604 0.952181
0.593662 0.364078 0.999747
0.816739 0.408409 0.999719
0.999767 0.365761 0.953837
0.000556 0.545361 0.977197
0.412509 0.464814 0.999764
0.648276 0.362093 0.999514
0.794513 0.583131 0.999634
0.999751 0.610299 0.952824
0.000242 0.717416 0.925508
0.066338 0.739290 0.999746
0.476234 0.774670 0.999821
0.814904 0.743536 0.999685
0.999750 0.768800 0.999353
0.000074 0.998785 0.663024
0.000510 0.900828 0.999961
0.379296 0.926989 0.999636
0.749998 0.950506 0.999424
0.989138 0.995638 0.981303
