calib/LUT LIBRARY/reala_ace_composed.cube
TITLE "Chromasmith composed - Reala Ace"
#STD_q(x) = VLOG_q(T(x)), T derived from astia/velvia/classic_neg matched pairs
LUT_3D_SIZE 5
0.029251 0.029933 0.031952
0.305003 0.044959 0.034726
0.547820 0.098866 0.000257
0.734218 0.082465 0.032929
0.895306 0.162155 0.282082
0.000105 0.233105 0.026672
0.313742 0.272291 0.000228
0.543451 0.290973 0.000399
0.771467 0.321484 0.030399
0.957800 0.406179 0.271474
0.101235 0.413090 0.067225
0.264054 0.452607 0.043078
0.529119 0.491950 0.002138
0.804187 0.540448 0.000645
0.987563 0.570187 0.306824
0.233213 0.598271 0.178896
0.255039 0.627491 0.197809
0.566955 0.714252 0.143658
0.827786 0.786810 0.041519
0.996986 0.800859 0.298606
0.518395 0.834707 0.446132
0.644233 0.917113 0.573576
0.809317 0.944297 0.545038
0.915832 0.972154 0.530935
0.996233 0.988251 0.459361
0.001339 0.024934 0.230588
0.280916 0.053823 0.255535
0.518607 0.089905 0.247600
0.735625 0.076506 0.259268
0.901408 0.164352 0.443022
0.000342 0.219554 0.207304
0.268998 0.272285 0.265223
0.520441 0.293509 0.253484
0.778688 0.319614 0.290404
0.963464 0.428529 0.400839
0.009840 0.404774 0.201794
0.235214 0.461681 0.227584
0.530991 0.508403 0.270848
0.788307 0.577580 0.283306
0.993493 0.584644 0.459795
0.197680 0.598081 0.253970
0.282996 0.672268 0.312149
0.583705 0.760936 0.317621
0.843203 0.804962 0.282487
0.998669 0.806994 0.487709
0.552808 0.862082 0.516238
0.660656 0.929700 0.616290
0.670936 0.930246 0.593398
0.876465 0.965911 0.561975
0.995472 0.988599 0.479322
0.000385 0.015668 0.434864
0.215147 0.005466 0.455489
0.487031 0.067212 0.464400
0.735428 0.104482 0.468211
0.904052 0.244157 0.582936
0.000202 0.181660 0.390163
0.214339 0.244663 0.437936
0.497813 0.285022 0.482022
0.755435 0.359941 0.504269
0.953934 0.391590 0.577620
0.000383 0.363722 0.376103
0.168478 0.453480 0.436793
0.524652 0.526154 0.506020
0.783923 0.585094 0.546297
0.997030 0.612006 0.614916
0.189028 0.634028 0.461817
0.292285 0.701314 0.513368
0.575527 0.772210 0.537497
0.831828 0.815721 0.547142
0.998641 0.805080 0.604224
0.568116 0.881976 0.640173
0.629846 0.917109 0.678995
0.655728 0.932214 0.680992
0.837849 0.962740 0.670638
0.994372 0.992618 0.669986
0.007301 0.051543 0.619748
0.166377 0.002280 0.616861
0.446580 0.108566 0.628752
0.705190 0.205629 0.639854
0.870195 0.332764 0.720631
0.000235 0.166125 0.571220
0.176046 0.208490 0.601411
0.467494 0.285206 0.657863
0.756241 0.390549 0.715440
0.917394 0.438783 0.725038
0.000458 0.380161 0.587025
0.161056 0.441557 0.659991
0.487191 0.517139 0.742644
0.790148 0.598044 0.788602
0.970341 0.599682 0.772224
0.109950 0.601264 0.639735
0.307009 0.711887 0.685911
0.522846 0.757250 0.751219
0.813236 0.808116 0.794424
0.998747 0.819572 0.800264
0.564636 0.884276 0.781843
0.591906 0.900702 0.793575
0.653785 0.936829 0.810014
0.859402 0.974741 0.837203
0.994784 0.996373 0.780614
0.077711 0.020709 0.671312
0.273852 0.065143 0.681867
0.519543 0.223412 0.794338
0.711324 0.338999 0.823856
0.881748 0.413973 0.771581
0.166559 0.161465 0.751734
0.232713 0.218053 0.764487
0.497945 0.400915 0.847411
0.755131 0.505612 0.877858
0.889993 0.516818 0.853049
0.168676 0.492293 0.825290
0.262922 0.443424 0.842958
0.488821 0.395083 0.845042
0.717280 0.620783 0.916149
0.937410 0.687539 0.905237
0.228128 0.668865 0.814051
0.267710 0.675650 0.855614
0.473049 0.736475 0.897571
0.785013 0.767181 0.961057
0.964259 0.816788 0.962838
0.651647 0.936317 0.789014
0.498759 0.832124 0.877221
0.647209 0.893740 0.928675
0.836076 0.952913 0.984514
0.990458 0.995381 0.981524
