calib/LUT LIBRARY/reala_ace_composed.cube
TITLE "Chromasmith composed - Reala Ace"
#STD_q(x) = VLOG_q(T(x)), T derived from astia/velvia/classic_neg matched pairs
LUT_3D_SIZE 9
0.029251 0.029933 0.031952
0.130429 0.039639 0.049029
0.305003 0.044959 0.034726
0.439499 0.088392 0.000988
0.547820 0.098866 0.000257
0.645841 0.091214 0.005916
0.734218 0.082465 0.032929
0.805529 0.098268 0.093483
0.895306 0.162155 0.282082
0.016909 0.108647 0.041736
0.162466 0.145216 0.025532
0.313834 0.161614 0.001911
0.429528 0.174260 0.000038
0.551059 0.188635 0.000082
0.659745 0.207639 0.000936
0.760041 0.209135 0.048002
0.863600 0.221299 0.146040
0.922106 0.265047 0.283337
0.000105 0.233105 0.026672
0.118489 0.261513 0.028747
0.313742 0.272291 0.000228
0.431170 0.287646 0.000155
0.543451 0.290973 0.000399
0.660951 0.306987 0.000102
0.771467 0.321484 0.030399
0.894555 0.339506 0.178030
0.957800 0.406179 0.271474
0.049809 0.364175 0.066388
0.105915 0.346918 0.014293
0.276765 0.365968 0.004872
0.416041 0.377626 0.000323
0.533777 0.391175 0.000122
0.656207 0.400469 0.000283
0.796559 0.419084 0.004674
0.930083 0.473451 0.152577
0.972244 0.471945 0.341048
0.101235 0.413090 0.067225
0.131725 0.456128 0.093502
0.264054 0.452607 0.043078
0.397971 0.472948 0.012178
0.529119 0.491950 0.002138
0.667387 0.504231 0.000146
0.804187 0.540448 0.000645
0.992085 0.602036 0.348795
0.987563 0.570187 0.306824
0.167306 0.507099 0.122588
0.181172 0.526784 0.134236
0.323945 0.536813 0.083027
0.402074 0.569810 0.067617
0.538773 0.592289 0.034886
0.689878 0.632998 0.002121
0.813618 0.666218 0.000642
0.990859 0.721070 0.182021
0.994540 0.699686 0.312278
0.233213 0.598271 0.178896
0.253203 0.620542 0.197101
0.255039 0.627491 0.197809
0.444230 0.696670 0.204458
0.566955 0.714252 0.143658
0.712725 0.753794 0.079834
0.827786 0.786810 0.041519
0.981271 0.830948 0.108399
0.996986 0.800859 0.298606
0.375688 0.732140 0.309095
0.451208 0.787577 0.380644
0.400252 0.749744 0.332322
0.568438 0.798164 0.323552
0.668031 0.846797 0.355061
0.758302 0.875999 0.339375
0.857631 0.894209 0.222477
0.988821 0.925264 0.188849
0.998151 0.935974 0.336304
0.518395 0.834707 0.446132
0.546475 0.853494 0.475111
0.644233 0.917113 0.573576
0.660755 0.927377 0.590509
0.809317 0.944297 0.545038
0.868291 0.938343 0.421384
0.915832 0.972154 0.530935
0.942830 0.977932 0.522751
0.996233 0.988251 0.459361
0.018072 0.028958 0.108936
0.140408 0.049277 0.120984
0.291939 0.049231 0.132582
0.425045 0.079331 0.111300
0.539582 0.096573 0.105904
0.633032 0.088599 0.125913
0.733954 0.082684 0.125556
0.830308 0.080120 0.214420
0.898807 0.166619 0.306120
0.018097 0.118999 0.117817
0.148923 0.146679 0.143657
0.287579 0.167271 0.134011
0.416685 0.173325 0.123373
0.534626 0.190550 0.117103
0.653925 0.197493 0.114949
0.758269 0.206905 0.157919
0.864581 0.216447 0.237368
0.933871 0.297635 0.340316
0.000062 0.219250 0.104076
0.113133 0.260827 0.130668
0.284202 0.272954 0.115743
0.406446 0.286848 0.105599
0.528471 0.292698 0.096052
0.650882 0.307049 0.127252
0.775895 0.319063 0.167432
0.906676 0.340769 0.257383
0.935495 0.369032 0.139399
0.025736 0.342531 0.097044
0.090133 0.345387 0.104182
0.260245 0.361990 0.068557
0.391862 0.373878 0.039524
0.524670 0.387259 0.063194
0.660477 0.407980 0.119648
0.788106 0.435109 0.169279
0.970807 0.487961 0.232350
0.979272 0.504072 0.433397
0.050681 0.385308 0.103524
0.087579 0.438558 0.134628
0.251865 0.454108 0.051852
0.372428 0.472992 0.014787
0.520894 0.494939 0.012922
0.667805 0.525602 0.080887
0.818372 0.552920 0.172561
0.986254 0.540832 0.495266
0.989738 0.563702 0.403480
0.147500 0.487278 0.124373
0.196916 0.559869 0.170711
0.277066 0.555071 0.122817
0.385294 0.579972 0.089222
0.524707 0.609755 0.054471
0.680753 0.643918 0.018812
0.805781 0.677258 0.160855
0.997109 0.681041 0.404482
0.995612 0.690573 0.333560
0.220958 0.595162 0.199109
0.245092 0.612209 0.191297
0.283173 0.652490 0.223271
0.441134 0.698849 0.211000
0.568752 0.739886 0.193021
0.707608 0.783455 0.123672
0.825578 0.802548 0.173821
0.947498 0.823453 0.184034
0.997982 0.793642 0.366821
0.352303 0.714686 0.297599
0.416752 0.762495 0.348869
0.458789 0.793328 0.388087
0.556306 0.824419 0.399499
0.657348 0.849127 0.374054
0.757703 0.884816 0.372702
0.857422 0.899214 0.306994
0.963795 0.918721 0.257446
0.998255 0.916289 0.403594
0.532244 0.844667 0.460399
0.603665 0.891542 0.531981
0.657533 0.925437 0.587148
0.663645 0.917882 0.566542
0.724853 0.939133 0.591224
0.710339 0.936510 0.591557
0.893936 0.969166 0.554097
0.957675 0.982144 0.548539
0.995754 0.988876 0.487832
0.001339 0.024934 0.230588
0.125358 0.043818 0.239370
0.280916 0.053823 0.255535
0.405320 0.068257 0.247860
0.518607 0.089905 0.247600
0.634440 0.086234 0.251424
0.735625 0.076506 0.259268
0.845840 0.124262 0.322738
0.901408 0.164352 0.443022
0.000506 0.090288 0.204904
0.127788 0.137106 0.242313
0.273957 0.161589 0.253052
0.400148 0.170251 0.257043
0.522320 0.183034 0.253148
0.645155 0.191740 0.252749
0.756620 0.199627 0.264707
0.859310 0.225359 0.335875
0.923424 0.252765 0.346314
0.000342 0.219554 0.207304
0.090405 0.243991 0.232717
0.268998 0.272285 0.265223
0.397867 0.280170 0.258451
0.520441 0.293509 0.253484
0.645615 0.305810 0.254776
0.778688 0.319614 0.290404
0.941506 0.330955 0.429920
0.963464 0.428529 0.400839
0.000693 0.315395 0.209100
0.056382 0.330869 0.214252
0.245137 0.365188 0.252537
0.379765 0.381296 0.250174
0.521839 0.392649 0.249208
0.663418 0.414928 0.256572
0.769649 0.440296 0.276157
0.965667 0.443803 0.523067
0.973740 0.476644 0.413654
0.009840 0.404774 0.201794
0.045221 0.439465 0.206601
0.235214 0.461681 0.227584
0.375868 0.484011 0.258341
0.530991 0.508403 0.270848
0.681571 0.536656 0.259350
0.788307 0.577580 0.283306
0.990997 0.566948 0.496182
0.993493 0.584644 0.459795
0.105412 0.503323 0.214252
0.128843 0.529559 0.223970
0.249738 0.573144 0.255645
0.387239 0.604244 0.246088
0.542888 0.633598 0.252040
0.698751 0.663513 0.254405
0.815378 0.683876 0.293094
0.998713 0.661149 0.522208
0.997897 0.705395 0.428486
0.197680 0.598081 0.253970
0.222776 0.618218 0.257671
0.282996 0.672268 0.312149
0.455318 0.722442 0.311541
0.583705 0.760936 0.317621
0.713144 0.792967 0.289932
0.843203 0.804962 0.282487
0.971306 0.826067 0.361908
0.998669 0.806994 0.487709
0.367717 0.733080 0.364191
0.413664 0.765567 0.398482
0.447792 0.797827 0.502910
0.563340 0.817754 0.441192
0.657806 0.835990 0.373049
0.751163 0.852752 0.322317
0.854230 0.900982 0.369310
0.957526 0.930119 0.340184
0.998396 0.926140 0.470173
0.552808 0.862082 0.516238
0.597228 0.887791 0.525655
0.660656 0.929700 0.616290
0.663661 0.929183 0.593484
0.670936 0.930246 0.593398
0.723801 0.938911 0.591315
0.876465 0.965911 0.561975
0.972831 0.984660 0.530002
0.995472 0.988599 0.479322
0.002271 0.031178 0.315558
0.101639 0.015380 0.338307
0.240490 0.052902 0.361086
0.377100 0.055066 0.369333
0.497941 0.060246 0.366670
0.625433 0.087773 0.365201
0.734558 0.075365 0.374803
0.835934 0.122337 0.382182
0.908271 0.179264 0.470625
0.000145 0.087191 0.298241
0.118753 0.138447 0.331356
0.249014 0.151596 0.366375
0.377034 0.169015 0.378576
0.507861 0.182924 0.364993
0.636933 0.188360 0.367306
0.760109 0.203795 0.371387
0.884310 0.243197 0.421956
0.935152 0.301514 0.476911
0.000283 0.196605 0.307017
0.030918 0.214264 0.308734
0.246264 0.258641 0.355957
0.381335 0.275497 0.370520
0.506802 0.288981 0.371994
0.646733 0.306202 0.374996
0.772159 0.329984 0.399531
0.925715 0.397783 0.386000
0.961751 0.423672 0.504139
0.000265 0.282282 0.285791
0.000272 0.298343 0.285113
0.213122 0.358367 0.344453
0.368681 0.378439 0.360308
0.511930 0.396082 0.375805
0.662990 0.421099 0.386377
0.739245 0.452809 0.392622
0.982928 0.528635 0.546231
0.977766 0.502849 0.563637
0.001036 0.369141 0.276909
0.009448 0.430048 0.286136
0.207397 0.465428 0.333683
0.369842 0.492033 0.357689
0.528237 0.519571 0.375333
0.685277 0.544946 0.396116
0.811509 0.577438 0.419614
0.994260 0.592854 0.572561
0.993413 0.583763 0.515599
0.039175 0.473966 0.276827
0.040489 0.512515 0.308988
0.243881 0.579839 0.348895
0.377263 0.616536 0.363001
0.545790 0.642461 0.378107
0.698800 0.675243 0.394930
0.803521 0.689716 0.418425
0.998571 0.680263 0.536334
0.998646 0.688798 0.559188
0.180836 0.614810 0.352475
0.234993 0.654666 0.394288
0.277484 0.681056 0.405159
0.455730 0.737766 0.425304
0.582165 0.765458 0.415906
0.710957 0.795117 0.404785
0.832466 0.814660 0.416277
0.961164 0.830133 0.454310
0.998643 0.799732 0.509862
0.385390 0.752948 0.445643
0.440153 0.792985 0.499759
0.390852 0.758016 0.459938
0.558248 0.825861 0.476908
0.650940 0.846243 0.493760
0.747877 0.868379 0.475159
0.852847 0.904742 0.486495
0.934611 0.923125 0.457825
0.998506 0.919823 0.578015
0.568945 0.877119 0.581413
0.462827 0.810552 0.539398
0.645463 0.923947 0.649841
0.658859 0.930781 0.643160
0.670519 0.931618 0.622367
0.721890 0.938923 0.602891
0.809393 0.954644 0.604423
0.956620 0.983521 0.603268
0.995011 0.990222 0.564500
0.000385 0.015668 0.434864
0.067554 0.018504 0.411810
0.215147 0.005466 0.455489
0.352617 0.036720 0.470376
0.487031 0.067212 0.464400
0.619819 0.074841 0.458549
0.735428 0.104482 0.468211
0.846695 0.160402 0.506922
0.904052 0.244157 0.582936
0.000307 0.079413 0.386701
0.071007 0.103386 0.412992
0.213318 0.136219 0.449194
0.359548 0.162554 0.471150
0.492780 0.186173 0.472669
0.633635 0.190255 0.470255
0.767169 0.207137 0.479483
0.854439 0.227476 0.506486
0.927151 0.295920 0.576033
0.000202 0.181660 0.390163
0.000361 0.184189 0.386863
0.214339 0.244663 0.437936
0.354742 0.263591 0.467274
0.497813 0.285022 0.482022
0.648166 0.304788 0.490985
0.755435 0.359941 0.504269
0.957040 0.428996 0.628630
0.953934 0.391590 0.577620
0.000360 0.289974 0.350940
0.000175 0.282386 0.381704
0.189601 0.340470 0.432143
0.350325 0.368551 0.469287
0.506830 0.400903 0.493365
0.667480 0.426431 0.511635
0.810705 0.453970 0.530411
0.968823 0.465404 0.603454
0.977345 0.503698 0.577724
0.000383 0.363722 0.376103
0.000317 0.379184 0.380215
0.168478 0.453480 0.436793
0.356612 0.488004 0.479228
0.524652 0.526154 0.506020
0.681864 0.555215 0.528245
0.783923 0.585094 0.546297
0.987891 0.574319 0.680130
0.997030 0.612006 0.614916
0.010858 0.449974 0.356510
0.016648 0.504636 0.401929
0.200829 0.580637 0.451252
0.364376 0.621884 0.491855
0.542670 0.654564 0.519901
0.694871 0.683347 0.532348
0.817871 0.707511 0.554470
0.998675 0.667538 0.650920
0.998523 0.663354 0.650238
0.189028 0.634028 0.461817
0.222662 0.656209 0.486838
0.292285 0.701314 0.513368
0.449966 0.748597 0.542983
0.575527 0.772210 0.537497
0.704933 0.798036 0.538435
0.831828 0.815721 0.547142
0.995523 0.828118 0.595885
0.998641 0.805080 0.604224
0.395244 0.768923 0.541511
0.462264 0.815823 0.602664
0.485326 0.786033 0.540976
0.558653 0.826040 0.539615
0.643379 0.860207 0.590179
0.747034 0.872061 0.576586
0.856835 0.917007 0.575901
0.898022 0.927674 0.590641
0.998594 0.914132 0.655947
0.568116 0.881976 0.640173
0.575943 0.886292 0.640970
0.629846 0.917109 0.678995
0.654633 0.932837 0.698870
0.655728 0.932214 0.680992
0.724551 0.939734 0.610886
0.837849 0.962740 0.670638
0.916954 0.978151 0.669030
0.994372 0.992618 0.669986
0.000469 0.034404 0.557732
0.054689 0.002422 0.516337
0.183036 0.000146 0.555929
0.331556 0.033213 0.551946
0.467336 0.086553 0.553249
0.609246 0.120853 0.546554
0.726661 0.158239 0.558216
0.852884 0.226443 0.583422
0.882231 0.286207 0.657713
0.000413 0.070284 0.486282
0.046786 0.084458 0.485750
0.179185 0.122185 0.524477
0.337330 0.158162 0.552383
0.476216 0.188286 0.569366
0.623916 0.205985 0.573228
0.753133 0.239188 0.585536
0.886705 0.302284 0.616644
0.930875 0.369018 0.640672
0.000187 0.173800 0.454731
0.000172 0.167318 0.474260
0.184265 0.229158 0.531038
0.326347 0.248213 0.567814
0.484893 0.281069 0.591531
0.641970 0.309472 0.604964
0.777524 0.355399 0.615583
0.939935 0.399719 0.646957
0.953314 0.436789 0.654154
0.000337 0.280187 0.435484
0.000107 0.274351 0.484636
0.176035 0.329066 0.539741
0.326653 0.358368 0.575984
0.496226 0.397248 0.612944
0.668755 0.434059 0.638342
0.778032 0.474548 0.644061
0.959751 0.455409 0.652972
0.982881 0.542957 0.670479
0.000183 0.364126 0.473591
0.000286 0.369826 0.486432
0.157454 0.445646 0.549351
0.328633 0.481017 0.592328
0.508458 0.520260 0.632011
0.676936 0.560021 0.658392
0.799795 0.587258 0.672113
0.990860 0.588431 0.672140
0.990591 0.595100 0.698787
0.003695 0.486538 0.507056
0.023104 0.500561 0.513398
0.152053 0.575083 0.552172
0.336309 0.610463 0.608376
0.525565 0.648360 0.644124
0.686278 0.684616 0.663815
0.800758 0.708588 0.670093
0.998266 0.690888 0.727065
0.998416 0.707618 0.657310
0.135507 0.607905 0.536667
0.211082 0.655396 0.590423
0.338437 0.718448 0.591510
0.421579 0.741116 0.642020
0.555932 0.776348 0.653018
0.691406 0.799071 0.670352
0.831034 0.815737 0.672481
0.947526 0.831274 0.690283
0.998614 0.804404 0.679845
0.402749 0.778747 0.646309
0.439587 0.803098 0.651919
0.486262 0.833620 0.688468
0.498010 0.820183 0.643210
0.618275 0.847890 0.680218
0.736025 0.868507 0.673311
0.836909 0.910227 0.687039
0.882962 0.924108 0.698287
0.998384 0.923865 0.684863
0.585027 0.897183 0.728587
0.606922 0.909704 0.745171
0.635223 0.926409 0.762972
0.652065 0.935635 0.763549
0.652048 0.935117 0.742940
0.747685 0.947424 0.691453
0.845446 0.968574 0.756807
0.916018 0.981002 0.734035
0.994993 0.995713 0.757966
0.007301 0.051543 0.619748
0.036889 0.002021 0.569916
0.166377 0.002280 0.616861
0.312828 0.041142 0.616675
0.446580 0.108566 0.628752
0.575671 0.147850 0.635737
0.705190 0.205629 0.639854
0.822737 0.275103 0.666129
0.870195 0.332764 0.720631
0.000359 0.067490 0.553913
0.015386 0.045745 0.572065
0.159904 0.116608 0.605568
0.304970 0.160756 0.629071
0.456147 0.204070 0.652541
0.604023 0.236518 0.660826
0.738269 0.274191 0.650808
0.887222 0.363134 0.713433
0.912948 0.406833 0.704847
0.000235 0.166125 0.571220
0.000409 0.162451 0.578114
0.176046 0.208490 0.601411
0.348462 0.248820 0.655584
0.467494 0.285206 0.657863
0.630912 0.326762 0.670634
0.756241 0.390549 0.715440
0.942803 0.501801 0.735759
0.917394 0.438783 0.725038
0.000352 0.247697 0.574880
0.000301 0.249400 0.565221
0.175847 0.329288 0.646415
0.306769 0.351112 0.659831
0.480567 0.397198 0.696701
0.657236 0.447109 0.743637
0.786251 0.483653 0.755462
0.944610 0.503647 0.733877
0.951866 0.536862 0.750898
0.000458 0.380161 0.587025
0.000317 0.358536 0.587495
0.161056 0.441557 0.659991
0.313372 0.481774 0.697099
0.487191 0.517139 0.742644
0.660463 0.560271 0.770869
0.790148 0.598044 0.788602
0.987204 0.649175 0.773294
0.970341 0.599682 0.772224
0.002850 0.473545 0.617356
0.000358 0.471044 0.595391
0.117484 0.558630 0.659827
0.310279 0.602845 0.706335
0.495840 0.641413 0.755495
0.669661 0.679014 0.786207
0.817344 0.708392 0.799957
0.990132 0.687503 0.796879
0.996769 0.714898 0.775394
0.109950 0.601264 0.639735
0.184254 0.642740 0.664323
0.307009 0.711887 0.685911
0.456726 0.730114 0.730563
0.522846 0.757250 0.751219
0.663505 0.786818 0.786502
0.813236 0.808116 0.794424
0.888914 0.829891 0.797247
0.998747 0.819572 0.800264
0.386768 0.766875 0.723422
0.426499 0.793215 0.739101
0.471515 0.822377 0.761219
0.524829 0.824229 0.728290
0.622813 0.767623 0.758624
0.735718 0.843461 0.805081
0.810305 0.909900 0.798627
0.884643 0.922015 0.795065
0.998705 0.922306 0.822137
0.564636 0.884276 0.781843
0.601804 0.906349 0.803444
0.591906 0.900702 0.793575
0.651852 0.935318 0.818594
0.653785 0.936829 0.810014
0.803364 0.963427 0.803558
0.859402 0.974741 0.837203
0.924537 0.986031 0.807476
0.994784 0.996373 0.780614
0.008837 0.034362 0.621730
0.031309 0.003337 0.637493
0.168625 0.012135 0.654650
0.297323 0.068522 0.663986
0.433793 0.128629 0.693038
0.551457 0.172981 0.698504
0.683597 0.245197 0.717044
0.798554 0.329866 0.742904
0.873533 0.378603 0.755703
0.024421 0.066750 0.650015
0.028693 0.077972 0.651643
0.135920 0.123995 0.647304
0.266886 0.174079 0.673113
0.492470 0.222751 0.703066
0.629500 0.272332 0.721409
0.737646 0.342407 0.744828
0.868400 0.399344 0.786498
0.900002 0.421807 0.742513
0.015483 0.159116 0.663359
0.025865 0.168622 0.670236
0.077189 0.205747 0.668251
0.353939 0.255125 0.697457
0.493531 0.335758 0.751417
0.654580 0.365497 0.759557
0.730751 0.464886 0.805490
0.903660 0.449023 0.760071
0.891560 0.454937 0.789845
0.011055 0.276221 0.698972
0.009161 0.250387 0.670685
0.088447 0.344155 0.719741
0.354486 0.353758 0.733846
0.526741 0.386275 0.763739
0.659992 0.481119 0.809578
0.838696 0.518992 0.819145
0.923344 0.539587 0.805681
0.916400 0.551872 0.830525
0.000248 0.357485 0.678332
0.004529 0.362047 0.682799
0.040896 0.459128 0.727459
0.326402 0.481938 0.772741
0.488804 0.535777 0.816901
0.677845 0.587779 0.839622
0.782289 0.615579 0.866247
0.927835 0.594405 0.844179
0.938641 0.620791 0.844748
0.011751 0.469268 0.690004
0.004949 0.494016 0.708691
0.136442 0.570910 0.758586
0.339927 0.587262 0.801880
0.483713 0.649248 0.834820
0.666300 0.692334 0.872680
0.821212 0.726606 0.887552
0.952243 0.718314 0.901212
0.969961 0.724673 0.872476
0.141916 0.626333 0.720708
0.197704 0.654673 0.735450
0.339660 0.736174 0.782904
0.412348 0.718021 0.763595
0.522458 0.743966 0.818955
0.651655 0.793375 0.873836
0.815794 0.819493 0.902047
0.906291 0.826162 0.913945
0.993992 0.824803 0.889513
0.342573 0.738762 0.780074
0.388730 0.767161 0.785618
0.468655 0.818357 0.800857
0.494154 0.822648 0.814300
0.579362 0.837990 0.849592
0.677376 0.875761 0.886543
0.792233 0.902478 0.908461
0.892470 0.920815 0.903597
0.998689 0.910349 0.906564
0.530960 0.857553 0.837328
0.476663 0.819398 0.860138
0.590332 0.895966 0.849203
0.573648 0.880974 0.900024
0.851288 0.948519 0.918351
0.789228 0.964546 0.889353
0.819129 0.970077 0.874248
0.930974 0.990854 0.901668
0.996115 0.993895 0.887576
0.077711 0.020709 0.671312
0.098960 0.037343 0.683844
0.273852 0.065143 0.681867
0.266084 0.099133 0.725050
0.519543 0.223412 0.794338
0.617160 0.283957 0.810515
0.711324 0.338999 0.823856
0.845819 0.360659 0.763663
0.881748 0.413973 0.771581
0.040202 0.111228 0.666812
0.108480 0.126234 0.705630
0.285658 0.152876 0.757473
0.382205 0.240511 0.793196
0.568645 0.286919 0.812689
0.674641 0.356769 0.831728
0.741135 0.405170 0.844651
0.851714 0.420170 0.840689
0.887674 0.500913 0.843526
0.166559 0.161465 0.751734
0.171466 0.229174 0.784425
0.232713 0.218053 0.764487
0.363585 0.292719 0.810045
0.497945 0.400915 0.847411
0.742698 0.343375 0.823488
0.755131 0.505612 0.877858
0.873037 0.523515 0.875046
0.889993 0.516818 0.853049
0.118907 0.317745 0.789863
0.083226 0.323605 0.768987
0.204651 0.371699 0.825283
0.306914 0.272187 0.802314
0.450279 0.244663 0.797184
0.655567 0.497108 0.877814
0.814777 0.574989 0.898101
0.902240 0.589693 0.894315
0.915289 0.604654 0.879933
0.168676 0.492293 0.825290
0.196399 0.529257 0.839016
0.262922 0.443424 0.842958
0.358718 0.476090 0.863604
0.488821 0.395083 0.845042
0.666857 0.540520 0.891122
0.717280 0.620783 0.916149
0.913953 0.632700 0.907586
0.937410 0.687539 0.905237
0.196117 0.528626 0.838975
0.219094 0.162858 0.763086
0.267560 0.592483 0.851647
0.423195 0.509426 0.873771
0.489535 0.657701 0.898452
0.629910 0.698769 0.927470
0.788566 0.716003 0.944683
0.905858 0.763924 0.952661
0.944247 0.742851 0.940115
0.228128 0.668865 0.814051
0.387565 0.765133 0.858964
0.267710 0.675650 0.855614
0.357643 0.699743 0.874144
0.473049 0.736475 0.897571
0.619758 0.766188 0.933341
0.785013 0.767181 0.961057
0.907096 0.817819 0.970080
0.964259 0.816788 0.962838
0.429935 0.789934 0.857479
0.274766 0.682310 0.856136
0.398277 0.770673 0.862563
0.428897 0.768855 0.878536
0.521938 0.792275 0.902991
0.649165 0.855373 0.941798
0.767262 0.875400 0.971991
0.894302 0.890108 0.993538
0.993290 0.916575 0.970768
0.651647 0.936317 0.789014
0.418418 0.782827 0.864281
0.498759 0.832124 0.877221
0.550790 0.850275 0.897571
0.647209 0.893740 0.928675
0.728095 0.924272 0.953886
0.836076 0.952913 0.984514
0.913521 0.985777 0.986931
0.990458 0.995381 0.981524
