calib/LUT LIBRARY/reala_ace_composed.cube
TITLE "Chromasmith composed - Reala Ace"
#STD_q(x) = VLOG_q(T(x)), T derived from astia/velvia/classic_neg matched pairs
LUT_3D_SIZE 33
0.029251 0.029933 0.031952
0.044164 0.031198 0.028025
0.061777 0.033929 0.038807
0.097611 0.042795 0.031928
0.130429 0.039639 0.049029
0.185317 0.056133 0.034536
0.234780 0.050016 0.025923
0.278010 0.066723 0.020195
0.305003 0.044959 0.034726
0.357979 0.091429 0.000142
0.375697 0.053562 0.052498
0.400433 0.067218 0.007274
0.439499 0.088392 0.000988
0.466308 0.103023 0.004878
0.494123 0.052730 0.025197
0.514179 0.076117 0.001492
0.547820 0.098866 0.000257
0.578371 0.084245 0.010153
0.591873 0.079359 0.011872
0.617212 0.076978 0.004827
0.645841 0.091214 0.005916
0.670691 0.092760 0.008094
0.689883 0.078643 0.030528
0.709525 0.075671 0.029170
0.734218 0.082465 0.032929
0.761182 0.093267 0.047464
0.773947 0.083866 0.067671
0.786873 0.094232 0.081252
0.805529 0.098268 0.093483
0.830584 0.110118 0.107935
0.870580 0.156785 0.169327
0.903044 0.214133 0.173721
0.895306 0.162155 0.282082
0.032558 0.043255 0.035759
0.047388 0.051140 0.037883
0.068182 0.055397 0.038732
0.108262 0.065358 0.048028
0.142610 0.073293 0.031294
0.190018 0.081327 0.043233
0.233669 0.090576 0.007512
0.271292 0.091237 0.029807
0.299888 0.098462 0.002990
0.351406 0.106927 0.003568
0.368066 0.093235 0.021841
0.409715 0.104111 0.000174
0.440420 0.113304 0.000148
0.462928 0.097845 0.024303
0.492637 0.093432 0.000488
0.519485 0.111331 0.000037
0.546838 0.118840 0.004556
0.567885 0.100544 0.035624
0.591345 0.113921 0.002357
0.620006 0.124561 0.002292
0.644242 0.123488 0.006988
0.670189 0.115564 0.023323
0.690065 0.112305 0.022092
0.715840 0.127350 0.014130
0.741433 0.133052 0.024144
0.760082 0.125051 0.038255
0.786506 0.098949 0.085051
0.811325 0.107100 0.097239
0.835127 0.137814 0.098547
0.852435 0.149475 0.127882
0.893236 0.199741 0.169589
0.906613 0.198431 0.231915
0.905629 0.203808 0.210247
0.037662 0.063548 0.042902
0.056367 0.069813 0.046515
0.078828 0.076676 0.050081
0.113929 0.086981 0.044189
0.158787 0.097373 0.031976
0.192187 0.095688 0.033889
0.231967 0.106945 0.008771
0.278537 0.102819 0.019741
0.311515 0.122161 0.000136
0.340411 0.121599 0.011731
0.370284 0.120097 0.000186
0.414483 0.126254 0.000142
0.440972 0.123534 0.002873
0.462593 0.113026 0.010672
0.495334 0.123775 0.000058
0.529110 0.137340 0.000075
0.546152 0.133410 0.010841
0.568878 0.137825 0.001375
0.601918 0.147830 0.000725
0.629536 0.146374 0.003825
0.652052 0.142868 0.036848
0.678627 0.150778 0.006431
0.698836 0.162609 0.005104
0.718940 0.168146 0.008315
0.743989 0.153914 0.038740
0.768381 0.140583 0.069857
0.793200 0.154449 0.068755
0.818520 0.162972 0.089227
0.844519 0.171839 0.131973
0.875092 0.185259 0.161609
0.905939 0.210496 0.189808
0.907093 0.214887 0.208459
0.912697 0.226563 0.234214
0.027210 0.084020 0.040858
0.063176 0.097079 0.046284
0.091122 0.105627 0.044141
0.120571 0.115954 0.036100
0.159448 0.120546 0.024437
0.195893 0.125125 0.010403
0.237166 0.127808 0.027178
0.268720 0.134477 0.001085
0.315920 0.139777 0.000245
0.344277 0.128209 0.017056
0.385620 0.144699 0.000145
0.407795 0.149310 0.000733
0.432176 0.148071 0.001398
0.460469 0.151265 0.000091
0.510327 0.154080 0.000101
0.521291 0.158165 0.000470
0.544104 0.157603 0.009442
0.575945 0.165614 0.000107
0.600234 0.170540 0.000172
0.630308 0.169307 0.006651
0.658723 0.166953 0.014476
0.680703 0.179752 0.004142
0.703500 0.183727 0.009364
0.727981 0.182669 0.032915
0.754392 0.175470 0.057632
0.774398 0.183777 0.058566
0.797051 0.192849 0.060563
0.828446 0.191716 0.126769
0.854486 0.194658 0.153181
0.880168 0.205693 0.149345
0.903151 0.230518 0.171260
0.909919 0.234111 0.214417
0.917279 0.243602 0.278000
0.016909 0.108647 0.041736
0.058758 0.118311 0.039553
0.075856 0.134874 0.022619
0.120854 0.141242 0.017826
0.162466 0.145216 0.025532
0.195198 0.155314 0.002565
0.235604 0.155031 0.018518
0.281453 0.161731 0.000151
0.313834 0.161614 0.001911
0.339885 0.168906 0.000143
0.393270 0.169835 0.000068
0.402623 0.171516 0.000793
0.429528 0.174260 0.000038
0.472137 0.179492 0.000151
0.501812 0.182033 0.000084
0.523406 0.183657 0.000080
0.551059 0.188635 0.000082
0.577313 0.193215 0.000125
0.600606 0.195737 0.000565
0.631756 0.197859 0.001345
0.659745 0.207639 0.000936
0.680374 0.206264 0.004581
0.705177 0.204850 0.015077
0.730988 0.203551 0.045398
0.760041 0.209135 0.048002
0.782314 0.217725 0.055952
0.803405 0.219612 0.079249
0.834426 0.213883 0.130610
0.863600 0.221299 0.146040
0.880862 0.231394 0.183032
0.899809 0.244422 0.192681
0.908877 0.245804 0.237273
0.922106 0.265047 0.283337
0.013861 0.144701 0.014180
0.053251 0.155083 0.027197
0.075544 0.159271 0.037365
0.116356 0.165604 0.007728
0.155086 0.171420 0.003650
0.193079 0.177775 0.004847
0.245620 0.188950 0.000133
0.281337 0.190875 0.000160
0.303472 0.188096 0.009944
0.358298 0.194761 0.000092
0.380027 0.199858 0.000135
0.402937 0.201502 0.000048
0.454008 0.199603 0.000209
0.472830 0.207987 0.000155
0.493843 0.207695 0.000096
0.516833 0.212127 0.000076
0.568876 0.214901 0.000159
0.579471 0.220628 0.000089
0.604932 0.218490 0.005377
0.636446 0.222274 0.000311
0.662578 0.233336 0.000513
0.682793 0.233778 0.001671
0.709245 0.232161 0.020217
0.735635 0.233083 0.042916
0.763803 0.238712 0.056646
0.787477 0.242685 0.072246
0.810157 0.242275 0.098731
0.844185 0.240891 0.119435
0.869506 0.245909 0.170105
0.887175 0.253895 0.202948
0.908119 0.270502 0.211619
0.925258 0.291691 0.192934
0.936961 0.312620 0.277477
0.023828 0.182508 0.035451
0.066808 0.195750 0.007865
0.071842 0.194589 0.001382
0.106717 0.196051 0.005477
0.139029 0.207100 0.000216
0.184806 0.208981 0.005557
0.244432 0.218369 0.000084
0.275549 0.219332 0.000264
0.319209 0.221451 0.000163
0.350817 0.227165 0.000213
0.374931 0.224287 0.000060
0.406707 0.228887 0.000347
0.443434 0.232045 0.000237
0.457211 0.235896 0.000067
0.486114 0.236066 0.000053
0.520541 0.241329 0.000097
0.555213 0.249572 0.000088
0.579232 0.249203 0.000131
0.609402 0.252070 0.000184
0.641612 0.255474 0.000260
0.665234 0.259968 0.000462
0.689789 0.258819 0.001153
0.718286 0.262071 0.001831
0.740580 0.270101 0.015117
0.762340 0.270824 0.044582
0.790284 0.271349 0.078745
0.822294 0.269651 0.108586
0.851313 0.276685 0.145048
0.872173 0.279947 0.198763
0.899065 0.291791 0.211940
0.926589 0.309111 0.203852
0.939481 0.326230 0.233227
0.943458 0.339381 0.289655
0.000047 0.213060 0.005595
0.011346 0.211470 0.000463
0.058030 0.221118 0.010236
0.096911 0.227562 0.001580
0.132325 0.233402 0.000178
0.178461 0.241162 0.000068
0.223093 0.245256 0.000242
0.269103 0.243863 0.000235
0.324945 0.247538 0.000156
0.343282 0.253227 0.000184
0.362643 0.248905 0.000058
0.410446 0.257262 0.000158
0.433384 0.259940 0.000159
0.458898 0.262772 0.000138
0.493437 0.264338 0.000080
0.525174 0.269999 0.000087
0.549161 0.269775 0.000212
0.583845 0.271149 0.000229
0.616794 0.274710 0.000209
0.653737 0.274158 0.000332
0.662435 0.281868 0.000247
0.686703 0.278928 0.011528
0.718594 0.286028 0.002378
0.740202 0.294715 0.009448
0.763788 0.295838 0.047248
0.795209 0.297963 0.087357
0.829915 0.297244 0.112936
0.858513 0.304369 0.176581
0.880552 0.308253 0.207394
0.912310 0.321163 0.201501
0.937215 0.339542 0.196862
0.944711 0.352520 0.228718
0.948196 0.359489 0.286307
0.000105 0.233105 0.026672
0.004252 0.246606 0.003796
0.057813 0.249554 0.000263
0.082489 0.251127 0.000219
0.118489 0.261513 0.028747
0.166703 0.259853 0.000195
0.225360 0.268651 0.000450
0.258547 0.263971 0.000446
0.313742 0.272291 0.000228
0.344289 0.274109 0.000224
0.370188 0.277085 0.000220
0.403272 0.285202 0.000166
0.431170 0.287646 0.000155
0.463829 0.286266 0.000149
0.495506 0.286236 0.000044
0.520470 0.298314 0.000050
0.543451 0.290973 0.000399
0.577122 0.291778 0.002214
0.607172 0.300537 0.000110
0.634889 0.305913 0.000091
0.660951 0.306987 0.000102
0.686158 0.308503 0.017559
0.720581 0.311885 0.003255
0.740143 0.320375 0.007249
0.771467 0.321484 0.030399
0.804925 0.322796 0.074011
0.831495 0.326378 0.133823
0.863887 0.333247 0.161461
0.894555 0.339506 0.178030
0.933538 0.354058 0.178531
0.945303 0.371760 0.200750
0.955017 0.396673 0.242961
0.957800 0.406179 0.271474
0.000169 0.251837 0.000280
0.003256 0.269177 0.000424
0.017913 0.263192 0.000427
0.062279 0.271741 0.000069
0.109304 0.278379 0.006939
0.159659 0.283151 0.001582
0.216781 0.289885 0.000879
0.274687 0.290136 0.000151
0.294338 0.303004 0.000292
0.334996 0.299920 0.000232
0.378916 0.302200 0.000091
0.398923 0.312408 0.000141
0.421609 0.310276 0.000188
0.446021 0.311365 0.009097
0.490070 0.315358 0.000130
0.512900 0.322046 0.000156
0.541481 0.317225 0.000199
0.577436 0.324617 0.000177
0.606596 0.326877 0.000070
0.632107 0.327820 0.000146
0.660070 0.330408 0.000119
0.692714 0.334383 0.000186
0.728604 0.338201 0.001544
0.742718 0.343001 0.005971
0.776036 0.343403 0.024721
0.812928 0.348071 0.065852
0.840369 0.354988 0.129022
0.877506 0.361970 0.159363
0.920728 0.368559 0.173903
0.935322 0.379020 0.184722
0.951802 0.396971 0.197032
0.958255 0.413292 0.238677
0.965077 0.460215 0.189344
0.004279 0.271771 0.014741
0.017886 0.294893 0.008058
0.010229 0.293517 0.018557
0.084651 0.300542 0.008069
0.119238 0.304567 0.005284
0.157355 0.312597 0.002262
0.195215 0.315222 0.001662
0.253203 0.317094 0.000343
0.285785 0.325819 0.001190
0.319658 0.319426 0.002216
0.363055 0.328050 0.000217
0.399753 0.331884 0.000186
0.420740 0.333805 0.000174
0.446561 0.338355 0.000152
0.483216 0.341446 0.000147
0.509704 0.342110 0.000163
0.545511 0.343509 0.000088
0.591143 0.335884 0.000051
0.612759 0.342693 0.000055
0.630327 0.350350 0.000092
0.667154 0.350096 0.000135
0.698043 0.355252 0.000274
0.725653 0.361667 0.000523
0.745107 0.364230 0.003904
0.782320 0.365674 0.021000
0.816606 0.370949 0.038515
0.850492 0.378504 0.108669
0.900189 0.387633 0.158769
0.922948 0.391525 0.151993
0.937311 0.404477 0.138835
0.959133 0.435231 0.167657
0.962964 0.443612 0.216289
0.967500 0.470835 0.208186
0.020748 0.323691 0.048782
0.016334 0.296693 0.005901
0.026464 0.321145 0.011946
0.075284 0.323333 0.011399
0.113165 0.323989 0.007016
0.117951 0.348371 0.041724
0.191704 0.332775 0.004429
0.227046 0.346476 0.007209
0.287787 0.343016 0.002950
0.318541 0.346917 0.000257
0.352663 0.353193 0.000235
0.388525 0.356005 0.000205
0.419343 0.355014 0.000180
0.455627 0.355949 0.000126
0.480772 0.364766 0.000187
0.501199 0.368400 0.000374
0.540174 0.364514 0.000078
0.574796 0.363894 0.000028
0.602854 0.368352 0.000063
0.625841 0.373461 0.000168
0.658186 0.376089 0.001937
0.699562 0.377839 0.000364
0.725505 0.383647 0.000301
0.759178 0.389210 0.000126
0.788601 0.397206 0.012585
0.823220 0.401691 0.030552
0.860025 0.409086 0.079379
0.902320 0.413472 0.166458
0.920852 0.416327 0.182761
0.932648 0.431242 0.133941
0.967503 0.465644 0.223053
0.966955 0.460754 0.227457
0.969488 0.472123 0.241231
0.049809 0.364175 0.066388
0.048018 0.344513 0.027097
0.046983 0.343996 0.027054
0.064510 0.343470 0.025411
0.105915 0.346918 0.014293
0.150120 0.356373 0.018331
0.192001 0.361288 0.015242
0.218811 0.372755 0.014825
0.276765 0.365968 0.004872
0.316412 0.368143 0.000154
0.350511 0.380995 0.000246
0.373239 0.381437 0.000528
0.416041 0.377626 0.000323
0.449028 0.381399 0.000270
0.470740 0.389479 0.000180
0.494960 0.390273 0.000332
0.533777 0.391175 0.000122
0.568261 0.389107 0.000136
0.602104 0.388734 0.000157
0.625124 0.396395 0.000122
0.656207 0.400469 0.000283
0.702154 0.400925 0.000352
0.729118 0.407920 0.000233
0.759432 0.411555 0.000184
0.796559 0.419084 0.004674
0.830519 0.428045 0.015998
0.863820 0.436205 0.068354
0.902239 0.442774 0.150597
0.930083 0.473451 0.152577
0.954448 0.443178 0.187687
0.964608 0.466639 0.167676
0.965772 0.464487 0.190108
0.972244 0.471945 0.341048
0.075581 0.378767 0.046343
0.057302 0.355720 0.033196
0.069286 0.375780 0.054230
0.062187 0.360363 0.036393
0.125637 0.368092 0.027196
0.146971 0.381698 0.033227
0.191410 0.379462 0.019217
0.226942 0.384951 0.008622
0.259090 0.387630 0.007645
0.314112 0.388760 0.002468
0.351723 0.395074 0.004635
0.366281 0.400128 0.002894
0.401688 0.397952 0.001032
0.432913 0.405358 0.000216
0.460624 0.411185 0.000208
0.489133 0.411541 0.000173
0.538125 0.410882 0.000258
0.565453 0.416013 0.000237
0.593209 0.421316 0.000050
0.629295 0.418865 0.000256
0.673163 0.409836 0.000090
0.706010 0.421674 0.000233
0.728327 0.435500 0.000255
0.761724 0.437754 0.000614
0.799292 0.441335 0.004179
0.836440 0.455255 0.009629
0.876626 0.458311 0.060230
0.887900 0.467609 0.116292
0.907263 0.463869 0.041937
0.965569 0.501034 0.095083
0.977423 0.531777 0.208780
0.976594 0.498921 0.310428
0.976950 0.492551 0.362697
0.069287 0.370075 0.040638
0.081196 0.386273 0.050770
0.072809 0.377767 0.049259
0.085917 0.391386 0.054348
0.083960 0.376959 0.043505
0.146127 0.394693 0.040206
0.217339 0.398855 0.019094
0.221291 0.405918 0.024265
0.254519 0.403735 0.008724
0.295829 0.413045 0.014110
0.347954 0.416905 0.009585
0.368561 0.420083 0.005244
0.402990 0.422329 0.000299
0.425053 0.429574 0.000324
0.462260 0.437528 0.000368
0.496330 0.435540 0.000306
0.545797 0.434593 0.000241
0.564263 0.446390 0.000242
0.595141 0.448168 0.003626
0.640611 0.440429 0.000216
0.672465 0.443364 0.000030
0.699005 0.454374 0.000173
0.734380 0.462884 0.000014
0.761870 0.474221 0.002935
0.803315 0.472613 0.003774
0.827739 0.484546 0.005207
0.838330 0.497466 0.017487
0.870053 0.505825 0.061476
0.957812 0.537348 0.148586
0.969949 0.460065 0.355335
0.977927 0.533438 0.214236
0.979134 0.516133 0.289053
0.983166 0.536004 0.313791
0.077322 0.381818 0.048399
0.094809 0.403226 0.062099
0.101128 0.413002 0.066938
0.088526 0.394729 0.056271
0.104912 0.417536 0.070288
0.122359 0.411577 0.060464
0.183999 0.430111 0.054597
0.219959 0.436389 0.047043
0.260100 0.431442 0.031909
0.288896 0.443514 0.030881
0.330566 0.445329 0.016897
0.374027 0.440349 0.002764
0.409108 0.444870 0.000137
0.425167 0.457657 0.000431
0.454868 0.464960 0.008372
0.497776 0.458492 0.000093
0.533173 0.462483 0.000315
0.559370 0.471959 0.001184
0.594913 0.470936 0.000737
0.629880 0.474971 0.000093
0.671239 0.473797 0.000126
0.698277 0.479413 0.000186
0.727188 0.490202 0.000146
0.764020 0.489965 0.000878
0.802510 0.502631 0.002626
0.825502 0.513055 0.003399
0.865522 0.522837 0.013292
0.906164 0.520998 0.017378
0.970217 0.543564 0.066424
0.975481 0.547871 0.134848
0.981502 0.523470 0.326931
0.985225 0.557398 0.291707
0.987310 0.553544 0.365656
0.101235 0.413090 0.067225
0.119611 0.446056 0.097616
0.124514 0.444301 0.086065
0.134045 0.458713 0.094407
0.131725 0.456128 0.093502
0.112905 0.428883 0.076308
0.185457 0.445363 0.065040
0.279342 0.443222 0.033221
0.264054 0.452607 0.043078
0.284455 0.464434 0.038417
0.306512 0.476215 0.041002
0.359224 0.464684 0.000140
0.397971 0.472948 0.012178
0.429738 0.479362 0.011038
0.453644 0.486886 0.010175
0.487652 0.483054 0.003872
0.529119 0.491950 0.002138
0.560596 0.495230 0.001926
0.589079 0.495927 0.000907
0.641830 0.493343 0.000019
0.667387 0.504231 0.000146
0.698979 0.521211 0.000059
0.723162 0.518898 0.000143
0.764399 0.522832 0.000201
0.804187 0.540448 0.000645
0.839024 0.547831 0.002554
0.869864 0.559061 0.007091
0.922179 0.570970 0.065392
0.992085 0.602036 0.348795
0.986157 0.545460 0.363131
0.986754 0.553268 0.348332
0.985072 0.573344 0.244956
0.987563 0.570187 0.306824
0.119230 0.438053 0.082448
0.129501 0.452659 0.090895
0.155084 0.489088 0.112168
0.137028 0.463413 0.097095
0.139810 0.467283 0.099469
0.134923 0.460636 0.095396
0.138247 0.448595 0.084916
0.252256 0.468272 0.057002
0.264649 0.477305 0.057196
0.293252 0.484654 0.053202
0.319395 0.491730 0.040238
0.354465 0.492740 0.025606
0.400819 0.500375 0.026388
0.434345 0.503756 0.017634
0.452561 0.506075 0.011611
0.498131 0.505485 0.000084
0.524003 0.518472 0.004559
0.563767 0.526329 0.003890
0.599511 0.522313 0.000190
0.639973 0.525777 0.000127
0.662179 0.541373 0.000640
0.713447 0.560538 0.041182
0.734934 0.548605 0.000132
0.771499 0.555850 0.000156
0.810080 0.573171 0.000060
0.850259 0.581510 0.001536
0.863055 0.588493 0.005555
0.955384 0.607873 0.076410
0.994369 0.597291 0.431191
0.992354 0.588495 0.373520
0.990664 0.588918 0.321805
0.989423 0.590586 0.299180
0.991207 0.580243 0.356364
0.153801 0.486928 0.111088
0.161434 0.498352 0.118337
0.152874 0.485753 0.110139
0.154435 0.487998 0.111431
0.155509 0.489352 0.112133
0.157903 0.493181 0.114424
0.149529 0.480376 0.106827
0.239209 0.496134 0.086551
0.272089 0.502656 0.075974
0.293561 0.507735 0.073256
0.321685 0.513166 0.061964
0.362430 0.513476 0.047702
0.394033 0.536142 0.050391
0.432285 0.529999 0.025904
0.452975 0.528118 0.008256
0.491278 0.532008 0.000326
0.526937 0.549143 0.007980
0.570402 0.555331 0.002766
0.598055 0.547118 0.003485
0.630727 0.558348 0.004923
0.666126 0.570580 0.005015
0.702581 0.580868 0.001417
0.744631 0.574826 0.000135
0.774012 0.588711 0.000096
0.800625 0.603444 0.000051
0.847753 0.608422 0.000939
0.867409 0.637271 0.002868
0.936544 0.635461 0.029768
0.995536 0.648207 0.351023
0.996637 0.636142 0.393987
0.995537 0.621647 0.401061
0.993892 0.619560 0.358548
0.992717 0.637778 0.294790
0.155802 0.489648 0.112517
0.157767 0.492631 0.114540
0.147562 0.477931 0.105521
0.167445 0.506825 0.122724
0.164091 0.501918 0.119812
0.189929 0.539558 0.141838
0.173568 0.510173 0.123253
0.242286 0.533283 0.119811
0.285461 0.529596 0.095580
0.295173 0.530279 0.090121
0.325026 0.534154 0.080846
0.367364 0.536852 0.061658
0.393749 0.554902 0.059649
0.427496 0.554756 0.041660
0.456351 0.549839 0.014133
0.496504 0.558273 0.020677
0.528114 0.569582 0.023523
0.566597 0.579831 0.018322
0.596571 0.575238 0.012600
0.635039 0.592012 0.012668
0.683728 0.595795 0.004761
0.706677 0.598851 0.001384
0.759755 0.599342 0.000443
0.779345 0.625031 0.000089
0.814429 0.639471 0.000264
0.843735 0.638439 0.000234
0.838886 0.657415 0.000315
0.954688 0.660731 0.084255
0.991439 0.699621 0.210025
0.994890 0.669681 0.317199
0.991362 0.641124 0.258350
0.991366 0.640482 0.258284
0.993162 0.663847 0.284654
0.167306 0.507099 0.122588
0.169579 0.509489 0.124311
0.187088 0.534775 0.139149
0.179159 0.528257 0.142296
0.181172 0.526784 0.134236
0.181689 0.527491 0.134648
0.173702 0.515445 0.127782
0.188639 0.532483 0.136738
0.323945 0.536813 0.083027
0.322807 0.559589 0.105583
0.331749 0.556594 0.098094
0.358838 0.559350 0.086686
0.402074 0.569810 0.067617
0.430464 0.579308 0.059527
0.460404 0.577130 0.044309
0.500893 0.595641 0.050720
0.538773 0.592289 0.034886
0.560499 0.599334 0.029161
0.614051 0.596787 0.003868
0.646720 0.633598 0.018481
0.689878 0.632998 0.002121
0.724142 0.631736 0.000055
0.751817 0.644100 0.002414
0.790778 0.661783 0.001181
0.813618 0.666218 0.000642
0.828222 0.670659 0.000051
0.835325 0.685456 0.000961
0.913233 0.703898 0.014357
0.990859 0.721070 0.182021
0.991542 0.657453 0.238556
0.993749 0.708585 0.256094
0.993103 0.664678 0.281709
0.994540 0.699686 0.312278
0.192755 0.543413 0.144002
0.193188 0.543946 0.144098
0.185193 0.532679 0.137806
0.200711 0.559467 0.161028
0.167508 0.506937 0.123054
0.193420 0.543804 0.144395
0.199087 0.552779 0.149639
0.203653 0.558494 0.153374
0.281965 0.562035 0.129028
0.329232 0.582251 0.126440
0.339099 0.581699 0.121168
0.361430 0.585550 0.110574
0.403604 0.590217 0.087956
0.429207 0.601474 0.085340
0.464697 0.601361 0.069453
0.516410 0.636550 0.078739
0.552630 0.622308 0.044639
0.580451 0.622922 0.023788
0.618443 0.636224 0.016567
0.654138 0.668121 0.023657
0.683673 0.666220 0.007102
0.725141 0.661784 0.009511
0.756920 0.680727 0.012746
0.791487 0.684799 0.005307
0.816161 0.685535 0.000040
0.821294 0.697514 0.000077
0.867624 0.718610 0.001788
0.935870 0.723014 0.037667
0.994430 0.720005 0.279341
0.994984 0.711175 0.299080
0.994092 0.722415 0.265299
0.992878 0.705624 0.245814
0.995597 0.723447 0.315965
0.226441 0.591796 0.172768
0.214102 0.574050 0.162552
0.210273 0.568482 0.159151
0.201585 0.556482 0.151951
0.198577 0.551991 0.149937
0.208307 0.567050 0.160969
0.215573 0.575118 0.163742
0.218877 0.578513 0.166280
0.294007 0.604566 0.166792
0.362315 0.598622 0.124918
0.353660 0.605464 0.137618
0.358117 0.628423 0.162630
0.404960 0.616401 0.116189
0.435871 0.626162 0.109639
0.483360 0.625014 0.079324
0.518829 0.670733 0.104040
0.551149 0.665523 0.074008
0.595492 0.649285 0.039134
0.633590 0.673094 0.049353
0.660435 0.683802 0.041977
0.679143 0.687403 0.032403
0.731336 0.701406 0.016768
0.761744 0.718209 0.020323
0.792439 0.715650 0.003564
0.826275 0.718329 0.000125
0.837992 0.728729 0.001054
0.882635 0.748429 0.007902
0.958365 0.748755 0.024257
0.993760 0.755086 0.238067
0.991739 0.709055 0.215387
0.994711 0.753839 0.261304
0.993986 0.758145 0.220648
0.992242 0.757130 0.177633
0.211530 0.570693 0.160023
0.209834 0.568035 0.158714
0.220515 0.582513 0.168151
0.218703 0.580609 0.166392
0.227657 0.591032 0.174442
0.244806 0.612451 0.188893
0.233905 0.597614 0.179506
0.244560 0.609813 0.189324
0.305035 0.611966 0.165072
0.333125 0.626183 0.170911
0.353764 0.626855 0.156764
0.366617 0.670804 0.214699
0.416012 0.652201 0.154421
0.448268 0.650777 0.130078
0.505973 0.656467 0.102943
0.528231 0.673269 0.109377
0.550233 0.692429 0.120140
0.602381 0.688517 0.081867
0.643820 0.720795 0.088528
0.673750 0.710527 0.048002
0.701718 0.718900 0.027121
0.725525 0.737277 0.045008
0.768112 0.756778 0.020105
0.799601 0.740100 0.014307
0.827244 0.750102 0.018522
0.870856 0.765109 0.008721
0.891007 0.768219 0.000904
0.899548 0.778372 0.008069
0.994595 0.788369 0.230913
0.995936 0.782179 0.277500
0.996002 0.776703 0.282607
0.995841 0.768182 0.284431
0.993691 0.779146 0.211809
0.233213 0.598271 0.178896
0.236902 0.605631 0.181885
0.225040 0.587454 0.171905
0.254506 0.620694 0.198050
0.253203 0.620542 0.197101
0.251596 0.617944 0.195492
0.252194 0.618483 0.196045
0.258496 0.624856 0.201699
0.255039 0.627491 0.197809
0.347890 0.653398 0.195109
0.365649 0.653232 0.179403
0.394283 0.690262 0.224776
0.444230 0.696670 0.204458
0.467667 0.682647 0.169526
0.517010 0.698745 0.160052
0.542683 0.704187 0.147808
0.566955 0.714252 0.143658
0.609285 0.735319 0.123317
0.651150 0.767835 0.149285
0.672213 0.746166 0.082364
0.712725 0.753794 0.079834
0.750416 0.762225 0.066328
0.777140 0.766377 0.039931
0.802561 0.770402 0.017730
0.827786 0.786810 0.041519
0.879602 0.785969 0.002539
0.867998 0.791196 0.010776
0.922825 0.806195 0.058433
0.981271 0.830948 0.108399
0.995137 0.821955 0.225877
0.994915 0.799826 0.231626
0.996785 0.784262 0.307180
0.996986 0.800859 0.298606
0.271749 0.640615 0.213327
0.273049 0.641447 0.215056
0.280040 0.648315 0.221403
0.273185 0.648920 0.214199
0.269004 0.636914 0.210721
0.259467 0.627271 0.202055
0.256783 0.633867 0.199229
0.268580 0.641591 0.210216
0.263467 0.641449 0.205760
0.342547 0.703453 0.274307
0.410033 0.685635 0.210567
0.431841 0.693246 0.212983
0.453756 0.711638 0.231578
0.483595 0.717679 0.221012
0.535335 0.754960 0.249829
0.561826 0.737083 0.187395
0.599333 0.746172 0.156328
0.634215 0.761457 0.158841
0.656637 0.781402 0.176582
0.666838 0.777901 0.162132
0.726474 0.799369 0.146178
0.762814 0.798006 0.098254
0.789702 0.797901 0.059107
0.814426 0.809311 0.064248
0.837879 0.834588 0.056134
0.867224 0.811142 0.012865
0.869486 0.821274 0.021971
0.931187 0.839164 0.075272
0.992644 0.844867 0.141914
0.994416 0.866988 0.169146
0.995812 0.836546 0.235443
0.997640 0.802096 0.334683
0.998270 0.828184 0.328362
0.255524 0.624356 0.198860
0.274894 0.649101 0.215315
0.276773 0.647506 0.217717
0.284689 0.660445 0.224986
0.296086 0.669688 0.234563
0.294272 0.666481 0.232914
0.307233 0.677715 0.244870
0.302521 0.674939 0.241188
0.311974 0.682560 0.249490
0.343027 0.705920 0.278209
0.348746 0.704288 0.268330
0.487053 0.722354 0.225713
0.478437 0.734701 0.257560
0.496120 0.744265 0.252503
0.548190 0.789465 0.314951
0.570662 0.777967 0.264170
0.624092 0.785538 0.230960
0.659282 0.795527 0.216229
0.677651 0.799750 0.206893
0.707502 0.813722 0.186882
0.739107 0.839785 0.228489
0.760423 0.822403 0.139153
0.808542 0.826719 0.107241
0.829391 0.835465 0.103803
0.852914 0.850132 0.043962
