calib/LUT LIBRARY/velvia.cube
#Generated with Fujify color engine
#Website: https://fujify.me
#LUMIXPHOTOSTYLE STD
LUT_3D_SIZE 33
0.003922 0.000000 0.000000
0.011520 0.000000 0.003922
0.011765 0.000000 0.003922
0.034191 0.003922 0.003922
0.060784 0.007843 0.007353
0.098897 0.007843 0.007843
0.155637 0.014951 0.011030
0.204902 0.014828 0.010907
0.256863 0.016667 0.008823
0.314951 0.022426 0.011765
0.367893 0.020833 0.014461
0.408946 0.019608 0.013113
0.464706 0.023529 0.011765
0.498652 0.023529 0.009436
0.542157 0.021323 0.005637
0.580882 0.023529 0.005760
0.621568 0.023529 0.007843
0.658088 0.023529 0.007843
0.700981 0.021814 0.007843
0.735049 0.021201 0.011765
0.769608 0.021078 0.011765
0.806618 0.020956 0.011765
0.837500 0.019608 0.016912
0.877819 0.019608 0.017892
0.907843 0.023529 0.022549
0.935907 0.024387 0.028309
0.968382 0.025000 0.038235
0.989460 0.031373 0.050735
0.999510 0.031373 0.072059
1.000000 0.031741 0.093505
0.999755 0.031128 0.142401
1.000000 0.027696 0.180882
0.996078 0.039216 0.211765
0.007720 0.003799 0.000000
0.011524 0.007717 0.003922
0.022679 0.011282 0.003922
0.038469 0.011999 0.003922
0.076210 0.018873 0.007353
0.114480 0.023284 0.007862
0.166467 0.019485 0.014851
0.218014 0.030270 0.011669
0.260049 0.031159 0.011765
0.323353 0.034069 0.007966
0.381051 0.037784 0.007927
0.418137 0.036275 0.007966
0.465134 0.036474 0.006495
0.506495 0.035049 0.006300
0.548162 0.035049 0.003922
0.584919 0.040989 0.000123
0.623530 0.040931 0.002022
0.662255 0.044853 0.003922
0.703171 0.038373 0.002260
0.734999 0.042769 0.004045
0.777451 0.042693 0.007966
0.811807 0.042689 0.009229
0.838963 0.049142 0.008004
0.868436 0.051524 0.005358
0.900092 0.052390 0.014736
0.938806 0.058238 0.019662
0.966835 0.057644 0.032767
0.989564 0.062236 0.034276
0.999403 0.069485 0.072181
0.992280 0.059069 0.090954
0.992517 0.066399 0.126838
0.996201 0.073545 0.161761
1.000000 0.077696 0.192647
0.003922 0.011275 0.003677
0.007843 0.019118 0.000475
0.023039 0.023269 0.003922
0.049165 0.030170 0.003922
0.079902 0.030852 0.003922
0.118467 0.034229 0.004703
0.168872 0.042892 0.008042
0.232284 0.046270 0.010961
0.267647 0.050183 0.005147
0.327504 0.053309 0.005025
0.380254 0.058012 0.003922
0.427206 0.062914 0.007843
0.470680 0.061857 0.001471
0.506104 0.061864 0.000146
0.554304 0.064078 0.000107
0.590809 0.071331 0.000000
0.634681 0.071446 0.000000
0.668030 0.073415 0.000245
0.706127 0.077206 0.000000
0.744876 0.081618 0.000000
0.774785 0.079749 0.000092
0.808211 0.087132 0.000329
0.838802 0.078768 0.005316
0.867226 0.084942 0.006740
0.900858 0.091605 0.008885
0.931847 0.088304 0.016735
0.960003 0.086183 0.019026
0.989667 0.096775 0.030967
0.996323 0.105331 0.057598
0.996078 0.104856 0.088090
0.996078 0.116437 0.111749
0.996078 0.113442 0.145833
0.996078 0.116421 0.177206
0.000368 0.030638 0.003922
0.011642 0.041923 0.010930
0.023361 0.042356 0.003922
0.049877 0.053431 0.007843
0.094409 0.053309 0.007843
0.130767 0.060417 0.007843
0.179902 0.069784 0.004956
0.230147 0.070343 0.004290
0.282047 0.080607 0.003922
0.334662 0.078799 0.000368
0.387614 0.090449 0.000368
0.431488 0.095094 0.002700
0.471170 0.094348 0.000138
0.505461 0.101225 0.000000
0.555675 0.103960 0.000000
0.596764 0.100318 0.000000
0.638664 0.104044 0.001961
0.679044 0.105683 0.000000
0.706457 0.109888 0.000000
0.744730 0.113848 0.000000
0.773177 0.113725 0.000000
0.809314 0.126221 0.000000
0.838718 0.127206 0.000368
0.864790 0.128205 0.000264
0.893321 0.131679 0.000092
0.925368 0.133253 0.008004
0.956916 0.136221 0.012868
0.989771 0.142394 0.025180
0.996078 0.147794 0.047427
0.996078 0.155025 0.072059
0.995856 0.151126 0.102888
0.996078 0.158701 0.130270
0.996078 0.151470 0.168995
0.000000 0.053431 0.007353
0.004397 0.064813 0.004519
0.023315 0.072365 0.004412
0.059697 0.080025 0.003922
0.095098 0.086336 0.003983
0.138603 0.094975 0.004412
0.194608 0.105392 0.000582
0.235310 0.110631 0.000000
0.287378 0.114461 0.000000
0.341299 0.116835 0.000000
0.393137 0.121385 0.000000
0.432476 0.127451 0.000000
0.480086 0.134498 0.000000
0.518045 0.135907 0.000000
0.554626 0.138511 0.000000
0.600031 0.142356 0.000000
0.636765 0.146324 0.000000
0.674479 0.141744 0.000000
0.703033 0.144853 0.000000
0.736367 0.155515 0.000000
0.769302 0.159130 0.000000
0.801639 0.160018 0.000000
0.836275 0.162745 0.000000
0.859452 0.170573 0.000000
0.885907 0.179289 0.000000
0.918872 0.187500 0.001348
0.952451 0.181955 0.008333
0.986030 0.185095 0.015640
0.992647 0.192218 0.019240
0.996078 0.199679 0.046844
0.996538 0.190166 0.094669
0.995603 0.197518 0.115180
0.992647 0.194117 0.153921
0.000000 0.097059 0.003922
0.003799 0.099142 0.003941
0.009360 0.106533 0.003922
0.053619 0.106740 0.000923
0.097947 0.116192 0.003508
0.144022 0.126865 0.000613
0.198660 0.137875 0.000000
0.237756 0.141176 0.000000
0.283486 0.148070 0.000000
0.350218 0.153137 0.000000
0.393068 0.161657 0.000000
0.438235 0.160696 0.000000
0.483288 0.168015 0.000000
0.519232 0.179044 0.000000
0.560394 0.181051 0.000000
0.599096 0.181457 0.000000
0.636213 0.185478 0.000000
0.675858 0.186680 0.000000
0.701325 0.191299 0.000000
0.730760 0.196324 0.000000
0.762378 0.199004 0.000000
0.793313 0.209628 0.000000
0.823246 0.210593 0.000000
0.852083 0.222894 0.000000
0.885662 0.225061 0.000000
0.915296 0.227317 0.000000
0.949158 0.228194 0.000613
0.985539 0.233280 0.001130
0.992157 0.231204 0.010830
0.992214 0.232230 0.030032
0.996078 0.236520 0.064085
0.996181 0.241969 0.099961
0.996078 0.236152 0.137868
0.000000 0.141422 0.003922
0.000000 0.148675 0.000835
0.000000 0.155438 0.000000
0.026417 0.162883 0.000000
0.083671 0.163052 0.000000
0.135172 0.177788 0.000000
0.193980 0.184421 0.000000
0.245174 0.191092 0.000000
0.296262 0.200674 0.000000
0.339423 0.200820 0.000000
0.399985 0.210754 0.000000
0.437975 0.209184 0.000000
0.470833 0.213021 0.000000
0.511711 0.220451 0.000000
0.555882 0.225169 0.000000
0.593038 0.224119 0.000000
0.626225 0.234804 0.000000
0.666521 0.237033 0.000000
0.696737 0.236857 0.000000
0.726187 0.248460 0.000000
0.757353 0.255944 0.000000
0.783081 0.257844 0.000000
0.814200 0.260800 0.000000
0.846684 0.264384 0.000000
0.879963 0.265258 0.000000
0.907560 0.269600 0.000000
0.947580 0.267509 0.000000
0.982223 0.276601 0.000115
0.995588 0.278493 0.005239
0.995412 0.274824 0.014407
0.993091 0.277696 0.041958
0.996913 0.278676 0.075789
1.000000 0.279412 0.111275
0.000000 0.183088 0.000000
0.000000 0.192850 0.000000
0.000000 0.204780 0.000000
0.006330 0.203106 0.000000
0.057215 0.216268 0.000000
0.113802 0.215162 0.000000
0.190035 0.232598 0.000000
0.232828 0.240866 0.000000
0.292249 0.236888 0.000000
0.345707 0.238978 0.000000
0.384513 0.247013 0.000000
0.436692 0.247254 0.000000
0.472870 0.246078 0.000000
0.506269 0.258334 0.000000
0.547901 0.262270 0.000000
0.583632 0.266280 0.000000
0.620895 0.277635 0.000000
0.662201 0.276034 0.000000
0.690564 0.283709 0.000000
0.719362 0.289602 0.000000
0.748667 0.292693 0.000000
0.776493 0.291472 0.000000
0.807407 0.295665 0.000000
0.841425 0.300490 0.000000
0.876348 0.301716 0.000000
0.911707 0.309248 0.000000
0.940357 0.306334 0.000000
0.982230 0.306641 0.000000
0.992157 0.310294 0.000000
0.996365 0.310949 0.001754
0.996078 0.314024 0.017471
0.996201 0.318111 0.044049
1.000000 0.314216 0.077941
0.000000 0.233334 0.000000
0.000000 0.243046 0.000000
0.000000 0.246630 0.000000
0.000000 0.248744 0.000276
0.010907 0.263603 0.000000
0.089032 0.252880 0.000000
0.167524 0.269302 0.000000
0.234651 0.268413 0.000000
0.289951 0.272304 0.000000
0.341023 0.273928 0.000000
0.381985 0.278064 0.000000
0.422948 0.288848 0.000000
0.469608 0.294485 0.000000
0.505576 0.300582 0.000000
0.539399 0.306801 0.000429
0.572978 0.312990 0.000000
0.613725 0.308333 0.000000
0.652390 0.316207 0.000000
0.687500 0.322794 0.000000
0.715410 0.321568 0.000000
0.743137 0.323775 0.000000
0.774019 0.330790 0.000000
0.807476 0.333885 0.000000
0.838695 0.337990 0.000000
0.874019 0.337990 0.000000
0.908762 0.342617 0.000643
0.941483 0.337806 0.000000
0.979136 0.345037 0.000000
0.992157 0.348407 0.000000
0.992892 0.338266 0.003738
1.000000 0.349326 0.005944
1.000000 0.351072 0.018106
1.000000 0.356862 0.051960
0.000000 0.270098 0.000000
0.000000 0.277731 0.000000
0.000000 0.287079 0.000000
0.000000 0.286416 0.000000
0.007353 0.291421 0.002819
0.038994 0.302083 0.000440
0.153431 0.307314 0.000000
0.222070 0.307349 0.000000
0.279412 0.318474 0.000000
0.325130 0.325613 0.000000
0.371791 0.324785 0.000000
0.412622 0.332697 0.000000
0.454228 0.330714 0.000000
0.489909 0.335619 0.000000
0.528194 0.342057 0.000000
0.564909 0.346350 0.000000
0.602206 0.346017 0.000000
0.644267 0.349265 0.000000
0.674012 0.353554 0.000000
0.709031 0.357391 0.000000
0.745588 0.358502 0.000000
0.773640 0.364116 0.000000
0.804021 0.366498 0.000000
0.835302 0.373774 0.000000
0.867218 0.375582 0.000000
0.904048 0.377328 0.000000
0.937538 0.370634 0.000000
0.978137 0.376153 0.000000
0.996078 0.377435 0.000000
0.996078 0.376245 0.000000
1.000000 0.383892 0.000069
1.000000 0.381128 0.009490
1.000000 0.378186 0.040319
0.000000 0.315441 0.000000
0.000000 0.321737 0.000000
0.000000 0.327205 0.000000
0.000000 0.332712 0.000000
0.001072 0.338817 0.001072
0.014039 0.354465 0.001226
0.108410 0.352941 0.002696
0.179749 0.356128 0.000000
0.268566 0.357904 0.000000
0.313772 0.363848 0.000000
0.363128 0.365656 0.000000
0.410975 0.367647 0.000000
0.448560 0.368566 0.000000
0.483081 0.376961 0.000000
0.522748 0.372595 0.000000
0.560011 0.375973 0.000000
0.599265 0.384681 0.000000
0.634766 0.383946 0.000000
0.666621 0.389415 0.000000
0.700391 0.386749 0.000000
0.736520 0.391268 0.000000
0.767019 0.391720 0.000000
0.797442 0.395941 0.000000
0.830002 0.404534 0.000000
0.859130 0.405147 0.000000
0.896201 0.406303 0.000000
0.935325 0.405637 0.000000
0.978309 0.409329 0.000000
0.996231 0.413297 0.000000
1.000000 0.411642 0.000000
1.000000 0.415686 0.000000
1.000000 0.410662 0.006741
1.000000 0.412010 0.031373
0.000000 0.357843 0.000000
0.000000 0.359352 0.000000
0.000000 0.372304 0.000000
0.000000 0.372672 0.000000
0.000000 0.373330 0.000000
0.012711 0.385329 0.000000
0.073422 0.394746 0.003922
0.155097 0.392965 0.000563
0.241023 0.392279 0.000000
0.298518 0.389962 0.000000
0.343398 0.391230 0.000000
0.395535 0.397182 0.000000
0.429458 0.401746 0.000000
0.474935 0.409003 0.000000
0.510784 0.405346 0.000000
0.549652 0.410294 0.000000
0.592280 0.410968 0.000000
0.629186 0.412745 0.000000
0.660371 0.415931 0.000000
0.693995 0.417402 0.000000
0.722442 0.419608 0.000000
0.757912 0.416912 0.000000
0.787063 0.423407 0.000000
0.823518 0.432219 0.000000
0.859773 0.429933 0.000000
0.901765 0.438603 0.000000
0.931610 0.434812 0.000000
0.972216 0.439093 0.000000
0.994317 0.445098 0.000000
1.000000 0.440307 0.000000
1.000000 0.439170 0.000000
1.000000 0.441663 0.001555
1.000000 0.439093 0.024877
0.000000 0.398039 0.000000
0.000000 0.396462 0.000000
0.000000 0.403431 0.001471
0.000000 0.409206 0.000138
0.000000 0.412929 0.000000
0.002482 0.415793 0.000000
0.064124 0.422028 0.000000
0.145481 0.426103 0.000322
0.229657 0.423039 0.000000
0.275582 0.425123 0.000000
0.334283 0.427972 0.000000
0.378906 0.429917 0.000000
0.420282 0.432843 0.000000
0.461581 0.435064 0.000000
0.502145 0.438971 0.000000
0.539369 0.437255 0.000000
0.583333 0.439951 0.000735
0.617969 0.439875 0.000000
0.647365 0.440748 0.000000
0.686857 0.449740 0.000000
0.719608 0.451409 0.000000
0.758977 0.455009 0.000000
0.786979 0.454933 0.000000
0.819455 0.459069 0.000000
0.856250 0.462132 0.000000
0.889798 0.462929 0.000000
0.924448 0.460447 0.000000
0.963021 0.466406 0.000000
0.995282 0.465503 0.000000
1.000000 0.466682 0.000000
1.000000 0.466085 0.000000
1.000000 0.462255 0.000123
1.000000 0.463726 0.010784
0.000000 0.425000 0.000000
0.000000 0.431055 0.000000
0.000000 0.438603 0.000000
0.000000 0.440687 0.000000
0.000000 0.441590 0.000000
0.000000 0.442279 0.000000
0.040280 0.453010 0.000000
0.115706 0.449670 0.000000
0.208088 0.453248 0.000000
0.265644 0.454128 0.000000
0.323659 0.452819 0.000000
0.366421 0.451651 0.000000
0.412837 0.457230 0.000000
0.451804 0.455427 0.000000
0.490280 0.463603 0.000000
0.529055 0.462913 0.000000
0.579228 0.467341 0.000000
0.615342 0.471312 0.000000
0.646776 0.477689 0.000000
0.686397 0.479167 0.000000
0.718734 0.479029 0.000000
0.752206 0.479420 0.000000
0.784421 0.485049 0.000000
0.817977 0.485865 0.000000
0.849050 0.495435 0.000000
0.882617 0.495466 0.000000
0.917540 0.490510 0.000000
0.964575 0.489338 0.000000
0.996568 0.492509 0.000000
1.000000 0.494336 0.000000
1.000000 0.496791 0.000000
1.000000 0.491521 0.000172
1.000000 0.490932 0.014828
0.000000 0.459804 0.000000
0.000000 0.459275 0.000000
0.000000 0.459452 0.000000
0.000000 0.463029 0.000000
0.000000 0.465441 0.000000
0.000000 0.465441 0.000000
0.024832 0.473284 0.000000
0.084092 0.475008 0.003922
0.193995 0.477635 0.003922
0.256120 0.485394 0.000483
0.314507 0.479366 0.000000
0.364193 0.481128 0.000000
0.410601 0.488051 0.000000
0.443298 0.485218 0.000000
0.488235 0.493597 0.000000
0.531074 0.494539 0.000000
0.579289 0.499877 0.000000
0.612990 0.502819 0.000000
0.641942 0.504657 0.000000
0.681580 0.507559 0.000000
0.714859 0.507108 0.000000
0.746568 0.508747 0.000000
0.781036 0.513388 0.000000
0.810669 0.512500 0.000000
0.844424 0.516422 0.000000
0.883578 0.517280 0.000000
0.920266 0.522549 0.000000
0.971278 0.520757 0.000000
0.996568 0.524050 0.000000
1.000000 0.527911 0.000000
1.000000 0.526118 0.000000
1.000000 0.520412 0.000138
1.000000 0.518627 0.021323
0.000000 0.480760 0.000000
0.000000 0.479044 0.000000
0.000000 0.485042 0.000000
0.000000 0.484704 0.000000
0.000000 0.488864 0.000000
0.000000 0.489748 0.000000
0.017624 0.494608 0.000000
0.068436 0.505514 0.003064
0.168260 0.505974 0.002543
0.238086 0.511275 0.000000
0.300728 0.510294 0.000000
0.359003 0.514235 0.000000
0.400398 0.520113 0.000000
0.441923 0.518838 0.000000
0.479397 0.525191 0.000000
0.525004 0.523035 0.000000
0.567586 0.524142 0.000000
0.604408 0.530764 0.000000
0.637868 0.526647 0.000000
0.669374 0.532085 0.000000
0.708379 0.535662 0.000000
0.740648 0.535171 0.000000
0.768827 0.541054 0.000000
0.809655 0.539652 0.000000
0.845496 0.542586 0.000000
0.883510 0.546446 0.000000
0.917593 0.548728 0.000000
0.966337 0.551061 0.000000
1.000000 0.547426 0.000000
1.000000 0.545760 0.000000
1.000000 0.543275 0.000000
1.000000 0.543628 0.000000
1.000000 0.547672 0.007843
0.000000 0.503922 0.000000
0.000000 0.511642 0.000000
0.000000 0.513726 0.000000
0.000000 0.520833 0.000000
0.000000 0.521568 0.000000
0.000000 0.524265 0.000000
0.001593 0.531005 0.000000
0.040380 0.536397 0.000000
0.155392 0.537745 0.000000
0.225613 0.539522 0.000000
0.292157 0.543137 0.000000
0.345588 0.542463 0.000000
0.385294 0.544363 0.000000
0.435171 0.547059 0.000000
0.469608 0.550122 0.000000
0.510417 0.549265 0.000000
0.560784 0.554902 0.000000
0.597427 0.555944 0.000000
0.629289 0.556863 0.000000
0.663235 0.561581 0.000000
0.697549 0.562745 0.000000
0.738726 0.568566 0.000000
0.768260 0.567280 0.000000
0.805515 0.570588 0.000000
0.839215 0.569118 0.000000
0.878799 0.572549 0.000000
0.916544 0.575368 0.000000
0.966115 0.576164 0.000000
0.998284 0.571324 0.000000
1.000000 0.570772 0.000000
1.000000 0.568627 0.000000
1.000000 0.570649 0.000061
1.000000 0.576470 0.007843
0.000000 0.540931 0.000000
0.000000 0.546626 0.000000
0.000000 0.548414 0.000000
0.000000 0.551938 0.000000
0.000000 0.548790 0.000000
0.000000 0.551513 0.000000
0.002987 0.557721 0.000000
0.041858 0.566299 0.000000
0.121140 0.565441 0.001379
0.197032 0.563113 0.000000
0.277697 0.571078 0.000000
0.331005 0.570872 0.000000
0.378171 0.570297 0.000000
0.422013 0.580392 0.000000
0.465005 0.578554 0.000000
0.506633 0.581009 0.000000
0.549019 0.579902 0.000000
0.587875 0.583938 0.000000
0.624962 0.585417 0.000000
0.662512 0.589828 0.000000
0.692157 0.589307 0.000000
0.731759 0.596465 0.000000
0.766911 0.596408 0.000000
0.803607 0.593164 0.000000
0.841299 0.593566 0.000000
0.872986 0.594206 0.000000
0.918336 0.600099 0.000000
0.974962 0.596121 0.000000
0.996568 0.596078 0.000000
1.000000 0.602891 0.000000
1.000000 0.601348 0.000000
1.000000 0.601528 0.000000
1.000000 0.597672 0.000000
0.000000 0.563726 0.000000
0.000000 0.565931 0.000000
0.000000 0.571814 0.000000
0.000000 0.571691 0.000000
0.000000 0.573560 0.000000
0.000000 0.574755 0.000000
0.001792 0.581618 0.000000
0.024142 0.582958 0.000000
0.102145 0.588542 0.002942
0.172901 0.592762 0.002336
0.258042 0.593336 0.000000
0.317203 0.592846 0.000000
0.367310 0.600889 0.000000
0.411236 0.600207 0.000000
0.459972 0.603431 0.000000
0.501241 0.605254 0.000000
0.545343 0.605392 0.000000
0.582790 0.606089 0.000000
0.620619 0.607828 0.000000
0.655438 0.613687 0.000000
0.691728 0.617157 0.000000
0.724487 0.614338 0.000000
0.763863 0.619271 0.000000
0.801463 0.621316 0.000000
0.835417 0.621569 0.000000
0.877083 0.619975 0.000000
0.918857 0.619455 0.000000
0.976861 0.622549 0.000000
0.996568 0.622120 0.000000
1.000000 0.620466 0.000000
1.000000 0.621048 0.000000
1.000000 0.625230 0.000000
1.000000 0.625245 0.006128
0.000000 0.586764 0.000000
0.000000 0.592697 0.000000
0.000000 0.595198 0.000000
0.000000 0.599904 0.000000
0.000000 0.598882 0.000000
0.000000 0.597549 0.000000
0.000000 0.603186 0.000000
0.012887 0.607843 0.000000
0.074571 0.615748 0.002942
0.150777 0.613071 0.001103
0.234421 0.615219 0.000000
0.302148 0.621446 0.000000
0.357276 0.619884 0.000000
0.407073 0.623005 0.000000
0.448361 0.625284 0.000000
0.492969 0.627217 0.000000
0.533701 0.631434 0.000000
0.580894 0.632131 0.000000
0.614132 0.632231 0.000000
0.646672 0.638691 0.000000
0.688710 0.641529 0.000000
0.723522 0.636217 0.000000
0.757376 0.642172 0.000000
0.797224 0.645098 0.000000
0.836826 0.643199 0.000000
0.872427 0.643421 0.000000
0.918872 0.647181 0.000000
0.969719 0.647668 0.000000
0.996369 0.645940 0.000000
1.000000 0.642034 0.000000
1.000000 0.645588 0.000000
1.000000 0.645711 0.000000
1.000000 0.641666 0.000000
0.000000 0.609804 0.000000
0.000000 0.610754 0.000000
0.000000 0.615839 0.000000
0.000000 0.618397 0.000000
0.000000 0.622549 0.000000
0.000000 0.622396 0.000000
0.000000 0.627206 0.000000
0.009115 0.628676 0.000000
0.069363 0.638848 0.002942
0.142233 0.640395 0.002160
0.219363 0.641483 0.000460
0.283839 0.641437 0.000000
0.337868 0.646446 0.000000
0.383318 0.649878 0.000000
0.431158 0.649020 0.000000
0.478477 0.652941 0.000000
0.529167 0.652696 0.000000
0.569501 0.654243 0.000000
0.608180 0.658916 0.000000
0.642969 0.663235 0.000000
0.681005 0.663235 0.000000
0.717647 0.664583 0.000000
0.752911 0.668627 0.000000
0.791468 0.669317 0.000000
0.830515 0.673407 0.000000
0.869577 0.670221 0.000000
0.917065 0.668627 0.000000
0.976854 0.670849 0.000000
0.996568 0.669486 0.000000
1.000000 0.669133 0.000000
1.000000 0.674081 0.000000
1.000000 0.674847 0.000000
1.000000 0.664706 0.000000
0.000000 0.631495 0.000000
0.000000 0.631495 0.000000
0.000000 0.637584 0.000000
0.000000 0.639465 0.000000
0.000000 0.638649 0.000000
0.000000 0.642226 0.000000
0.000000 0.647289 0.000000
0.002011 0.649192 0.000000
0.033394 0.654044 0.002942
0.105189 0.664828 0.003922
0.200613 0.668980 0.003922
0.267360 0.669022 0.000000
0.326363 0.668275 0.000000
0.373105 0.672304 0.000000
0.418114 0.672158 0.000000
0.472388 0.677838 0.000000
0.520833 0.679167 0.000000
0.563500 0.681127 0.000000
0.598108 0.685440 0.000000
0.636945 0.686397 0.000000
0.674786 0.685294 0.000000
0.712079 0.687282 0.000000
0.748529 0.692088 0.000000
0.787010 0.694240 0.000000
0.828370 0.692555 0.000000
0.870366 0.693750 0.000000
0.918137 0.696814 0.000000
0.972936 0.693103 0.000000
1.000000 0.690319 0.000000
1.000000 0.695462 0.000000
1.000000 0.699181 0.000000
1.000000 0.696894 0.000000
1.000000 0.695588 0.000000
0.000000 0.654657 0.000000
0.000000 0.658579 0.000000
0.000000 0.654978 0.000000
0.000000 0.665196 0.000000
0.000000 0.666268 0.000000
0.000000 0.668697 0.000000
0.000000 0.669118 0.000000
0.000000 0.670075 0.000000
0.019485 0.680147 0.002022
0.098261 0.688090 0.002696
0.167295 0.693873 0.000000
0.248882 0.692946 0.000000
0.309620 0.693720 0.000000
0.360440 0.696201 0.000000
0.412301 0.700536 0.000000
0.455752 0.703799 0.000000
0.510662 0.702328 0.000000
0.551669 0.706212 0.000000
0.593490 0.709559 0.000000
0.625712 0.711880 0.000000
0.663879 0.715931 0.000000
0.706672 0.717823 0.000000
0.741314 0.713695 0.000000
0.783625 0.717402 0.000000
0.829350 0.715380 0.000000
0.867302 0.715564 0.000000
0.915441 0.718903 0.000000
0.975000 0.719240 0.000000
0.996568 0.722059 0.000000
1.000000 0.722434 0.000000
1.000000 0.726149 0.000000
1.000000 0.721163 0.000000
1.000000 0.720098 0.002696
0.000000 0.676716 0.000000
0.000000 0.680637 0.000000
0.000000 0.681671 0.000000
0.000000 0.682004 0.000000
0.000000 0.685310 0.000000
0.000000 0.690024 0.000000
0.000000 0.694401 0.000000
0.000000 0.695948 0.000000
0.016912 0.704994 0.000000
0.059248 0.708088 0.000000
0.156442 0.713871 0.000758
0.227685 0.717758 0.000000
0.290472 0.718428 0.000000
0.346814 0.722059 0.000000
0.395703 0.725850 0.000000
0.443287 0.726892 0.000000
0.500613 0.728247 0.000000
0.538454 0.730706 0.000000
0.582981 0.734788 0.000000
0.615361 0.737090 0.000000
0.653033 0.739169 0.000000
0.695109 0.740564 0.000000
0.737301 0.741322 0.000000
0.780882 0.741667 0.000000
0.827604 0.745312 0.000000
0.866900 0.745347 0.000000
0.911719 0.744853 0.000000
0.972794 0.745098 0.000000
0.996568 0.748407 0.000000
1.000000 0.751858 0.000000
1.000000 0.754795 0.000000
1.000000 0.748074 0.000000
0.998897 0.736642 0.000000
0.000000 0.701960 0.000000
0.000000 0.704779 0.000000
0.000000 0.705821 0.000000
0.000000 0.708823 0.000000
0.000000 0.710661 0.000000
0.000000 0.718995 0.000000
0.000000 0.719056 0.000000
0.000000 0.719699 0.000000
0.000000 0.723530 0.000000
0.035662 0.732935 0.002819
0.102696 0.737378 0.003922
0.203186 0.743474 0.001011
0.263848 0.744117 0.000000
0.328063 0.748039 0.000000
0.382598 0.749755 0.000000
0.425980 0.751685 0.000000
0.476961 0.759314 0.000000
0.524877 0.758241 0.000000
0.571998 0.759865 0.000000
0.610294 0.762561 0.000000
0.645956 0.765073 0.000000
0.683211 0.771905 0.000000
0.728861 0.773039 0.000000
0.771048 0.767923 0.000000
0.820098 0.771323 0.000000
0.869639 0.771139 0.000000
0.911581 0.775306 0.000000
0.976440 0.777451 0.000000
0.996568 0.776961 0.000000
1.000000 0.780393 0.000000
1.000000 0.780454 0.000000
0.996047 0.767402 0.000000
0.996078 0.758824 0.000000
0.000000 0.723285 0.000000
0.000000 0.721105 0.000000
0.000000 0.724334 0.000000
0.000000 0.735949 0.000000
0.000000 0.739829 0.000000
0.000000 0.738760 0.000000
0.000000 0.743589 0.000000
0.000000 0.747189 0.000000
0.000000 0.744485 0.000000
0.006744 0.757472 0.000000
0.068359 0.764269 0.000000
0.157552 0.767280 0.000000
0.246630 0.770374 0.000000
0.304431 0.773878 0.000000
0.360547 0.775980 0.000000
0.408838 0.776892 0.000000
0.456005 0.788848 0.000000
0.510872 0.788971 0.000000
0.548521 0.789468 0.000000
0.596814 0.791667 0.000000
0.639568 0.794608 0.000000
0.677891 0.799633 0.000000
0.720619 0.803431 0.000000
0.767509 0.802328 0.000000
0.821691 0.805913 0.000000
0.865311 0.802566 0.000000
0.911895 0.804328 0.000000
0.976004 0.807108 0.000000
0.996461 0.807461 0.000000
0.995998 0.807434 0.000000
0.999196 0.809506 0.000000
0.996078 0.799169 0.000000
0.996078 0.783823 0.000000
0.000000 0.743382 0.000000
0.000000 0.748016 0.000000
0.000000 0.750491 0.000000
0.000000 0.758471 0.000000
0.000000 0.762990 0.000000
0.000000 0.766299 0.000000
0.000000 0.771430 0.000000
0.000000 0.774594 0.000000
0.000000 0.778615 0.000000
0.002290 0.784758 0.000000
0.021079 0.789185 0.000000
0.094792 0.794845 0.000000
0.202513 0.802206 0.000000
0.274456 0.802642 0.000000
0.342249 0.808747 0.000000
0.390342 0.811719 0.000000
0.434191 0.816544 0.000000
0.491031 0.821201 0.000000
0.536106 0.825413 0.000000
0.578906 0.829534 0.000000
0.619394 0.835509 0.000000
0.663350 0.838971 0.000000
0.710539 0.841927 0.000000
0.760057 0.845136 0.000000
0.812745 0.840625 0.000000
0.858992 0.843788 0.000000
0.900659 0.843352 0.000000
