calib/LUT LIBRARY/velvia_composed.cube
TITLE "Chromasmith composed - velvia"
#STD_q(x) = VLOG_q(T(x)), T from astia/velvia/classic_neg matched pairs
LUT_3D_SIZE 33
0.006787 0.005964 0.005686
0.015376 0.006455 0.004370
0.025125 0.006835 0.006818
0.051567 0.011210 0.003839
0.078828 0.010097 0.012295
0.125078 0.017353 0.004147
0.182802 0.015473 0.001729
0.231998 0.026618 0.000952
0.273592 0.014094 0.007032
0.334309 0.047332 0.000254
0.376644 0.021003 0.013483
0.398431 0.030420 0.000199
0.453043 0.049875 0.000199
0.498878 0.064481 0.000126
0.538263 0.024217 0.003639
0.559443 0.044697 0.000204
0.606019 0.066801 0.000099
0.654764 0.057368 0.000240
0.672933 0.054348 0.000392
0.703572 0.053793 0.000818
0.739780 0.069720 0.000493
0.771701 0.074501 0.000430
0.798557 0.066480 0.006061
0.824746 0.065171 0.005300
0.859723 0.069312 0.011318
0.896938 0.078002 0.020082
0.913643 0.062450 0.038915
0.937298 0.083155 0.047172
0.964588 0.088182 0.059920
0.989310 0.084555 0.071562
0.997524 0.106198 0.137282
0.999409 0.167430 0.103830
0.999782 0.058301 0.313139
0.006848 0.010157 0.005653
0.014149 0.013375 0.005430
0.022978 0.014772 0.004790
0.050579 0.018543 0.009322
0.079731 0.026051 0.002488
0.122318 0.032505 0.007482
0.170834 0.040167 0.000210
0.219793 0.042354 0.003321
0.254018 0.050166 0.000252
0.329476 0.060380 0.000186
0.361045 0.049884 0.001870
0.409002 0.061033 0.000280
0.455498 0.070576 0.000121
0.500153 0.059207 0.001667
0.529454 0.057516 0.000157
0.565539 0.076404 0.000119
0.611649 0.089068 0.000170
0.647174 0.069715 0.000953
0.666159 0.088728 0.000095
0.700439 0.103008 0.000126
0.731900 0.108215 0.000118
0.766197 0.104843 0.002633
0.791753 0.104058 0.002053
0.826937 0.118535 0.002193
0.864786 0.126069 0.004638
0.894807 0.121458 0.007170
0.938723 0.100353 0.049642
0.969523 0.107961 0.061557
0.982556 0.121639 0.044363
0.987880 0.119700 0.077818
0.995890 0.152130 0.105913
0.999369 0.123865 0.209347
0.998839 0.137821 0.168671
0.008477 0.018335 0.007348
0.013638 0.020000 0.007836
0.028034 0.025145 0.009610
0.050274 0.032993 0.006851
0.088627 0.041415 0.002767
0.121485 0.041217 0.003701
0.167687 0.053794 0.000219
0.229487 0.052923 0.001342
0.269259 0.070737 0.000311
0.321179 0.072784 0.000387
0.354152 0.072429 0.000154
0.416166 0.082047 0.000281
0.465038 0.082945 0.000101
0.497958 0.073420 0.000109
0.531581 0.087107 0.000162
0.580958 0.106029 0.000105
0.612596 0.104509 0.000291
0.636411 0.111964 0.000101
0.674143 0.127194 0.000065
0.709874 0.132257 0.000091
0.740504 0.133481 0.002233
0.769901 0.145173 0.000199
0.797118 0.158660 0.000068
0.825612 0.167350 0.000036
0.861307 0.159164 0.004503
0.897656 0.149982 0.021300
0.924930 0.162363 0.019837
0.948645 0.162431 0.036335
0.968817 0.161123 0.081143
0.989155 0.151834 0.111428
0.998584 0.151850 0.130105
0.999553 0.161787 0.156744
0.999455 0.178280 0.187933
0.004657 0.031338 0.006410
0.017990 0.039742 0.007655
0.032244 0.045140 0.005884
0.053696 0.055353 0.003668
0.085730 0.061442 0.001503
0.124467 0.067638 0.000121
0.176367 0.072211 0.001372
0.209694 0.078897 0.000394
0.277162 0.088214 0.000280
0.328530 0.079093 0.000250
0.376440 0.099417 0.000266
0.416188 0.107644 0.000154
0.456899 0.109404 0.000071
0.485851 0.113037 0.000205
0.552935 0.121357 0.000152
0.576144 0.129140 0.000106
0.608500 0.130572 0.000222
0.639031 0.144098 0.000073
0.669548 0.156006 0.000071
0.708519 0.162866 0.000080
0.743466 0.164689 0.000225
0.770320 0.181335 0.000074
0.801004 0.190149 0.000147
0.832274 0.195247 0.003214
0.867107 0.191732 0.011587
0.889954 0.201299 0.011477
0.916186 0.206935 0.013465
0.950806 0.199976 0.073852
0.977872 0.195328 0.104310
0.997944 0.196666 0.081495
0.999689 0.206130 0.093762
0.999518 0.201290 0.155663
0.999562 0.209349 0.250379
0.002415 0.049971 0.006925
0.015669 0.056597 0.005029
0.021995 0.072794 0.001517
0.052840 0.079526 0.000722
0.087444 0.083527 0.000654
0.121602 0.097169 0.000237
0.173530 0.100659 0.000120
0.227930 0.108967 0.000346
0.282915 0.114500 0.000145
0.311680 0.121487 0.000258
0.389584 0.126846 0.000178
0.419106 0.133332 0.000025
0.452713 0.138251 0.000131
0.502375 0.148888 0.000186
0.542669 0.155933 0.000141
0.578037 0.163020 0.000113
0.607854 0.172174 0.000091
0.638751 0.182505 0.000085
0.668980 0.192345 0.000096
0.706308 0.201737 0.000048
0.738869 0.215791 0.000119
0.766690 0.218715 0.000099
0.797994 0.220558 0.000715
0.828617 0.223267 0.006169
0.863740 0.232698 0.006322
0.892043 0.242234 0.007907
0.919787 0.243584 0.021086
0.959134 0.232765 0.072486
0.993807 0.238121 0.087892
0.996043 0.235622 0.132094
0.998730 0.237407 0.129686
0.999463 0.228314 0.194368
0.999368 0.240087 0.254326
0.001553 0.082106 0.000794
0.011892 0.091587 0.001270
0.019395 0.095701 0.000410
0.047825 0.106487 0.000141
0.079875 0.115136 0.000143
0.123527 0.125174 0.000097
0.173408 0.134306 0.000268
0.229155 0.140742 0.000322
0.274545 0.145443 0.000206
0.337656 0.155084 0.000177
0.376959 0.165998 0.000297
0.415678 0.171843 0.000230
0.478711 0.173394 0.000200
0.503970 0.187154 0.000171
0.537375 0.191839 0.000183
0.565492 0.199500 0.000121
0.626330 0.210353 0.000152
0.640421 0.222333 0.000180
0.673477 0.224252 0.000198
0.708814 0.234220 0.000097
0.739475 0.251223 0.000114
0.765749 0.256401 0.000075
0.796505 0.258147 0.000090
0.827369 0.262815 0.003516
0.864857 0.269671 0.009359
0.896202 0.274488 0.016668
0.926222 0.274085 0.033639
0.972522 0.272763 0.051976
0.989636 0.266791 0.113600
0.994169 0.262130 0.152698
0.997584 0.267471 0.148245
0.999335 0.286484 0.096260
0.999675 0.304497 0.221282
0.003832 0.124386 0.001184
0.018299 0.144757 0.000270
0.020165 0.142424 0.000184
0.038542 0.146101 0.000240
0.063317 0.156979 0.000228
0.113356 0.164615 0.000132
0.172438 0.175191 0.000216
0.221514 0.181690 0.000344
0.280649 0.187494 0.000237
0.329881 0.198750 0.000274
0.377166 0.200832 0.000197
0.414614 0.206669 0.000297
0.464434 0.216124 0.000189
0.491507 0.227591 0.000136
0.534390 0.233314 0.000138
0.567197 0.241230 0.000131
0.606359 0.257734 0.000085
0.640801 0.265645 0.000072
0.675106 0.273040 0.000095
0.709663 0.278171 0.000073
0.740212 0.289392 0.000073
0.771352 0.293015 0.000055
0.804978 0.302223 0.000046
0.832715 0.311532 0.000492
0.859542 0.310362 0.005135
0.894166 0.309838 0.015104
0.935938 0.307295 0.039066
0.961966 0.308122 0.076530
0.974110 0.299977 0.143783
0.987913 0.301203 0.149542
0.998001 0.309196 0.113563
0.999603 0.326250 0.144057
0.999640 0.341739 0.244830
0.000171 0.161017 0.000162
0.000948 0.162942 0.000186
0.013859 0.180856 0.000386
0.029459 0.192217 0.000221
0.056801 0.196916 0.000278
0.089003 0.205302 0.000242
0.152348 0.217557 0.000263
0.213114 0.218634 0.000159
0.287015 0.223972 0.000173
0.323771 0.236584 0.000396
0.370280 0.238607 0.000072
0.419642 0.249904 0.000321
0.449556 0.256246 0.000228
0.486022 0.263633 0.000214
0.531359 0.269417 0.000087
0.568415 0.282206 0.000072
0.600149 0.287407 0.000153
0.640711 0.294028 0.000113
0.676664 0.301847 0.000142
0.722001 0.306830 0.000158
0.734747 0.321823 0.000046
0.763828 0.320044 0.000265
0.802848 0.334169 0.000033
0.830582 0.343422 0.000060
0.856863 0.340837 0.001671
0.893986 0.341103 0.017759
0.935426 0.338409 0.035433
0.953911 0.333750 0.105091
0.969632 0.329190 0.144278
0.989527 0.333584 0.118962
0.999739 0.346338 0.088679
0.999329 0.359808 0.136455
0.999408 0.363958 0.232126
0.000272 0.192614 0.000736
0.000093 0.216411 0.000204
0.009817 0.222092 0.000220
0.012345 0.220906 0.000368
0.050112 0.249975 0.001164
0.080796 0.239185 0.000203
0.148000 0.252065 0.000268
0.205666 0.255824 0.000076
0.270330 0.263745 0.000284
0.320357 0.268487 0.000325
0.358755 0.273729 0.000287
0.404104 0.289434 0.000210
0.450191 0.298904 0.000210
0.492859 0.296958 0.000194
0.529828 0.301514 0.000057
0.558631 0.321363 0.000019
0.597195 0.321443 0.000145
0.637584 0.326789 0.000036
0.664969 0.336734 0.000039
0.696901 0.347560 0.000042
0.730926 0.356007 0.000045
0.758531 0.356996 0.000043
0.804148 0.365966 0.000043
0.828533 0.375540 0.000060
0.864853 0.374080 0.000893
0.901219 0.371682 0.012520
0.923584 0.365918 0.055389
0.950769 0.364817 0.081419
0.975396 0.363937 0.093944
0.999628 0.369660 0.065949
0.999637 0.382751 0.085941
0.999213 0.403248 0.146495
0.999088 0.407510 0.201307
0.000025 0.211142 0.000212
0.000181 0.240808 0.000160
0.000308 0.237647 0.000101
0.003074 0.259081 0.000186
0.037487 0.278562 0.000325
0.069281 0.279416 0.000272
0.132532 0.289034 0.000280
0.204794 0.291001 0.000297
0.247248 0.314264 0.000245
0.307557 0.307683 0.000349
0.365584 0.311035 0.000073
0.394253 0.328924 0.000155
0.441616 0.334866 0.000278
0.482092 0.337308 0.000169
0.519754 0.341719 0.000065
0.548024 0.354430 0.000078
0.589047 0.354656 0.000089
0.628023 0.366649 0.000046
0.661172 0.372000 0.000039
0.691893 0.378009 0.000050
0.725885 0.385951 0.000056
0.761960 0.393368 0.000075
0.809625 0.398443 0.000060
0.828667 0.403384 0.000084
0.866023 0.401048 0.000655
0.902002 0.399077 0.010105
0.924012 0.395017 0.045661
0.958698 0.393858 0.072526
0.997470 0.392316 0.079470
0.999505 0.396450 0.080465
0.999324 0.408748 0.076472
0.999324 0.419572 0.145759
0.999337 0.470602 0.067995
0.000192 0.254962 0.000288
0.000053 0.292800 0.000208
0.000035 0.299542 0.000217
0.014728 0.313252 0.000183
0.026797 0.309642 0.000385
0.053960 0.325190 0.000426
0.106247 0.336112 0.000243
0.169744 0.335848 0.000403
0.231781 0.349710 0.000250
0.300331 0.344839 0.000177
0.345297 0.352161 0.000279
0.394651 0.358376 0.000201
0.428496 0.362059 0.000184
0.463367 0.368965 0.000100
0.507680 0.377858 0.000063
0.544291 0.383378 0.000064
0.586115 0.387703 0.000034
0.641217 0.383497 0.000037
0.666536 0.394181 0.000050
0.690390 0.409136 0.000055
0.731623 0.412527 0.000077
0.766120 0.418351 0.000071
0.803112 0.427561 0.000064
0.827250 0.428623 0.000089
0.866397 0.426329 0.000021
0.902413 0.426821 0.001003
0.931494 0.421545 0.026176
0.980902 0.419406 0.063307
0.998969 0.419571 0.051257
0.999539 0.428190 0.032980
0.999209 0.449489 0.037695
0.999325 0.452023 0.121316
0.999408 0.479360 0.101784
0.000027 0.344921 0.002337
0.000058 0.294554 0.000167
0.000100 0.323111 0.000159
0.001673 0.337427 0.000310
0.015510 0.341753 0.000371
0.020903 0.396610 0.000742
0.104724 0.371637 0.000114
0.140845 0.386686 0.000235
0.220362 0.374163 0.000351
0.274638 0.379538 0.000339
0.323594 0.389577 0.000279
0.380874 0.395227 0.000135
0.421317 0.391798 0.000109
0.467962 0.394919 0.000044
0.498666 0.410095 0.000047
0.537464 0.420524 0.000171
0.581822 0.416096 0.000016
0.619442 0.418002 0.000051
0.651127 0.425257 0.000045
0.683626 0.435868 0.000090
0.719597 0.439288 0.000034
0.766967 0.443861 0.000079
0.799849 0.451046 0.000068
0.841359 0.456740 0.000096
0.869389 0.459229 0.000212
0.905738 0.457264 0.000801
0.940429 0.453571 0.012664
0.981582 0.443382 0.078583
0.992400 0.440425 0.089302
0.995770 0.456733 0.032396
0.999507 0.475132 0.129389
0.999278 0.465746 0.136177
0.999468 0.473330 0.157524
0.000074 0.408968 0.002359
0.000062 0.370481 0.000315
0.000166 0.365363 0.000283
0.000249 0.382628 0.000242
0.004469 0.393628 0.000130
0.035193 0.397381 0.000436
0.076314 0.407346 0.000358
0.111265 0.424746 0.000388
0.199018 0.410337 0.000400
0.259145 0.411346 0.000275
0.310386 0.430780 0.000232
0.364967 0.434504 0.000143
0.422975 0.425180 0.000032
0.454787 0.429773 0.000053
0.483687 0.442086 0.000030
0.524424 0.446606 0.000092
0.572675 0.448404 0.000051
0.607349 0.447225 0.000031
0.647252 0.449837 0.000055
0.675780 0.461432 0.000095
0.710325 0.467472 0.000134
0.765792 0.468160 0.000041
0.799815 0.476296 0.000072
0.836210 0.479935 0.000104
0.878286 0.484158 0.000074
0.913990 0.485157 0.000116
0.943361 0.480023 0.009196
0.976439 0.471309 0.059440
0.984322 0.492828 0.047293
0.998816 0.455238 0.067096
0.999294 0.477861 0.041314
0.999599 0.476191 0.083235
0.999054 0.461026 0.291953
0.000133 0.424339 0.000460
0.000065 0.389403 0.000312
0.000052 0.429349 0.000172
0.000037 0.407137 0.000355
0.008508 0.417286 0.000309
0.024708 0.437799 0.000387
0.059890 0.434374 0.000614
0.105893 0.442003 0.000140
0.177856 0.445796 0.000208
0.250662 0.442987 0.000306
0.304709 0.449352 0.000204
0.343538 0.457691 0.000076
0.405592 0.454865 0.000094
0.432523 0.461246 0.000023
0.468565 0.469848 0.000022
0.506949 0.470799 0.000017
0.567820 0.470297 0.000020
0.599977 0.479043 0.000045
0.635960 0.487022 0.000094
0.675243 0.486112 0.000112
0.728030 0.479520 0.000035
0.766996 0.490442 0.000032
0.793171 0.502780 0.000060
0.831535 0.504839 0.000050
0.877697 0.505206 0.000047
0.919068 0.511130 0.000159
0.958769 0.500561 0.004337
0.962749 0.499932 0.025410
0.984849 0.505239 0.001272
0.999365 0.520811 0.006234
0.999555 0.528004 0.118883
0.999039 0.488014 0.252383
0.999517 0.478796 0.315698
0.000046 0.412179 0.000259
0.000046 0.442360 0.000386
0.000189 0.428174 0.000284
0.000086 0.454108 0.000159
0.000182 0.420780 0.000294
0.015758 0.456599 0.000374
0.098284 0.464332 0.000461
0.088001 0.471581 0.000719
0.177503 0.473769 0.000369
0.212994 0.477436 0.000211
0.294701 0.478449 0.000136
0.333949 0.481363 0.000075
0.387921 0.482390 0.000040
0.416636 0.492684 0.000025
0.472649 0.502673 0.000071
0.512104 0.499048 0.000006
0.572499 0.500914 0.000273
0.595188 0.513798 0.000083
0.635186 0.513255 0.000093
0.685191 0.510131 0.000113
0.721252 0.512476 0.000029
0.753322 0.521893 0.000072
0.792880 0.527095 0.000030
0.818841 0.532146 0.000092
0.877021 0.528980 0.000083
0.903912 0.534888 0.000109
0.909321 0.542719 0.000238
0.938478 0.539135 0.003040
0.993953 0.542829 0.041404
0.999289 0.448929 0.311250
0.999526 0.528819 0.126610
0.999273 0.505196 0.228029
0.999623 0.521314 0.255486
0.000098 0.422959 0.000170
0.000160 0.469057 0.000433
0.000239 0.467181 0.000406
0.000206 0.439259 0.000362
0.000073 0.478141 0.000153
0.001222 0.479960 0.000338
0.039051 0.514808 0.000443
0.080790 0.514271 0.000371
0.140695 0.504271 0.000233
0.178845 0.518000 0.000148
0.262511 0.517562 0.000132
0.340848 0.506836 0.000048
0.393385 0.511348 0.000088
0.411519 0.527904 0.000024
0.466451 0.530858 0.000178
0.516684 0.524974 0.000031
0.551535 0.529844 0.000040
0.583043 0.539966 0.000091
0.631295 0.537262 0.000112
0.668249 0.541150 0.000121
0.714645 0.539078 0.000052
0.746615 0.542509 0.000056
0.777930 0.549102 0.000069
0.823170 0.545785 0.000015
0.871024 0.549246 0.000047
0.895027 0.556276 0.000078
0.937802 0.561734 0.000177
0.979256 0.543221 0.000062
0.999259 0.553023 0.003214
0.999509 0.551827 0.042916
0.999444 0.509572 0.271694
0.999615 0.542177 0.230877
0.999395 0.533520 0.313720
0.000093 0.472433 0.000264
0.000118 0.524944 0.000301
0.000132 0.523601 0.000413
0.000126 0.539716 0.000463
0.000063 0.538765 0.000193
0.000016 0.498799 0.000426
0.024249 0.530459 0.000332
0.154822 0.517639 0.000233
0.122517 0.531145 0.000295
0.151240 0.545109 0.000221
0.226628 0.557568 0.000228
0.321692 0.539924 0.000171
0.361072 0.545582 0.000045
0.404286 0.551904 0.000026
0.449056 0.558039 0.000122
0.496055 0.551715 0.000099
0.541025 0.560739 0.000068
0.579567 0.562662 0.000100
0.613961 0.562286 0.000100
0.673785 0.559118 0.000010
0.703505 0.565131 0.000051
0.736764 0.574408 0.000020
0.765703 0.571110 0.000026
0.814709 0.570313 0.000166
0.866495 0.574961 0.000011
0.902862 0.586764 0.000022
0.931363 0.590074 0.000016
0.967519 0.584984 0.002172
0.999759 0.578054 0.289458
0.999483 0.526267 0.312212
0.999522 0.534427 0.294859
0.999446 0.561230 0.178193
0.999208 0.553236 0.250882
0.000070 0.506967 0.000253
0.000085 0.536162 0.000307
0.000151 0.579490 0.000395
0.000110 0.547832 0.000376
0.000074 0.542476 0.000125
0.000109 0.539249 0.000520
0.000266 0.527011 0.000216
0.094088 0.553302 0.000134
0.104980 0.563644 0.000102
0.149908 0.568776 0.000169
0.220256 0.575351 0.000196
0.291196 0.572159 0.000157
0.347744 0.577196 0.000097
0.401807 0.578300 0.000053
0.434129 0.579055 0.000077
0.501806 0.577057 0.000184
0.529501 0.587059 0.000120
0.580435 0.590060 0.000113
0.619521 0.586755 0.000067
0.664721 0.587401 0.000025
0.689806 0.594621 0.000033
0.729175 0.596892 0.000264
0.772426 0.590743 0.000016
0.817072 0.590617 0.000058
0.863541 0.597664 0.000017
0.907704 0.602121 0.000016
0.914820 0.608128 0.000020
0.992841 0.608728 0.009824
0.999464 0.568867 0.377134
0.999604 0.564917 0.320651
0.999549 0.568998 0.264180
0.999575 0.572622 0.240564
0.999456 0.558834 0.301229
0.000107 0.572199 0.000153
0.000101 0.589515 0.000356
0.000028 0.575340 0.000214
0.000024 0.577794 0.000202
0.000020 0.575674 0.000356
0.000021 0.578938 0.000350
0.000044 0.563480 0.000242
0.063587 0.591391 0.000283
0.110784 0.594368 0.000255
0.131188 0.596630 0.000110
0.195075 0.599259 0.000176
0.270416 0.595157 0.000054
0.321190 0.615034 0.000203
0.396404 0.605347 0.000282
0.433911 0.602566 0.000062
0.487670 0.605094 0.000100
0.526772 0.615468 0.000169
0.580221 0.612248 0.000443
0.613483 0.606522 0.000065
0.645942 0.611574 0.000067
0.685030 0.613882 0.000032
0.722400 0.616257 0.000004
0.776127 0.607621 0.000055
0.812620 0.611800 0.000041
0.842628 0.617371 0.000059
0.899403 0.613773 0.000100
0.906468 0.634864 0.000034
0.979201 0.635809 0.000917
0.999458 0.617961 0.286782
0.999449 0.606233 0.335833
0.999709 0.593244 0.346532
0.999639 0.593803 0.303807
0.999436 0.614233 0.233482
0.000083 0.578450 0.000432
0.000077 0.577051 0.000316
0.000163 0.555893 0.000432
0.000075 0.594602 0.000168
0.000071 0.589210 0.000189
0.000124 0.636932 0.000349
0.000090 0.606973 0.000246
0.039731 0.629242 0.000245
0.099033 0.623348 0.000106
0.127088 0.621959 0.000175
0.178317 0.623037 0.000125
0.262829 0.621853 0.000150
0.310114 0.634788 0.000260
0.387162 0.629415 0.000199
0.437259 0.623609 0.000293
0.473187 0.628331 0.000035
0.512330 0.632245 0.000117
0.567593 0.632966 0.000064
0.601426 0.627676 0.000079
0.640932 0.633630 0.000060
0.696331 0.629480 0.000029
0.720956 0.629523 0.000056
0.785849 0.621976 0.000161
0.808110 0.634319 0.000057
0.844839 0.642894 0.000018
0.883259 0.634506 0.000105
0.867991 0.651098 0.000028
0.984781 0.649044 0.014568
0.999364 0.673413 0.125494
0.999320 0.639992 0.250469
0.999312 0.620442 0.192949
0.999313 0.619937 0.193036
0.999195 0.638694 0.217669
0.000057 0.597981 0.000572
0.000105 0.594321 0.000397
0.000069 0.627209 0.000210
0.000064 0.621009 0.000745
0.000094 0.624844 0.000366
0.000089 0.624795 0.000370
0.000047 0.601616 0.000491
0.000109 0.630034 0.000205
0.162470 0.628013 0.000253
0.161854 0.647751 0.000254
0.174104 0.645897 0.000338
0.214805 0.647389 0.000154
0.295287 0.651491 0.000063
0.372320 0.651856 0.000226
0.413169 0.647662 0.000244
0.454854 0.657621 0.000139
0.515482 0.648545 0.000115
0.546700 0.650354 0.000108
0.615253 0.641908 0.000035
0.640137 0.659840 0.000071
0.692052 0.651572 0.000004
0.732255 0.649090 0.000123
0.764197 0.653923 0.000105
0.807916 0.659595 0.000039
0.831429 0.665142 0.000022
0.851021 0.661933 0.000109
0.853198 0.671902 0.000065
0.947270 0.686458 0.000220
0.999298 0.693933 0.093398
0.999243 0.636296 0.169211
0.999255 0.679574 0.178231
0.999164 0.639127 0.215591
0.999175 0.669709 0.240976
0.000100 0.636658 0.000334
0.000041 0.641885 0.000356
0.000118 0.629427 0.000345
0.000078 0.652097 0.002586
0.000085 0.599455 0.000381
0.000263 0.639587 0.000121
0.000120 0.647746 0.000220
0.000079 0.655301 0.000383
0.038834 0.663002 0.000161
0.134167 0.673044 0.000164
0.158870 0.669811 0.000104
0.178978 0.674594 0.000156
0.273843 0.671119 0.000046
0.330940 0.674296 0.000287
0.392636 0.670974 0.000022
0.456243 0.684112 0.000164
0.528547 0.666940 0.000124
0.564353 0.666267 0.000103
0.602959 0.670417 0.000102
0.635849 0.682964 0.000138
0.674502 0.676906 0.000116
0.722655 0.671525 0.000066
0.755860 0.680183 0.000057
0.798023 0.678296 0.000082
0.828922 0.677128 0.000055
0.831106 0.685078 0.000064
0.887513 0.693210 0.000072
0.959763 0.700392 0.003895
0.999085 0.686884 0.195864
0.999257 0.679130 0.221967
0.998933 0.693666 0.185318
0.999329 0.678911 0.167969
0.999585 0.691770 0.239589
0.000085 0.689374 0.000310
0.000115 0.669612 0.000307
0.000131 0.662428 0.000323
0.000077 0.653143 0.000483
0.000086 0.647799 0.000444
0.000077 0.662371 0.000472
0.000072 0.672099 0.000409
0.000048 0.676299 0.000251
0.028893 0.705523 0.000108
0.172183 0.685142 0.000269
0.137568 0.694441 0.000252
0.110704 0.716439 0.000187
0.243762 0.696313 0.000055
0.316462 0.696872 0.000121
0.407853 0.688075 0.000148
0.437247 0.709666 0.000184
0.508966 0.699254 0.000184
0.566336 0.683542 0.000113
0.596838 0.694546 0.000085
0.628868 0.696006 0.000042
0.653347 0.696220 0.000011
0.714707 0.701379 0.000042
0.744090 0.705708 0.000072
0.784738 0.704220 0.000048
0.828807 0.701344 0.000017
0.844539 0.703052 0.000079
0.899689 0.723297 0.000164
0.977045 0.718328 0.001094
0.999269 0.722294 0.141065
0.999002 0.684410 0.134976
0.999375 0.725587 0.173650
0.999360 0.732238 0.127631
0.999304 0.733544 0.086708
0.000071 0.668427 0.000180
0.000078 0.663048 0.000315
0.000216 0.679132 0.000586
0.000228 0.678659 0.000185
0.000003 0.689239 0.000355
0.000042 0.710162 0.000171
0.000075 0.695108 0.000142
0.000091 0.706898 0.000321
0.031129 0.713009 0.000274
0.064882 0.721010 0.000153
0.090143 0.720272 0.000202
0.055597 0.754144 0.000452
0.228791 0.724444 0.000293
0.315531 0.715940 0.000099
0.402031 0.710872 0.000077
0.429262 0.717354 0.000170
0.468226 0.720646 0.000165
0.539567 0.713773 0.000113
0.580816 0.726464 0.000065
0.635726 0.714927 0.000005
0.669889 0.719134 0.000025
0.685859 0.731560 0.000037
0.735426 0.742064 0.000155
0.782264 0.724553 0.000054
0.817403 0.729670 0.000071
0.880204 0.727091 0.000046
0.908175 0.727716 0.000020
0.909833 0.745602 0.000136
0.999278 0.757151 0.120810
0.999592 0.751714 0.177503
0.999471 0.748333 0.189072
0.999367 0.739453 0.193503
0.999286 0.755501 0.111276
0.000194 0.696343 0.000339
0.000068 0.703549 0.000285
0.000052 0.684916 0.000147
0.000037 0.716753 0.000270
0.000084 0.717220 0.000242
0.000031 0.714842 0.000265
0.000018 0.715304 0.000269
0.000035 0.720595 0.000282
0.000068 0.725458 0.000492
0.046272 0.746017 0.000179
0.066781 0.746442 0.000557
0.074827 0.773244 0.000220
0.220980 0.755733 0.000106
0.279090 0.742940 0.000112
0.355979 0.744443 0.000213
0.417761 0.739313 0.000216
0.460500 0.740529 0.000222
0.513140 0.749186 0.000067
0.563822 0.759058 0.000063
0.615445 0.740910 0.000035
0.650522 0.750751 0.000058
0.697227 0.751195 0.000050
0.737539 0.743688 0.000149
0.770313 0.752617 0.000227
0.800092 0.760833 0.000040
0.881341 0.752484 0.000014
0.861283 0.757447 0.000018
0.921793 0.775861 0.005934
0.989990 0.802664 0.009400
0.999339 0.798498 0.114887
0.999277 0.778911 0.128002
0.999503 0.756246 0.212182
0.999484 0.776221 0.199009
0.000014 0.735606 0.000208
0.000075 0.734531 0.000284
0.000070 0.740627 0.000276
0.000046 0.745026 0.000235
0.000009 0.732538 0.000170
0.000285 0.724790 0.000273
0.000310 0.734454 0.000719
0.000094 0.739686 0.000174
0.000183 0.740776 0.000411
0.000160 0.793814 0.000380
0.115062 0.768260 0.000223
0.148239 0.770417 0.000305
0.167825 0.775610 0.000344
0.219100 0.775595 0.000181
0.286558 0.787945 0.000336
0.421150 0.759619 0.000239
0.477782 0.761912 0.000201
0.506354 0.773219 0.000144
0.545973 0.774439 0.000029
0.556042 0.779162 0.000027
0.624538 0.791467 0.000075
0.691671 0.780499 0.000067
0.736602 0.780059 0.000070
0.764802 0.788385 0.000102
0.798572 0.797402 0.000279
0.849016 0.780169 0.000001
0.847253 0.786961 0.000010
0.927596 0.813080 0.007163
0.998998 0.817019 0.038398
0.999083 0.854377 0.049329
0.999116 0.820226 0.121922
0.999389 0.777076 0.234683
0.999378 0.809792 0.218648
0.000131 0.722980 0.000352
0.000052 0.744864 0.000235
0.000086 0.746747 0.000323
0.000089 0.758764 0.000241
0.000040 0.763890 0.000372
0.000164 0.762572 0.000079
0.000105 0.770524 0.000285
0.000072 0.772974 0.000430
0.000212 0.780632 0.000530
0.000015 0.796095 0.000430
0.000133 0.794422 0.000383
0.216308 0.779734 0.000329
0.150073 0.796400 0.000098
0.203149 0.796678 0.000125
0.230621 0.825247 0.000318
0.367863 0.791318 0.000203
0.428112 0.803065 0.000231
0.500397 0.803519 0.000108
0.538510 0.801412 0.000042
0.577888 0.811559 0.000122
0.609108 0.821197 0.000135
0.675279 0.801901 0.000104
0.732187 0.812971 0.000141
0.760567 0.817582 0.000021
0.814539 0.814872 0.000241
0.838623 0.813139 0.000037
