calib/LUT LIBRARY/velvia.cube
#Generated with Fujify color engine
#Website: https://fujify.me
#LUMIXPHOTOSTYLE STD
LUT_3D_SIZE 9
0.003922 0.000000 0.000000
0.060784 0.007843 0.007353
0.256863 0.016667 0.008823
0.464706 0.023529 0.011765
0.621568 0.023529 0.007843
0.769608 0.021078 0.011765
0.907843 0.023529 0.022549
0.999510 0.031373 0.072059
0.996078 0.039216 0.211765
0.000000 0.053431 0.007353
0.095098 0.086336 0.003983
0.287378 0.114461 0.000000
0.480086 0.134498 0.000000
0.636765 0.146324 0.000000
0.769302 0.159130 0.000000
0.885907 0.179289 0.000000
0.992647 0.192218 0.019240
0.992647 0.194117 0.153921
0.000000 0.233334 0.000000
0.010907 0.263603 0.000000
0.289951 0.272304 0.000000
0.469608 0.294485 0.000000
0.613725 0.308333 0.000000
0.743137 0.323775 0.000000
0.874019 0.337990 0.000000
0.992157 0.348407 0.000000
1.000000 0.356862 0.051960
0.000000 0.398039 0.000000
0.000000 0.412929 0.000000
0.229657 0.423039 0.000000
0.420282 0.432843 0.000000
0.583333 0.439951 0.000735
0.719608 0.451409 0.000000
0.856250 0.462132 0.000000
0.995282 0.465503 0.000000
1.000000 0.463726 0.010784
0.000000 0.503922 0.000000
0.000000 0.521568 0.000000
0.155392 0.537745 0.000000
0.385294 0.544363 0.000000
0.560784 0.554902 0.000000
0.697549 0.562745 0.000000
0.839215 0.569118 0.000000
0.998284 0.571324 0.000000
1.000000 0.576470 0.007843
0.000000 0.609804 0.000000
0.000000 0.622549 0.000000
0.069363 0.638848 0.002942
0.337868 0.646446 0.000000
0.529167 0.652696 0.000000
0.681005 0.663235 0.000000
0.830515 0.673407 0.000000
0.996568 0.669486 0.000000
1.000000 0.664706 0.000000
0.000000 0.701960 0.000000
0.000000 0.710661 0.000000
0.000000 0.723530 0.000000
0.263848 0.744117 0.000000
0.476961 0.759314 0.000000
0.645956 0.765073 0.000000
0.820098 0.771323 0.000000
0.996568 0.776961 0.000000
0.996078 0.758824 0.000000
0.000000 0.798039 0.000000
0.000000 0.817647 0.000000
0.000000 0.845221 0.000000
0.021017 0.877022 0.000000
0.337500 0.898284 0.000000
0.564216 0.916115 0.000000
0.783211 0.925981 0.000000
0.992218 0.931802 0.000000
1.000000 0.919118 0.000000
0.000000 0.937255 0.000000
0.000000 0.979412 0.000000
0.000000 1.000000 0.000000
0.000000 1.000000 0.000000
0.123529 1.000000 0.003922
0.504412 1.000000 0.000000
0.764706 0.997059 0.000000
0.992647 1.000000 0.000000
1.000000 1.000000 0.007843
0.000490 0.000000 0.046079
0.067218 0.007414 0.063726
0.253064 0.017034 0.079657
0.449755 0.019914 0.074571
0.608578 0.021569 0.077942
0.759314 0.017157 0.092953
0.901103 0.017892 0.142770
0.996568 0.024081 0.201471
1.000000 0.028431 0.291667
0.000429 0.067341 0.065625
0.098598 0.094232 0.075888
0.281005 0.111121 0.068076
0.466758 0.124065 0.050207
0.622733 0.137929 0.039920
0.755814 0.148966 0.055063
0.881985 0.169761 0.081541
0.995963 0.176693 0.145971
1.000000 0.189216 0.248223
0.000000 0.226103 0.039583
0.027145 0.255989 0.032415
0.273897 0.274203 0.014890
0.450245 0.282859 0.000858
0.600306 0.299387 0.005637
0.734620 0.317218 0.009758
0.861520 0.327512 0.028983
0.994899 0.337515 0.099219
1.000000 0.345466 0.175858
0.000000 0.385478 0.002573
0.000000 0.395588 0.000000
0.224005 0.412041 0.003616
0.409114 0.422066 0.000000
0.570405 0.428523 0.000000
0.711665 0.443635 0.000000
0.849556 0.449448 0.001072
0.996407 0.455867 0.049855
1.000000 0.458517 0.166483
0.000000 0.500490 0.000000
0.000000 0.509835 0.000000
0.123407 0.528677 0.000000
0.372519 0.537868 0.000000
0.550367 0.544240 0.000000
0.693046 0.558241 0.000000
0.835111 0.563235 0.000000
0.996568 0.563388 0.021967
1.000000 0.553922 0.153186
0.000000 0.600980 0.000000
0.000000 0.616743 0.000000
0.038741 0.626302 0.000000
0.328791 0.637814 0.000000
0.511611 0.649265 0.000000
0.670948 0.655339 0.000000
0.822074 0.661734 0.000000
0.996836 0.666322 0.002842
1.000000 0.665564 0.105576
0.000000 0.690196 0.000000
0.000000 0.703967 0.000000
0.000000 0.728247 0.000000
0.252206 0.741897 0.000000
0.463541 0.761826 0.000000
0.636075 0.770925 0.000000
0.811826 0.773407 0.000000
0.996354 0.776654 0.000000
0.996936 0.759804 0.046691
0.000000 0.798039 0.000000
0.000000 0.821193 0.000000
0.000000 0.852451 0.000000
0.004596 0.881005 0.000000
0.319822 0.901807 0.000490
0.546837 0.922526 0.000000
0.774019 0.932506 0.000000
0.989215 0.936159 0.002681
0.999571 0.933946 0.004412
0.000000 0.945588 0.000000
0.000000 0.980821 0.003922
0.000000 0.996078 0.000000
0.001471 1.000000 0.000000
0.081863 1.000000 0.002206
0.494240 0.997855 0.000000
0.752819 0.999019 0.000000
0.982353 1.000000 0.000490
1.000000 1.000000 0.011765
0.003922 0.003922 0.175490
0.079534 0.006863 0.209804
0.250000 0.012745 0.235294
0.440196 0.016054 0.252574
0.605882 0.013725 0.267647
0.759804 0.014216 0.296323
0.893872 0.015686 0.315686
1.000000 0.015809 0.351226
1.000000 0.024510 0.419607
0.000490 0.058701 0.209559
0.087316 0.080055 0.237806
0.269363 0.097671 0.254810
0.456465 0.106955 0.264047
0.608333 0.121630 0.263174
0.745419 0.145496 0.255668
0.872120 0.153431 0.264491
0.996078 0.172427 0.307996
0.996078 0.185049 0.375000
0.000000 0.221814 0.215686
0.019210 0.243995 0.220833
0.246568 0.257108 0.238297
0.434375 0.269087 0.219087
0.578064 0.288480 0.226961
0.717402 0.300582 0.216575
0.854596 0.318811 0.236826
0.998713 0.329381 0.278462
1.000000 0.332598 0.322059
0.000000 0.373039 0.215196
0.000000 0.380377 0.201256
0.216084 0.395190 0.210172
0.390457 0.411106 0.194853
0.552022 0.420895 0.189032
0.703094 0.432215 0.190487
0.841422 0.443290 0.196753
0.996568 0.445695 0.247963
1.000000 0.451471 0.303186
0.000000 0.488725 0.183823
0.000000 0.503738 0.171630
0.124755 0.516299 0.174265
0.365441 0.522978 0.162071
0.534559 0.534559 0.153186
0.679534 0.546997 0.158088
0.826103 0.555515 0.183088
0.997855 0.557292 0.217586
1.000000 0.559804 0.290196
0.000000 0.588726 0.144731
0.000000 0.604948 0.143735
0.022396 0.616697 0.134069
0.320849 0.636704 0.129289
0.499020 0.643873 0.113174
0.663557 0.653630 0.138909
0.819393 0.660846 0.154473
0.995465 0.658456 0.191835
1.000000 0.661765 0.257843
0.000000 0.685539 0.131863
0.000000 0.705392 0.115227
0.000000 0.723775 0.109804
0.229381 0.741054 0.077819
0.450490 0.753677 0.069975
0.625092 0.766238 0.062439
0.800858 0.772426 0.093689
0.999019 0.778769 0.134252
0.996078 0.772304 0.226961
0.000000 0.793750 0.082476
0.000000 0.829136 0.056541
0.000000 0.864951 0.030208
0.001609 0.879151 0.007200
0.268137 0.915808 0.003922
0.522396 0.928615 0.000843
0.751072 0.936060 0.002911
0.981388 0.935401 0.006388
0.999510 0.935171 0.113235
0.000000 0.958823 0.006863
0.000000 0.994362 0.000000
0.000000 1.000000 0.000735
0.000000 1.000000 0.000000
0.064215 1.000000 0.001961
0.474020 1.000000 0.003922
0.730392 0.997059 0.000000
0.974142 1.000000 0.004780
0.999019 1.000000 0.033333
0.007843 0.000000 0.329902
0.078921 0.000000 0.363542
0.238725 0.007475 0.401348
0.433762 0.004841 0.446569
0.596814 0.003922 0.467157
0.750429 0.002451 0.477390
0.880147 0.003922 0.483211
0.996384 0.007353 0.510049
0.997549 0.015686 0.543137
0.001471 0.060784 0.370772
0.090127 0.076018 0.400674
0.269929 0.079917 0.438940
0.444424 0.081702 0.451854
0.600184 0.101195 0.452635
0.736589 0.115855 0.454910
0.865977 0.133471 0.447702
0.996239 0.156066 0.461749
0.996078 0.177819 0.487684
0.000000 0.211887 0.400980
0.009758 0.228447 0.408042
0.258119 0.243444 0.425674
0.426195 0.262806 0.412960
0.569853 0.274081 0.412623
0.707767 0.290242 0.397963
0.847273 0.307414 0.403309
0.993015 0.313434 0.410861
1.000000 0.320833 0.445465
0.000000 0.363909 0.382659
0.000115 0.376838 0.372465
0.198667 0.386642 0.385968
0.379940 0.398958 0.373223
0.538971 0.404963 0.377451
0.684865 0.423652 0.366690
0.830683 0.434191 0.366146
0.996568 0.440924 0.386826
1.000000 0.444669 0.426042
0.000000 0.479657 0.358824
0.000000 0.490625 0.357046
0.114644 0.509988 0.354167
0.361734 0.517463 0.351808
0.526715 0.530392 0.339461
0.672335 0.537040 0.344117
0.819914 0.546140 0.344791
0.996568 0.547794 0.364798
1.000000 0.553431 0.399020
0.000000 0.584804 0.322059
0.000000 0.594792 0.335148
0.036673 0.616284 0.332889
0.306625 0.624227 0.318918
0.498254 0.635754 0.316238
0.652229 0.647005 0.313029
0.811826 0.649939 0.318643
0.996568 0.659605 0.330898
1.000000 0.661703 0.378431
0.000000 0.683456 0.315441
0.000000 0.702849 0.320251
0.000000 0.717923 0.302788
0.222978 0.740947 0.288603
0.442034 0.753615 0.276900
0.616988 0.763695 0.266467
0.798346 0.773682 0.275919
0.995588 0.774219 0.282200
0.997916 0.766544 0.337255
0.000000 0.794914 0.291850
0.000000 0.831771 0.275659
0.000000 0.863741 0.243934
0.000115 0.892731 0.210624
0.250705 0.914951 0.180852
0.512546 0.929948 0.157889
0.739277 0.942693 0.152129
0.975751 0.938136 0.178370
0.999510 0.937867 0.274264
0.000000 0.970098 0.197549
0.000000 0.991667 0.178309
0.000000 1.000000 0.153063
0.000000 1.000000 0.118199
0.020343 0.999265 0.108333
0.444914 0.997549 0.099019
0.709804 0.999632 0.095098
0.960784 1.000000 0.140073
1.000000 1.000000 0.179412
0.013725 0.000000 0.484314
0.068872 0.000000 0.513480
0.237745 0.000000 0.568137
0.422549 0.000000 0.600490
0.590196 0.000000 0.617647
0.746324 0.000000 0.633823
0.872059 0.000000 0.633333
1.000000 0.003922 0.645344
0.996078 0.011765 0.662745
0.000490 0.052451 0.507598
0.083640 0.050796 0.554871
0.259804 0.065196 0.586336
0.439522 0.061857 0.608456
0.592525 0.073407 0.613603
0.728768 0.093137 0.601624
0.861765 0.118689 0.590319
0.996292 0.138480 0.592739
0.997794 0.165686 0.601471
0.000000 0.204902 0.545098
0.010417 0.223530 0.571875
0.240564 0.235907 0.572181
0.414706 0.244179 0.566115
0.565196 0.253677 0.568137
0.706740 0.271385 0.555208
0.837255 0.288603 0.543750
0.993505 0.303493 0.541299
1.000000 0.319118 0.556862
0.000000 0.350245 0.526715
0.000000 0.367310 0.532445
0.191850 0.376348 0.533946
0.386734 0.386581 0.528431
0.538358 0.402206 0.522794
0.682414 0.414093 0.527512
0.821936 0.422855 0.519240
0.993290 0.425092 0.523346
1.000000 0.436029 0.534804
0.000000 0.470588 0.501961
0.000000 0.484069 0.509681
0.105392 0.501961 0.506373
0.355024 0.510172 0.503677
0.522059 0.522059 0.500000
0.663726 0.531863 0.500858
0.812745 0.540441 0.496814
0.993995 0.541667 0.491422
1.000000 0.549019 0.515686
0.000000 0.578922 0.478432
0.000000 0.595895 0.485539
0.022365 0.608946 0.486213
0.309436 0.621906 0.487041
0.491299 0.631005 0.477696
0.641759 0.641483 0.465502
0.802512 0.650245 0.471262
0.994638 0.652175 0.470772
1.000000 0.629412 0.501716
0.000000 0.683333 0.465196
0.000000 0.700551 0.470037
0.000000 0.718627 0.462378
0.209068 0.737929 0.454780
0.435294 0.748284 0.438971
0.606556 0.762255 0.432292
0.787745 0.767525 0.432475
0.984436 0.767831 0.418015
0.996078 0.775980 0.452941
0.000000 0.802941 0.448529
0.000000 0.840717 0.432445
0.000000 0.867341 0.400980
0.000000 0.891269 0.380177
0.229657 0.912867 0.365073
0.492892 0.931373 0.347304
0.724142 0.935294 0.329412
0.962561 0.943137 0.341299
0.996078 0.939706 0.406373
0.000000 0.970588 0.380392
0.000000 0.992157 0.363481
0.000000 1.000000 0.352451
0.000000 1.000000 0.324755
0.008823 1.000000 0.315686
0.430392 1.000000 0.305147
0.697549 1.000000 0.300980
0.954412 1.000000 0.308334
1.000000 1.000000 0.343137
0.005392 0.000000 0.640196
0.063909 0.000000 0.642953
0.225613 0.000000 0.693750
0.414338 0.000000 0.735355
0.581618 0.000000 0.758823
0.739216 0.000000 0.775674
0.868382 0.000000 0.777818
0.997855 0.000490 0.769914
0.996078 0.007843 0.778431
0.006863 0.039890 0.650184
0.078692 0.045956 0.685884
0.248943 0.042065 0.722059
0.437676 0.043283 0.749142
0.584068 0.052022 0.765074
0.726762 0.068375 0.751907
0.851854 0.101486 0.735922
0.996407 0.130093 0.716146
0.992157 0.152941 0.707904
0.000000 0.200245 0.668627
0.003539 0.208686 0.704289
0.231985 0.222733 0.711244
0.417249 0.224770 0.724127
0.562316 0.238358 0.705331
0.700889 0.260616 0.696507
0.824081 0.273193 0.676287
0.994592 0.294363 0.675154
1.000000 0.309436 0.674510
0.000000 0.342218 0.654963
0.000000 0.360784 0.664905
0.184436 0.370083 0.671477
0.389530 0.376846 0.673200
0.540594 0.385294 0.674387
0.680484 0.403408 0.664093
0.821232 0.411244 0.653048
0.991038 0.420826 0.644171
1.000000 0.436397 0.649020
0.000000 0.464216 0.644363
0.000000 0.482353 0.646538
0.113664 0.499326 0.656434
0.354657 0.504963 0.652788
0.519853 0.512623 0.647917
0.661795 0.522304 0.643934
0.807353 0.528064 0.638051
0.993781 0.534375 0.620650
1.000000 0.545588 0.623039
0.000000 0.576961 0.625061
0.000000 0.589101 0.632705
0.051961 0.605882 0.636979
0.322664 0.613197 0.633969
0.491973 0.619516 0.621140
0.632606 0.636336 0.604910
0.786198 0.643290 0.598729
0.992165 0.645902 0.597932
1.000000 0.648468 0.602573
0.000000 0.681372 0.611275
0.000000 0.700490 0.620159
0.000000 0.714583 0.606679
0.210600 0.735187 0.601256
0.440441 0.740748 0.592525
0.599678 0.753186 0.577619
0.772304 0.763143 0.566973
0.973683 0.762010 0.546859
0.997916 0.780393 0.582108
0.000000 0.801532 0.580698
0.000000 0.836443 0.571438
0.000000 0.861137 0.558778
0.000000 0.891246 0.538718
0.221691 0.911856 0.523437
0.480515 0.926279 0.504550
0.708548 0.934574 0.492770
0.956396 0.934720 0.493122
1.000000 0.938235 0.533640
0.000000 0.977941 0.527451
0.000000 0.994301 0.521568
0.000000 1.000000 0.508824
0.001471 0.998468 0.506863
0.000735 0.997549 0.495098
0.404902 1.000000 0.486703
0.685049 0.997549 0.480147
0.936090 1.000000 0.475307
1.000000 1.000000 0.481863
0.003922 0.000000 0.758824
0.066544 0.000000 0.753554
0.217647 0.000000 0.809804
0.413113 0.000000 0.862255
0.579412 0.000000 0.898530
0.730270 0.000000 0.908456
0.862500 0.000000 0.903431
0.997059 0.000000 0.887500
0.999019 0.000000 0.894118
0.001716 0.022549 0.784927
0.076164 0.036183 0.809375
0.247212 0.030883 0.859283
0.431832 0.027359 0.890794
0.583885 0.031250 0.897856
0.721384 0.055867 0.881128
0.853186 0.081005 0.858486
0.989215 0.108579 0.842555
1.000000 0.150368 0.828554
0.000000 0.154902 0.843382
0.003523 0.202941 0.828768
0.240809 0.203615 0.857782
0.414492 0.215441 0.851777
0.559926 0.227696 0.841299
0.699357 0.244975 0.826930
0.823958 0.258334 0.810784
0.992157 0.286121 0.799785
1.000000 0.307108 0.795343
0.000000 0.328921 0.808333
0.000000 0.348530 0.798070
0.194332 0.365901 0.800888
0.392816 0.370144 0.812561
0.542953 0.379167 0.811949
0.678815 0.388128 0.802666
0.817402 0.401624 0.788113
0.987071 0.410677 0.771262
1.000000 0.425490 0.767157
0.000000 0.458823 0.769117
0.000000 0.475368 0.773346
0.135907 0.486765 0.779534
0.367096 0.499448 0.780699
0.520833 0.504902 0.786275
0.659620 0.515686 0.782475
0.802083 0.520833 0.777206
0.988787 0.527880 0.759436
1.000000 0.532843 0.749510
0.000000 0.573775 0.753554
0.000000 0.582828 0.762959
0.064583 0.603554 0.770558
0.318903 0.612117 0.765288
0.491850 0.619853 0.767647
0.636152 0.627298 0.766483
0.783364 0.630423 0.758027
0.982215 0.634375 0.744837
1.000000 0.642647 0.737867
0.000000 0.676716 0.737500
0.000000 0.691759 0.757231
0.000000 0.710110 0.748774
0.229534 0.726011 0.752451
0.440564 0.734926 0.743260
0.594577 0.743443 0.740472
0.759253 0.745282 0.728677
0.971354 0.762408 0.714798
0.997059 0.765686 0.717647
0.000000 0.803309 0.730515
0.000000 0.827359 0.725153
0.000000 0.856801 0.727850
0.000000 0.877757 0.719363
0.212745 0.899020 0.715135
0.470129 0.916176 0.695680
0.690472 0.917800 0.680944
0.934543 0.921706 0.674908
0.996568 0.911274 0.664706
0.000000 0.976471 0.690196
0.000000 0.995098 0.706250
0.000000 0.997059 0.695343
0.000000 0.999387 0.705882
0.003921 0.996078 0.698039
0.384804 1.000000 0.694363
0.673774 1.000000 0.691177
0.917402 1.000000 0.679902
1.000000 1.000000 0.667647
0.011765 0.000000 0.799020
0.084437 0.000000 0.850061
0.222672 0.000000 0.923039
0.414522 0.000000 0.985111
0.584068 0.000000 0.999755
0.723713 0.000000 1.000000
0.851593 0.000000 0.995710
0.992708 0.000000 0.996078
0.996078 0.000000 0.996078
0.012561 0.018137 0.902206
0.092272 0.018681 0.936765
0.244577 0.018628 0.981434
0.434903 0.017823 0.996078
0.586489 0.026593 0.996323
0.715648 0.038021 0.996116
0.843873 0.066177 0.992004
0.989591 0.097511 0.979182
1.000000 0.127390 0.970220
0.000000 0.181863 0.959804
0.023851 0.180668 0.963250
0.248713 0.186428 0.978922
0.424694 0.198866 0.980071
0.562010 0.210294 0.981924
0.692663 0.232874 0.963021
0.824755 0.248223 0.956832
0.988679 0.266743 0.948683
1.000000 0.285539 0.936274
0.000000 0.331189 0.939706
0.000000 0.339560 0.933969
0.230147 0.353493 0.944516
0.408609 0.358930 0.951746
0.552481 0.363480 0.957353
0.685348 0.377650 0.957353
0.814246 0.387883 0.953508
0.986910 0.402949 0.927489
1.000000 0.415073 0.911458
0.000000 0.452696 0.917647
0.000000 0.468321 0.902022
0.197487 0.480270 0.924755
0.381158 0.493076 0.924694
0.527573 0.496936 0.939338
0.661305 0.500521 0.954596
0.795895 0.503186 0.943076
0.980147 0.512224 0.927543
1.000000 0.523284 0.911274
0.000000 0.561765 0.887868
0.000000 0.581947 0.906763
0.135830 0.596278 0.918597
0.358762 0.601716 0.928684
0.501961 0.604259 0.950031
0.633847 0.608709 0.952474
0.783088 0.613526 0.952482
0.977245 0.622672 0.932353
1.000000 0.635294 0.925551
0.000000 0.673162 0.895221
0.000000 0.682996 0.916038
0.024663 0.701654 0.932843
0.284176 0.712286 0.943811
0.450981 0.721201 0.943689
0.593045 0.728477 0.954289
0.756250 0.734804 0.958180
0.964736 0.745910 0.941130
0.999019 0.745588 0.938603
0.000000 0.792095 0.893137
0.000000 0.821584 0.926823
0.002574 0.844301 0.942325
0.000827 0.861543 0.943053
0.274939 0.885018 0.943137
0.487461 0.897304 0.941659
0.691560 0.906618 0.924556
0.918421 0.918796 0.900168
0.996078 0.891728 0.862317
0.000000 0.968137 0.905883
0.000000 0.987806 0.937132
0.000000 0.999877 0.938358
0.000000 0.998223 0.953922
0.000245 0.999510 0.944118
0.380882 0.997855 0.936397
0.644976 1.000000 0.916176
0.878309 1.000000 0.886703
1.000000 1.000000 0.869118
0.019608 0.003922 0.764706
0.108333 0.000000 0.874020
0.235294 0.000000 0.938235
0.417157 0.000000 0.996078
0.590197 0.000000 0.996078
0.723529 0.000000 0.998529
0.843137 0.000000 0.996078
0.985784 0.000000 0.996568
1.000000 0.000000 0.996078
0.000000 0.015196 0.919608
0.119669 0.018689 0.989706
0.261642 0.018628 0.998652
0.449510 0.014522 0.999510
0.592157 0.014951 1.000000
0.725858 0.023529 0.996078
0.833701 0.038358 1.000000
0.967708 0.076348 0.996078
1.000000 0.102941 1.000000
0.000000 0.165686 1.000000
0.094608 0.164216 0.999877
0.276471 0.176471 1.000000
0.435662 0.180147 0.997549
0.566176 0.199510 0.998039
0.698529 0.211764 0.999019
0.825490 0.231127 1.000000
0.977206 0.250981 1.000000
1.000000 0.261765 1.000000
0.000000 0.270098 0.996078
0.039400 0.326593 1.000000
0.264338 0.332108 1.000000
0.428554 0.346140 1.000000
0.554412 0.350980 1.000000
0.692157 0.351164 1.000000
0.813848 0.362745 1.000000
0.979718 0.376655 1.000000
1.000000 0.396569 1.000000
0.000000 0.441176 1.000000
0.019853 0.454902 1.000000
0.250981 0.469608 1.000000
0.414706 0.471078 1.000000
0.546078 0.479412 1.000000
0.673284 0.482843 1.000000
0.803431 0.485784 1.000000
0.980147 0.494608 1.000000
1.000000 0.505882 1.000000
0.000000 0.550980 0.997549
0.015074 0.569792 1.000000
0.219240 0.580515 1.000000
0.386275 0.583272 1.000000
0.525490 0.589461 1.000000
0.647488 0.596569 1.000000
0.783578 0.597549 1.000000
0.970772 0.603554 1.000000
1.000000 0.587745 1.000000
0.000000 0.658824 1.000000
0.000000 0.678432 1.000000
0.138481 0.697059 1.000000
0.333578 0.701348 1.000000
0.481863 0.709314 1.000000
0.616790 0.713971 0.997549
0.767157 0.721814 0.996078
0.970955 0.729166 0.996078
0.996078 0.741176 0.996078
0.000000 0.790686 0.996568
0.000000 0.817647 0.999510
0.005147 0.826715 0.995955
0.184865 0.843750 1.000000
0.344853 0.873529 0.998039
0.525061 0.888236 1.000000
0.711887 0.887010 0.996078
0.915257 0.884743 0.999081
1.000000 0.884804 0.995588
0.000000 0.960784 0.996078
0.000000 0.976471 0.996568
0.000000 0.980392 0.997059
0.002451 0.994608 0.992157
0.047059 0.994117 1.000000
0.410294 0.992157 1.000000
0.632353 1.000000 1.000000
0.853921 1.000000 1.000000
0.992157 0.996078 1.000000
