calib/LUT LIBRARY/velvia_composed.cube
TITLE "Chromasmith composed - velvia"
#STD_q(x) = VLOG_q(T(x)), T from astia/velvia/classic_neg matched pairs
LUT_3D_SIZE 5
0.006787 0.005964 0.005686
0.273592 0.014094 0.007032
0.606019 0.066801 0.000099
0.859723 0.069312 0.011318
0.999782 0.058301 0.313139
0.000272 0.192614 0.000736
0.270330 0.263745 0.000284
0.597195 0.321443 0.000145
0.864853 0.374080 0.000893
0.999088 0.407510 0.201307
0.000093 0.472433 0.000264
0.122517 0.531145 0.000295
0.541025 0.560739 0.000068
0.866495 0.574961 0.000011
0.999208 0.553236 0.250882
0.000194 0.696343 0.000339
0.000068 0.725458 0.000492
0.460500 0.740529 0.000222
0.800092 0.760833 0.000040
0.999484 0.776221 0.199009
0.000064 0.914628 0.000455
0.000026 0.993451 0.000410
0.423334 0.984818 0.000394
0.706980 0.994833 0.000227
0.999031 0.997705 0.029211
0.001040 0.001879 0.173632
0.278683 0.011204 0.229365
0.605407 0.044071 0.270022
0.871018 0.058473 0.323746
0.999813 0.017369 0.560097
0.000112 0.213949 0.206786
0.250598 0.257450 0.249016
0.573156 0.302857 0.232184
0.856130 0.345501 0.283213
0.999650 0.414266 0.371233
0.000058 0.476148 0.170777
0.139593 0.516432 0.176995
0.530417 0.533857 0.223764
0.793959 0.575149 0.217339
0.999523 0.556164 0.410422
0.000057 0.667062 0.113093
0.000212 0.728739 0.117190
0.418499 0.761935 0.110080
0.793039 0.775126 0.146869
0.999346 0.779312 0.390141
0.000001 0.934331 0.058334
0.000066 0.999934 0.029964
0.000000 1.000000 0.000290
0.552538 0.999685 0.000477
0.999190 0.999373 0.044353
0.001218 0.000941 0.478836
0.262604 0.000150 0.537847
0.592103 0.007009 0.607539
0.868949 0.045497 0.617754
0.999799 0.061419 0.703627
0.000458 0.198014 0.527372
0.245936 0.244166 0.548785
0.560341 0.273537 0.554743
0.805725 0.361652 0.534066
0.999759 0.347969 0.583709
0.000280 0.454569 0.484109
0.129374 0.509544 0.497120
0.516603 0.522693 0.500640
0.771135 0.554706 0.507154
0.999606 0.570159 0.564363
0.000082 0.680604 0.450942
0.000135 0.731318 0.455184
0.415670 0.747912 0.432148
0.768212 0.772665 0.439378
0.999648 0.774771 0.509043
0.000270 0.945966 0.346343
0.000088 0.984546 0.312449
0.000128 0.999719 0.238272
0.455401 0.999722 0.173900
0.999513 0.999753 0.364368
0.008172 0.016403 0.795551
0.279402 0.000209 0.820031
0.594491 0.000103 0.889537
0.866888 0.020081 0.852473
0.999764 0.047936 0.902595
0.000515 0.190568 0.790185
0.270714 0.209365 0.784380
0.552034 0.254988 0.776492
0.825269 0.322806 0.779414
0.999765 0.327226 0.774360
0.000479 0.480592 0.749662
0.196420 0.490316 0.761237
0.515493 0.504502 0.777269
0.785146 0.536087 0.767263
0.999696 0.529128 0.756142
0.000320 0.660736 0.723015
0.004285 0.744811 0.716771
0.414456 0.734340 0.731967
0.758132 0.750807 0.731380
0.999617 0.782724 0.744291
0.000059 0.929868 0.667726
0.000340 0.955338 0.660130
0.000143 0.999848 0.632597
0.626980 0.999478 0.643317
0.999636 0.999656 0.622907
0.073214 0.000205 0.859437
0.432882 0.000184 0.982726
0.695128 0.000106 0.999694
0.876054 0.021689 0.999518
0.999866 0.216528 0.908475
0.054231 0.083381 0.983053
0.326803 0.133111 0.999344
0.619772 0.249183 0.999760
0.839983 0.334659 0.999585
0.999623 0.345492 0.991753
0.000425 0.522188 0.997356
0.468489 0.339756 0.999779
0.687774 0.190840 0.999354
0.812784 0.483119 0.999703
0.999832 0.570274 0.995671
0.000423 0.704249 0.977727
0.070557 0.684122 0.999863
0.481473 0.719359 0.999680
0.830403 0.672096 0.999490
0.999782 0.715452 0.999338
0.000096 0.999648 0.566040
0.000177 0.885478 0.999895
0.342251 0.946383 0.999752
0.711540 0.969118 0.999740
0.994198 0.998030 0.987480
