calib/LUT LIBRARY/velvia.cube
#Generated with Fujify color engine
#Website: https://fujify.me
#LUMIXPHOTOSTYLE STD
LUT_3D_SIZE 5
0.003922 0.000000 0.000000
0.256863 0.016667 0.008823
0.621568 0.023529 0.007843
0.907843 0.023529 0.022549
0.996078 0.039216 0.211765
0.000000 0.233334 0.000000
0.289951 0.272304 0.000000
0.613725 0.308333 0.000000
0.874019 0.337990 0.000000
1.000000 0.356862 0.051960
0.000000 0.503922 0.000000
0.155392 0.537745 0.000000
0.560784 0.554902 0.000000
0.839215 0.569118 0.000000
1.000000 0.576470 0.007843
0.000000 0.701960 0.000000
0.000000 0.723530 0.000000
0.476961 0.759314 0.000000
0.820098 0.771323 0.000000
0.996078 0.758824 0.000000
0.000000 0.937255 0.000000
0.000000 1.000000 0.000000
0.123529 1.000000 0.003922
0.764706 0.997059 0.000000
1.000000 1.000000 0.007843
0.003922 0.003922 0.175490
0.250000 0.012745 0.235294
0.605882 0.013725 0.267647
0.893872 0.015686 0.315686
1.000000 0.024510 0.419607
0.000000 0.221814 0.215686
0.246568 0.257108 0.238297
0.578064 0.288480 0.226961
0.854596 0.318811 0.236826
1.000000 0.332598 0.322059
0.000000 0.488725 0.183823
0.124755 0.516299 0.174265
0.534559 0.534559 0.153186
0.826103 0.555515 0.183088
1.000000 0.559804 0.290196
0.000000 0.685539 0.131863
0.000000 0.723775 0.109804
0.450490 0.753677 0.069975
0.800858 0.772426 0.093689
0.996078 0.772304 0.226961
0.000000 0.958823 0.006863
0.000000 1.000000 0.000735
0.064215 1.000000 0.001961
0.730392 0.997059 0.000000
0.999019 1.000000 0.033333
0.013725 0.000000 0.484314
0.237745 0.000000 0.568137
0.590196 0.000000 0.617647
0.872059 0.000000 0.633333
0.996078 0.011765 0.662745
0.000000 0.204902 0.545098
0.240564 0.235907 0.572181
0.565196 0.253677 0.568137
0.837255 0.288603 0.543750
1.000000 0.319118 0.556862
0.000000 0.470588 0.501961
0.105392 0.501961 0.506373
0.522059 0.522059 0.500000
0.812745 0.540441 0.496814
1.000000 0.549019 0.515686
0.000000 0.683333 0.465196
0.000000 0.718627 0.462378
0.435294 0.748284 0.438971
0.787745 0.767525 0.432475
0.996078 0.775980 0.452941
0.000000 0.970588 0.380392
0.000000 1.000000 0.352451
0.008823 1.000000 0.315686
0.697549 1.000000 0.300980
1.000000 1.000000 0.343137
0.003922 0.000000 0.758824
0.217647 0.000000 0.809804
0.579412 0.000000 0.898530
0.862500 0.000000 0.903431
0.999019 0.000000 0.894118
0.000000 0.154902 0.843382
0.240809 0.203615 0.857782
0.559926 0.227696 0.841299
0.823958 0.258334 0.810784
1.000000 0.307108 0.795343
0.000000 0.458823 0.769117
0.135907 0.486765 0.779534
0.520833 0.504902 0.786275
0.802083 0.520833 0.777206
1.000000 0.532843 0.749510
0.000000 0.676716 0.737500
0.000000 0.710110 0.748774
0.440564 0.734926 0.743260
0.759253 0.745282 0.728677
0.997059 0.765686 0.717647
0.000000 0.976471 0.690196
0.000000 0.997059 0.695343
0.003921 0.996078 0.698039
0.673774 1.000000 0.691177
1.000000 1.000000 0.667647
0.019608 0.003922 0.764706
0.235294 0.000000 0.938235
0.590197 0.000000 0.996078
0.843137 0.000000 0.996078
1.000000 0.000000 0.996078
0.000000 0.165686 1.000000
0.276471 0.176471 1.000000
0.566176 0.199510 0.998039
0.825490 0.231127 1.000000
1.000000 0.261765 1.000000
0.000000 0.441176 1.000000
0.250981 0.469608 1.000000
0.546078 0.479412 1.000000
0.803431 0.485784 1.000000
1.000000 0.505882 1.000000
0.000000 0.658824 1.000000
0.138481 0.697059 1.000000
0.481863 0.709314 1.000000
0.767157 0.721814 0.996078
0.996078 0.741176 0.996078
0.000000 0.960784 0.996078
0.000000 0.980392 0.997059
0.047059 0.994117 1.000000
0.632353 1.000000 1.000000
0.992157 0.996078 1.000000
