calib/LUT LIBRARY/velvia_composed.cube
TITLE "Chromasmith composed - velvia"
#STD_q(x) = VLOG_q(T(x)), T from astia/velvia/classic_neg matched pairs
LUT_3D_SIZE 9
0.006787 0.005964 0.005686
0.078828 0.010097 0.012295
0.273592 0.014094 0.007032
0.453043 0.049875 0.000199
0.606019 0.066801 0.000099
0.739780 0.069720 0.000493
0.859723 0.069312 0.011318
0.964588 0.088182 0.059920
0.999782 0.058301 0.313139
0.002415 0.049971 0.006925
0.087444 0.083527 0.000654
0.282915 0.114500 0.000145
0.452713 0.138251 0.000131
0.607854 0.172174 0.000091
0.738869 0.215791 0.000119
0.863740 0.232698 0.006322
0.993807 0.238121 0.087892
0.999368 0.240087 0.254326
0.000272 0.192614 0.000736
0.050112 0.249975 0.001164
0.270330 0.263745 0.000284
0.450191 0.298904 0.000210
0.597195 0.321443 0.000145
0.730926 0.356007 0.000045
0.864853 0.374080 0.000893
0.975396 0.363937 0.093944
0.999088 0.407510 0.201307
0.000074 0.408968 0.002359
0.004469 0.393628 0.000130
0.199018 0.410337 0.000400
0.422975 0.425180 0.000032
0.572675 0.448404 0.000051
0.710325 0.467472 0.000134
0.878286 0.484158 0.000074
0.984322 0.492828 0.047293
0.999054 0.461026 0.291953
0.000093 0.472433 0.000264
0.000063 0.538765 0.000193
0.122517 0.531145 0.000295
0.361072 0.545582 0.000045
0.541025 0.560739 0.000068
0.703505 0.565131 0.000051
0.866495 0.574961 0.000011
0.999759 0.578054 0.289458
0.999208 0.553236 0.250882
0.000057 0.597981 0.000572
0.000094 0.624844 0.000366
0.162470 0.628013 0.000253
0.295287 0.651491 0.000063
0.515482 0.648545 0.000115
0.692052 0.651572 0.000004
0.831429 0.665142 0.000022
0.999298 0.693933 0.093398
0.999175 0.669709 0.240976
0.000194 0.696343 0.000339
0.000084 0.717220 0.000242
0.000068 0.725458 0.000492
0.220980 0.755733 0.000106
0.460500 0.740529 0.000222
0.650522 0.750751 0.000058
0.800092 0.760833 0.000040
0.989990 0.802664 0.009400
0.999484 0.776221 0.199009
0.000101 0.820748 0.000357
0.000028 0.864875 0.000207
0.000054 0.835012 0.000228
0.225599 0.841963 0.000371
0.352605 0.879957 0.000203
0.544499 0.889198 0.000035
0.741117 0.893827 0.000035
0.986865 0.910964 0.010384
0.999203 0.953438 0.111516
0.000064 0.914628 0.000455
0.000037 0.939165 0.000599
0.000026 0.993451 0.000410
0.000004 0.999022 0.000307
0.423334 0.984818 0.000394
0.662747 0.956866 0.000091
0.706980 0.994833 0.000227
0.811963 0.998718 0.000118
0.999031 0.997705 0.029211
0.004517 0.004144 0.056735
0.084585 0.010036 0.059396
0.270234 0.013796 0.083214
0.463546 0.040306 0.068530
0.619606 0.062260 0.062549
0.733897 0.067065 0.099881
0.865780 0.075270 0.111619
0.995714 0.042384 0.257511
0.999613 0.059768 0.346701
0.003074 0.063886 0.064851
0.085090 0.082813 0.080628
0.269547 0.118327 0.071243
0.458029 0.133894 0.055145
0.602380 0.173094 0.048833
0.738211 0.201549 0.055791
0.862414 0.227096 0.117906
0.991816 0.223071 0.232367
0.999590 0.280323 0.327611
0.000185 0.186117 0.049266
0.050887 0.247242 0.058836
0.258920 0.265686 0.033298
0.431383 0.293687 0.025216
0.580364 0.312927 0.015169
0.713684 0.339691 0.052587
0.858875 0.356625 0.105021
0.983509 0.356289 0.207758
0.999538 0.389023 0.026086
0.000094 0.376802 0.024050
0.006332 0.389454 0.026221
0.206649 0.406310 0.005093
0.401910 0.421053 0.000216
0.564652 0.437659 0.007353
0.705183 0.454109 0.034139
0.839105 0.470772 0.087393
0.999341 0.488810 0.121540
0.999327 0.484084 0.392497
0.000164 0.438510 0.006316
0.000146 0.509991 0.022247
0.126042 0.537129 0.000299
0.348839 0.547319 0.000218
0.535320 0.558626 0.000174
0.685528 0.565040 0.010371
0.848748 0.566140 0.085745
0.999562 0.510992 0.452079
0.999464 0.539867 0.353387
0.000058 0.575020 0.002552
0.000066 0.648914 0.009481
0.074328 0.649225 0.000191
0.270505 0.660391 0.000172
0.486676 0.662582 0.000226
0.668855 0.669648 0.000130
0.791260 0.666526 0.053315
0.999446 0.645768 0.339394
0.999245 0.659326 0.264516
0.000062 0.679545 0.013280
0.000080 0.705781 0.000317
0.000013 0.747007 0.000144
0.201539 0.760102 0.000176
0.425954 0.759833 0.000186
0.626297 0.777004 0.000239
0.775003 0.782404 0.036711
0.949043 0.790574 0.056465
0.999285 0.764736 0.271734
0.000042 0.788543 0.005981
0.000145 0.839247 0.000463
0.000017 0.869619 0.000301
0.066782 0.887016 0.000470
0.312841 0.883360 0.000130
0.538953 0.887135 0.000094
0.748859 0.897862 0.004977
0.939426 0.910925 0.037616
0.999188 0.930542 0.239206
0.000134 0.927637 0.000414
0.000090 0.966409 0.000677
0.000000 0.997078 0.000320
0.002913 0.997844 0.000312
0.005284 0.999990 0.000314
0.000000 1.000000 0.000290
0.624683 0.998519 0.000247
0.863973 0.999603 0.028211
0.999227 0.999383 0.056021
0.001040 0.001879 0.173632
0.087377 0.005779 0.183985
0.278683 0.011204 0.229365
0.456497 0.022044 0.248564
0.605407 0.044071 0.270022
0.738795 0.054834 0.294856
0.871018 0.058473 0.323746
0.979163 0.067804 0.403572
0.999813 0.017369 0.560097
0.000371 0.050365 0.176515
0.090122 0.085688 0.223164
0.272779 0.108039 0.239714
0.454022 0.122743 0.257287
0.597325 0.156488 0.259656
0.732629 0.186749 0.269178
0.862456 0.210331 0.289062
0.980935 0.228118 0.374926
0.999493 0.213862 0.349142
0.000112 0.213949 0.206786
0.048555 0.238868 0.226236
0.250598 0.257450 0.249016
0.427862 0.274183 0.237489
0.573156 0.302857 0.232184
0.706028 0.328041 0.237861
0.856130 0.345501 0.283213
0.999854 0.308599 0.420217
0.999650 0.414266 0.371233
0.000137 0.363112 0.203923
0.010231 0.375523 0.197516
0.201803 0.396023 0.226042
0.387017 0.410385 0.211856
0.554993 0.422841 0.207199
0.698143 0.443915 0.214310
0.806797 0.463074 0.232669
0.999758 0.416929 0.503644
0.999653 0.460085 0.377473
0.000058 0.476148 0.170777
0.000116 0.511579 0.155949
0.139593 0.516432 0.176995
0.351785 0.522673 0.216910
0.530417 0.533857 0.223764
0.683984 0.551207 0.198140
0.793959 0.575149 0.217339
0.999588 0.537711 0.450396
0.999523 0.556164 0.410422
0.000071 0.577464 0.130509
0.000060 0.604639 0.123087
0.067556 0.631278 0.160803
0.291619 0.636666 0.163454
0.491251 0.643970 0.166025
0.662928 0.654210 0.173698
0.790871 0.658615 0.209125
0.999433 0.621347 0.460427
0.999277 0.667899 0.358402
0.000057 0.667062 0.113093
0.000113 0.685980 0.094319
0.000212 0.728739 0.117190
0.200920 0.749293 0.107371
0.418499 0.761935 0.110080
0.609819 0.776055 0.114173
0.793039 0.775126 0.146869
0.972486 0.783646 0.238206
0.999346 0.779312 0.390141
0.000074 0.786424 0.094424
0.000102 0.819770 0.081799
0.000019 0.835013 0.262784
0.177533 0.847508 0.124406
0.410713 0.853319 0.021710
0.619992 0.847503 0.049571
0.738142 0.904942 0.051998
0.917021 0.933205 0.062531
0.999322 0.943778 0.292521
0.000001 0.934331 0.058334
0.000063 0.971997 0.000355
0.000066 0.999934 0.029964
0.000000 1.000000 0.000290
0.000000 1.000000 0.000290
0.000785 0.999999 0.000290
0.552538 0.999685 0.000477
0.918593 0.999617 0.023257
0.999190 0.999373 0.044353
0.002580 0.005532 0.299975
0.095501 0.000651 0.336932
0.255415 0.006885 0.393072
0.440751 0.006628 0.434583
0.592880 0.013150 0.458526
0.731942 0.044707 0.469801
0.868139 0.043130 0.496875
0.968074 0.064839 0.490784
0.999841 0.017731 0.595998
0.000416 0.054309 0.327660
0.110513 0.098808 0.382476
0.270542 0.097997 0.430801
0.439688 0.111472 0.451996
0.588065 0.146130 0.433373
0.725755 0.171263 0.440934
0.863918 0.202711 0.440498
0.986296 0.219043 0.476519
0.999679 0.247689 0.508706
0.000283 0.204642 0.384481
0.017353 0.222478 0.378209
0.251575 0.249731 0.411743
0.421379 0.263533 0.413867
0.563751 0.288237 0.409442
0.705222 0.317597 0.406539
0.838933 0.344211 0.423681
0.994815 0.400945 0.363130
0.999702 0.397681 0.489851
0.000265 0.331984 0.351078
0.000217 0.357371 0.351958
0.183134 0.394298 0.381189
0.380179 0.398583 0.375155
0.542146 0.413194 0.382372
0.690255 0.435413 0.384995
0.762261 0.462151 0.378499
0.999609 0.495697 0.507902
0.999625 0.470370 0.532387
0.000233 0.446234 0.322413
0.000129 0.513231 0.323133
0.133208 0.513048 0.344725
0.345131 0.518891 0.349939
0.521438 0.530588 0.354489
0.677548 0.542205 0.364078
0.812343 0.558857 0.373352
0.999529 0.555507 0.524703
0.999469 0.551236 0.467251
0.000154 0.553424 0.280800
0.000184 0.589172 0.325020
0.086087 0.622232 0.318618
0.280051 0.630601 0.324937
0.489276 0.635580 0.323585
0.652961 0.648942 0.333854
0.768956 0.653388 0.349484
0.999321 0.638680 0.472469
0.999627 0.646556 0.493947
0.000124 0.669981 0.293308
0.000094 0.700893 0.314201
0.000170 0.719967 0.302559
0.188325 0.747326 0.286449
0.418140 0.753253 0.272379
0.604478 0.767890 0.271610
0.768232 0.778671 0.293036
0.959492 0.784335 0.336071
0.999500 0.769663 0.414504
0.000126 0.791096 0.235848
0.000080 0.830684 0.262563
0.000051 0.793741 0.260905
0.127233 0.861113 0.169625
0.391985 0.855853 0.227468
0.580955 0.865718 0.231691
0.739813 0.906322 0.242955
0.878994 0.927036 0.220757
0.999401 0.933578 0.415362
0.000041 0.948627 0.191969
0.000157 0.847920 0.307423
0.000060 0.995737 0.169829
0.000069 0.999774 0.113574
0.000000 0.999917 0.025571
0.001066 0.999959 0.006746
0.275130 0.999705 0.009445
0.868562 0.999585 0.106119
0.999191 0.999725 0.164862
0.001218 0.000941 0.478836
0.091469 0.003794 0.481629
0.262604 0.000150 0.537847
0.433880 0.000144 0.589152
0.592103 0.007009 0.607539
0.734152 0.015289 0.609582
0.868949 0.045497 0.617754
0.978498 0.042500 0.649232
0.999799 0.061419 0.703627
0.000344 0.047775 0.464984
0.091754 0.070738 0.526039
0.260560 0.086952 0.575978
0.436964 0.101258 0.594469
0.578261 0.138927 0.582085
0.722619 0.159583 0.577832
0.870817 0.187278 0.574637
0.974975 0.191640 0.592359
0.999799 0.199353 0.638158
0.000458 0.198014 0.527372
0.000288 0.202092 0.523722
0.245936 0.244166 0.548785
0.412218 0.249624 0.558439
0.560341 0.273537 0.554743
0.705262 0.302307 0.549668
0.805725 0.361652 0.534066
0.999720 0.378190 0.630680
0.999759 0.347969 0.583709
0.000365 0.356760 0.462106
0.000393 0.352009 0.515763
0.189409 0.382985 0.519510
0.379698 0.388298 0.527120
0.538055 0.407371 0.524330
0.689722 0.425363 0.526204
0.841300 0.444379 0.525199
0.999746 0.426553 0.585776
0.999665 0.469363 0.549846
0.000280 0.454569 0.484109
0.000288 0.474102 0.487544
0.129374 0.509544 0.497120
0.349027 0.509725 0.502874
0.516603 0.522693 0.500640
0.667509 0.536896 0.504340
0.771135 0.554706 0.507154
0.999387 0.521257 0.638942
0.999606 0.570159 0.564363
0.000264 0.540016 0.428022
0.000074 0.591136 0.473642
0.050668 0.624498 0.463948
0.274431 0.625605 0.477399
0.483096 0.631337 0.477436
0.644631 0.643596 0.477098
0.780249 0.659089 0.485173
0.999662 0.620492 0.593086
0.999635 0.616749 0.593125
0.000082 0.680604 0.450942
0.000136 0.697525 0.463692
0.000135 0.731318 0.455184
0.181985 0.745111 0.449173
0.415670 0.747912 0.432148
0.596832 0.762136 0.429182
0.768212 0.772665 0.439378
0.995775 0.785778 0.479651
0.999648 0.774771 0.509043
0.000160 0.793318 0.407076
0.000177 0.845757 0.432779
0.114022 0.796771 0.391848
0.162865 0.847320 0.315543
0.355830 0.872408 0.366544
0.579288 0.865991 0.379358
0.724936 0.929278 0.330364
0.818440 0.937411 0.383969
0.999654 0.925001 0.505081
0.000270 0.945966 0.346343
0.000280 0.952250 0.330133
0.000088 0.984546 0.312449
0.000157 0.999693 0.286543
0.000128 0.999719 0.238272
0.000000 0.999942 0.008394
0.455401 0.999722 0.173900
0.745282 0.999762 0.212244
0.999513 0.999753 0.364368
0.003980 0.006054 0.684165
0.103720 0.000097 0.622741
0.269075 0.000216 0.684551
0.437602 0.000106 0.724087
0.590194 0.001264 0.746783
0.729939 0.029450 0.724456
0.869619 0.041026 0.729957
0.999069 0.062963 0.727081
0.999859 0.028086 0.816718
0.000434 0.036650 0.609075
0.090553 0.054862 0.642565
0.255482 0.079244 0.700960
0.434971 0.096526 0.716028
0.573217 0.127514 0.712275
0.717834 0.149138 0.704164
0.864801 0.172764 0.699964
0.990721 0.188341 0.701072
0.999742 0.282591 0.681343
0.000505 0.195692 0.626574
0.000522 0.190078 0.655745
0.248759 0.235026 0.685945
0.410485 0.233542 0.698474
0.558313 0.259479 0.689524
0.699573 0.287773 0.677496
0.837239 0.330361 0.659261
0.999714 0.328882 0.670753
0.999926 0.378446 0.659957
0.000312 0.356783 0.592020
0.000388 0.356601 0.662389
0.212121 0.373490 0.659801
0.381043 0.378476 0.663359
0.537210 0.395293 0.662996
0.686959 0.414961 0.658165
0.788711 0.448198 0.640414
0.999514 0.402136 0.651008
0.999693 0.496307 0.638089
0.000217 0.465398 0.616364
0.000437 0.472108 0.633501
0.151642 0.502752 0.635643
0.349210 0.505272 0.640038
0.515228 0.513359 0.643169
0.661882 0.528084 0.639659
0.788162 0.542609 0.634670
0.999717 0.541131 0.630428
0.999528 0.544006 0.658445
0.000078 0.579877 0.615635
0.000314 0.586778 0.613918
0.031631 0.628225 0.604166
0.277304 0.620294 0.621909
0.481567 0.621358 0.619281
0.636873 0.635774 0.614511
0.756636 0.652855 0.605582
0.999551 0.636452 0.674047
0.999570 0.659341 0.593064
0.000246 0.663666 0.578789
0.000283 0.697259 0.616725
0.021123 0.738221 0.555191
0.177018 0.739412 0.594899
0.405707 0.746571 0.577834
0.588667 0.755398 0.580552
0.769271 0.766523 0.574700
0.937041 0.782984 0.585331
0.999478 0.771121 0.590706
0.000329 0.803850 0.574305
0.000160 0.833282 0.544617
0.000117 0.868209 0.564718
0.039215 0.843221 0.504993
0.356822 0.845535 0.536707
0.581671 0.854553 0.523165
0.713832 0.916364 0.504661
0.807127 0.930302 0.532999
0.999494 0.936801 0.533138
0.000059 0.948593 0.508342
0.000190 0.966641 0.511416
0.000135 0.988983 0.508303
0.000001 0.999572 0.502334
0.000079 0.999871 0.430266
0.044107 0.999794 0.245491
0.510247 0.999703 0.405572
0.760053 0.999733 0.372789
0.999474 0.999713 0.569596
0.008172 0.016403 0.795551
0.093475 0.000142 0.694705
0.279402 0.000209 0.820031
0.447530 0.000149 0.855205
0.594491 0.000103 0.889537
0.726487 0.000019 0.882641
0.866888 0.020081 0.852473
0.991326 0.039753 0.845146
0.999764 0.047936 0.902595
0.000919 0.032395 0.704186
0.064177 0.015698 0.741727
0.271383 0.073515 0.836586
0.426077 0.094001 0.843225
0.569525 0.121222 0.837161
0.710201 0.135474 0.827492
0.858493 0.167270 0.783455
0.999929 0.163549 0.823833
0.999604 0.286777 0.766133
0.000515 0.190568 0.790185
0.000499 0.188062 0.797515
0.270714 0.209365 0.784380
0.452945 0.222588 0.813847
0.552034 0.254988 0.776492
0.694772 0.283343 0.758167
0.825269 0.322806 0.779414
0.999660 0.414847 0.750156
0.999765 0.327226 0.774360
0.000595 0.323980 0.784995
0.000385 0.324680 0.770686
0.247108 0.368631 0.784508
0.383409 0.368412 0.767659
0.535106 0.390015 0.762143
0.683436 0.404804 0.782983
0.820255 0.420706 0.775989
0.999541 0.422640 0.743790
0.999589 0.457980 0.753659
0.000479 0.480592 0.749662
0.000604 0.458264 0.757346
0.196420 0.490316 0.761237
0.360368 0.501955 0.760924
0.515493 0.504502 0.777269
0.658761 0.517609 0.773867
0.785146 0.536087 0.767263
0.999628 0.586841 0.741663
0.999696 0.529128 0.756142
0.000360 0.567524 0.752330
0.000329 0.565683 0.727304
0.048955 0.613901 0.747410
0.285379 0.615695 0.745804
0.484595 0.619613 0.765278
0.635743 0.627823 0.762963
0.786054 0.640322 0.751575
0.999768 0.622897 0.770096
0.999642 0.657300 0.735011
0.000320 0.660736 0.723015
0.000086 0.689351 0.735429
0.004285 0.744811 0.716771
0.316368 0.721227 0.723225
0.414456 0.734340 0.731967
0.582511 0.742168 0.739262
0.758132 0.750807 0.731380
0.862173 0.777320 0.725706
0.999617 0.782724 0.744291
0.000364 0.800289 0.731840
0.000418 0.828749 0.729429
0.000170 0.860263 0.732971
0.153840 0.838309 0.644723
0.559575 0.721763 0.715669
0.640172 0.806434 0.743482
0.697285 0.911440 0.689520
0.818488 0.926318 0.684963
0.999403 0.925504 0.737446
0.000059 0.929868 0.667726
0.000245 0.963639 0.675647
0.000340 0.955338 0.660130
0.000240 0.998064 0.659498
0.000143 0.999848 0.632597
0.378670 0.999657 0.553501
0.626980 0.999478 0.643317
0.805577 0.999601 0.566243
0.999636 0.999656 0.622907
0.013118 0.002775 0.781591
0.057656 0.000197 0.795930
0.292697 0.000233 0.933900
0.452868 0.000155 0.976782
0.602300 0.000123 0.991245
0.718461 0.000118 0.984496
0.858464 0.005170 0.973639
0.982959 0.076997 0.937673
0.999788 0.128847 0.915975
0.012434 0.027963 0.856701
0.018975 0.040314 0.874096
0.249880 0.075654 0.923705
0.396571 0.111602 0.917298
0.616245 0.098918 0.927800
0.750296 0.120009 0.925666
0.864102 0.188777 0.898868
0.999844 0.144494 0.937856
0.999872 0.276189 0.827415
0.000658 0.167613 0.924804
0.000455 0.179388 0.936384
0.165005 0.219560 0.905480
0.466042 0.219619 0.874958
0.579171 0.284032 0.896943
0.729084 0.273631 0.884819
0.783398 0.375055 0.886781
0.999667 0.312155 0.837276
0.999499 0.291728 0.904798
0.000767 0.344379 0.930773
0.000510 0.315747 0.907455
0.149137 0.393034 0.894828
0.444742 0.350906 0.860947
0.590009 0.349111 0.866973
0.691491 0.420704 0.872489
0.924100 0.407292 0.877546
0.999711 0.426941 0.862670
0.999707 0.419371 0.918127
0.000474 0.450912 0.867615
0.000445 0.449512 0.873947
0.032277 0.527243 0.886725
0.388421 0.491543 0.860993
0.525211 0.512726 0.883082
0.677260 0.531474 0.867996
0.796725 0.531147 0.900824
0.999812 0.481466 0.920739
0.999718 0.519091 0.901744
0.000454 0.553501 0.846243
0.000306 0.575643 0.859007
0.099605 0.611942 0.876200
0.362923 0.588858 0.880398
0.492102 0.624434 0.895246
0.648919 0.637260 0.898791
0.811362 0.643521 0.897203
0.999704 0.608723 0.980701
0.999686 0.640050 0.914180
0.000433 0.678096 0.829437
0.000336 0.699683 0.844404
0.000290 0.774302 0.893335
0.267657 0.720101 0.792650
0.460767 0.721116 0.850463
0.584758 0.755272 0.899228
0.779173 0.762165 0.906167
0.907150 0.762711 0.922721
0.999689 0.774163 0.904678
0.000118 0.776634 0.882772
0.000073 0.804300 0.874674
0.000303 0.856173 0.843222
0.062501 0.864095 0.868208
0.343602 0.855233 0.882979
0.509636 0.886279 0.904109
0.691555 0.902265 0.907711
0.848277 0.916392 0.883533
0.999648 0.899195 0.894758
0.000371 0.901890 0.892316
0.000254 0.859432 0.991801
0.000351 0.950729 0.854706
0.000270 0.938709 0.999805
0.732374 0.963704 0.899619
0.383125 0.999635 0.831876
0.466921 0.999773 0.774540
0.835402 0.999578 0.833009
0.999492 0.996694 0.851171
0.073214 0.000205 0.859437
0.083769 0.000589 0.876796
0.432882 0.000184 0.982726
0.419497 0.000173 0.999757
0.695128 0.000106 0.999694
0.793058 0.001242 0.999624
0.876054 0.021689 0.999518
0.997978 0.070303 0.947778
0.999866 0.216528 0.908475
0.004868 0.079476 0.913272
0.018999 0.071928 0.965951
0.437597 0.007123 0.999672
0.614624 0.004426 0.999493
0.737243 0.006082 0.999645
0.820243 0.055324 0.999433
0.881378 0.135993 0.999322
0.999895 0.067782 0.999484
0.999811 0.325192 0.988970
0.054231 0.083381 0.983053
0.086069 0.147661 0.999497
0.326803 0.133111 0.999344
0.626412 0.042923 0.999543
0.619772 0.249183 0.999760
0.941433 0.000882 0.999685
0.839983 0.334659 0.999585
0.995892 0.264089 0.999371
0.999623 0.345492 0.991753
0.000488 0.336600 0.999229
0.000656 0.360595 0.987340
0.412181 0.261492 0.999729
0.592061 0.045389 0.999393
0.716201 0.000575 0.999669
0.765983 0.302789 0.999628
0.956179 0.348961 0.999588
0.999917 0.392131 0.999584
0.999852 0.470972 0.992248
0.000425 0.522188 0.997356
0.000463 0.531676 0.999867
0.468489 0.339756 0.999779
0.549980 0.367870 0.999618
0.687774 0.190840 0.999354
0.794750 0.370540 0.999341
0.812784 0.483119 0.999703
0.999750 0.434135 0.999462
0.999832 0.570274 0.995671
0.000503 0.535466 0.999828
0.537003 0.000166 0.999392
0.215560 0.588467 0.998355
0.587471 0.403568 0.999632
0.554557 0.596031 0.999731
0.667577 0.622597 0.999743
0.861545 0.594321 0.999632
0.964463 0.644943 0.999748
0.999765 0.617596 0.999522
0.000423 0.704249 0.977727
0.000258 0.798226 0.999820
0.070557 0.684122 0.999863
0.359836 0.688514 0.999724
0.481473 0.719359 0.999680
0.623457 0.721251 0.999705
0.830403 0.672096 0.999490
0.950542 0.727130 0.999520
0.999782 0.715452 0.999338
0.000158 0.825965 0.999760
0.000962 0.702858 0.999788
0.013915 0.808065 0.999829
0.292365 0.792561 0.999850
0.443176 0.802817 0.999674
0.546919 0.862686 0.999851
0.712670 0.857531 0.999696
0.908802 0.848813 0.999744
0.999186 0.894784 0.994805
0.000096 0.999648 0.566040
0.000380 0.818507 0.999832
0.000177 0.885478 0.999895
0.193220 0.908957 0.999827
0.342251 0.946383 0.999752
0.485291 0.962830 0.999851
0.711540 0.969118 0.999740
0.849308 0.995779 0.999677
0.994198 0.998030 0.987480
