calib/fujify/composed_cubes/nostalgic_neg_montage.cube
TITLE "Chromasmith montage fit - Nostalgic Neg"
#STD->look, polynomial fit from comparison montages (no repo V-Log source)
LUT_3D_SIZE 5
0.069550 0.053030 0.052985
0.310236 0.065370 0.000000
0.510544 0.068924 0.000000
0.711629 0.096411 0.000000
0.954646 0.180547 0.069248
0.037306 0.216217 0.022289
0.295539 0.260386 0.000000
0.521177 0.289293 0.000000
0.755373 0.335657 0.000000
1.000000 0.432193 0.058208
0.002164 0.396870 0.128585
0.299269 0.467607 0.062212
0.571561 0.516606 0.000000
0.860193 0.576585 0.000000
1.000000 0.680260 0.000000
0.000000 0.705853 0.637202
0.329717 0.797897 0.482849
0.669987 0.861727 0.315342
1.000000 0.930059 0.156130
1.000000 1.000000 0.026663
0.000000 1.000000 1.000000
0.395176 1.000000 1.000000
0.824748 1.000000 1.000000
1.000000 1.000000 0.854215
1.000000 1.000000 0.536819
0.000000 0.021393 0.223173
0.286187 0.064779 0.085955
0.525252 0.070712 0.000000
0.714451 0.071910 0.000000
0.894937 0.101088 0.000000
0.000000 0.195855 0.257211
0.276338 0.270703 0.248870
0.524638 0.301623 0.206364
0.730854 0.321330 0.151141
0.936140 0.362541 0.104651
0.000000 0.328149 0.163186
0.245903 0.429199 0.226575
0.524764 0.479844 0.241532
0.769321 0.512799 0.229506
1.000000 0.560782 0.211945
0.000000 0.529141 0.206429
0.203175 0.651131 0.284401
0.533920 0.716239 0.299674
0.838143 0.757181 0.273696
1.000000 0.806674 0.227917
0.000000 0.909695 0.652271
0.156446 1.000000 0.687678
0.560399 1.000000 0.646119
0.945612 1.000000 0.549043
1.000000 1.000000 0.417898
0.000000 0.000000 0.158275
0.144002 0.000000 0.000000
0.440234 0.006591 0.000000
0.635955 0.000000 0.000000
0.772321 0.000000 0.000000
0.000000 0.156352 0.450003
0.217778 0.273181 0.391202
0.507151 0.317413 0.248689
0.703796 0.321765 0.043915
0.848867 0.318954 0.000000
0.000000 0.309659 0.348616
0.231957 0.452323 0.464107
0.535796 0.515913 0.481621
0.754688 0.533146 0.422606
0.929788 0.536740 0.308510
0.000000 0.472031 0.119443
0.194832 0.635268 0.352080
0.534460 0.712955 0.472473
0.796924 0.737808 0.502070
1.000000 0.742544 0.462319
0.000000 0.754331 0.027814
0.114693 0.932880 0.320450
0.511436 1.000000 0.486575
0.838796 1.000000 0.547636
1.000000 1.000000 0.525083
0.000000 0.000000 0.000000
0.000000 0.000000 0.000000
0.138490 0.000000 0.000000
0.359144 0.000000 0.000000
0.469798 0.000000 0.000000
0.000000 0.000000 0.487876
0.002862 0.159710 0.300954
0.351717 0.228557 0.000000
0.557200 0.228855 0.000000
0.660466 0.193322 0.000000
0.000000 0.233289 0.572083
0.140433 0.428869 0.662018
0.487660 0.516706 0.604429
0.699297 0.529519 0.420765
0.816497 0.500023 0.132475
0.000000 0.426412 0.263452
0.187688 0.642197 0.573095
0.554611 0.743764 0.720949
0.793725 0.763830 0.728460
0.946185 0.735110 0.617078
0.000000 0.679830 0.000000
0.152919 0.910560 0.299517
0.560862 1.000000 0.595665
0.848777 1.000000 0.737204
1.000000 1.000000 0.745583
0.000000 0.000000 0.000000
0.000000 0.000000 0.000000
0.000000 0.000000 0.000000
0.000000 0.000000 0.000000
0.000000 0.000000 0.000000
0.000000 0.000000 0.258039
0.000000 0.000000 0.000000
0.000000 0.000000 0.000000
0.174069 0.000000 0.000000
0.253939 0.000000 0.000000
0.000000 0.000000 0.720799
0.000000 0.250727 0.707517
0.263358 0.374113 0.497165
0.486148 0.393806 0.111193
0.563859 0.342523 0.000000
0.000000 0.284175 0.525667
0.064747 0.563810 0.834657
0.477374 0.700559 0.932310
0.711547 0.727138 0.840077
0.808423 0.676264 0.579404
0.000000 0.578081 0.000000
0.154125 0.872294 0.512087
0.591677 1.000000 0.860599
0.858559 1.000000 1.000000
0.995925 0.989621 0.966608
