calib/fujify/composed_cubes/nostalgic_neg_montage.cube
TITLE "Chromasmith montage fit - Nostalgic Neg"
#STD->look, polynomial fit from comparison montages (no repo V-Log source)
LUT_3D_SIZE 9
0.069550 0.053030 0.052985
0.197512 0.062343 0.019692
0.310236 0.065370 0.000000
0.412865 0.066200 0.000000
0.510544 0.068924 0.000000
0.608417 0.077631 0.000000
0.711629 0.096411 0.000000
0.825324 0.129353 0.013122
0.954646 0.180547 0.069248
0.054308 0.139369 0.037096
0.184838 0.157373 0.014846
0.301102 0.168281 0.000000
0.408245 0.176183 0.000000
0.511410 0.185170 0.000000
0.615742 0.199330 0.000000
0.726385 0.222753 0.001426
0.848484 0.259528 0.037077
0.987183 0.313746 0.091761
0.037306 0.216217 0.022289
0.173069 0.242254 0.003937
0.295539 0.260386 0.000000
0.409860 0.274702 0.000000
0.521177 0.289293 0.000000
0.634633 0.308248 0.000000
0.755373 0.335657 0.000000
0.888542 0.375609 0.012108
1.000000 0.432193 0.058208
0.019579 0.297431 0.041730
0.163241 0.330844 0.020133
0.294583 0.355542 0.000000
0.418748 0.375615 0.000000
0.540882 0.395153 0.000000
0.666128 0.418245 0.000000
0.799631 0.448982 0.000000
0.946535 0.491452 0.000000
1.000000 0.549745 0.001755
0.002164 0.396870 0.128585
0.156390 0.437000 0.096600
0.299269 0.467607 0.062212
0.435945 0.492779 0.028102
0.571561 0.516606 0.000000
0.711262 0.543178 0.000000
0.860193 0.576585 0.000000
1.000000 0.620915 0.000000
1.000000 0.680260 0.000000
0.000000 0.528391 0.316020
0.153554 0.574582 0.266503
0.310635 0.610439 0.212800
0.462486 0.640053 0.157592
0.614250 0.667512 0.103561
0.771072 0.696906 0.053386
0.938097 0.732325 0.009750
1.000000 0.777858 0.000000
1.000000 0.837596 0.000000
0.000000 0.705853 0.637202
0.155768 0.757447 0.563010
0.329717 0.797897 0.482849
0.499409 0.831294 0.399399
0.669987 0.861727 0.315342
0.846596 0.893285 0.233358
1.000000 0.930059 0.156130
1.000000 0.976138 0.086338
1.000000 1.000000 0.026663
0.000000 0.943113 1.000000
0.164069 0.999452 1.000000
0.357552 1.000000 0.905523
0.547750 1.000000 0.786688
0.739807 1.000000 0.665462
0.938868 1.000000 0.544527
1.000000 1.000000 0.426563
1.000000 1.000000 0.314252
1.000000 1.000000 0.210275
0.000000 1.000000 1.000000
0.179493 1.000000 1.000000
0.395176 1.000000 1.000000
0.608546 1.000000 1.000000
0.824748 1.000000 1.000000
1.000000 1.000000 1.000000
1.000000 1.000000 0.854215
1.000000 1.000000 0.692242
1.000000 1.000000 0.536819
0.022581 0.041519 0.160415
0.174908 0.059679 0.116232
0.305666 0.067969 0.070587
0.419999 0.070479 0.026160
0.523051 0.071300 0.000000
0.619968 0.074520 0.000000
0.715892 0.084230 0.000000
0.815969 0.104518 0.000000
0.925343 0.139474 0.000000
0.010089 0.130068 0.165216
0.162973 0.156873 0.144895
0.295259 0.172999 0.121329
0.412094 0.182535 0.097198
0.518620 0.189572 0.075183
0.619983 0.198199 0.057965
0.721328 0.212506 0.048226
0.827797 0.236582 0.048647
0.944536 0.274517 0.061908
0.000000 0.201671 0.137967
0.147065 0.236464 0.134365
0.283546 0.259768 0.125734
0.405548 0.275673 0.114755
0.518214 0.288268 0.104109
0.626690 0.301645 0.096477
0.736119 0.319891 0.094540
0.851646 0.347097 0.100979
0.978416 0.387352 0.118476
0.000000 0.270187 0.111833
0.128222 0.312310 0.117807
0.271563 0.342134 0.116968
0.401397 0.363749 0.111998
0.522869 0.381246 0.105577
0.641122 0.398714 0.100387
0.761302 0.420242 0.099109
0.888553 0.449921 0.104424
1.000000 0.491839 0.119012
0.000000 0.349474 0.119983
0.107480 0.398268 0.128388
0.260346 0.433955 0.128198
0.400679 0.460624 0.122093
0.533621 0.482364 0.112754
0.664318 0.503266 0.102863
0.797915 0.527418 0.095100
0.939554 0.558911 0.092147
1.000000 0.601835 0.096684
0.000000 0.453389 0.195580
0.085876 0.508198 0.199275
0.250933 0.549089 0.192590
0.404429 0.580153 0.178207
0.551508 0.605479 0.158806
0.697314 0.629157 0.137070
0.846992 0.655276 0.115679
1.000000 0.687927 0.097314
1.000000 0.731197 0.084656
0.000000 0.595790 0.371793
0.064446 0.655956 0.363633
0.244359 0.701395 0.343310
0.413684 0.736196 0.313505
0.577565 0.764451 0.276900
0.741146 0.790247 0.236176
0.909571 0.817675 0.194013
1.000000 0.850824 0.153093
1.000000 0.893785 0.116097
0.000000 0.790536 0.681787
0.044226 0.855401 0.654628
0.241661 0.904729 0.613524
0.429481 0.942611 0.561154
0.612829 0.973136 0.500201
0.796850 1.000000 0.433345
0.986689 1.000000 0.363267
1.000000 1.000000 0.292649
1.000000 1.000000 0.224171
0.000000 1.000000 1.000000
0.026253 1.000000 1.000000
0.243876 1.000000 1.000000
0.452856 1.000000 0.954321
0.658337 1.000000 0.861876
0.865464 1.000000 0.761745
1.000000 1.000000 0.656609
1.000000 1.000000 0.549149
1.000000 1.000000 0.442046
0.000000 0.021393 0.223173
0.135093 0.049813 0.158392
0.286187 0.064779 0.085955
0.414525 0.070383 0.008544
0.525252 0.070712 0.000000
0.623513 0.069858 0.000000
0.714451 0.071910 0.000000
0.803211 0.080957 0.000000
0.894937 0.101088 0.000000
0.000000 0.120824 0.272783
0.133743 0.157842 0.244685
0.284354 0.180599 0.207147
0.413182 0.193182 0.162851
0.525371 0.199683 0.114479
0.626067 0.204190 0.064711
0.720413 0.210793 0.016228
0.813553 0.223581 0.000000
0.910633 0.246645 0.000000
0.000000 0.195855 0.257211
0.123545 0.240815 0.258652
0.276338 0.270703 0.248870
0.408321 0.289609 0.230547
0.524638 0.301623 0.206364
0.630435 0.310833 0.179002
0.730854 0.321330 0.151141
0.831041 0.337203 0.125464
0.936140 0.362541 0.104651
0.000000 0.260344 0.209623
0.105534 0.312588 0.233460
0.263176 0.348951 0.244291
0.400979 0.373522 0.244797
0.524090 0.390390 0.237660
0.637653 0.403646 0.225560
0.746811 0.417379 0.211179
0.856710 0.435679 0.197197
0.972493 0.462634 0.186296
0.000000 0.328149 0.163186
0.080749 0.387020 0.202275
0.245903 0.429199 0.226575
0.392193 0.458777 0.238767
0.524764 0.479844 0.241532
0.648758 0.496487 0.237551
0.769321 0.512799 0.229506
0.891597 0.532867 0.220077
1.000000 0.560782 0.211945
0.000000 0.413129 0.151066
0.050224 0.477968 0.198264
0.225558 0.525307 0.228890
0.383000 0.559234 0.245624
0.527694 0.583840 0.251148
0.664786 0.603215 0.248143
0.799419 0.621447 0.239290
0.936738 0.642626 0.227269
1.000000 0.670843 0.214763
0.000000 0.529141 0.206429
0.014997 0.599292 0.254593
0.203175 0.651131 0.284401
0.374435 0.688751 0.298534
0.533920 0.716239 0.299674
0.686774 0.737686 0.290501
0.838143 0.757181 0.273696
0.993170 0.778814 0.251941
1.000000 0.806674 0.227917
0.000000 0.690044 0.362442
0.000000 0.764847 0.404428
0.179793 0.820531 0.426275
0.367535 0.861184 0.430664
0.544475 0.890897 0.420275
0.715758 0.913759 0.397791
0.886528 0.933859 0.365892
1.000000 0.955288 0.327259
1.000000 0.982135 0.284573
0.000000 0.909695 0.652271
0.000000 0.988494 0.680936
0.156446 1.000000 0.687678
0.363337 1.000000 0.675179
0.560399 1.000000 0.646119
0.752775 1.000000 0.603180
0.945612 1.000000 0.549043
1.000000 1.000000 0.486389
1.000000 1.000000 0.417898
0.000000 0.000000 0.227160
0.063443 0.019232 0.132073
0.237174 0.042287 0.023137
0.381818 0.052396 0.000000
0.502521 0.053647 0.000000
0.604427 0.050132 0.000000
0.692680 0.045938 0.000000
0.772424 0.045156 0.000000
0.848805 0.051876 0.000000
0.000000 0.098123 0.345698
0.082526 0.146768 0.300114
0.253762 0.177567 0.238898
0.396884 0.194611 0.164731
0.517038 0.201987 0.080294
0.619367 0.203786 0.000000
0.709016 0.204098 0.000000
0.791129 0.207013 0.000000
0.870851 0.216619 0.000000
0.000000 0.185253 0.365923
0.087884 0.241793 0.362699
0.259290 0.279679 0.342059
0.403556 0.302999 0.306685
0.525826 0.315842 0.259257
0.631244 0.322299 0.202457
0.724955 0.326459 0.138966
0.812103 0.332412 0.071465
0.897832 0.344247 0.002634
0.000000 0.254386 0.321000
0.080553 0.318165 0.352992
0.254796 0.362479 0.365786
0.402871 0.391418 0.362061
0.529922 0.409071 0.344500
0.641095 0.419528 0.315783
0.741533 0.426878 0.278591
0.836381 0.435211 0.235605
0.930783 0.448617 0.189508
0.000000 0.319382 0.244097
0.061571 0.389742 0.304162
0.241315 0.439827 0.343245
0.395865 0.473727 0.364026
0.530364 0.495531 0.369187
0.649956 0.509330 0.361410
0.759787 0.519213 0.343374
0.865000 0.529269 0.317761
0.970740 0.543588 0.287253
0.000000 0.394098 0.168379
0.031973 0.470381 0.249373
0.219885 0.525579 0.307602
0.383574 0.563782 0.345746
0.528186 0.589081 0.366487
0.658864 0.605564 0.372505
0.780753 0.617322 0.366482
0.898998 0.628443 0.351099
1.000000 0.643018 0.329036
0.000000 0.492393 0.127012
0.000000 0.573940 0.221793
0.191541 0.633594 0.292024
0.367036 0.675443 0.340388
0.524426 0.703578 0.369564
0.668856 0.722088 0.382235
0.805469 0.735063 0.381082
0.939409 0.746592 0.368784
1.000000 0.760765 0.348024
0.000000 0.628124 0.153163
0.000000 0.714278 0.254587
0.157321 0.777730 0.329677
0.347287 0.822567 0.381117
0.520121 0.852881 0.411586
0.680967 0.872760 0.423766
0.834969 0.886294 0.420338
0.987272 0.897573 0.403983
1.000000 0.910687 0.377382
0.000000 0.815149 0.279999
0.000000 0.905253 0.380921
0.118260 0.971844 0.453728
0.325363 1.000000 0.501100
0.516306 1.000000 0.525718
0.696234 1.000000 0.530264
0.870292 1.000000 0.517419
1.000000 1.000000 0.489863
1.000000 1.000000 0.450277
0.000000 0.000000 0.158275
0.000000 0.000000 0.023175
0.144002 0.000000 0.000000
0.307254 0.003005 0.000000
0.440234 0.006591 0.000000
0.548086 0.001827 0.000000
0.635955 0.000000 0.000000
0.708985 0.000000 0.000000
0.772321 0.000000 0.000000
0.000000 0.048452 0.369862
0.000000 0.110136 0.297085
0.188858 0.150391 0.202484
0.348576 0.173307 0.088737
0.478995 0.182972 0.000000
0.585259 0.183476 0.000000
0.672512 0.178910 0.000000
0.745899 0.173363 0.000000
0.810565 0.170923 0.000000
0.000000 0.156352 0.450003
0.025457 0.225886 0.432407
0.217778 0.273181 0.391202
0.376628 0.302327 0.329069
0.507151 0.317413 0.248689
0.614492 0.322530 0.152744
0.703796 0.321765 0.043915
0.780206 0.319210 0.000000
0.848867 0.318954 0.000000
0.000000 0.238801 0.431866
0.038654 0.315528 0.462306
0.231799 0.369206 0.467354
0.392446 0.403925 0.449691
0.525740 0.423775 0.411998
0.636823 0.432845 0.356957
0.730842 0.435225 0.287247
0.812940 0.435005 0.205550
0.888262 0.436274 0.114548
0.000000 0.309659 0.348616
0.035322 0.392920 0.419949
0.231957 0.452323 0.464107
0.397067 0.491958 0.483771
0.535796 0.515913 0.481621
0.653288 0.528280 0.460339
0.754688 0.533146 0.422606
0.845140 0.534603 0.371102
0.929788 0.536740 0.308510
0.000000 0.382783 0.233419
0.016498 0.471921 0.338503
0.219289 0.536391 0.414627
0.391528 0.580283 0.464474
0.538358 0.607687 0.490724
0.664924 0.622692 0.496058
0.776370 0.629388 0.483158
0.877841 0.631864 0.454704
0.974481 0.634210 0.413378
0.000000 0.472031 0.119443
0.000000 0.566388 0.251132
0.194832 0.635268 0.352080
0.376864 0.682760 0.424967
0.534460 0.712955 0.472473
0.672766 0.729940 0.497280
0.796924 0.737808 0.502070
0.912080 0.740645 0.489522
1.000000 0.742544 0.462319
0.000000 0.591261 0.039852
0.000000 0.690180 0.191005
0.159621 0.762812 0.309632
0.354112 0.813246 0.398415
0.525141 0.845573 0.460035
0.677851 0.863882 0.497171
0.817387 0.872263 0.512507
0.948893 0.874805 0.508722
1.000000 0.875598 0.488499
0.000000 0.754331 0.027814
0.000000 0.857154 0.191287
0.114693 0.932880 0.320450
0.324310 0.985599 0.417986
0.511436 1.000000 0.486575
0.681216 1.000000 0.528898
0.838796 1.000000 0.547636
0.989318 1.000000 0.545471
1.000000 1.000000 0.525083
0.000000 0.000000 0.002422
0.000000 0.000000 0.000000
0.000000 0.000000 0.000000
0.176206 0.000000 0.000000
0.323765 0.000000 0.000000
0.439865 0.000000 0.000000
0.529651 0.000000 0.000000
0.598268 0.000000 0.000000
0.650860 0.000000 0.000000
0.000000 0.000000 0.331176
0.000000 0.034433 0.221500
0.075017 0.085557 0.083804
0.253633 0.115757 0.000000
0.396618 0.129123 0.000000
0.509118 0.129746 0.000000
0.596277 0.121714 0.000000
0.663239 0.109117 0.000000
0.715149 0.096045 0.000000
0.000000 0.095638 0.495354
0.000000 0.179578 0.453678
0.137177 0.237696 0.382200
0.312912 0.274081 0.283601
0.453990 0.292823 0.160562
0.565555 0.298011 0.015764
0.652753 0.293735 0.000000
0.720726 0.284085 0.000000
0.774619 0.273150 0.000000
0.000000 0.200075 0.528121
0.000000 0.291162 0.547302
0.179561 0.355616 0.534898
0.355081 0.397528 0.493589
0.496917 0.420988 0.426057
0.610214 0.430084 0.334983
0.700115 0.428907 0.223048
0.771764 0.421546 0.092933
0.830307 0.412090 0.000000
0.000000 0.285466 0.462644
0.000000 0.383041 0.535539
0.203205 0.453175 0.575065
0.381177 0.499957 0.583903
0.526437 0.527476 0.564735
0.644130 0.539823 0.520241
0.739400 0.541086 0.453102
0.817391 0.535356 0.366001
0.883249 0.526722 0.261617
0.000000 0.365669 0.332089
0.000000 0.469075 0.451554
0.209147 0.544230 0.535867
0.392235 0.595224 0.587709
0.543584 0.626146 0.609760
0.668339 0.641085 0.604703
0.771644 0.644132 0.575218
0.858643 0.639375 0.523987
0.934481 0.630905 0.453689
0.000000 0.454542 0.169622
0.000000 0.563121 0.328514
0.198422 0.642640 0.450470
0.389293 0.697188 0.538172
0.549397 0.730854 0.594301
0.683879 0.747729 0.621537
0.797884 0.751901 0.622562
0.896557 0.747460 0.600057
0.985040 0.738497 0.556703
0.000000 0.565943 0.008410
0.000000 0.679038 0.199585
0.172068 0.762263 0.352041
0.373386 0.819707 0.468460
0.544911 0.855460 0.551522
0.691786 0.873612 0.603908
0.819157 0.878252 0.628300
0.932168 0.873470 0.627378
1.000000 0.863355 0.603824
0.000000 0.713729 0.000000
0.000000 0.830683 0.097933
0.131121 0.916956 0.273746
0.345552 0.976639 0.411738
0.531163 1.000000 0.514590
0.693097 1.000000 0.584983
0.836499 1.000000 0.625598
0.966514 1.000000 0.639116
1.000000 1.000000 0.628218
0.000000 0.000000 0.000000
0.000000 0.000000 0.000000
0.000000 0.000000 0.000000
0.000000 0.000000 0.000000
0.138490 0.000000 0.000000
0.265139 0.000000 0.000000
0.359144 0.000000 0.000000
0.425649 0.000000 0.000000
0.469798 0.000000 0.000000
0.000000 0.000000 0.215542
0.000000 0.000000 0.059258
0.000000 0.000000 0.000000
0.097429 0.008447 0.000000
0.255282 0.026928 0.000000
0.376319 0.029081 0.000000
0.465685 0.018996 0.000000
0.528524 0.000763 0.000000
0.569980 0.000000 0.000000
0.000000 0.000000 0.487876
0.000000 0.089357 0.412413
0.002862 0.159710 0.300954
0.197783 0.204747 0.156182
0.351717 0.228557 0.000000
0.469808 0.235230 0.000000
0.557200 0.228855 0.000000
0.619038 0.213522 0.000000
0.660466 0.193322 0.000000
0.000000 0.124694 0.595668
0.000000 0.231553 0.593882
0.083455 0.308197 0.554318
0.276151 0.358715 0.479656
0.428831 0.387197 0.372577
0.546641 0.397732 0.235763
0.634725 0.394410 0.071895
0.698228 0.381320 0.000000
0.742293 0.362553 0.000000
0.000000 0.233289 0.572083
0.000000 0.346591 0.636832
0.140433 0.428869 0.662018
0.333568 0.484210 0.650323
0.487660 0.516706 0.604429
0.607855 0.530446 0.527016
0.699297 0.529519 0.420765
0.767129 0.518015 0.288358
0.816497 0.500023 0.132475
0.000000 0.329242 0.450289
0.000000 0.448330 0.574428
0.174832 0.535583 0.657222
0.371071 0.595090 0.701351
0.529241 0.630943 0.709497
0.654487 0.647229 0.684341
0.751951 0.648039 0.628564
0.826779 0.637463 0.544847
0.884116 0.619589 0.435872
0.000000 0.426412 0.263452
0.000000 0.550627 0.439838
0.187688 0.642197 0.573095
0.389698 0.705213 0.665905
0.554611 0.743764 0.720949
0.687572 0.761940 0.740906
0.793725 0.763830 0.728460
0.878215 0.753523 0.686290
0.946185 0.735110 0.617078
0.000000 0.538655 0.044737
0.000000 0.667339 0.266227
0.180038 0.762570 0.442805
0.390484 0.828437 0.577152
0.564806 0.869029 0.671949
0.708148 0.888436 0.729877
0.825655 0.890748 0.753618
0.922471 0.880054 0.745852
1.000000 0.860443 0.709260
0.000000 0.679830 0.000000
0.000000 0.812326 0.086762
0.152919 0.910560 0.299517
0.374466 0.978619 0.468258
0.560862 1.000000 0.595665
0.717251 1.000000 0.684420
0.848777 1.000000 0.737204
0.960586 1.000000 0.756698
1.000000 1.000000 0.745583
0.000000 0.000000 0.000000
0.000000 0.000000 0.000000
0.000000 0.000000 0.000000
0.000000 0.000000 0.000000
0.000000 0.000000 0.000000
0.009283 0.000000 0.000000
0.109808 0.000000 0.000000
0.176502 0.000000 0.000000
0.214510 0.000000 0.000000
0.000000 0.000000 0.008861
0.000000 0.000000 0.000000
0.000000 0.000000 0.000000
0.000000 0.000000 0.000000
0.040363 0.000000 0.000000
0.172239 0.000000 0.000000
0.266112 0.000000 0.000000
0.327128 0.000000 0.000000
0.360431 0.000000 0.000000
0.000000 0.000000 0.413471
0.000000 0.000000 0.294513
0.000000 0.025709 0.133366
0.016617 0.080810 0.000000
0.185708 0.111101 0.000000
0.312626 0.120671 0.000000
0.402514 0.113611 0.000000
0.460517 0.094008 0.000000
0.491780 0.065954 0.000000
0.000000 0.000000 0.620407
0.000000 0.123189 0.587947
0.000000 0.213435 0.511515
0.141030 0.273971 0.393792
0.306856 0.308888 0.237460
0.431481 0.322274 0.045199
0.520049 0.318220 0.000000
0.577705 0.300815 0.000000
0.609594 0.274149 0.000000
0.000000 0.139615 0.662835
0.000000 0.270057 0.709729
0.029018 0.365890 0.710868
0.239616 0.431205 0.668933
0.404842 0.470090 0.586605
0.529840 0.486635 0.466566
0.619754 0.484930 0.311495
0.679729 0.469064 0.124074
0.714909 0.443128 0.000000
0.000000 0.259990 0.573921
0.000000 0.396172 0.693027
0.101721 0.496935 0.764594
0.313412 0.566369 0.791303
0.480704 0.608564 0.775836
0.608741 0.627611 0.720874
0.702666 0.627597 0.629097
0.767625 0.612613 0.503188
0.808761 0.586749 0.345826
0.000000 0.374127 0.386833
0.000000 0.515390 0.571006
0.148005 0.620425 0.705857
0.363455 0.693322 0.794068
0.535478 0.738170 0.838318
0.669219 0.759060 0.841290
0.769821 0.760080 0.805664
0.842429 0.745320 0.734122
0.892188 0.718870 0.629344
0.000000 0.495884 0.134736
0.000000 0.641570 0.376833
0.168906 0.750220 0.567825
0.390781 0.825921 0.710393
0.570201 0.872765 0.807218
0.712311 0.894840 0.860980
0.822255 0.896236 0.874362
0.905179 0.881043 0.850044
0.966225 0.853350 0.790707
0.000000 0.639118 0.000000
0.000000 0.788571 0.143674
0.165462 0.900177 0.383663
0.396426 0.978026 0.573445
0.585908 1.000000 0.715701
0.739053 1.000000 0.813111
0.861006 1.000000 0.868357
0.956910 1.000000 0.884119
1.000000 1.000000 0.863079
0.000000 0.000000 0.000000
0.000000 0.000000 0.000000
0.000000 0.000000 0.000000
0.000000 0.000000 0.000000
0.000000 0.000000 0.000000
0.000000 0.000000 0.000000
0.000000 0.000000 0.000000
0.000000 0.000000 0.000000
0.000000 0.000000 0.000000
0.000000 0.000000 0.000000
0.000000 0.000000 0.000000
0.000000 0.000000 0.000000
0.000000 0.000000 0.000000
0.000000 0.000000 0.000000
0.000000 0.000000 0.000000
0.000000 0.000000 0.000000
0.044428 0.000000 0.000000
0.071879 0.000000 0.000000
0.000000 0.000000 0.258039
0.000000 0.000000 0.085879
0.000000 0.000000 0.000000
0.000000 0.000000 0.000000
0.000000 0.000000 0.000000
0.079383 0.000000 0.000000
0.174069 0.000000 0.000000
0.230539 0.000000 0.000000
0.253939 0.000000 0.000000
0.000000 0.000000 0.588239
0.000000 0.000000 0.515397
0.000000 0.057816 0.392390
0.000000 0.129783 0.221899
0.116367 0.172547 0.006606
0.250108 0.190198 0.000000
0.341462 0.186825 0.000000
0.395573 0.166517 0.000000
0.417587 0.133364 0.000000
0.000000 0.000000 0.720799
0.000000 0.139925 0.740132
0.000000 0.250727 0.707517
0.084697 0.327426 0.625634
0.263358 0.374113 0.497165
0.395460 0.394876 0.324791
0.486148 0.393806 0.111193
0.540566 0.374992 0.000000
0.563859 0.342523 0.000000
0.000000 0.144399 0.688886
0.000000 0.299086 0.793251
0.000000 0.414772 0.843884
0.204633 0.495546 0.843466
0.383348 0.545497 0.794678
0.516477 0.568716 0.700202
0.609164 0.569291 0.562718
0.666555 0.551313 0.384908
0.693792 0.518870 0.169453
0.000000 0.284175 0.525667
0.000000 0.443898 0.707919
0.064747 0.563810 0.834657
0.295939 0.648000 0.908560
0.477374 0.700559 0.932310
0.614195 0.725575 0.908589
0.711547 0.727138 0.840077
0.774575 0.709338 0.729455
0.808423 0.676264 0.579404
0.000000 0.424116 0.264306
0.000000 0.588217 0.517304
0.124047 0.711698 0.713002
0.359652 0.798647 0.854084
0.546471 0.853155 0.943229
0.689650 0.879310 0.983118
0.794333 0.881204 0.976434
0.865665 0.862924 0.925856
0.908789 0.828562 0.834067
0.000000 0.578081 0.000000
0.000000 0.745903 0.254571
0.154125 0.872294 0.512087
0.396807 0.961345 0.713203
0.591677 1.000000 0.860599
0.743880 1.000000 0.956957
0.858559 1.000000 1.000000
0.940859 1.000000 1.000000
0.995925 0.989621 0.966608
