calib/fujify/composed_cubes/nostalgic_neg_montage.cube
TITLE "Chromasmith montage fit - Nostalgic Neg"
#STD->look, polynomial fit from comparison montages (no repo V-Log source)
LUT_3D_SIZE 33
0.069550 0.053030 0.052985
0.103250 0.056171 0.044365
0.135757 0.058728 0.035915
0.167151 0.060764 0.027676
0.197512 0.062343 0.019692
0.226921 0.063529 0.012003
0.255457 0.064386 0.004652
0.283202 0.064979 0.000000
0.310236 0.065370 0.000000
0.336638 0.065623 0.000000
0.362490 0.065804 0.000000
0.387872 0.065975 0.000000
0.412865 0.066200 0.000000
0.437548 0.066544 0.000000
0.462001 0.067070 0.000000
0.486307 0.067842 0.000000
0.510544 0.068924 0.000000
0.534793 0.070380 0.000000
0.559134 0.072274 0.000000
0.583649 0.074670 0.000000
0.608417 0.077631 0.000000
0.633518 0.081222 0.000000
0.659034 0.085506 0.000000
0.685044 0.090548 0.000000
0.711629 0.096411 0.000000
0.738869 0.103159 0.000000
0.766844 0.110856 0.000000
0.795636 0.119566 0.002448
0.825324 0.129353 0.013122
0.855988 0.140281 0.025097
0.887710 0.152413 0.038415
0.920569 0.165814 0.053118
0.954646 0.180547 0.069248
0.065961 0.076263 0.050725
0.099737 0.079981 0.043004
0.132334 0.083103 0.035426
0.163834 0.085691 0.028031
0.194316 0.087810 0.020863
0.223860 0.089523 0.013962
0.252548 0.090894 0.007371
0.280459 0.091988 0.001131
0.307674 0.092868 0.000000
0.334274 0.093599 0.000000
0.360338 0.094243 0.000000
0.385947 0.094865 0.000000
0.411182 0.095529 0.000000
0.436122 0.096298 0.000000
0.460849 0.097237 0.000000
0.485442 0.098410 0.000000
0.509982 0.099880 0.000000
0.534550 0.101711 0.000000
0.559225 0.103968 0.000000
0.584089 0.106713 0.000000
0.609220 0.110012 0.000000
0.634701 0.113927 0.000000
0.660611 0.118524 0.000000
0.687031 0.123864 0.000000
0.714040 0.130014 0.000000
0.741720 0.137036 0.000000
0.770151 0.144995 0.005100
0.799413 0.153953 0.014690
0.829586 0.163976 0.025511
0.860752 0.175127 0.037605
0.892989 0.187470 0.051015
0.926379 0.201069 0.065781
0.961003 0.215988 0.081946
0.062214 0.098252 0.046978
0.096107 0.102538 0.040045
0.128836 0.106214 0.033226
0.160483 0.109345 0.026564
0.191127 0.111993 0.020100
0.220849 0.114223 0.013875
0.249730 0.116098 0.007932
0.277849 0.117683 0.002313
0.305288 0.119042 0.000000
0.332126 0.120239 0.000000
0.358443 0.121336 0.000000
0.384321 0.122399 0.000000
0.409840 0.123491 0.000000
0.435080 0.124676 0.000000
0.460121 0.126018 0.000000
0.485044 0.127581 0.000000
0.509929 0.129428 0.000000
0.534856 0.131625 0.000000
0.559907 0.134233 0.000000
0.585161 0.137318 0.000000
0.610698 0.140944 0.000000
0.636600 0.145174 0.000000
0.662946 0.150072 0.000000
0.689817 0.155702 0.000000
0.717293 0.162128 0.000000
0.745454 0.169413 0.004287
0.774382 0.177623 0.012778
0.804156 0.186820 0.022431
0.834856 0.197069 0.033288
0.866564 0.208433 0.045389
0.899359 0.220976 0.058778
0.933323 0.234763 0.073496
0.968534 0.249857 0.089585
0.058324 0.119216 0.042262
0.092375 0.124059 0.036006
0.125279 0.128279 0.029835
0.157114 0.131941 0.023793
0.187963 0.135108 0.017921
0.217904 0.137844 0.012261
0.247019 0.140214 0.006855
0.275388 0.142280 0.001745
0.303092 0.144108 0.000000
0.330210 0.145760 0.000000
0.356823 0.147300 0.000000
0.383011 0.148794 0.000000
0.408856 0.150304 0.000000
0.434436 0.151894 0.000000
0.459833 0.153629 0.000000
0.485128 0.155571 0.000000
0.510399 0.157786 0.000000
0.535729 0.160337 0.000000
0.561196 0.163288 0.000000
0.586882 0.166702 0.000000
0.612867 0.170644 0.000000
0.639231 0.175178 0.000000
0.666054 0.180368 0.000000
0.693418 0.186276 0.000000
0.721402 0.192968 0.000735
0.750087 0.200508 0.008114
0.779553 0.208958 0.016585
0.809881 0.218383 0.026190
0.841150 0.228847 0.036970
0.873442 0.240414 0.048968
0.906837 0.253148 0.062225
0.941414 0.267112 0.076783
0.977255 0.282371 0.092684
0.054308 0.139369 0.037096
0.088560 0.144759 0.031404
0.121678 0.149514 0.025770
0.153744 0.153697 0.020237
0.184838 0.157373 0.014846
0.215041 0.160605 0.009639
0.244432 0.163458 0.004658
0.273093 0.165995 0.000000
0.301102 0.168281 0.000000
0.328542 0.170379 0.000000
0.355492 0.172352 0.000000
0.382033 0.174266 0.000000
0.408245 0.176183 0.000000
0.434208 0.178169 0.000000
0.460003 0.180286 0.000000
0.485710 0.182598 0.000000
0.511410 0.185170 0.000000
0.537182 0.188065 0.000000
0.563108 0.191347 0.000000
0.589268 0.195081 0.000000
0.615742 0.199330 0.000000
0.642610 0.204157 0.000000
0.669953 0.209628 0.000000
0.697851 0.215805 0.000000
0.726385 0.222753 0.001426
0.755635 0.230535 0.008701
0.785681 0.239216 0.017040
0.816604 0.248859 0.026484
0.848484 0.259528 0.037077
0.881402 0.271288 0.048858
0.915437 0.284202 0.061872
0.950671 0.298333 0.076159
0.987183 0.313746 0.091761
0.050182 0.158930 0.031997
0.084675 0.164856 0.026758
0.118051 0.170134 0.021549
0.150389 0.174829 0.016413
0.181771 0.179003 0.011391
0.212276 0.182722 0.006526
0.241985 0.186048 0.001859
0.270978 0.189046 0.000000
0.299337 0.191779 0.000000
0.327140 0.194312 0.000000
0.354468 0.196708 0.000000
0.381403 0.199032 0.000000
0.408024 0.201347 0.000000
0.434411 0.203717 0.000000
0.460645 0.206205 0.000000
0.486807 0.208877 0.000000
0.512977 0.211796 0.000000
0.539234 0.215025 0.000000
0.565660 0.218629 0.000000
0.592335 0.222671 0.000000
0.619340 0.227216 0.000000
0.646754 0.232327 0.000000
0.674658 0.238068 0.000000
0.703132 0.244504 0.000000
0.732257 0.251697 0.000000
0.762114 0.259712 0.006565
0.792782 0.268613 0.014660
0.824342 0.278464 0.023833
0.856874 0.289329 0.034125
0.890459 0.301270 0.045580
0.925177 0.314354 0.058238
0.961108 0.328642 0.072142
0.998334 0.344200 0.087333
0.045962 0.178113 0.027485
0.080739 0.184566 0.022586
0.114413 0.190358 0.017691
0.147065 0.195553 0.012840
0.178776 0.200216 0.008076
0.209625 0.204410 0.003441
0.239694 0.208199 0.000000
0.269062 0.211647 0.000000
0.297810 0.214818 0.000000
0.326018 0.217776 0.000000
0.353767 0.220585 0.000000
0.381137 0.223308 0.000000
0.408208 0.226010 0.000000
0.435062 0.228754 0.000000
0.461777 0.231605 0.000000
0.488435 0.234626 0.000000
0.515116 0.237881 0.000000
0.541900 0.241434 0.000000
0.568868 0.245349 0.000000
0.596100 0.249690 0.000000
0.623677 0.254520 0.000000
0.651678 0.259905 0.000000
0.680185 0.265906 0.000000
0.709277 0.272590 0.000000
0.739035 0.280018 0.000000
0.769540 0.288256 0.002224
0.800871 0.297367 0.009964
0.833110 0.307415 0.018753
0.866336 0.318464 0.028635
0.900630 0.330578 0.039650
0.936072 0.343821 0.051842
0.972743 0.358256 0.065251
1.000000 0.373948 0.079919
0.041665 0.197137 0.024076
0.076767 0.204105 0.019407
0.110781 0.210400 0.014714
0.143789 0.216086 0.010037
0.175870 0.221227 0.005419
0.207105 0.225886 0.000901
0.237575 0.230128 0.000000
0.267359 0.234016 0.000000
0.296539 0.237615 0.000000
0.325194 0.240987 0.000000
0.353405 0.244198 0.000000
0.381252 0.247311 0.000000
0.408815 0.250390 0.000000
0.436176 0.253498 0.000000
0.463414 0.256700 0.000000
0.490610 0.260060 0.000000
0.517844 0.263641 0.000000
0.545197 0.267508 0.000000
0.572748 0.271724 0.000000
0.600579 0.276353 0.000000
0.628769 0.281459 0.000000
0.657400 0.287106 0.000000
0.686551 0.293358 0.000000
0.716302 0.300279 0.000000
0.746735 0.307933 0.000000
0.777930 0.316383 0.000000
0.809966 0.325694 0.003469
0.842925 0.335929 0.011764
0.876887 0.347152 0.021123
0.911931 0.359428 0.031588
0.948140 0.372819 0.043201
0.985592 0.387391 0.056004
1.000000 0.403207 0.070038
0.037306 0.216217 0.022289
0.072774 0.223691 0.017739
0.107171 0.230479 0.013135
0.140576 0.236645 0.008521
0.173069 0.242254 0.003937
0.204732 0.247368 0.000000
0.235644 0.252052 0.000000
0.265887 0.256370 0.000000
0.295539 0.260386 0.000000
0.324683 0.264163 0.000000
0.353397 0.267765 0.000000
0.381763 0.271257 0.000000
0.409860 0.274702 0.000000
0.437770 0.278165 0.000000
0.465573 0.281708 0.000000
0.493348 0.285396 0.000000
0.521177 0.289293 0.000000
0.549139 0.293463 0.000000
0.577316 0.297970 0.000000
0.605787 0.302877 0.000000
0.634633 0.308248 0.000000
0.663934 0.314148 0.000000
0.693771 0.320640 0.000000
0.724224 0.327789 0.000000
0.755373 0.335657 0.000000
0.787299 0.344309 0.000000
0.820083 0.353809 0.000000
0.853803 0.364221 0.003384
0.888542 0.375609 0.012108
0.924379 0.388036 0.021911
0.961395 0.401566 0.032834
0.999670 0.416264 0.044919
1.000000 0.432193 0.058208
0.032902 0.235570 0.022643
0.068778 0.243539 0.018099
0.103598 0.250810 0.013474
0.137442 0.257446 0.008810
0.170390 0.263512 0.004150
0.202522 0.269071 0.000000
0.233919 0.274188 0.000000
0.264660 0.278925 0.000000
0.294828 0.283347 0.000000
0.324501 0.287519 0.000000
0.353761 0.291503 0.000000
0.382687 0.295363 0.000000
0.411360 0.299165 0.000000
0.439861 0.302971 0.000000
0.468269 0.306845 0.000000
0.496666 0.310851 0.000000
0.525131 0.315054 0.000000
0.553745 0.319517 0.000000
0.582588 0.324304 0.000000
0.611742 0.329479 0.000000
0.641285 0.335105 0.000000
0.671298 0.341247 0.000000
0.701863 0.347969 0.000000
0.733058 0.355335 0.000000
0.764966 0.363407 0.000000
0.797665 0.372251 0.000000
0.831237 0.381931 0.000000
0.865761 0.392509 0.000000
0.901318 0.404050 0.002109
0.937989 0.416618 0.011138
0.975854 0.430277 0.021259
1.000000 0.445091 0.032514
1.000000 0.461123 0.044946
0.028468 0.255412 0.025656
0.064795 0.263866 0.021006
0.100080 0.271610 0.016248
0.134404 0.278706 0.011424
0.167848 0.285219 0.006574
0.200491 0.291212 0.001742
0.232414 0.296751 0.000000
0.263697 0.301897 0.000000
0.294420 0.306716 0.000000
0.324665 0.311271 0.000000
0.354512 0.315627 0.000000
0.384040 0.319846 0.000000
0.413331 0.323993 0.000000
0.442464 0.328133 0.000000
0.471520 0.332327 0.000000
0.500579 0.336642 0.000000
0.529722 0.341140 0.000000
0.559030 0.345886 0.000000
0.588581 0.350943 0.000000
0.618458 0.356375 0.000000
0.648740 0.362246 0.000000
0.679508 0.368620 0.000000
0.710842 0.375562 0.000000
0.742822 0.383134 0.000000
0.775529 0.391401 0.000000
0.809043 0.400426 0.000000
0.843444 0.410274 0.000000
0.878814 0.421009 0.000000
0.915232 0.432694 0.000000
0.952778 0.445393 0.000000
0.991534 0.459170 0.008994
1.000000 0.474089 0.019309
1.000000 0.490215 0.030771
0.024022 0.275960 0.031845
0.060840 0.284889 0.026979
0.096633 0.293095 0.021977
0.131479 0.300641 0.016879
0.165460 0.307590 0.011729
0.198655 0.314008 0.006568
0.231145 0.319958 0.001439
0.263011 0.325504 0.000000
0.294333 0.330709 0.000000
0.325192 0.335638 0.000000
0.355667 0.340354 0.000000
0.385838 0.344922 0.000000
0.415788 0.349405 0.000000
0.445595 0.353867 0.000000
0.475340 0.358372 0.000000
0.505104 0.362984 0.000000
0.534967 0.367767 0.000000
0.565009 0.372785 0.000000
0.595311 0.378102 0.000000
0.625953 0.383781 0.000000
0.657016 0.389887 0.000000
0.688579 0.396483 0.000000
0.720724 0.403634 0.000000
0.753530 0.411402 0.000000
0.787078 0.419853 0.000000
0.821449 0.429050 0.000000
0.856722 0.439057 0.000000
0.892978 0.449937 0.000000
0.930298 0.461755 0.000000
0.968762 0.474575 0.000000
1.000000 0.488460 0.000000
1.000000 0.503475 0.005820
1.000000 0.519683 0.016201
0.019579 0.297431 0.041730
0.056931 0.306825 0.036535
0.093272 0.315482 0.031177
0.128682 0.323467 0.025695
0.163241 0.330844 0.020133
0.197031 0.337675 0.014532
0.230131 0.344026 0.008935
0.262621 0.349960 0.003382
0.294583 0.355542 0.000000
0.326096 0.360834 0.000000
0.357241 0.365901 0.000000
0.388098 0.370807 0.000000
0.418748 0.375615 0.000000
0.449271 0.380390 0.000000
0.479747 0.385195 0.000000
0.510257 0.390095 0.000000
0.540882 0.395153 0.000000
0.571700 0.400433 0.000000
0.602794 0.405999 0.000000
0.634243 0.411915 0.000000
0.666128 0.418245 0.000000
0.698528 0.425053 0.000000
0.731525 0.432402 0.000000
0.765199 0.440357 0.000000
0.799631 0.448982 0.000000
0.834899 0.458339 0.000000
0.871086 0.468494 0.000000
0.908271 0.479510 0.000000
0.946535 0.491452 0.000000
0.985957 0.504382 0.000000
1.000000 0.518365 0.000000
1.000000 0.533464 0.000000
1.000000 0.549745 0.001755
0.015155 0.320041 0.055828
0.053082 0.329889 0.050194
0.090013 0.338988 0.044367
0.126029 0.347402 0.038389
0.161209 0.355194 0.032304
0.195634 0.362430 0.026152
0.229385 0.369172 0.019975
0.262542 0.375484 0.013815
0.295185 0.381431 0.007714
0.327395 0.387077 0.001715
0.359251 0.392484 0.000000
0.390836 0.397718 0.000000
0.422228 0.402841 0.000000
0.453508 0.407918 0.000000
0.484757 0.413014 0.000000
0.516055 0.418191 0.000000
0.547482 0.423513 0.000000
0.579119 0.429045 0.000000
0.611046 0.434850 0.000000
0.643344 0.440993 0.000000
0.676092 0.447537 0.000000
0.709372 0.454546 0.000000
0.743263 0.462084 0.000000
0.777846 0.470215 0.000000
0.813202 0.479003 0.000000
0.849410 0.488511 0.000000
0.886552 0.498804 0.000000
0.924707 0.509945 0.000000
0.963956 0.521999 0.000000
1.000000 0.535029 0.000000
1.000000 0.549100 0.000000
1.000000 0.564274 0.000000
1.000000 0.580617 0.000000
0.010768 0.344006 0.074658
0.049311 0.354298 0.068472
0.086874 0.363828 0.062065
0.123536 0.372661 0.055481
0.159379 0.380860 0.048760
0.194482 0.388489 0.041944
0.228925 0.395612 0.035076
0.262790 0.402292 0.028198
0.296156 0.408595 0.021351
0.329104 0.414583 0.014576
0.361714 0.420320 0.007917
0.394067 0.425871 0.001415
0.426243 0.431299 0.000000
0.458322 0.436669 0.000000
0.490385 0.442044 0.000000
0.522513 0.447488 0.000000
0.554785 0.453064 0.000000
0.587281 0.458838 0.000000
0.620083 0.464872 0.000000
0.653271 0.471231 0.000000
0.686925 0.477979 0.000000
0.721125 0.485179 0.000000
0.755953 0.492895 0.000000
0.791487 0.501192 0.000000
0.827809 0.510132 0.000000
0.864999 0.519781 0.000000
0.903137 0.530202 0.000000
0.942304 0.541458 0.000000
0.982580 0.553615 0.000000
1.000000 0.566735 0.000000
1.000000 0.580882 0.000000
1.000000 0.596121 0.000000
1.000000 0.612516 0.000000
0.006432 0.369544 0.098737
0.045634 0.380269 0.091888
0.083870 0.390221 0.084790
0.121221 0.399462 0.077487
0.157767 0.408056 0.070019
0.193589 0.416068 0.062429
0.228767 0.423562 0.054758
0.263381 0.430600 0.047049
0.297512 0.437247 0.039344
0.331240 0.443568 0.031683
0.364645 0.449625 0.024110
0.397808 0.455484 0.016666
0.430810 0.461207 0.009393
0.463730 0.466858 0.002332
0.496649 0.472502 0.000000
0.529647 0.478203 0.000000
0.562805 0.484023 0.000000
0.596204 0.490028 0.000000
0.629922 0.496281 0.000000
0.664042 0.502846 0.000000
0.698643 0.509787 0.000000
0.733806 0.517168 0.000000
0.769610 0.525052 0.000000
0.806137 0.533504 0.000000
0.843467 0.542588 0.000000
0.881680 0.552367 0.000000
0.920857 0.562905 0.000000
0.961077 0.574266 0.000000
1.000000 0.586515 0.000000
1.000000 0.599714 0.000000
1.000000 0.613929 0.000000
1.000000 0.629222 0.000000
1.000000 0.645658 0.000000
0.002164 0.396870 0.128585
0.042066 0.408019 0.120961
0.081017 0.418381 0.113060
0.119099 0.428020 0.104926
0.156390 0.437000 0.096600
0.192973 0.445385 0.088123
0.228927 0.453239 0.079539
0.264332 0.460624 0.070887
0.299269 0.467607 0.062212
0.333819 0.474250 0.053554
0.368061 0.480617 0.044955
0.402076 0.486772 0.036457
0.435945 0.492779 0.028102
0.469747 0.498702 0.019933
0.503563 0.504605 0.011990
0.537475 0.510552 0.004316
0.571561 0.516606 0.000000
0.605902 0.522832 0.000000
0.640579 0.529294 0.000000
0.675672 0.536054 0.000000
0.711262 0.543178 0.000000
0.747428 0.550730 0.000000
0.784252 0.558772 0.000000
0.821814 0.567369 0.000000
0.860193 0.576585 0.000000
0.899471 0.586484 0.000000
0.939727 0.597129 0.000000
0.981043 0.608585 0.000000
1.000000 0.620915 0.000000
1.000000 0.634184 0.000000
1.000000 0.648455 0.000000
1.000000 0.663792 0.000000
1.000000 0.680260 0.000000
0.000000 0.426201 0.164719
0.038624 0.437763 0.156208
0.078332 0.448526 0.147393
0.117185 0.458553 0.138317
0.155265 0.467908 0.129020
0.192650 0.476656 0.119546
0.229421 0.484859 0.109935
0.265659 0.492582 0.100231
0.301444 0.499889 0.090473
0.336857 0.506844 0.080706
0.371977 0.513510 0.070970
0.406886 0.519952 0.061307
0.441663 0.526233 0.051759
0.476390 0.532418 0.042368
0.511145 0.538570 0.033177
0.546011 0.544752 0.024226
0.581067 0.551030 0.015558
0.616393 0.557467 0.007215
0.652070 0.564126 0.000000
0.688178 0.571073 0.000000
0.724798 0.578369 0.000000
0.762010 0.586081 0.000000
0.799895 0.594271 0.000000
0.838532 0.603003 0.000000
0.878003 0.612341 0.000000
0.918387 0.622349 0.000000
0.959765 0.633091 0.000000
1.000000 0.644632 0.000000
1.000000 0.657034 0.000000
1.000000 0.670361 0.000000
1.000000 0.684679 0.000000
1.000000 0.700049 0.000000
1.000000 0.716538 0.000000
0.000000 0.457754 0.207657
0.035324 0.469719 0.198148
0.075831 0.480872 0.188307
0.115498 0.491277 0.178177
0.154406 0.500997 0.167799
0.192635 0.510097 0.157215
0.230265 0.518640 0.146467
0.267378 0.526690 0.135597
0.304053 0.534311 0.124646
0.340370 0.541568 0.113658
0.376411 0.548523 0.102673
0.412255 0.555241 0.091733
0.447982 0.561786 0.080881
0.483674 0.568222 0.070158
0.519411 0.574612 0.059606
0.555272 0.581020 0.049267
0.591339 0.587511 0.039183
0.627692 0.594149 0.029396
0.664411 0.600996 0.019947
0.701576 0.608117 0.010879
0.739268 0.615577 0.002234
0.777567 0.623438 0.000000
0.816554 0.631765 0.000000
0.856309 0.640621 0.000000
0.896912 0.650072 0.000000
0.938445 0.660179 0.000000
0.980986 0.671008 0.000000
1.000000 0.682622 0.000000
1.000000 0.695086 0.000000
1.000000 0.708462 0.000000
1.000000 0.722816 0.000000
1.000000 0.738210 0.000000
1.000000 0.754709 0.000000
0.000000 0.491745 0.257918
0.032182 0.504103 0.247299
0.073529 0.515636 0.236321
0.114052 0.526408 0.225025
0.153830 0.536483 0.213454
0.192945 0.545924 0.201649
0.231476 0.554797 0.189652
0.269505 0.563164 0.177504
0.307111 0.571089 0.165249
0.344375 0.578637 0.152928
0.381377 0.585871 0.140582
0.418198 0.592855 0.128254
0.454918 0.599654 0.115986
0.491617 0.606330 0.103819
0.528376 0.612948 0.091795
0.565275 0.619573 0.079956
0.602395 0.626266 0.068344
0.639816 0.633094 0.057001
0.677618 0.640119 0.045969
0.715881 0.647405 0.035290
0.754687 0.655017 0.025005
0.794115 0.663017 0.015157
0.834246 0.671471 0.005788
0.875161 0.680442 0.000000
0.916938 0.689994 0.000000
0.959660 0.700191 0.000000
1.000000 0.711096 0.000000
1.000000 0.722774 0.000000
1.000000 0.735288 0.000000
1.000000 0.748703 0.000000
1.000000 0.763082 0.000000
1.000000 0.778490 0.000000
1.000000 0.794989 0.000000
0.000000 0.528391 0.316020
0.029215 0.541131 0.304180
0.071444 0.553034 0.291953
0.112863 0.564163 0.279380
0.153554 0.574582 0.266503
0.193596 0.584355 0.253365
0.233070 0.593547 0.240007
0.272056 0.602220 0.226472
0.310635 0.610439 0.212800
0.348887 0.618268 0.199035
0.386893 0.625771 0.185217
0.424732 0.633011 0.171389
0.462486 0.640053 0.157592
0.500234 0.646960 0.143869
0.538057 0.653796 0.130262
0.576036 0.660625 0.116812
0.614250 0.667512 0.103561
0.652781 0.674519 0.090551
0.691708 0.681711 0.077823
0.731111 0.689152 0.065421
0.771072 0.696906 0.053386
0.811671 0.705036 0.041759
0.852988 0.713607 0.030583
0.895103 0.722681 0.019899
0.938097 0.732325 0.009750
0.982050 0.742600 0.000176
1.000000 0.753571 0.000000
1.000000 0.765303 0.000000
1.000000 0.777858 0.000000
1.000000 0.791301 0.000000
1.000000 0.805696 0.000000
1.000000 0.821106 0.000000
1.000000 0.837596 0.000000
0.000000 0.567908 0.382481
0.026439 0.581020 0.369308
0.069591 0.593282 0.355720
0.111949 0.604758 0.341758
0.153593 0.615512 0.327465
0.194604 0.625606 0.312883
0.235063 0.635107 0.298053
0.275048 0.644076 0.283017
0.314642 0.652579 0.267817
0.353924 0.660679 0.252496
0.392974 0.668440 0.237094
0.431874 0.675925 0.221655
0.470703 0.683200 0.206219
0.509542 0.690327 0.190828
0.548471 0.697371 0.175526
0.587570 0.704395 0.160352
0.626921 0.711464 0.145350
0.666603 0.718641 0.130561
0.706696 0.725990 0.116028
0.747282 0.733575 0.101791
0.788440 0.741461 0.087893
0.830251 0.749710 0.074376
0.872795 0.758387 0.061282
0.916152 0.767556 0.048652
0.960404 0.777280 0.036529
1.000000 0.787624 0.024954
1.000000 0.798651 0.013969
1.000000 0.810426 0.003616
1.000000 0.823011 0.000000
1.000000 0.836472 0.000000
1.000000 0.850872 0.000000
1.000000 0.866275 0.000000
1.000000 0.882744 0.000000
0.000000 0.610513 0.457820
0.023870 0.623987 0.443202
0.067987 0.636598 0.428141
0.111325 0.648411 0.412680
0.153965 0.659488 0.396858
0.195986 0.669894 0.380720
0.237470 0.679693 0.364306
0.278497 0.688948 0.347658
0.319147 0.697724 0.330819
0.359500 0.706084 0.313830
0.399638 0.714093 0.296733
0.439639 0.721814 0.279570
0.479585 0.729311 0.262383
0.519556 0.736648 0.245214
0.559632 0.743890 0.228104
0.599895 0.751099 0.211096
0.640423 0.758339 0.194232
0.681298 0.765676 0.177552
0.722599 0.773172 0.161100
0.764408 0.780891 0.144917
0.806805 0.788898 0.129046
0.849870 0.797256 0.113527
0.893683 0.806029 0.098402
0.938325 0.815281 0.083715
0.983876 0.825076 0.069506
1.000000 0.835478 0.055818
1.000000 0.846551 0.042692
1.000000 0.858359 0.030170
1.000000 0.870965 0.018294
1.000000 0.884433 0.007107
1.000000 0.898828 0.000000
1.000000 0.914213 0.000000
1.000000 0.930652 0.000000
0.000000 0.656423 0.542554
0.021523 0.670248 0.526380
0.066647 0.683198 0.509735
0.111007 0.695337 0.492662
0.154684 0.706727 0.475201
0.197758 0.717434 0.457394
0.240310 0.727521 0.439285
0.282419 0.737052 0.420914
0.324167 0.746091 0.402323
0.365633 0.754702 0.383555
0.406899 0.762948 0.364651
0.448044 0.770894 0.345653
0.489148 0.778604 0.326604
0.530293 0.786141 0.307544
0.571559 0.793569 0.288516
0.613025 0.800952 0.269561
0.654773 0.808355 0.250723
0.696882 0.815840 0.232041
0.739434 0.823473 0.213559
0.782508 0.831316 0.195319
0.826185 0.839434 0.177361
0.870545 0.847890 0.159729
0.915669 0.856749 0.142463
0.961637 0.866075 0.125607
1.000000 0.875931 0.109201
1.000000 0.886381 0.093287
1.000000 0.897489 0.077908
1.000000 0.909319 0.063106
1.000000 0.921935 0.048922
1.000000 0.935400 0.035398
1.000000 0.949780 0.022576
1.000000 0.965137 0.010498
1.000000 0.981535 0.000000
0.000000 0.705853 0.637202
0.019416 0.720020 0.619360
0.065589 0.733298 0.601020
0.111012 0.745753 0.582222
0.155768 0.757447 0.563010
0.199936 0.768444 0.543425
0.243596 0.778809 0.523508
0.286830 0.788606 0.503302
0.329717 0.797897 0.482849
0.372339 0.806748 0.462190
0.414774 0.815222 0.441367
0.457104 0.823382 0.420423
0.499409 0.831294 0.399399
0.541769 0.839020 0.378337
0.584266 0.846625 0.357278
0.626978 0.854173 0.336266
0.669987 0.861727 0.315342
0.713373 0.869351 0.294547
0.757216 0.877110 0.273923
0.801597 0.885066 0.253513
0.846596 0.893285 0.233358
0.892293 0.901830 0.213501
0.938769 0.910765 0.193982
0.986104 0.920153 0.174845
1.000000 0.930059 0.156130
1.000000 0.940547 0.137880
1.000000 0.951680 0.120137
1.000000 0.963522 0.102942
1.000000 0.976138 0.086338
1.000000 0.989590 0.070366
1.000000 1.000000 0.055068
1.000000 1.000000 0.040486
1.000000 1.000000 0.026663
0.000000 0.759021 0.742282
0.017565 0.773518 0.722661
0.064827 0.787115 0.702513
0.111356 0.799875 0.681881
0.157232 0.811862 0.660805
0.202535 0.823140 0.639329
0.247347 0.833773 0.617493
0.291747 0.843824 0.595341
0.335815 0.853358 0.572913
0.379633 0.862439 0.550252
0.423280 0.871130 0.527399
0.466836 0.879495 0.504396
0.510383 0.887598 0.481286
0.554001 0.895504 0.458111
0.597770 0.903275 0.434911
0.641770 0.910977 0.411729
0.686081 0.918672 0.388607
0.730785 0.926425 0.365587
0.775961 0.934299 0.342710
0.821690 0.942359 0.320019
0.868053 0.950669 0.297555
0.915129 0.959291 0.275361
0.962999 0.968291 0.253478
1.000000 0.977732 0.231948
1.000000 0.987678 0.210813
1.000000 0.998193 0.190115
1.000000 1.000000 0.169895
1.000000 1.000000 0.150197
1.000000 1.000000 0.131061
1.000000 1.000000 0.112529
1.000000 1.000000 0.094644
1.000000 1.000000 0.077446
1.000000 1.000000 0.060979
0.000000 0.816142 0.858313
0.015985 0.830961 0.836800
0.064379 0.844866 0.814734
0.112054 0.857921 0.792154
0.159093 0.870191 0.769104
0.205573 0.881739 0.745625
0.251577 0.892629 0.721759
0.297185 0.902925 0.697549
0.342476 0.912691 0.673035
0.387531 0.921991 0.648259
0.432432 0.930889 0.623265
0.477257 0.939448 0.598093
0.522088 0.947733 0.572785
0.567004 0.955807 0.547384
0.612087 0.963735 0.521931
0.657416 0.971580 0.496468
0.703072 0.979406 0.471037
0.749135 0.987277 0.445679
0.795686 0.995258 0.420438
0.842806 1.000000 0.395354
0.890573 1.000000 0.370470
0.939070 1.000000 0.345828
0.988375 1.000000 0.321468
1.000000 1.000000 0.297434
1.000000 1.000000 0.273767
