calib/fujify/composed_cubes/pro_neg_std_composed.cube
TITLE "Chromasmith composed - Pro Neg Std"
#STD_q(x) = VLOG_q(T(x)), T derived from astia/velvia/classic_neg matched pairs
LUT_3D_SIZE 9
0.041907 0.042755 0.044854
0.110313 0.056097 0.064463
0.222771 0.076821 0.076469
0.340773 0.120626 0.052479
0.452125 0.140838 0.056828
0.562591 0.144242 0.085340
0.667069 0.141721 0.131672
0.752992 0.153293 0.191573
0.889495 0.094498 0.327289
0.037531 0.099519 0.056163
0.139298 0.134265 0.059076
0.252495 0.163139 0.045976
0.353574 0.186478 0.032229
0.472118 0.210881 0.017600
0.589660 0.238633 0.041502
0.703131 0.252473 0.149547
0.816645 0.253908 0.228914
0.930501 0.238564 0.321760
0.027108 0.203651 0.064617
0.146803 0.246519 0.080548
0.275660 0.258864 0.000099
0.386050 0.290927 0.007087
0.498833 0.311337 0.055229
0.611616 0.337139 0.027017
0.723334 0.356385 0.123284
0.843554 0.351957 0.242291
0.963763 0.356177 0.293748
0.026605 0.349270 0.084914
0.130624 0.335585 0.019965
0.270709 0.357823 0.000155
0.393177 0.381572 0.000641
0.503732 0.407932 0.004861
0.615584 0.427479 0.000212
0.748953 0.445890 0.016010
0.879362 0.467468 0.213747
0.973102 0.417907 0.360603
0.019747 0.390019 0.000282
0.021149 0.447035 0.016897
0.266063 0.451879 0.000099
0.395284 0.480986 0.000049
0.511912 0.507876 0.000068
0.633575 0.523588 0.000102
0.754017 0.551664 0.002154
0.980086 0.553542 0.372635
0.977425 0.521658 0.340103
0.017910 0.499438 0.001568
0.025952 0.524340 0.008880
0.320215 0.545772 0.000450
0.397061 0.581704 0.000167
0.523382 0.603172 0.000094
0.654064 0.633477 0.000549
0.758540 0.654091 0.018609
0.978672 0.678354 0.240625
0.982715 0.658325 0.347680
0.014325 0.597457 0.000261
0.017237 0.617315 0.006436
0.014261 0.625557 0.000205
0.396492 0.689488 0.012333
0.525660 0.713394 0.000083
0.657979 0.754122 0.000263
0.756991 0.785224 0.000316
0.935008 0.789399 0.189915
0.981375 0.765681 0.342954
0.009620 0.726305 0.000284
0.012184 0.767099 0.006110
0.008870 0.742079 0.000275
0.444313 0.796643 0.000139
0.537020 0.848612 0.000220
0.642705 0.873670 0.000125
0.762556 0.889611 0.000055
0.936529 0.885647 0.180920
0.977835 0.909470 0.332491
0.004473 0.821494 0.000609
0.003372 0.842270 0.000509
0.000861 0.916278 0.000343
0.000110 0.955651 0.000448
0.628669 0.965275 0.000412
0.741379 0.940038 0.000152
0.796766 0.998351 0.000191
0.856518 0.999722 0.088968
0.967732 0.999483 0.214670
0.036501 0.047081 0.094368
0.115998 0.063932 0.108483
0.224100 0.082825 0.139482
0.350651 0.122032 0.153346
0.469586 0.147173 0.168623
0.569954 0.152236 0.199649
0.676894 0.153559 0.215777
0.789991 0.127261 0.294689
0.905292 0.091639 0.346994
0.049216 0.117741 0.112349
0.141093 0.140779 0.138783
0.249638 0.173620 0.155106
0.363918 0.193000 0.165367
0.480614 0.221239 0.180062
0.600546 0.239849 0.194528
0.709995 0.256581 0.240652
0.823764 0.250068 0.308164
0.956585 0.247859 0.365189
0.029486 0.204901 0.123651
0.147328 0.251297 0.154930
0.275284 0.271025 0.157606
0.382629 0.296475 0.164731
0.493564 0.313472 0.170777
0.611476 0.338252 0.207043
0.728665 0.353663 0.247724
0.855764 0.350976 0.310717
0.897218 0.359159 0.177876
0.028233 0.329821 0.125897
0.146406 0.341634 0.147844
0.277429 0.365898 0.133059
0.389295 0.385676 0.121039
0.507410 0.408896 0.152575
0.630048 0.432617 0.206368
0.740619 0.453081 0.248552
0.941629 0.459736 0.262966
0.977789 0.451275 0.439819
0.026348 0.374414 0.124226
0.025610 0.435365 0.143608
0.269865 0.463664 0.045458
0.391006 0.488175 0.072185
0.515343 0.510813 0.074977
0.640385 0.535043 0.179867
0.764039 0.548946 0.249319
0.982601 0.486562 0.492707
0.981043 0.513206 0.418322
0.023330 0.487116 0.089023
0.023436 0.561073 0.111385
0.261809 0.563990 0.029764
0.383579 0.588836 0.001028
0.512222 0.613732 0.023078
0.649707 0.637988 0.098000
0.749623 0.653228 0.237037
0.985356 0.637191 0.420426
0.983205 0.648259 0.364495
0.023394 0.593952 0.127758
0.020805 0.609384 0.040254
0.014340 0.648421 0.001158
0.386281 0.692327 0.005091
0.510833 0.725902 0.004329
0.649013 0.754302 0.044164
0.760875 0.765052 0.207914
0.875000 0.780539 0.249724
0.982922 0.758349 0.397367
0.019459 0.701858 0.106160
0.015380 0.742552 0.030379
0.013009 0.771553 0.009798
0.358231 0.818003 0.000419
0.513574 0.850554 0.000192
0.637370 0.876910 0.002602
0.770965 0.861613 0.162459
0.896851 0.876238 0.240966
0.982005 0.888771 0.431951
0.003605 0.833220 0.000476
0.006383 0.869642 0.010819
0.001012 0.929812 0.000671
0.281715 0.935660 0.000150
0.420372 0.999813 0.000261
0.391126 0.999895 0.000175
0.766961 0.999576 0.000210
0.892502 0.999531 0.289757
0.970628 0.997898 0.311061
0.023242 0.053242 0.164072
0.119952 0.070070 0.184500
0.231991 0.090080 0.221804
0.348169 0.116629 0.247369
0.465659 0.145959 0.274770
0.584044 0.154788 0.300777
0.689541 0.154081 0.326008
0.811238 0.150192 0.383076
0.915693 0.070476 0.474515
0.029801 0.112667 0.173264
0.147070 0.151961 0.218106
0.253837 0.176699 0.242209
0.366034 0.196907 0.267841
0.483189 0.221747 0.287691
0.604776 0.241282 0.308596
0.715330 0.254226 0.332437
0.818462 0.263268 0.393674
0.953189 0.193373 0.368555
0.035797 0.232042 0.213017
0.144500 0.253869 0.239684
0.274645 0.277360 0.271245
0.384507 0.295311 0.282066
0.496614 0.318688 0.295677
0.613572 0.339832 0.311698
0.734496 0.354961 0.348931
0.955572 0.290800 0.438644
0.971730 0.372086 0.412812
0.031122 0.330409 0.235990
0.130478 0.342406 0.242347
0.278289 0.373167 0.279126
0.388557 0.394108 0.287129
0.509662 0.410790 0.298844
0.632479 0.434855 0.313687
0.723912 0.454968 0.331951
0.978203 0.386154 0.519561
0.976085 0.422563 0.423994
0.028932 0.416896 0.235759
0.029002 0.447731 0.233208
0.279057 0.468885 0.266309
0.399684 0.491048 0.304749
0.524628 0.512836 0.320629
0.648270 0.535989 0.315446
0.735831 0.565364 0.332916
0.984739 0.516781 0.496325
0.983844 0.535543 0.465969
0.028693 0.505253 0.227239
0.033571 0.530405 0.224932
0.259148 0.571727 0.267089
0.403783 0.597295 0.285013
0.529632 0.619401 0.295534
0.659164 0.641289 0.309242
0.755788 0.653912 0.337272
0.988928 0.615834 0.521019
0.986262 0.663075 0.442250
0.026586 0.593261 0.225178
0.026077 0.611445 0.217277
0.038842 0.655510 0.239546
0.399129 0.702777 0.252191
0.525650 0.732098 0.276267
0.654610 0.756286 0.285312
0.778212 0.763915 0.311619
0.908394 0.779834 0.386875
0.986017 0.774535 0.500629
0.022766 0.712239 0.226222
0.021168 0.741848 0.218718
0.023345 0.765413 0.343274
0.425428 0.791413 0.283578
0.550940 0.805885 0.212185
0.678227 0.814059 0.243697
0.770691 0.861881 0.260122
0.884894 0.889738 0.289377
0.982793 0.899744 0.481947
0.016196 0.833308 0.220091
0.009726 0.864824 0.039309
0.007564 0.968876 0.234956
0.000001 0.999716 0.000311
0.214306 0.999959 0.000659
0.431835 0.999774 0.000116
0.739937 0.999510 0.000103
0.918055 0.999608 0.292286
0.969404 0.999693 0.291609
0.034697 0.069459 0.233279
0.121661 0.061601 0.263598
0.220826 0.095917 0.304035
0.337015 0.107842 0.339033
0.454114 0.124167 0.366680
0.585558 0.158248 0.395795
0.696046 0.154402 0.424428
0.801596 0.157527 0.436636
0.920128 0.082659 0.501573
0.033272 0.127562 0.253717
0.162707 0.172128 0.304567
0.254369 0.182293 0.340574
0.360934 0.201436 0.368780
0.481073 0.225595 0.380550
0.605558 0.241497 0.404189
0.722483 0.258171 0.421854
0.849893 0.259053 0.462233
0.964206 0.222203 0.488459
0.036377 0.236359 0.304331
0.110342 0.249616 0.312716
0.274991 0.282080 0.357430
0.382258 0.298568 0.377511
0.493501 0.318824 0.394202
0.619947 0.341732 0.411792
0.729606 0.362898 0.438321
0.875432 0.399561 0.416685
0.976152 0.364602 0.504852
0.033489 0.317687 0.306529
0.041900 0.335401 0.311043
0.269698 0.380317 0.363733
0.386116 0.394536 0.378742
0.503826 0.412961 0.401155
0.632520 0.437885 0.418050
0.696235 0.462233 0.423623
0.984116 0.473301 0.538653
0.983362 0.446725 0.555694
0.031794 0.402459 0.311243
0.031596 0.459131 0.321940
0.273992 0.476137 0.360789
0.397011 0.495665 0.382453
0.521270 0.518161 0.401524
0.648151 0.537007 0.420272
0.752509 0.558130 0.438430
0.988497 0.543196 0.563894
0.985535 0.534310 0.513927
0.031003 0.493449 0.306038
0.031360 0.529725 0.336594
0.271167 0.574552 0.358260
0.398847 0.600554 0.381623
0.530592 0.620700 0.394837
0.656622 0.644457 0.415799
0.744749 0.655319 0.434473
0.989993 0.636303 0.535351
0.990376 0.647022 0.555539
0.029367 0.608330 0.332586
0.028725 0.641013 0.351066
0.028207 0.658292 0.343138
0.395104 0.709972 0.369839
0.527864 0.731432 0.376832
0.655232 0.755201 0.390665
0.769748 0.771014 0.419064
0.895127 0.784026 0.461738
0.987145 0.767471 0.519471
0.024665 0.725251 0.321389
0.022984 0.761705 0.343006
0.026723 0.727453 0.332560
0.396639 0.800004 0.311589
0.546616 0.815238 0.369353
0.667797 0.831241 0.387503
0.779205 0.865508 0.417122
0.867114 0.884865 0.418101
0.985475 0.894352 0.580986
0.017640 0.849986 0.332459
0.022924 0.777991 0.378563
0.011901 0.928425 0.350265
0.003831 0.998155 0.326684
0.223913 0.999768 0.243773
0.442265 0.999801 0.175416
0.644781 0.999716 0.225679
0.897075 0.999639 0.397933
0.974736 0.999595 0.451636
0.032767 0.065396 0.328658
0.123202 0.081960 0.343651
0.214257 0.064241 0.380026
0.327679 0.095769 0.422034
0.456956 0.129530 0.452519
0.587968 0.144803 0.476202
0.705274 0.165125 0.505142
0.821997 0.153053 0.543216
0.954909 0.092771 0.596165
0.035870 0.132236 0.329764
0.145255 0.161977 0.380982
0.247326 0.184984 0.422752
0.360954 0.205064 0.452436
0.477120 0.231658 0.472007
0.607778 0.243814 0.491530
0.732057 0.256665 0.511829
0.817481 0.254024 0.537622
0.965680 0.193737 0.584790
0.038715 0.241624 0.386219
0.055611 0.244785 0.386208
0.271148 0.287777 0.439375
0.374996 0.299249 0.465847
0.492309 0.318526 0.486983
0.623199 0.339972 0.506817
0.714200 0.385179 0.519463
0.981411 0.356913 0.623023
0.976518 0.322656 0.574499
0.035127 0.343098 0.374082
0.035263 0.342052 0.405092
0.270438 0.381888 0.449493
0.385707 0.396965 0.477028
0.503598 0.418186 0.496943
0.636248 0.438936 0.517425
0.757433 0.456468 0.534839
0.982899 0.404039 0.594379
0.983828 0.446685 0.570832
0.035279 0.419678 0.409583
0.035176 0.435236 0.416401
0.267365 0.482728 0.459527
0.397656 0.498433 0.485567
0.518955 0.520384 0.503297
0.644450 0.541122 0.522970
0.728373 0.562153 0.537905
0.991603 0.514230 0.660553
0.991589 0.563701 0.604034
0.033942 0.489729 0.391392
0.034039 0.541271 0.431642
0.246949 0.583086 0.452576
0.393846 0.604907 0.486750
0.527737 0.625955 0.505217
0.653510 0.647974 0.522576
0.759491 0.669064 0.541598
0.993181 0.624537 0.639798
0.993121 0.620087 0.638753
0.031408 0.628959 0.436129
0.031390 0.647226 0.448931
0.034190 0.677852 0.447819
0.391160 0.715304 0.483631
0.526531 0.733956 0.491905
0.653599 0.756162 0.507365
0.774451 0.771295 0.532301
0.964476 0.786197 0.585250
0.989697 0.774538 0.603777
0.027026 0.736377 0.431335
0.024834 0.780922 0.462955
0.374965 0.755015 0.447973
0.422137 0.797402 0.412735
0.533353 0.830531 0.471025
0.671739 0.834637 0.498626
0.781357 0.884047 0.493324
0.838340 0.893356 0.545202
0.987169 0.889731 0.651124
0.019770 0.853975 0.431894
0.019136 0.859674 0.424283
0.120147 0.906827 0.433975
0.031273 0.999840 0.452104
0.046853 0.998066 0.417348
0.456309 0.999808 0.222351
0.713588 0.999598 0.423121
0.845160 0.999880 0.471355
0.979095 0.999026 0.603142
0.042169 0.104227 0.467456
0.118586 0.063861 0.426175
0.200016 0.020823 0.464078
0.327412 0.087010 0.506290
0.455900 0.128968 0.541023
0.592512 0.163145 0.559206
0.711732 0.169960 0.585348
0.840901 0.173354 0.611537
0.956261 0.064850 0.678473
0.040042 0.136270 0.419389
0.138743 0.160901 0.453553
0.241942 0.190195 0.502373
0.360414 0.212478 0.534303
0.474662 0.235884 0.559999
0.607935 0.248088 0.581143
0.732011 0.258141 0.603364
0.875874 0.253047 0.630936
0.976915 0.271010 0.643807
0.040446 0.247878 0.450409
0.041489 0.246844 0.467728
0.267733 0.293310 0.532084
0.369917 0.300367 0.561171
0.490677 0.320345 0.582144
0.620305 0.340061 0.599993
0.738186 0.369948 0.613746
0.979994 0.312457 0.646405
0.983337 0.359985 0.648193
0.037841 0.351825 0.457797
0.038318 0.356226 0.506023
0.278406 0.387261 0.550949
0.383599 0.400900 0.575222
0.503153 0.419674 0.598909
0.636465 0.440610 0.618842
0.727125 0.469623 0.625248
0.984467 0.384093 0.646164
0.989655 0.485504 0.654350
0.038493 0.437971 0.504129
0.038760 0.444035 0.517671
0.277211 0.489828 0.563440
0.393876 0.505326 0.589055
0.516661 0.522375 0.613160
0.641727 0.543283 0.629706
0.742390 0.560626 0.641053
0.992670 0.535477 0.657855
0.993479 0.541931 0.682797
0.037270 0.540509 0.532093
0.037577 0.548268 0.533199
0.210605 0.594253 0.554066
0.390104 0.611147 0.597323
0.524917 0.625606 0.616291
0.648462 0.649204 0.630330
0.746507 0.669511 0.638934
0.995382 0.649366 0.711882
0.992892 0.668350 0.647579
0.034902 0.621117 0.525453
0.034247 0.657339 0.562647
0.253060 0.700074 0.543511
0.383355 0.718076 0.596644
0.517911 0.740275 0.606307
0.648221 0.756582 0.628465
0.778123 0.771312 0.643005
0.895193 0.789843 0.668247
0.991639 0.774328 0.673255
0.028950 0.753770 0.557506
0.027773 0.774096 0.542428
0.109003 0.805098 0.573131
0.331268 0.792152 0.539409
0.527402 0.814634 0.598043
0.672474 0.830215 0.610215
0.775942 0.877422 0.626601
0.833817 0.891465 0.659839
0.987067 0.899543 0.678407
0.020729 0.872022 0.557126
0.018788 0.893821 0.569080
0.015856 0.930774 0.583171
0.007179 0.999986 0.598000
0.054468 0.999714 0.548598
0.531044 0.999612 0.446252
0.737882 0.999782 0.588293
0.854259 0.999775 0.586353
0.984903 0.994033 0.735480
0.046885 0.134942 0.559276
0.107119 0.060797 0.472958
0.197934 0.014695 0.553543
0.323616 0.058486 0.593858
0.454183 0.111592 0.637461
0.579437 0.128690 0.657316
0.709268 0.159891 0.671504
0.832413 0.168754 0.697811
0.965501 0.093621 0.762140
0.043135 0.142718 0.486617
0.102667 0.130748 0.515769
0.246185 0.201444 0.598673
0.352770 0.224177 0.627741
0.472971 0.244596 0.653962
0.603852 0.252749 0.673646
0.730629 0.263561 0.668595
0.916854 0.240045 0.731826
0.981479 0.284482 0.720626
0.043286 0.261354 0.566399
0.043274 0.258963 0.571803
0.271799 0.287044 0.599425
0.398472 0.306390 0.652658
0.485289 0.325886 0.648622
0.617623 0.345319 0.663375
0.732741 0.376389 0.709670
0.990023 0.408725 0.737053
0.984396 0.324036 0.738794
0.042236 0.346323 0.589128
0.041966 0.345369 0.580297
0.292294 0.398149 0.650329
0.380415 0.403297 0.654274
0.500805 0.425084 0.676690
0.634722 0.444605 0.717688
0.748670 0.458206 0.733185
0.990454 0.416026 0.734895
0.993473 0.454564 0.750243
0.041518 0.463479 0.608086
0.041889 0.444837 0.607530
0.294987 0.493928 0.663341
0.395086 0.514135 0.685407
0.512961 0.527776 0.717683
0.638488 0.545759 0.734414
0.742761 0.566342 0.747252
0.997674 0.598442 0.760068
0.997460 0.534041 0.763027
0.040803 0.541590 0.633791
0.039961 0.538503 0.614555
0.224061 0.595587 0.664416
0.388300 0.618147 0.694882
0.523669 0.637170 0.728763
0.647813 0.652959 0.746909
0.765799 0.668695 0.754132
0.997961 0.642614 0.785529
0.996344 0.676991 0.763155
0.037525 0.629957 0.634155
0.036601 0.659323 0.650646
0.173244 0.712187 0.659010
0.451522 0.719993 0.702696
0.514496 0.739783 0.720418
0.639750 0.754157 0.744256
0.770355 0.766498 0.754901
0.840928 0.790401 0.763285
0.995254 0.791239 0.787221
0.031034 0.759142 0.672179
0.029640 0.781971 0.677216
0.028195 0.808004 0.688205
0.403858 0.802798 0.660598
0.612863 0.735863 0.720159
0.701042 0.806643 0.762554
0.769154 0.878162 0.755038
0.845638 0.893432 0.762368
0.990225 0.898805 0.807915
0.022087 0.869286 0.669742
0.019993 0.907423 0.684775
0.020521 0.894604 0.670931
0.192303 0.964743 0.696183
0.190828 0.994818 0.683240
0.670377 0.994552 0.676682
0.782089 0.992026 0.745477
0.878318 0.999706 0.718281
0.986546 0.999754 0.767760
0.046900 0.114334 0.546866
0.068162 0.056043 0.554643
0.198504 0.020075 0.642642
0.323250 0.067924 0.692311
0.451485 0.093349 0.737350
0.568056 0.111828 0.747717
0.702940 0.154773 0.769141
0.819659 0.214830 0.786952
0.976341 0.172972 0.808532
0.048957 0.157289 0.621342
0.057876 0.171047 0.635454
0.228270 0.215085 0.662213
0.332035 0.244307 0.690621
0.510836 0.241995 0.728380
0.638991 0.254420 0.754331
0.742654 0.292141 0.772263
0.957664 0.226838 0.829704
0.983555 0.283340 0.772023
0.046198 0.262839 0.669788
0.045931 0.272374 0.685253
0.205579 0.302528 0.683221
0.406724 0.312019 0.702499
0.515116 0.361723 0.757997
0.650241 0.353456 0.768795
0.713870 0.432408 0.803658
0.986709 0.318046 0.789560
0.989516 0.308255 0.839871
0.045973 0.377032 0.710537
0.045213 0.354122 0.682870
0.227752 0.424314 0.730691
0.416376 0.403255 0.730024
0.537698 0.406639 0.755848
0.645486 0.468276 0.792097
0.820991 0.457745 0.819798
0.995829 0.435254 0.832043
0.997992 0.435022 0.871350
0.044754 0.449756 0.691126
0.044995 0.450619 0.693660
0.161534 0.525774 0.740423
0.406369 0.517608 0.760895
0.521099 0.547761 0.797147
0.658175 0.569430 0.806686
0.752962 0.576246 0.841702
0.999699 0.501300 0.877246
0.999675 0.539484 0.867471
0.042461 0.538657 0.699598
0.042220 0.560962 0.714870
0.264016 0.612836 0.763143
0.418442 0.610518 0.790507
0.524489 0.654900 0.815793
0.659810 0.674796 0.837423
0.784793 0.686552 0.850593
0.999751 0.650883 0.926343
0.999603 0.675076 0.876209
0.038205 0.655962 0.714465
0.037288 0.678446 0.726205
0.081883 0.747683 0.771503
0.419320 0.720935 0.746471
0.537504 0.739065 0.798579
0.643612 0.775299 0.843882
0.787135 0.787536 0.863897
0.872827 0.791959 0.882062
0.997891 0.793797 0.879979
0.034225 0.749320 0.763408
0.031921 0.772042 0.761935
0.028862 0.815861 0.754918
0.314247 0.828306 0.794351
0.512591 0.836461 0.829957
0.631576 0.864910 0.859689
0.761701 0.882444 0.877834
0.863943 0.896815 0.876130
0.993220 0.886060 0.890817
0.025723 0.866382 0.793063
0.028502 0.843570 0.868286
0.116111 0.913364 0.789253
0.036461 0.935304 0.955078
0.805821 0.931204 0.883446
0.657040 0.990738 0.831312
0.706796 0.999653 0.804973
0.893598 0.998343 0.860642
0.991802 0.988193 0.883351
0.067455 0.084465 0.664197
0.069027 0.103504 0.711896
0.295370 0.042980 0.723983
0.288008 0.106745 0.828823
0.531992 0.152402 0.992300
0.629807 0.205582 0.999691
0.732340 0.223972 0.964316
0.890293 0.198663 0.809485
0.983565 0.243695 0.824925
0.048435 0.207906 0.671571
0.050492 0.214648 0.753683
0.305864 0.187442 0.898366
0.415461 0.274423 0.999716
0.580728 0.248048 0.999629
0.686627 0.288808 0.999653
0.755209 0.317784 0.991959
0.900185 0.233801 0.953636
0.996857 0.355746 0.922006
0.053499 0.234231 0.843795
0.056543 0.299477 0.934573
0.267418 0.287339 0.841345
0.412175 0.348024 0.999726
0.518803 0.416105 0.998047
0.768254 0.202577 0.999481
0.753766 0.446015 0.989259
0.912563 0.411451 0.999492
0.998286 0.377421 0.933349
0.050204 0.395525 0.826558
0.048646 0.404846 0.790568
0.253135 0.442746 0.999670
0.366278 0.348026 0.999763
0.497913 0.264877 0.999790
0.667104 0.479235 0.999705
0.836343 0.517164 0.999587
0.999861 0.475364 0.999495
0.999806 0.503867 0.939878
0.046846 0.541375 0.855956
0.048415 0.572864 0.946264
0.320017 0.509881 0.999667
0.422784 0.535242 0.999923
0.538119 0.434721 0.999696
0.695482 0.539521 0.999585
0.736075 0.615102 0.999544
0.997022 0.549842 0.999515
0.999770 0.614004 0.947304
0.048147 0.571549 0.927265
0.242343 0.228728 0.999822
0.291150 0.629046 0.912223
0.479893 0.559217 0.999712
0.527158 0.684922 0.999608
0.651852 0.707292 0.999614
0.797880 0.699082 0.999619
0.908440 0.726122 0.999269
0.999756 0.681459 0.996335
0.038138 0.695727 0.816958
0.032615 0.789886 0.886995
0.122848 0.733521 0.999777
0.369042 0.753902 0.999836
0.494630 0.779493 0.999656
0.639731 0.779989 0.999271
0.788838 0.756896 0.999528
0.903459 0.789101 0.998919
0.999673 0.773932 0.999265
0.030775 0.812289 0.870643
0.040075 0.737616 0.999904
0.125563 0.818985 0.997406
0.376315 0.819585 0.999640
0.503811 0.829743 0.999622
0.623705 0.866329 0.996101
0.752358 0.866635 0.994121
0.882395 0.868872 0.999616
0.993059 0.890831 0.965804
0.009891 0.997003 0.635803
0.032125 0.828213 0.987019
0.063665 0.885916 0.978783
0.387414 0.886044 0.997617
0.518381 0.914717 0.995419
0.631172 0.933185 0.993919
0.790166 0.946225 0.994714
0.892787 0.988884 0.986779
0.989404 0.995134 0.979897
