calib/fujify/composed_cubes/pro_neg_std_composed.cube
TITLE "Chromasmith composed - Pro Neg Std"
#STD_q(x) = VLOG_q(T(x)), T derived from astia/velvia/classic_neg matched pairs
LUT_3D_SIZE 33
0.041907 0.042755 0.044854
0.054567 0.044857 0.042632
0.067315 0.047582 0.052003
0.090609 0.056066 0.050706
0.110313 0.056097 0.064463
0.141764 0.071794 0.060479
0.173230 0.072426 0.060407
0.203452 0.087365 0.062453
0.222771 0.076821 0.076469
0.265617 0.112184 0.037568
0.286012 0.092325 0.100290
0.300943 0.100909 0.063620
0.340773 0.120626 0.052479
0.372711 0.136329 0.071406
0.394296 0.104483 0.098743
0.413306 0.121161 0.065712
0.452125 0.140838 0.056828
0.489213 0.136609 0.095587
0.503409 0.134607 0.099599
0.527538 0.132933 0.082560
0.562591 0.144242 0.085340
0.591908 0.147164 0.094663
0.617531 0.143224 0.132092
0.639215 0.141360 0.131943
0.667069 0.141721 0.131672
0.699073 0.146207 0.144726
0.714764 0.134599 0.163581
0.731222 0.150507 0.179999
0.752992 0.153293 0.191573
0.784201 0.147010 0.199043
0.843572 0.151898 0.237934
0.870127 0.191646 0.228061
0.889495 0.094498 0.327289
0.044860 0.052757 0.047908
0.056151 0.058623 0.050681
0.070859 0.061960 0.052452
0.095326 0.071068 0.060890
0.116933 0.079574 0.054755
0.146329 0.089132 0.067773
0.174182 0.098499 0.041685
0.202193 0.103756 0.069399
0.222221 0.110892 0.040314
0.266365 0.123807 0.047449
0.283090 0.117590 0.077484
0.313950 0.127559 0.030947
0.344995 0.138459 0.042580
0.373506 0.133666 0.092947
0.392667 0.130657 0.055699
0.422883 0.146176 0.040836
0.461364 0.158102 0.079419
0.486464 0.149016 0.117129
0.503692 0.157675 0.068535
0.535334 0.166294 0.057548
0.566164 0.170409 0.088803
0.597858 0.169690 0.120420
0.619070 0.168519 0.122516
0.645838 0.174746 0.097361
0.676063 0.178668 0.109803
0.698595 0.175691 0.134806
0.730065 0.164191 0.186455
0.758625 0.167564 0.196771
0.787748 0.170493 0.186286
0.811194 0.166300 0.206644
0.858279 0.183033 0.227773
0.897971 0.153851 0.279281
0.886629 0.167338 0.258845
0.049357 0.066968 0.053723
0.062150 0.071229 0.056669
0.077729 0.077420 0.060929
0.100659 0.086616 0.060617
0.127961 0.097120 0.058272
0.148591 0.098545 0.062680
0.175956 0.110522 0.044121
0.210224 0.113279 0.064538
0.235159 0.129373 0.027964
0.264992 0.134895 0.065906
0.283059 0.135108 0.032666
0.322159 0.144292 0.018082
0.353936 0.148754 0.063692
0.374522 0.144167 0.080697
0.398922 0.152446 0.027526
0.439735 0.167517 0.037486
0.465383 0.169385 0.086866
0.483714 0.173279 0.058631
0.518218 0.182448 0.047509
0.552337 0.186299 0.080636
0.583316 0.190529 0.131147
0.605443 0.194075 0.092558
0.627187 0.201003 0.072713
0.650935 0.205994 0.083693
0.682164 0.202859 0.137916
0.710479 0.197906 0.170944
0.738067 0.203340 0.166938
0.767535 0.200607 0.179889
0.798893 0.198644 0.213596
0.836171 0.187676 0.229887
0.876260 0.179972 0.239795
0.883889 0.185000 0.256920
0.903670 0.188894 0.275174
0.043106 0.081411 0.053518
0.070440 0.091948 0.059693
0.088219 0.098796 0.060576
0.107992 0.108685 0.059535
0.132043 0.114771 0.055569
0.155840 0.121160 0.046429
0.186164 0.128363 0.066670
0.204898 0.133830 0.029451
0.243196 0.143616 0.025115
0.270220 0.140548 0.070486
0.301653 0.155431 0.013420
0.327504 0.163696 0.038244
0.352033 0.167036 0.055474
0.369675 0.169316 0.009609
0.421190 0.176977 0.014206
0.441851 0.184143 0.059440
0.467019 0.186778 0.082422
0.491308 0.193310 0.025318
0.520750 0.200803 0.039827
0.558600 0.206740 0.090050
0.589074 0.208541 0.104920
0.610155 0.216502 0.071012
0.637243 0.222079 0.088488
0.667006 0.227289 0.130029
0.696471 0.225902 0.158728
0.718005 0.230784 0.158768
0.742729 0.231870 0.154326
0.779937 0.228252 0.212448
0.809986 0.223016 0.232384
0.838824 0.218781 0.221559
0.880416 0.214154 0.225078
0.901203 0.205817 0.259435
0.930330 0.205822 0.312351
0.037531 0.099519 0.056163
0.070514 0.107808 0.057991
0.084547 0.121652 0.051139
0.112865 0.128920 0.051180
0.139298 0.134265 0.059076
0.160436 0.144084 0.030302
0.191297 0.149961 0.061530
0.221153 0.156272 0.014815
0.252495 0.163139 0.045976
0.268435 0.169137 0.007982
0.313870 0.175782 0.001619
0.333167 0.182387 0.054169
0.353574 0.186478 0.032229
0.390039 0.193398 0.005233
0.420441 0.199193 0.010500
0.448345 0.205610 0.042392
0.472118 0.210881 0.017600
0.500025 0.217262 0.018704
0.529022 0.224300 0.047831
0.562816 0.231131 0.070231
0.589660 0.238633 0.041502
0.615212 0.241311 0.078477
0.643129 0.243345 0.105052
0.672640 0.247274 0.145581
0.703131 0.252473 0.149547
0.726872 0.257906 0.154722
0.749955 0.258957 0.173572
0.784802 0.252124 0.217465
0.816645 0.253908 0.228914
0.845375 0.248800 0.253590
0.880829 0.241898 0.250215
0.904368 0.232332 0.286284
0.930501 0.238564 0.321760
0.041121 0.126166 0.043895
0.074628 0.137089 0.056699
0.090806 0.141828 0.065471
0.115126 0.148879 0.043809
0.140257 0.155614 0.034367
0.167740 0.164794 0.044470
0.197633 0.171610 0.003618
0.228238 0.179312 0.006655
0.254219 0.185739 0.062624
0.290153 0.191931 0.000160
0.313843 0.201100 0.009866
0.336267 0.206662 0.019734
0.378586 0.208275 0.002861
0.399605 0.217833 0.004159
0.424258 0.222367 0.019169
0.444239 0.227632 0.007431
0.494104 0.234314 0.005050
0.510687 0.242754 0.020444
0.541147 0.246934 0.083768
0.569257 0.251592 0.046712
0.596250 0.261849 0.028704
0.620903 0.265950 0.059429
0.651947 0.270028 0.118120
0.680543 0.274776 0.142894
0.709763 0.279043 0.154124
0.734292 0.282336 0.167505
0.757700 0.282764 0.191522
0.792473 0.280994 0.209705
0.824707 0.275808 0.246731
0.850983 0.269832 0.268221
0.885780 0.266425 0.264660
0.917440 0.270625 0.232620
0.943059 0.277384 0.305349
0.056887 0.159389 0.065348
0.092063 0.173530 0.042323
0.094065 0.171553 0.028232
0.118363 0.175754 0.040204
0.137902 0.183703 0.012567
0.171001 0.191654 0.044905
0.205290 0.198069 0.000959
0.232058 0.205186 0.005041
0.265461 0.210143 0.002063
0.294314 0.219174 0.001535
0.320257 0.223879 0.020761
0.342975 0.227435 0.000468
0.377831 0.235122 0.000123
0.399702 0.244425 0.025146
0.430614 0.250499 0.056256
0.455200 0.254718 0.004289
0.489550 0.266125 0.003971
0.520484 0.272884 0.042630
0.548511 0.277952 0.031758
0.575183 0.280830 0.007694
0.603807 0.288062 0.019487
0.632342 0.291237 0.047341
0.663546 0.298471 0.066882
0.688187 0.306677 0.103599
0.710414 0.307937 0.141343
0.738164 0.309239 0.174505
0.770047 0.308178 0.200368
0.801572 0.308727 0.226871
0.827339 0.303283 0.267262
0.860381 0.299759 0.269994
0.899160 0.297194 0.247510
0.935632 0.295721 0.262154
0.959454 0.291717 0.313586
0.024463 0.181121 0.035446
0.046690 0.182156 0.024662
0.092377 0.197691 0.051891
0.119742 0.205598 0.029798
0.138730 0.208890 0.005664
0.165942 0.214650 0.000798
0.202242 0.225786 0.004575
0.235604 0.228900 0.015516
0.276721 0.232538 0.000233
0.296933 0.244495 0.000059
0.323796 0.249089 0.050826
0.356488 0.256459 0.000889
0.377468 0.261463 0.000904
0.402299 0.267921 0.001617
0.433085 0.272981 0.001095
0.464814 0.282080 0.001851
0.491560 0.286521 0.009281
0.524117 0.291428 0.006297
0.552508 0.297258 0.001604
0.590297 0.300344 0.003517
0.606551 0.310998 0.017593
0.637158 0.314114 0.104625
0.667355 0.321778 0.067618
0.689973 0.329674 0.088873
0.713328 0.331343 0.144485
0.743804 0.333980 0.181973
0.777142 0.332237 0.202642
0.808487 0.330217 0.249433
0.833186 0.326225 0.271204
0.869227 0.324067 0.255460
0.909931 0.323205 0.233829
0.946174 0.317029 0.252548
0.962214 0.312265 0.308259
0.027108 0.203651 0.064617
0.037342 0.216278 0.032236
0.092405 0.222166 0.008254
0.109526 0.221174 0.000270
0.146803 0.246519 0.080548
0.168048 0.237098 0.002908
0.207170 0.246892 0.000126
0.240978 0.253822 0.044198
0.275660 0.258864 0.000099
0.301817 0.264713 0.000058
0.323161 0.269655 0.000057
0.355455 0.281771 0.000288
0.386050 0.290927 0.007087
0.411598 0.291161 0.000865
0.438377 0.293971 0.000210
0.465380 0.308376 0.000207
0.498833 0.311337 0.055229
0.531884 0.316927 0.071581
0.550419 0.322058 0.001248
0.578714 0.330034 0.001861
0.611616 0.337139 0.027017
0.641928 0.343398 0.109983
0.672661 0.345843 0.055038
0.692921 0.354211 0.071873
0.723334 0.356385 0.123284
0.754894 0.358132 0.172826
0.780569 0.356289 0.218291
0.812474 0.354661 0.235447
0.843554 0.351957 0.242291
0.890680 0.348634 0.224128
0.929092 0.347935 0.228847
0.962081 0.352124 0.261225
0.963763 0.356177 0.293748
0.024145 0.211437 0.001301
0.027083 0.226992 0.000252
0.060270 0.228012 0.000347
0.104789 0.246706 0.009039
0.140580 0.262871 0.051634
0.168006 0.262659 0.004821
0.206607 0.270715 0.000173
0.248109 0.273339 0.000167
0.273323 0.292642 0.002699
0.301798 0.290488 0.000802
0.336153 0.294003 0.000080
0.358060 0.308118 0.000054
0.388958 0.315625 0.027012
0.417827 0.322062 0.086924
0.441696 0.322392 0.000157
0.465943 0.332762 0.000219
0.496721 0.334330 0.011379
0.528096 0.343833 0.000764
0.555403 0.348086 0.001144
0.582273 0.352907 0.003671
0.612807 0.359680 0.013642
0.641739 0.365308 0.003796
0.677317 0.369194 0.007393
0.698231 0.377037 0.075443
0.729771 0.378336 0.119869
0.763687 0.380000 0.165399
0.788334 0.379945 0.212917
0.822870 0.379055 0.232839
0.865406 0.375234 0.235347
0.899821 0.371553 0.231152
0.950019 0.364773 0.216537
0.963129 0.368662 0.259940
0.956364 0.428725 0.215411
0.027637 0.242629 0.052115
0.026355 0.265401 0.023129
0.050050 0.271518 0.061269
0.115679 0.282797 0.028088
0.135402 0.278860 0.000272
0.167790 0.290357 0.000352
0.202590 0.300924 0.003542
0.239417 0.302138 0.000079
0.272496 0.316127 0.000371
0.307343 0.317475 0.045235
0.334528 0.323499 0.000612
0.365417 0.329979 0.000073
0.385247 0.334984 0.000461
0.407458 0.341114 0.000081
0.442129 0.348544 0.000178
0.469840 0.354466 0.003003
0.500739 0.358488 0.000316
0.541270 0.355777 0.000110
0.564295 0.364338 0.000622
0.589925 0.377308 0.012386
0.622932 0.380183 0.008239
0.649010 0.384725 0.000242
0.676993 0.392582 0.002225
0.702821 0.398450 0.080166
0.737334 0.400212 0.126055
0.767835 0.401019 0.137297
0.796014 0.401083 0.195372
0.839218 0.401289 0.231717
0.869644 0.397336 0.216066
0.906858 0.394415 0.182877
0.959231 0.403548 0.188011
0.964651 0.398674 0.242660
0.960847 0.435232 0.235498
0.028502 0.303442 0.085779
0.025739 0.265861 0.015374
0.023796 0.280521 0.000272
0.096635 0.292774 0.000137
0.131512 0.297826 0.000395
0.155395 0.343274 0.089948
0.212791 0.326932 0.045253
0.234210 0.338842 0.007137
0.273029 0.332461 0.000109
0.301738 0.339859 0.000169
0.332505 0.349635 0.000190
0.365396 0.357207 0.001226
0.387660 0.355557 0.000097
0.417005 0.358466 0.000116
0.443372 0.370627 0.000194
0.475314 0.383401 0.026242
0.502412 0.380686 0.001549
0.531682 0.381808 0.000290
0.559631 0.388802 0.000282
0.592713 0.401206 0.041241
0.625050 0.407877 0.076408
0.653466 0.407116 0.001055
0.680040 0.413947 0.005633
0.715150 0.420201 0.024181
0.744124 0.427516 0.090165
0.774743 0.427104 0.112009
0.805446 0.428312 0.167335
0.839874 0.425163 0.239402
0.865514 0.420319 0.246256
0.892548 0.427051 0.189379
0.967392 0.422670 0.251706
0.967387 0.412748 0.255432
0.967670 0.422441 0.270133
0.026605 0.349270 0.084914
0.024699 0.314118 0.004162
0.023580 0.307275 0.000368
0.069404 0.324379 0.015065
0.130624 0.335585 0.019965
0.160807 0.340317 0.000297
0.200304 0.350095 0.000294
0.226360 0.365095 0.000240
0.270709 0.357823 0.000155
0.303213 0.360803 0.000126
0.336177 0.377756 0.000148
0.366694 0.386866 0.015165
0.393177 0.381572 0.000641
0.418331 0.384450 0.000146
0.441810 0.397114 0.000186
0.470626 0.404181 0.009759
0.503732 0.407932 0.004861
0.530366 0.406739 0.000237
0.562497 0.410071 0.000195
0.588701 0.421214 0.002741
0.615584 0.427479 0.000212
0.657165 0.429048 0.000219
0.685344 0.437096 0.004833
0.715311 0.441011 0.013165
0.748953 0.445890 0.016010
0.781546 0.450240 0.069414
0.808812 0.452761 0.158143
0.842359 0.450400 0.225847
0.879362 0.467468 0.213747
0.931879 0.423670 0.223547
0.945681 0.441283 0.195190
0.965387 0.421637 0.220207
0.973102 0.417907 0.360603
0.022510 0.353255 0.006892
0.024376 0.326652 0.003549
0.024670 0.359611 0.051012
0.028869 0.339001 0.016449
0.138844 0.353507 0.000557
0.153502 0.369413 0.000383
0.198129 0.367168 0.000160
0.234462 0.374120 0.000081
0.266775 0.385244 0.001432
0.307806 0.384478 0.000160
0.338730 0.393018 0.000126
0.358537 0.404335 0.002424
0.394020 0.406224 0.017840
0.413038 0.411817 0.000140
0.438965 0.421084 0.000174
0.463943 0.423874 0.000204
0.505289 0.425170 0.000196
0.532726 0.434228 0.000157
0.563676 0.443067 0.004481
0.592599 0.443054 0.000121
0.633329 0.438482 0.000128
0.662252 0.449430 0.000140
0.691034 0.463014 0.030641
0.720801 0.465679 0.030790
0.750487 0.466305 0.005562
0.786167 0.475085 0.062385
0.819686 0.472273 0.152987
0.827755 0.476496 0.201374
0.856884 0.469907 0.086535
0.951886 0.473526 0.091958
0.970763 0.484239 0.248476
0.973141 0.445723 0.334760
0.975188 0.438863 0.379005
0.023844 0.342471 0.000279
0.023292 0.368116 0.018065
0.024483 0.359228 0.032468
0.023466 0.374300 0.021374
0.055586 0.348998 0.000294
0.147303 0.379005 0.000217
0.228424 0.393411 0.000185
0.225654 0.396610 0.000098
0.276901 0.410093 0.043229
0.297624 0.412774 0.000167
0.340830 0.418174 0.000128
0.360632 0.423854 0.000128
0.390641 0.426980 0.000089
0.412167 0.438163 0.000132
0.448895 0.450780 0.002215
0.473282 0.448214 0.000133
0.515840 0.450350 0.000213
0.537430 0.464920 0.000148
0.576350 0.470788 0.068537
0.605182 0.464990 0.000086
0.633474 0.468966 0.000053
0.659641 0.479989 0.000114
0.696932 0.487467 0.022679
0.722322 0.495686 0.074005
0.754603 0.492700 0.006747
0.777115 0.500966 0.034068
0.786988 0.510344 0.096379
0.812215 0.512996 0.157733
0.899940 0.519817 0.207563
0.971395 0.405199 0.372692
0.971144 0.485636 0.253508
0.973582 0.463470 0.318613
0.975298 0.485103 0.340952
0.021688 0.351498 0.000309
0.023122 0.387866 0.026086
0.019490 0.382411 0.000277
0.021199 0.357929 0.000186
0.020242 0.393034 0.000182
0.099355 0.397965 0.000344
0.198571 0.435281 0.044457
0.223117 0.435919 0.000272
0.264662 0.431353 0.000174
0.292558 0.445821 0.000172
0.332247 0.451789 0.000170
0.370419 0.445627 0.000081
0.401288 0.450818 0.000045
0.418165 0.468368 0.000107
0.458230 0.480980 0.085271
0.479625 0.472788 0.000090
0.509773 0.477258 0.000052
0.536267 0.489856 0.000085
0.575457 0.491205 0.027995
0.600072 0.495856 0.000092
0.634909 0.496288 0.000083
0.660218 0.502423 0.000121
0.687137 0.511940 0.000132
0.718491 0.512165 0.000313
0.752736 0.519590 0.003065
0.774094 0.525495 0.026911
0.810269 0.530318 0.081597
0.848240 0.524821 0.003881
0.950108 0.515938 0.063485
0.968556 0.507451 0.183372
0.975356 0.471634 0.350105
0.975766 0.508010 0.325518
0.978248 0.503082 0.385556
0.019747 0.390019 0.000282
0.023226 0.440857 0.067367
0.031019 0.430272 0.000562
0.020282 0.447927 0.007655
0.021149 0.447035 0.016897
0.024007 0.409771 0.000243
0.186266 0.445098 0.001161
0.281949 0.442943 0.000115
0.266063 0.451879 0.000099
0.288946 0.465795 0.000056
0.327744 0.489948 0.072413
0.365534 0.475249 0.000223
0.395284 0.480986 0.000049
0.422717 0.490729 0.000119
0.448319 0.500590 0.000332
0.474708 0.497775 0.000072
0.511912 0.507876 0.000068
0.540152 0.512612 0.000078
0.564805 0.514182 0.000070
0.610187 0.514717 0.000092
0.633575 0.523588 0.000102
0.665055 0.537145 0.006174
0.683632 0.537829 0.000172
0.718968 0.541957 0.000088
0.754017 0.551664 0.002154
0.785991 0.554235 0.060086
0.813110 0.560483 0.054537
0.859334 0.560941 0.149648
0.980086 0.553542 0.372635
0.978110 0.494589 0.383050
0.978057 0.502860 0.370879
0.974949 0.526677 0.290121
0.977425 0.521658 0.340103
0.018641 0.418187 0.000318
0.021401 0.442693 0.006323
0.020482 0.483697 0.007631
0.021222 0.456385 0.023690
0.016888 0.448616 0.000295
0.018796 0.446489 0.000444
0.080518 0.435334 0.000396
0.255508 0.469962 0.000168
0.269291 0.480497 0.000159
0.293175 0.488200 0.000116
0.325269 0.501851 0.000185
0.362242 0.504289 0.000156
0.398608 0.512246 0.000158
0.428986 0.516340 0.000123
0.446256 0.519458 0.000084
0.487371 0.519770 0.000029
0.511165 0.534317 0.000072
0.547992 0.541341 0.001008
0.575818 0.538234 0.000049
0.609885 0.543826 0.000089
0.631019 0.557122 0.000144
0.679562 0.565865 0.141996
0.693619 0.563642 0.000195
0.724427 0.568916 0.000201
0.757745 0.578860 0.002022
0.792887 0.582121 0.018290
0.805481 0.585555 0.041923
0.894657 0.587323 0.154427
0.983122 0.547985 0.441831
0.981103 0.539548 0.396261
0.979176 0.541116 0.352634
0.978274 0.544257 0.335412
0.979719 0.531387 0.379649
0.017155 0.476753 0.000460
0.020972 0.495541 0.033357
0.019773 0.478196 0.004268
0.019670 0.480448 0.003121
0.022527 0.477635 0.000340
0.017362 0.479721 0.000348
0.027432 0.465289 0.000414
0.239974 0.504028 0.007884
0.273682 0.510638 0.000278
0.288717 0.513663 0.000190
0.320762 0.523201 0.000176
0.363436 0.523704 0.000218
0.395080 0.548536 0.000248
0.431399 0.544691 0.000071
0.451002 0.541825 0.000053
0.486225 0.546376 0.000028
0.516619 0.564683 0.000137
0.559832 0.566929 0.061259
0.575439 0.561398 0.000034
0.604023 0.572088 0.000112
0.634490 0.582722 0.000156
0.666550 0.588460 0.000555
0.701144 0.586139 0.000183
0.725394 0.597021 0.000153
0.747854 0.607086 0.000479
0.787526 0.610750 0.000371
0.805682 0.626271 0.017339
0.866405 0.616568 0.111717
0.982158 0.601150 0.375731
0.983715 0.590155 0.411927
0.983399 0.574995 0.418387
0.981626 0.573537 0.384390
0.980231 0.593505 0.334311
0.018550 0.481571 0.001153
0.015540 0.480426 0.000522
0.015903 0.458826 0.000090
0.015724 0.496927 0.000282
0.016066 0.491776 0.000276
0.019670 0.537395 0.013729
0.069831 0.508088 0.000531
0.223736 0.542345 0.048081
0.274654 0.537746 0.000168
0.287727 0.539922 0.000259
0.321299 0.544545 0.000241
0.369034 0.547153 0.000164
0.394914 0.567441 0.000216
0.432569 0.566117 0.002706
0.457940 0.565572 0.000033
0.489338 0.571647 0.000064
0.515224 0.582540 0.000089
0.551210 0.588673 0.001552
0.574657 0.587437 0.000074
0.607507 0.601982 0.000125
0.649034 0.604834 0.000142
0.668503 0.607668 0.000176
0.712583 0.606627 0.000033
0.728908 0.626019 0.000448
0.760262 0.631958 0.009291
0.782116 0.638624 0.000099
0.780230 0.645174 0.005940
0.898119 0.633067 0.166978
0.979052 0.656647 0.262523
0.981943 0.625198 0.349695
0.979229 0.598392 0.305844
0.979230 0.597661 0.305808
0.980602 0.621264 0.326294
0.017910 0.499438 0.001568
0.015370 0.492659 0.000142
0.015052 0.528499 0.000462
0.022204 0.528787 0.065115
0.025952 0.524340 0.008880
0.023124 0.524221 0.007093
0.015451 0.500276 0.000342
0.066334 0.529479 0.000465
0.320215 0.545772 0.000450
0.321241 0.568982 0.014627
0.328709 0.568729 0.000073
0.355399 0.569733 0.000113
0.397061 0.581704 0.000167
0.431364 0.588845 0.000861
0.455827 0.590466 0.000049
0.488749 0.606578 0.000082
0.523382 0.603172 0.000094
0.543283 0.609490 0.000084
0.591044 0.608321 0.000120
0.617247 0.634283 0.001967
0.654064 0.633477 0.000549
0.682610 0.635164 0.000095
0.705392 0.646291 0.000081
0.739169 0.651969 0.001515
0.758540 0.654091 0.018609
0.767321 0.671234 0.000077
0.774991 0.673245 0.004959
0.842883 0.678392 0.079125
0.978672 0.678354 0.240625
0.979392 0.615525 0.290092
0.980821 0.666471 0.302455
0.980683 0.621915 0.324098
0.982715 0.658325 0.347680
0.015412 0.537864 0.000428
0.017476 0.539731 0.000389
0.019719 0.529991 0.013161
0.022740 0.560818 0.073974
0.019959 0.502779 0.016218
0.016691 0.540069 0.000086
0.013876 0.547398 0.000516
0.014526 0.554228 0.000428
0.260409 0.570195 0.000507
0.313807 0.592993 0.000208
0.330298 0.591939 0.000346
0.349054 0.596219 0.000177
0.393578 0.601248 0.000167
0.419716 0.612059 0.000125
0.456019 0.612403 0.000067
0.498789 0.638901 0.001082
0.535445 0.629345 0.000102
0.562399 0.632041 0.000155
0.594463 0.643582 0.000225
0.621967 0.662568 0.000361
0.648319 0.660430 0.000369
0.681758 0.664031 0.000128
0.706434 0.681809 0.000067
0.735386 0.685619 0.000075
0.757246 0.688126 0.000106
0.760587 0.699434 0.000129
0.801317 0.699594 0.016910
0.872941 0.692440 0.112372
0.982143 0.675470 0.317718
0.982325 0.668007 0.335749
0.981444 0.682147 0.310777
0.980670 0.665444 0.295291
0.982707 0.682688 0.351278
0.014129 0.590661 0.000294
0.013917 0.569740 0.000251
0.014017 0.560242 0.000269
0.019655 0.555017 0.019064
0.020025 0.551384 0.029249
0.021530 0.567688 0.047953
0.020142 0.574772 0.020650
0.016031 0.575355 0.000295
0.238369 0.612936 0.000199
0.344093 0.609077 0.000078
0.331174 0.615464 0.000075
0.321967 0.636648 0.000125
0.388015 0.626122 0.000139
0.422520 0.635122 0.000081
0.471578 0.635243 0.000146
0.495469 0.669668 0.000263
0.533152 0.661288 0.007311
0.571860 0.655191 0.000130
0.599743 0.675346 0.000114
0.622409 0.684025 0.000041
0.639804 0.687866 0.000091
0.685217 0.703179 0.000130
0.706913 0.713197 0.000317
0.735514 0.718275 0.000144
0.763734 0.721656 0.000097
0.771505 0.725063 0.000282
0.815796 0.718988 0.064900
0.897355 0.715126 0.094901
0.980031 0.710975 0.284170
0.979968 0.669876 0.272369
0.980971 0.715980 0.310048
0.980194 0.720333 0.278347
0.978981 0.720260 0.245314
0.015314 0.568856 0.000167
0.014091 0.563023 0.000314
0.013576 0.577654 0.000510
0.014342 0.574178 0.000416
0.016424 0.588762 0.000277
0.013614 0.611060 0.000169
0.014610 0.595931 0.000145
0.017220 0.607009 0.006391
0.255292 0.620520 0.000386
0.283511 0.634669 0.000158
0.324523 0.636851 0.000124
0.300356 0.668876 0.010125
0.385364 0.658005 0.000212
0.430391 0.657539 0.000082
0.482309 0.663629 0.000154
0.499730 0.677267 0.000076
0.517068 0.689507 0.000293
0.568288 0.690800 0.000133
0.599060 0.717328 0.000393
0.633181 0.710145 0.000085
0.659335 0.720160 0.000162
0.674896 0.738076 0.000176
0.715815 0.729829 0.044994
0.739493 0.742359 0.000234
0.761512 0.751905 0.000232
0.800001 0.750706 0.001940
0.816971 0.757676 0.000103
0.832182 0.748975 0.054858
0.977376 0.745379 0.280105
0.980957 0.741145 0.320408
0.981377 0.739037 0.328025
0.981575 0.730792 0.329398
0.978996 0.743815 0.273352
0.014325 0.597457 0.000261
0.015752 0.604310 0.000271
0.014253 0.584562 0.000278
0.016652 0.617491 0.005237
0.017237 0.617315 0.006436
0.014935 0.615513 0.000204
0.015045 0.615881 0.000216
0.016825 0.621683 0.006647
0.014261 0.625557 0.000205
0.286321 0.660021 0.000120
0.326808 0.662385 0.000062
0.316690 0.693667 0.000134
0.396492 0.689488 0.012333
0.428110 0.686217 0.000066
0.473314 0.700352 0.000069
0.501678 0.704538 0.000079
0.525660 0.713394 0.000083
0.565222 0.733719 0.000129
0.598471 0.743313 0.009027
0.624949 0.743566 0.000404
0.657979 0.754122 0.000263
0.690259 0.762288 0.000258
0.715281 0.758412 0.000014
0.740457 0.771692 0.000110
0.756991 0.785224 0.000316
0.805119 0.784950 0.000385
0.794459 0.788831 0.000167
0.854531 0.769058 0.132649
0.935008 0.789399 0.189915
0.978875 0.782025 0.280888
0.979480 0.765094 0.290435
0.981778 0.747363 0.348109
0.981375 0.765681 0.342954
0.015800 0.637312 0.004819
0.019040 0.638024 0.024609
0.018812 0.644171 0.023580
0.015847 0.644694 0.000824
0.014437 0.633525 0.000244
0.012853 0.626908 0.000217
0.012633 0.632365 0.000770
0.012700 0.641082 0.000430
0.012821 0.640729 0.000991
0.091104 0.696988 0.000311
0.344419 0.690993 0.000116
0.365616 0.697674 0.000139
0.379711 0.710832 0.000388
0.417960 0.718021 0.000064
0.451844 0.746761 0.000345
0.508107 0.733231 0.000196
0.549312 0.743421 0.000069
0.574510 0.760101 0.000155
0.593098 0.766459 0.000273
0.602883 0.776330 0.000189
0.654907 0.797663 0.000323
0.694705 0.794935 0.000148
0.724661 0.797671 0.000450
0.743632 0.808288 0.000320
0.770322 0.803811 0.021737
0.792868 0.811960 0.000218
0.796323 0.818404 0.000072
0.858648 0.799039 0.162954
0.963224 0.802802 0.213661
0.976584 0.829055 0.239339
0.979048 0.800603 0.293812
0.982062 0.767076 0.371897
0.981305 0.794843 0.368685
0.012885 0.622236 0.000337
0.015923 0.646270 0.000411
0.012353 0.646933 0.000390
0.012176 0.659997 0.000717
0.013840 0.665352 0.000239
0.011971 0.665117 0.000103
0.015407 0.672108 0.000798
0.011807 0.674706 0.000751
0.011272 0.683043 0.000451
0.011244 0.699685 0.000313
0.172461 0.700330 0.000309
0.420206 0.722411 0.000051
0.394501 0.733614 0.000053
0.421126 0.742073 0.000162
0.434724 0.768118 0.017178
0.489923 0.760511 0.000277
0.541776 0.784356 0.000145
0.581213 0.794601 0.000245
0.600657 0.798140 0.000243
0.632396 0.812839 0.000381
0.654843 0.823344 0.002582
0.688374 0.817072 0.000058
0.731735 0.824824 0.000174
0.749284 0.832821 0.000283
0.786345 0.818196 0.037003
