calib/fujify/composed_cubes/pro_neg_std_composed.cube
TITLE "Chromasmith composed - Pro Neg Std"
#STD_q(x) = VLOG_q(T(x)), T derived from astia/velvia/classic_neg matched pairs
LUT_3D_SIZE 5
0.041907 0.042755 0.044854
0.222771 0.076821 0.076469
0.452125 0.140838 0.056828
0.667069 0.141721 0.131672
0.889495 0.094498 0.327289
0.027108 0.203651 0.064617
0.275660 0.258864 0.000099
0.498833 0.311337 0.055229
0.723334 0.356385 0.123284
0.963763 0.356177 0.293748
0.019747 0.390019 0.000282
0.266063 0.451879 0.000099
0.511912 0.507876 0.000068
0.754017 0.551664 0.002154
0.977425 0.521658 0.340103
0.014325 0.597457 0.000261
0.014261 0.625557 0.000205
0.525660 0.713394 0.000083
0.756991 0.785224 0.000316
0.981375 0.765681 0.342954
0.004473 0.821494 0.000609
0.000861 0.916278 0.000343
0.628669 0.965275 0.000412
0.796766 0.998351 0.000191
0.967732 0.999483 0.214670
0.023242 0.053242 0.164072
0.231991 0.090080 0.221804
0.465659 0.145959 0.274770
0.689541 0.154081 0.326008
0.915693 0.070476 0.474515
0.035797 0.232042 0.213017
0.274645 0.277360 0.271245
0.496614 0.318688 0.295677
0.734496 0.354961 0.348931
0.971730 0.372086 0.412812
0.028932 0.416896 0.235759
0.279057 0.468885 0.266309
0.524628 0.512836 0.320629
0.735831 0.565364 0.332916
0.983844 0.535543 0.465969
0.026586 0.593261 0.225178
0.038842 0.655510 0.239546
0.525650 0.732098 0.276267
0.778212 0.763915 0.311619
0.986017 0.774535 0.500629
0.016196 0.833308 0.220091
0.007564 0.968876 0.234956
0.214306 0.999959 0.000659
0.739937 0.999510 0.000103
0.969404 0.999693 0.291609
0.032767 0.065396 0.328658
0.214257 0.064241 0.380026
0.456956 0.129530 0.452519
0.705274 0.165125 0.505142
0.954909 0.092771 0.596165
0.038715 0.241624 0.386219
0.271148 0.287777 0.439375
0.492309 0.318526 0.486983
0.714200 0.385179 0.519463
0.976518 0.322656 0.574499
0.035279 0.419678 0.409583
0.267365 0.482728 0.459527
0.518955 0.520384 0.503297
0.728373 0.562153 0.537905
0.991589 0.563701 0.604034
0.031408 0.628959 0.436129
0.034190 0.677852 0.447819
0.526531 0.733956 0.491905
0.774451 0.771295 0.532301
0.989697 0.774538 0.603777
0.019770 0.853975 0.431894
0.120147 0.906827 0.433975
0.046853 0.998066 0.417348
0.713588 0.999598 0.423121
0.979095 0.999026 0.603142
0.046885 0.134942 0.559276
0.197934 0.014695 0.553543
0.454183 0.111592 0.637461
0.709268 0.159891 0.671504
0.965501 0.093621 0.762140
0.043286 0.261354 0.566399
0.271799 0.287044 0.599425
0.485289 0.325886 0.648622
0.732741 0.376389 0.709670
0.984396 0.324036 0.738794
0.041518 0.463479 0.608086
0.294987 0.493928 0.663341
0.512961 0.527776 0.717683
0.742761 0.566342 0.747252
0.997460 0.534041 0.763027
0.037525 0.629957 0.634155
0.173244 0.712187 0.659010
0.514496 0.739783 0.720418
0.770355 0.766498 0.754901
0.995254 0.791239 0.787221
0.022087 0.869286 0.669742
0.020521 0.894604 0.670931
0.190828 0.994818 0.683240
0.782089 0.992026 0.745477
0.986546 0.999754 0.767760
0.067455 0.084465 0.664197
0.295370 0.042980 0.723983
0.531992 0.152402 0.992300
0.732340 0.223972 0.964316
0.983565 0.243695 0.824925
0.053499 0.234231 0.843795
0.267418 0.287339 0.841345
0.518803 0.416105 0.998047
0.753766 0.446015 0.989259
0.998286 0.377421 0.933349
0.046846 0.541375 0.855956
0.320017 0.509881 0.999667
0.538119 0.434721 0.999696
0.736075 0.615102 0.999544
0.999770 0.614004 0.947304
0.038138 0.695727 0.816958
0.122848 0.733521 0.999777
0.494630 0.779493 0.999656
0.788838 0.756896 0.999528
0.999673 0.773932 0.999265
0.009891 0.997003 0.635803
0.063665 0.885916 0.978783
0.518381 0.914717 0.995419
0.790166 0.946225 0.994714
0.989404 0.995134 0.979897
