calib/BEACH LUT/my_look_v1.0-4.cube
TITLE "my_look_v1.0"
LUT_3D_SIZE 33
0.001961 0.002614 0.000654
0.015686 0.002313 0.000704
0.038344 0.002397 0.000763
0.070098 0.002549 0.001176
0.102765 0.002614 0.001709
0.132135 0.002505 0.002397
0.159314 0.002549 0.003627
0.189902 0.002353 0.004314
0.218487 0.002353 0.005266
0.245882 0.001765 0.006765
0.273312 0.001634 0.008388
0.297335 0.001408 0.009754
0.325588 0.001471 0.013431
0.349916 0.001345 0.015462
0.373235 0.001176 0.016765
0.397353 0.001078 0.019216
0.420980 0.000784 0.019902
0.438207 0.000784 0.020280
0.459412 0.000784 0.021176
0.481471 0.000784 0.020392
0.501289 0.000784 0.019496
0.520098 0.000784 0.018235
0.540774 0.000704 0.016189
0.559041 0.000000 0.012418
0.581373 0.000000 0.007451
0.607743 0.000000 0.003720
0.632135 0.000000 0.000436
0.659902 0.000000 0.000000
0.694822 0.000000 0.000000
0.734481 0.003061 0.002391
0.773431 0.000000 0.000000
0.826144 0.000934 0.000467
0.869888 0.001401 0.000840
0.007407 0.023094 0.000654
0.022569 0.025450 0.001120
0.047826 0.024297 0.001279
0.074259 0.022695 0.005423
0.103119 0.024688 0.007219
0.131414 0.023613 0.008427
0.161029 0.023284 0.008824
0.189624 0.023529 0.009641
0.216354 0.018023 0.009428
0.247386 0.017484 0.011275
0.273109 0.014659 0.013072
0.298039 0.010866 0.015768
0.325572 0.009477 0.018791
0.352194 0.008777 0.022502
0.373448 0.007598 0.022958
0.399101 0.006699 0.024592
0.419699 0.007022 0.025353
0.439383 0.005590 0.026950
0.460703 0.005637 0.025817
0.478887 0.005290 0.024715
0.498456 0.003838 0.022945
0.519771 0.004248 0.022141
0.538440 0.004013 0.020246
0.558448 0.002753 0.015686
0.585868 0.005771 0.011839
0.606566 0.002006 0.007114
0.631706 0.001335 0.002086
0.662827 0.000245 0.000654
0.694756 0.000000 0.000091
0.731944 0.000654 0.000408
0.774635 0.000000 0.000000
0.822969 0.001521 0.000960
0.870153 0.000763 0.000654
0.010349 0.051852 0.001089
0.027124 0.055637 0.000817
0.054236 0.056974 0.001776
0.083690 0.056061 0.001515
0.105286 0.046718 0.007332
0.133170 0.044199 0.012092
0.160428 0.041889 0.013815
0.188235 0.039549 0.014685
0.219118 0.039297 0.016912
0.248244 0.037939 0.018787
0.273258 0.033375 0.020776
0.300245 0.030392 0.022222
0.326676 0.027269 0.024897
0.351606 0.023196 0.027868
0.374428 0.017320 0.028186
0.397994 0.014683 0.030187
0.419858 0.010513 0.030038
0.438807 0.008497 0.030392
0.459918 0.008117 0.030734
0.479662 0.009612 0.027759
0.499755 0.006209 0.028350
0.518924 0.006658 0.026357
0.536504 0.004839 0.022945
0.558905 0.004248 0.018954
0.581462 0.005437 0.014439
0.604005 0.003087 0.007593
0.633333 0.003268 0.003350
0.661103 0.002280 0.001094
0.693200 0.001001 0.000501
0.732435 0.000327 0.000000
0.774332 0.000089 0.000000
0.822172 0.001885 0.000980
0.871351 0.000654 0.000109
0.012636 0.085403 0.001198
0.031863 0.088399 0.001307
0.059050 0.089442 0.002187
0.087879 0.090018 0.001070
0.116095 0.087908 0.001225
0.141979 0.079234 0.006863
0.164024 0.068883 0.013640
0.189134 0.063399 0.018709
0.218004 0.062389 0.022549
0.245183 0.060443 0.025661
0.273856 0.058660 0.027778
0.301693 0.056952 0.030481
0.325916 0.052771 0.032822
0.351961 0.048693 0.034559
0.374008 0.042499 0.035477
0.397330 0.037463 0.037213
0.419363 0.028595 0.036356
0.439297 0.023448 0.037010
0.459851 0.017180 0.036695
0.478912 0.012565 0.034814
0.498874 0.008344 0.031957
0.518468 0.007296 0.030825
0.538562 0.006944 0.028513
0.560033 0.006508 0.023863
0.580575 0.005472 0.017328
0.605964 0.004657 0.011928
0.632708 0.004255 0.005257
0.661286 0.003648 0.001550
0.695343 0.003105 0.001062
0.734466 0.002353 0.000261
0.779373 0.002902 0.000784
0.820808 0.000400 0.000160
0.874510 0.000436 0.000000
0.012418 0.116449 0.001089
0.032127 0.119457 0.001433
0.059782 0.121830 0.001307
0.088694 0.121068 0.000584
0.120818 0.121819 0.000668
0.150844 0.122572 0.000912
0.176144 0.112663 0.004085
0.198203 0.097549 0.013725
0.219981 0.089356 0.022782
0.245670 0.085458 0.029739
0.275409 0.084722 0.035948
0.301774 0.083007 0.038936
0.327288 0.080801 0.041748
0.352078 0.075059 0.041020
0.375861 0.072418 0.042876
0.398284 0.066748 0.045833
0.422386 0.061928 0.047467
0.439033 0.055176 0.046238
0.459241 0.044723 0.044556
0.480192 0.036094 0.042577
0.498951 0.024989 0.040492
0.518481 0.017105 0.038798
0.539624 0.010703 0.034395
0.558869 0.008938 0.030461
0.581143 0.007092 0.024030
0.606091 0.007092 0.017021
0.631729 0.006061 0.008913
0.662411 0.004339 0.002753
0.696160 0.004248 0.001389
0.734734 0.004108 0.001401
0.777705 0.006972 0.002179
0.823780 0.002420 0.000000
0.871966 0.003498 0.000954
0.009368 0.149455 0.000654
0.026275 0.152235 0.001804
0.057545 0.154135 0.001194
0.091340 0.156209 0.001307
0.123849 0.157592 0.000730
0.153358 0.156362 0.000334
0.187582 0.156944 0.000735
0.213862 0.149202 0.002827
0.231071 0.129940 0.011538
0.253513 0.119118 0.026471
0.276790 0.112813 0.037483
0.300209 0.107968 0.044222
0.327042 0.105310 0.048775
0.352317 0.103030 0.051248
0.375553 0.098707 0.054902
0.398611 0.094935 0.055392
0.419790 0.088098 0.054172
0.436879 0.081435 0.054485
0.459232 0.075490 0.053268
0.478796 0.067214 0.052166
0.497705 0.057572 0.049562
0.518382 0.047631 0.047467
0.536799 0.034473 0.042864
0.557280 0.020526 0.037463
0.581127 0.012990 0.032353
0.612337 0.014379 0.023448
0.631373 0.007009 0.015353
0.662500 0.006536 0.005229
0.695989 0.005793 0.002763
0.732992 0.004518 0.001449
0.776307 0.005719 0.001144
0.825370 0.005282 0.000720
0.872767 0.004466 0.000327
0.008669 0.182147 0.001651
0.021634 0.185098 0.002157
0.055900 0.187166 0.001569
0.090334 0.186722 0.002270
0.121859 0.190196 0.001162
0.156364 0.191729 0.000998
0.189140 0.192232 0.000830
0.220116 0.192302 0.000944
0.248319 0.185294 0.002591
0.269231 0.170362 0.009879
0.287828 0.153977 0.025231
0.306443 0.142437 0.039636
0.328181 0.135640 0.050365
0.350690 0.129847 0.057226
0.374650 0.126120 0.061975
0.397386 0.122722 0.064206
0.419180 0.116863 0.065811
0.437219 0.111016 0.065241
0.458964 0.104622 0.064216
0.477647 0.097098 0.062353
0.497754 0.088699 0.060392
0.517861 0.079786 0.056756
0.538716 0.072126 0.054979
0.559430 0.058538 0.048913
0.582622 0.046982 0.044444
0.606443 0.027031 0.033053
0.633725 0.014831 0.024171
0.664253 0.010407 0.012896
0.697967 0.007335 0.003994
0.736134 0.008193 0.003081
0.779412 0.006863 0.002112
0.825526 0.006631 0.001711
0.874883 0.007190 0.003361
0.006592 0.210847 0.001418
0.018462 0.212127 0.001448
0.051927 0.213928 0.001217
0.085723 0.215319 0.000797
0.119950 0.218674 0.000685
0.151995 0.220014 0.000879
0.184314 0.220293 0.000685
0.217096 0.220404 0.000797
0.248682 0.220892 0.000744
0.278307 0.217616 0.000996
0.299622 0.202683 0.007912
0.316667 0.185233 0.024326
0.333769 0.168503 0.042390
0.351772 0.158927 0.054283
0.373162 0.152328 0.063542
0.394522 0.145658 0.068223
0.415749 0.139434 0.069966
0.435227 0.136511 0.072481
0.456066 0.129534 0.073039
0.476597 0.122707 0.071917
0.495876 0.117309 0.070723
0.514645 0.108885 0.067463
0.537761 0.101518 0.066161
0.558215 0.093442 0.061122
0.580331 0.080331 0.054105
0.606349 0.065795 0.046685
0.631508 0.047667 0.035362
0.662683 0.026393 0.022596
0.697603 0.013694 0.008279
0.736642 0.014461 0.004534
0.778462 0.006847 0.001432
0.830453 0.008027 0.001961
0.875572 0.006536 0.001552
0.005042 0.242670 0.000934
0.012885 0.242367 0.001611
0.048091 0.243963 0.001514
0.084635 0.245062 0.000713
0.119294 0.248157 0.000706
0.150560 0.249510 0.000560
0.184742 0.250553 0.000570
0.214566 0.246499 0.002311
0.249790 0.252871 0.000490
0.283422 0.251979 0.000499
0.313569 0.250431 0.000314
0.335224 0.235784 0.004762
0.351515 0.213761 0.021462
0.365412 0.196000 0.040863
0.379342 0.181162 0.057843
0.397362 0.169554 0.069519
0.416314 0.162667 0.075216
0.433193 0.156933 0.079342
0.455686 0.151658 0.081711
0.473255 0.144706 0.080235
0.494468 0.139286 0.080602
0.515080 0.132406 0.078289
0.535137 0.126824 0.075765
0.557143 0.118838 0.071639
0.584828 0.110190 0.062231
0.603765 0.097725 0.057176
0.631443 0.085434 0.048039
0.664314 0.067237 0.034510
0.697412 0.045412 0.018431
0.735854 0.019048 0.003992
0.781319 0.007487 0.000570
0.828896 0.007912 0.002339
0.876471 0.003455 0.001027
0.007563 0.275257 0.002148
0.008403 0.272899 0.001050
0.042951 0.275132 0.002490
0.080912 0.276831 0.000960
0.115756 0.278641 0.000770
0.150802 0.280927 0.000499
0.183137 0.281961 0.000706
0.216387 0.283263 0.000700
0.251123 0.285847 0.000570
0.283765 0.285647 0.000706
0.314146 0.284384 0.000770
0.346738 0.283209 0.000642
0.371529 0.272078 0.002510
0.385644 0.250070 0.016667
0.398217 0.227237 0.039501
0.408784 0.209176 0.055529
0.421849 0.194188 0.069258
0.435574 0.184384 0.076751
0.454022 0.176311 0.082193
0.476117 0.170620 0.079974
0.493487 0.163375 0.085924
0.513645 0.158383 0.086275
0.533543 0.151751 0.084034
0.556303 0.144188 0.081092
0.578551 0.136695 0.076030
0.603151 0.127871 0.069048
0.632283 0.117577 0.059664
0.661945 0.104682 0.047219
0.697479 0.090966 0.032493
0.738610 0.069305 0.013191
0.781546 0.041676 0.002461
0.828843 0.019228 0.001834
0.881233 0.008497 0.000654
0.006618 0.304820 0.000654
0.009110 0.304917 0.001327
0.033679 0.304729 0.001384
0.074577 0.306423 0.000676
0.113787 0.309130 0.000674
0.146779 0.310504 0.000630
0.179841 0.312868 0.000551
0.215748 0.314706 0.000674
0.249090 0.316877 0.000770
0.280392 0.316973 0.000735
0.314161 0.316340 0.001183
0.343997 0.314826 0.002064
0.375000 0.312868 0.003064
0.401471 0.302206 0.004473
0.417957 0.284142 0.013347
0.429473 0.262010 0.031495
0.440931 0.241299 0.051348
0.450474 0.225427 0.065085
0.463016 0.213320 0.072008
0.480095 0.201426 0.078669
0.497660 0.193042 0.084820
0.515483 0.186072 0.085463
0.534926 0.178125 0.086765
0.557622 0.171094 0.086085
0.578702 0.163421 0.082285
0.603186 0.154963 0.076532
0.631436 0.145098 0.068374
0.662475 0.135227 0.058959
0.697549 0.123591 0.044363
0.737530 0.112556 0.027795
0.784258 0.096382 0.010715
0.831495 0.075184 0.003186
0.880882 0.050817 0.002369
0.008252 0.333415 0.000817
0.011877 0.333389 0.001513
0.021569 0.334483 0.000609
0.064767 0.336275 0.000551
0.107084 0.338330 0.000633
0.144557 0.340906 0.000406
0.177941 0.342524 0.000490
0.214317 0.345347 0.000747
0.246261 0.345630 0.000997
0.281495 0.349694 0.000490
0.314042 0.349083 0.000569
0.346383 0.348614 0.001149
0.377390 0.347120 0.001900
0.406459 0.335236 0.003633
0.433131 0.335700 0.004936
0.451348 0.317402 0.008395
0.463567 0.293295 0.027641
0.469709 0.274104 0.042799
0.478186 0.253125 0.059681
0.488615 0.235800 0.072612
0.503719 0.225423 0.080527
0.518260 0.213848 0.084926
0.537571 0.204617 0.088678
0.558485 0.199053 0.089182
0.580814 0.190468 0.086817
0.606660 0.181886 0.083473
0.630832 0.173631 0.076944
0.663664 0.165993 0.069363
0.700379 0.155661 0.056989
0.738472 0.145301 0.041312
0.784202 0.136078 0.022353
0.835784 0.122917 0.006311
0.882108 0.111275 0.004984
0.007760 0.363788 0.001252
0.010317 0.364223 0.000845
0.015566 0.365430 0.000483
0.054902 0.366822 0.000747
0.098107 0.367748 0.000338
0.138174 0.370343 0.000429
0.175079 0.373055 0.000253
0.208181 0.374848 0.000203
0.242353 0.372157 0.002185
0.279823 0.380266 0.000443
0.312170 0.381001 0.000406
0.345221 0.381373 0.000551
0.379064 0.381214 0.000633
0.408993 0.379310 0.001420
0.439032 0.376593 0.002451
0.468248 0.370272 0.003732
0.485260 0.352333 0.006220
0.494056 0.330760 0.014277
0.502272 0.304264 0.035917
0.508249 0.281542 0.052603
0.516912 0.263297 0.067770
0.526860 0.246001 0.078556
0.541864 0.235569 0.083179
0.560907 0.226042 0.087500
0.582037 0.216129 0.087729
0.612745 0.209743 0.080576
0.632414 0.201042 0.082047
0.663694 0.192473 0.074636
0.699865 0.186883 0.066261
0.739767 0.178064 0.052390
0.785895 0.169386 0.034788
0.836621 0.159216 0.016169
0.883660 0.152124 0.005882
0.004902 0.389434 0.000109
0.005756 0.391082 0.000380
0.008462 0.392088 0.000069
0.039430 0.392014 0.001426
0.081022 0.394748 0.000000
0.129269 0.397362 0.000071
0.167294 0.400706 0.000000
0.204132 0.404412 0.000000
0.239643 0.406631 0.000071
0.273412 0.408471 0.000078
0.308053 0.410924 0.000000
0.344100 0.412763 0.000000
0.375686 0.412157 0.000000
0.408050 0.409701 0.000275
0.442210 0.410980 0.000357
0.471137 0.407373 0.001961
0.497619 0.400700 0.003291
0.515756 0.385294 0.004622
0.525918 0.357718 0.007629
0.532235 0.332941 0.028157
0.537885 0.308473 0.049930
0.544742 0.285062 0.065668
0.554980 0.270275 0.075294
0.569958 0.256022 0.082353
0.587515 0.245538 0.085154
0.610854 0.235644 0.085504
0.638655 0.227731 0.082773
0.669068 0.220648 0.077711
0.702661 0.213515 0.069118
0.745241 0.206845 0.059323
0.789696 0.200308 0.043214
0.837115 0.193487 0.026471
0.887208 0.186555 0.013165
0.004167 0.417402 0.000572
0.005128 0.415626 0.000422
0.005742 0.417367 0.000210
0.017157 0.418627 0.000245
0.071385 0.422304 0.000123
0.118838 0.423950 0.000280
0.159007 0.426409 0.000061
0.198713 0.429718 0.000123
0.232983 0.432773 0.000210
0.268199 0.435662 0.000184
0.303199 0.438596 0.000000
0.336446 0.440087 0.000124
0.372917 0.441789 0.000123
0.405917 0.442243 0.000000
0.437784 0.442141 0.000000
0.471630 0.441360 0.000184
0.503676 0.438664 0.001225
0.528221 0.434874 0.003011
0.548100 0.419730 0.003922
0.559130 0.393015 0.005270
0.565406 0.366246 0.013235
0.569056 0.340319 0.034375
0.575980 0.315625 0.054841
0.584104 0.296218 0.066036
0.598284 0.280821 0.075306
0.617341 0.267770 0.078493
0.641737 0.259104 0.079622
0.671201 0.251961 0.077145
0.706679 0.244914 0.070833
0.750265 0.242515 0.060753
0.790709 0.234208 0.050799
0.844424 0.230944 0.037132
0.885784 0.225408 0.026144
0.005229 0.446078 0.000000
0.008272 0.444975 0.000490
0.005576 0.445404 0.000061
0.011458 0.447672 0.000061
0.048880 0.449370 0.000140
0.104534 0.452145 0.000000
0.152390 0.454596 0.000123
0.193153 0.452537 0.001992
0.226667 0.460272 0.000181
0.264951 0.464645 0.000000
0.299440 0.467017 0.000000
0.333946 0.469976 0.000123
0.370772 0.472549 0.000061
0.405672 0.474860 0.000000
0.437990 0.474571 0.000000
0.474142 0.475123 0.000184
0.502941 0.471779 0.000000
0.531434 0.471017 0.000245
0.562316 0.467218 0.002022
0.583053 0.453711 0.003501
0.595037 0.430086 0.004779
0.601838 0.400735 0.006618
0.607563 0.374930 0.017717
0.612623 0.349816 0.038480
0.624314 0.328179 0.051877
0.635088 0.309116 0.062470
0.652083 0.294547 0.067218
0.680025 0.283640 0.068321
0.713095 0.277661 0.067297
0.752328 0.273162 0.063235
0.798100 0.267525 0.053248
0.847794 0.265993 0.042647
0.891258 0.261846 0.034722
0.006008 0.474093 0.000000
0.003680 0.472941 0.000000
0.012317 0.473571 0.000276
0.009082 0.476092 0.000069
0.025919 0.477390 0.000000
0.089338 0.480515 0.000000
0.138095 0.482073 0.000000
0.180515 0.485601 0.000000
0.221752 0.489338 0.000000
0.257283 0.493347 0.000000
0.292708 0.496140 0.000000
0.330821 0.500490 0.000000
0.366947 0.503361 0.000000
0.401287 0.505086 0.000000
0.436826 0.506066 0.000000
0.470658 0.506723 0.000000
0.501716 0.506495 0.000000
0.532966 0.505699 0.000061
0.562711 0.502030 0.000138
0.589273 0.492734 0.003057
0.617157 0.487929 0.002635
0.632267 0.466529 0.004816
0.640959 0.439838 0.005291
0.648162 0.411642 0.007537
0.653664 0.384589 0.014241
0.661520 0.361029 0.029412
0.678125 0.341360 0.044179
0.697409 0.325630 0.050280
0.725184 0.315196 0.052574
0.763480 0.308272 0.052696
0.803151 0.302591 0.046639
0.850815 0.302016 0.042751
0.897222 0.297549 0.038971
0.004348 0.502387 0.000938
0.003738 0.501409 0.001471
0.011092 0.501793 0.000784
0.006054 0.504644 0.001101
0.013051 0.506434 0.001348
0.064636 0.509664 0.001401
0.116667 0.510294 0.001471
0.165196 0.514522 0.001471
0.204412 0.517577 0.001471
0.241238 0.520037 0.001471
0.282228 0.524307 0.001307
0.318197 0.527485 0.001651
0.357230 0.530760 0.001593
0.395722 0.528402 0.002198
0.428758 0.533815 0.001858
0.463848 0.535110 0.001654
0.500306 0.536274 0.001838
0.530532 0.535325 0.001494
0.560440 0.533884 0.001995
0.591325 0.529412 0.002198
0.627140 0.532275 0.001432
0.650980 0.523357 0.001651
0.669424 0.505086 0.001593
0.681357 0.477996 0.001805
0.689577 0.454145 0.002133
0.700306 0.428493 0.002635
0.710551 0.402614 0.006349
0.728242 0.389542 0.014723
0.750429 0.373958 0.024020
0.776471 0.364499 0.024699
0.817619 0.354874 0.028611
0.856863 0.352451 0.030515
0.900409 0.350408 0.033497
0.003350 0.532843 0.001225
0.008893 0.532339 0.001160
0.004678 0.533333 0.001101
0.005331 0.534498 0.001042
0.009150 0.535699 0.000871
0.035363 0.539181 0.001582
0.100797 0.540870 0.001471
0.153676 0.543382 0.001593
0.195132 0.546247 0.002164
0.235049 0.550797 0.001961
0.274572 0.553066 0.001743
0.311318 0.557757 0.002270
0.350490 0.559375 0.002022
0.391103 0.555458 0.002634
0.424768 0.564087 0.002202
0.460049 0.565564 0.001961
0.497666 0.566698 0.001743
0.523977 0.565738 0.002133
0.558456 0.566176 0.001900
0.594335 0.566573 0.001867
0.622153 0.563399 0.001789
0.656250 0.563113 0.001471
0.688329 0.558606 0.001369
0.706914 0.542002 0.001582
0.720302 0.518914 0.001267
0.733084 0.489387 0.001245
0.744066 0.467286 0.001376
0.757659 0.444240 0.001287
0.775226 0.421475 0.001183
0.798349 0.410458 0.001926
0.831207 0.399613 0.005634
0.864828 0.390257 0.007537
0.902288 0.386928 0.013725
0.003341 0.560857 0.000944
0.006536 0.562582 0.000980
0.004466 0.563834 0.001144
0.004971 0.563435 0.000773
0.010679 0.566455 0.000965
0.020436 0.568075 0.000884
0.076553 0.569401 0.000829
0.137909 0.573084 0.001545
0.190425 0.572142 0.001986
0.227175 0.578238 0.001823
0.264399 0.581556 0.002145
0.304739 0.586220 0.002179
0.346258 0.588622 0.001767
0.382843 0.591851 0.002390
0.419826 0.593627 0.002124
0.458547 0.596299 0.001712
0.490860 0.596440 0.002232
0.522563 0.598122 0.001933
0.558078 0.597459 0.001602
0.588532 0.596791 0.002080
0.622535 0.595084 0.001933
0.656007 0.592820 0.002430
0.685008 0.589985 0.003198
0.717426 0.588732 0.002872
0.740569 0.572604 0.003148
0.756536 0.545643 0.003976
0.775255 0.531511 0.002706
0.789506 0.504612 0.002927
0.807180 0.485732 0.003198
0.828813 0.465959 0.002996
0.857553 0.448882 0.002762
0.888799 0.440183 0.002901
0.919608 0.431009 0.002614
0.002670 0.593575 0.001001
0.004170 0.592604 0.000794
0.003922 0.594682 0.001021
0.018724 0.593924 0.000718
0.008672 0.596852 0.000884
0.014250 0.599006 0.000663
0.040181 0.601327 0.000845
0.109196 0.602927 0.000884
0.169732 0.605468 0.001160
0.212911 0.608627 0.001991
0.254847 0.611489 0.002209
0.296548 0.614913 0.001988
0.334238 0.618341 0.002413
0.374619 0.621623 0.002451
0.415465 0.624303 0.002154
0.450256 0.625581 0.002413
0.487987 0.628280 0.002209
0.520643 0.629303 0.002179
0.558575 0.630102 0.001878
0.590074 0.629167 0.002451
0.624619 0.628649 0.001961
0.660315 0.627948 0.001878
0.689032 0.625000 0.002328
0.722985 0.623856 0.002832
0.751433 0.617858 0.003137
0.778514 0.608119 0.002706
0.801743 0.590142 0.002669
0.818750 0.566850 0.002819
0.838111 0.545650 0.002265
0.859321 0.522066 0.002099
0.881651 0.508809 0.002575
0.912908 0.491558 0.001688
0.944808 0.481191 0.003123
0.001743 0.623675 0.000799
0.001773 0.624926 0.001021
0.004872 0.625193 0.001129
0.005965 0.626622 0.001049
0.009555 0.627782 0.001049
0.017195 0.629502 0.001267
0.026733 0.632312 0.001215
0.085777 0.634134 0.001215
0.148416 0.637225 0.001327
0.198453 0.638884 0.001767
0.244766 0.641327 0.002594
0.288760 0.644408 0.002486
0.327644 0.647556 0.003038
0.369774 0.651101 0.003258
0.409721 0.652914 0.002762
0.448661 0.656338 0.003093
0.485225 0.657719 0.003038
0.517768 0.659849 0.002956
0.552168 0.660370 0.003093
0.590414 0.660512 0.002996
0.623288 0.661840 0.002715
0.656780 0.661917 0.002762
0.689865 0.659376 0.002430
0.720422 0.656833 0.002534
0.752720 0.656614 0.002265
0.784641 0.652887 0.002233
0.812911 0.645008 0.002353
0.838277 0.631041 0.001878
0.861640 0.612372 0.001767
0.884838 0.595913 0.001767
0.907429 0.578293 0.001326
0.931023 0.559764 0.001612
0.953667 0.548293 0.001670
0.001850 0.655716 0.000370
0.003760 0.657051 0.000483
0.001906 0.656209 0.000436
0.003204 0.657829 0.000442
0.003209 0.659358 0.000475
0.008683 0.660952 0.000448
0.015023 0.663353 0.000387
0.059477 0.663780 0.000436
0.121900 0.668986 0.000497
0.182712 0.671362 0.000387
0.233484 0.674449 0.000483
0.282187 0.678818 0.000442
0.326263 0.681801 0.000387
0.367796 0.684967 0.000594
0.406628 0.689147 0.000442
0.445512 0.691245 0.000387
0.484017 0.695009 0.000475
0.515935 0.695885 0.000442
0.554488 0.698647 0.000442
0.589683 0.700151 0.000422
0.626015 0.701187 0.000442
0.661751 0.702127 0.000442
0.696048 0.702624 0.000422
0.729025 0.701353 0.000442
0.761249 0.697523 0.000413
0.794771 0.700297 0.000238
0.827285 0.697708 0.000331
0.859384 0.691261 0.000672
0.883066 0.678372 0.001010
0.908589 0.661861 0.000939
0.933824 0.641667 0.001198
0.954793 0.624237 0.001144
0.975817 0.608932 0.001162
0.004003 0.685049 0.000000
0.001629 0.686395 0.000000
0.007900 0.686047 0.000000
0.000270 0.686883 0.000000
0.000685 0.688266 0.000000
0.002179 0.690196 0.000000
0.006897 0.691481 0.000000
0.018444 0.693750 0.000000
0.077390 0.696814 0.000061
0.152333 0.698174 0.000000
0.215686 0.702023 0.000000
0.267476 0.705882 0.000000
0.311765 0.709601 0.000000
0.355618 0.714597 0.000000
0.396390 0.717834 0.000000
0.436444 0.720622 0.000000
0.474510 0.723063 0.000000
0.508995 0.725801 0.000000
0.548005 0.729479 0.000000
0.586928 0.728843 0.000057
0.624463 0.733956 0.000000
0.658959 0.734212 0.000000
0.694678 0.734765 0.000000
0.730719 0.734765 0.000000
0.764638 0.734550 0.000000
0.800187 0.734018 0.000000
0.835356 0.733645 0.000000
0.867613 0.731102 0.000000
0.901152 0.726611 0.000000
0.929847 0.714223 0.000000
0.952343 0.695447 0.000465
0.973894 0.676134 0.000504
0.988235 0.658497 0.000572
0.002696 0.718056 0.000000
0.000674 0.718689 0.000000
0.007733 0.719415 0.000000
0.002366 0.720149 0.000000
0.000373 0.720261 0.000000
0.000879 0.722583 0.000000
0.003424 0.723374 0.000000
0.008777 0.727482 0.000000
0.028059 0.728736 0.000000
0.116838 0.731839 0.000000
0.191099 0.734392 0.000000
0.248343 0.737931 0.000000
0.298786 0.741737 0.000000
0.349673 0.746168 0.000000
0.385531 0.748208 0.000000
0.427327 0.752194 0.000000
0.467414 0.754684 0.000000
0.505944 0.758824 0.000000
0.542896 0.760372 0.000000
0.581326 0.763834 0.000000
0.621507 0.766360 0.000000
0.656897 0.767045 0.000000
0.692437 0.767943 0.000000
0.730760 0.768750 0.000000
0.765044 0.767884 0.000068
0.800490 0.768873 0.000061
0.836152 0.768566 0.000000
0.869212 0.765807 0.000000
0.904824 0.767134 0.000000
0.934550 0.760717 0.000000
0.965274 0.750327 0.000000
0.985701 0.736048 0.000060
0.991422 0.722794 0.000000
0.002003 0.754276 0.000000
0.005855 0.754377 0.000000
0.001196 0.754071 0.000000
0.000000 0.755281 0.000000
0.000000 0.755699 0.000000
0.000206 0.757069 0.000000
0.001369 0.758730 0.000000
0.005576 0.760601 0.000000
0.019337 0.762745 0.000000
0.067725 0.766387 0.000000
0.161520 0.768260 0.000000
0.228689 0.771173 0.000000
0.281668 0.773918 0.000000
0.339245 0.776939 0.000000
0.377571 0.781149 0.000000
0.419421 0.785434 0.000000
0.462684 0.788542 0.000000
0.497769 0.791278 0.000000
0.537193 0.792904 0.000000
0.578186 0.796017 0.000000
0.616092 0.798174 0.000000
0.653408 0.799938 0.000000
0.692561 0.801245 0.000000
0.728195 0.802705 0.000000
0.764010 0.803352 0.000000
0.801409 0.803799 0.000000
0.836038 0.803043 0.000000
0.871157 0.803416 0.000000
0.907966 0.802390 0.000000
0.940007 0.800550 0.000000
0.969580 0.797647 0.000112
0.992892 0.788480 0.000000
0.993546 0.777369 0.000082
0.002334 0.789823 0.000000
0.005091 0.788098 0.000000
0.000927 0.787594 0.000000
0.001611 0.787255 0.000000
0.001647 0.788078 0.000000
0.002282 0.788164 0.000000
0.003922 0.790686 0.000000
0.008314 0.794118 0.000000
0.035621 0.795163 0.000000
0.028641 0.797059 0.000000
0.127059 0.801569 0.000000
0.205490 0.804492 0.000000
0.268417 0.808053 0.000000
0.324875 0.812380 0.000000
0.368485 0.815258 0.000000
0.414426 0.818697 0.000000
0.457176 0.822902 0.000000
0.494118 0.825241 0.000000
0.535224 0.828221 0.000000
0.574510 0.829882 0.000000
0.613333 0.833012 0.000000
0.655252 0.836695 0.000000
0.691373 0.836863 0.000000
0.729483 0.839216 0.000000
0.766387 0.839916 0.000000
0.802031 0.841597 0.000000
0.839144 0.842567 0.000000
0.875280 0.841807 0.000000
0.912471 0.844784 0.000000
