calib/BEACH LUT/my_look_v1.0-4.cube
TITLE "my_look_v1.0"
LUT_3D_SIZE 9
0.001961 0.002614 0.000654
0.102765 0.002614 0.001709
0.218487 0.002353 0.005266
0.325588 0.001471 0.013431
0.420980 0.000784 0.019902
0.501289 0.000784 0.019496
0.581373 0.000000 0.007451
0.694822 0.000000 0.000000
0.869888 0.001401 0.000840
0.012418 0.116449 0.001089
0.120818 0.121819 0.000668
0.219981 0.089356 0.022782
0.327288 0.080801 0.041748
0.422386 0.061928 0.047467
0.498951 0.024989 0.040492
0.581143 0.007092 0.024030
0.696160 0.004248 0.001389
0.871966 0.003498 0.000954
0.005042 0.242670 0.000934
0.119294 0.248157 0.000706
0.249790 0.252871 0.000490
0.351515 0.213761 0.021462
0.416314 0.162667 0.075216
0.494468 0.139286 0.080602
0.584828 0.110190 0.062231
0.697412 0.045412 0.018431
0.876471 0.003455 0.001027
0.007760 0.363788 0.001252
0.098107 0.367748 0.000338
0.242353 0.372157 0.002185
0.379064 0.381214 0.000633
0.485260 0.352333 0.006220
0.516912 0.263297 0.067770
0.582037 0.216129 0.087729
0.699865 0.186883 0.066261
0.883660 0.152124 0.005882
0.006008 0.474093 0.000000
0.025919 0.477390 0.000000
0.221752 0.489338 0.000000
0.366947 0.503361 0.000000
0.501716 0.506495 0.000000
0.617157 0.487929 0.002635
0.653664 0.384589 0.014241
0.725184 0.315196 0.052574
0.897222 0.297549 0.038971
0.002670 0.593575 0.001001
0.008672 0.596852 0.000884
0.169732 0.605468 0.001160
0.334238 0.618341 0.002413
0.487987 0.628280 0.002209
0.624619 0.628649 0.001961
0.751433 0.617858 0.003137
0.838111 0.545650 0.002265
0.944808 0.481191 0.003123
0.002696 0.718056 0.000000
0.000373 0.720261 0.000000
0.028059 0.728736 0.000000
0.298786 0.741737 0.000000
0.467414 0.754684 0.000000
0.621507 0.766360 0.000000
0.765044 0.767884 0.000068
0.904824 0.767134 0.000000
0.991422 0.722794 0.000000
0.000467 0.882726 0.000467
0.001017 0.877124 0.000000
0.010458 0.882814 0.000000
0.225840 0.892227 0.000000
0.443936 0.901162 0.000000
0.612226 0.912649 0.000000
0.766058 0.918120 0.000068
0.918373 0.921351 0.000000
0.992904 0.916153 0.000000
0.000654 0.998301 0.000000
0.000784 0.998431 0.000000
0.001793 0.998431 0.000000
0.038039 0.998529 0.000098
0.403627 0.998431 0.000294
0.589468 0.998431 0.000000
0.745490 0.998431 0.000000
0.885392 0.998431 0.000000
0.993595 0.996732 0.000131
0.009412 0.015216 0.083765
0.092157 0.026863 0.093431
0.211765 0.040294 0.115588
0.345434 0.004706 0.106555
0.436569 0.004118 0.091569
0.514216 0.003333 0.079902
0.595070 0.001681 0.061289
0.706667 0.001765 0.016961
0.881961 0.001046 0.001307
0.001401 0.106162 0.114379
0.122010 0.130406 0.127423
0.238353 0.119451 0.115765
0.344818 0.102031 0.109804
0.432656 0.073583 0.099109
0.509734 0.036064 0.087395
0.590465 0.017916 0.069204
0.702460 0.010624 0.026239
0.878711 0.007656 0.000187
0.001552 0.245833 0.116095
0.109555 0.251790 0.115531
0.250843 0.252976 0.117578
0.352696 0.214338 0.126164
0.433427 0.181886 0.129972
0.509601 0.152806 0.116971
0.592468 0.114846 0.097541
0.709679 0.041519 0.056583
0.879248 0.017075 0.001225
0.002054 0.365640 0.093371
0.070798 0.369328 0.096359
0.247379 0.381833 0.106363
0.386345 0.386485 0.106723
0.486064 0.342157 0.111485
0.515137 0.256392 0.132627
0.591373 0.219822 0.131836
0.715406 0.187465 0.102171
0.892624 0.143604 0.038375
0.003361 0.479085 0.035481
0.008314 0.482667 0.038667
0.216970 0.496542 0.052620
0.370238 0.510854 0.056513
0.510353 0.514510 0.053804
0.627101 0.496779 0.046849
0.662102 0.384635 0.088782
0.733098 0.316392 0.100784
0.899533 0.296639 0.087395
0.002054 0.593371 0.000467
0.001176 0.596392 0.000471
0.165027 0.603472 0.001800
0.340686 0.624160 0.001401
0.494510 0.637098 0.001725
0.633684 0.640196 0.001120
0.765989 0.629590 0.001711
0.836706 0.538196 0.006745
0.935387 0.466293 0.011671
0.004482 0.716433 0.000000
0.000000 0.719398 0.000000
0.011134 0.727591 0.000000
0.290996 0.740216 0.000000
0.464916 0.754972 0.000000
0.620518 0.765406 0.000000
0.763745 0.767027 0.000320
0.906232 0.768207 0.000560
0.995331 0.718207 0.000187
0.001961 0.879645 0.001120
0.000980 0.879350 0.000980
0.007782 0.883946 0.001103
0.193838 0.890126 0.001050
0.438113 0.899694 0.000490
0.607721 0.907292 0.000490
0.764776 0.910364 0.000490
0.911520 0.912132 0.000368
0.989654 0.908135 0.000918
0.000654 0.996863 0.000000
0.000000 0.996863 0.000000
0.003697 0.996863 0.000000
0.021863 0.996863 0.000000
0.396667 0.996863 0.000000
0.587941 0.997549 0.000000
0.748235 0.997647 0.000000
0.884020 0.997843 0.000000
0.995098 0.997304 0.000613
0.001120 0.045714 0.197087
0.103641 0.061438 0.205882
0.206618 0.079167 0.209314
0.308333 0.107108 0.221814
0.431746 0.072176 0.223810
0.532435 0.003676 0.192157
0.620915 0.002451 0.155801
0.732866 0.000654 0.118674
0.905338 0.000654 0.062963
0.002487 0.134577 0.227547
0.109020 0.141462 0.231658
0.231586 0.158788 0.231729
0.329719 0.169089 0.237216
0.452264 0.112086 0.221105
0.542816 0.028520 0.187094
0.622851 0.017496 0.154223
0.732478 0.009198 0.117718
0.903268 0.005229 0.059570
0.001214 0.230252 0.255649
0.025429 0.242218 0.261275
0.269722 0.283270 0.264629
0.384652 0.256998 0.257404
0.477941 0.219240 0.229534
0.553447 0.181151 0.203226
0.630494 0.127721 0.172346
0.741544 0.024510 0.133456
0.910539 0.005882 0.073693
0.000581 0.383007 0.248511
0.005965 0.387738 0.236896
0.231801 0.401532 0.235600
0.391013 0.409749 0.243845
0.491190 0.356089 0.233582
0.550420 0.297423 0.216807
0.631490 0.261282 0.188821
0.745043 0.210660 0.155316
0.910022 0.150690 0.106245
0.000082 0.487092 0.202696
0.000306 0.493137 0.202696
0.190616 0.508053 0.212675
0.376716 0.526226 0.225735
0.528799 0.531005 0.228370
0.633123 0.492227 0.217297
0.659743 0.380025 0.201532
0.750980 0.320037 0.180086
0.911928 0.292484 0.154493
0.001797 0.599183 0.135948
0.001900 0.603738 0.137500
0.084348 0.615480 0.144960
0.331924 0.634007 0.162316
0.499265 0.648223 0.171814
0.641280 0.648916 0.168834
0.770806 0.633551 0.154995
0.839583 0.532414 0.130331
0.940768 0.466830 0.128186
0.001774 0.720448 0.007656
0.000000 0.723765 0.008471
0.005633 0.731836 0.008057
0.266176 0.745378 0.011134
0.462353 0.761804 0.033804
0.622129 0.771779 0.070168
0.765156 0.769527 0.073095
0.909333 0.764627 0.030902
0.991503 0.709711 0.021195
0.000784 0.885378 0.002241
0.001368 0.886183 0.002645
0.027007 0.887236 0.003404
0.093450 0.896955 0.002587
0.419061 0.907889 0.002554
0.598448 0.914216 0.002859
0.763204 0.921318 0.001752
0.910260 0.924487 0.001550
0.992269 0.920000 0.001905
0.001307 0.998431 0.000000
0.000686 0.998431 0.000000
0.001471 0.998431 0.000784
0.005266 0.998431 0.000784
0.364314 0.998431 0.000784
0.572647 0.998431 0.000784
0.739944 0.998431 0.000000
0.882941 0.998431 0.000098
0.996197 0.998455 0.003209
0.000654 0.089281 0.306536
0.092353 0.100294 0.314510
0.224426 0.126275 0.321120
0.324118 0.140490 0.325686
0.413431 0.153529 0.324020
0.500728 0.163137 0.326723
0.618824 0.024412 0.305000
0.751765 0.000784 0.262647
0.922484 0.003268 0.217255
0.000256 0.158227 0.327707
0.085801 0.167275 0.332319
0.229816 0.186057 0.337193
0.340865 0.201183 0.339434
0.426437 0.206018 0.335091
0.517274 0.193775 0.329599
0.630507 0.061419 0.294348
0.752671 0.011765 0.249222
0.923103 0.007928 0.202899
0.000000 0.259886 0.362663
0.023669 0.263936 0.367647
0.241149 0.272742 0.371389
0.380944 0.298958 0.380208
0.466527 0.290826 0.370308
0.570588 0.237623 0.344118
0.671071 0.132428 0.291161
0.782283 0.015266 0.237045
0.941095 0.003186 0.186029
0.000490 0.338725 0.378186
0.001012 0.349146 0.384377
0.144193 0.380814 0.402775
0.422698 0.432561 0.425728
0.535231 0.394940 0.394434
0.611581 0.338909 0.348897
0.686474 0.273712 0.298106
0.788868 0.191904 0.243454
0.948611 0.051552 0.191912
0.001307 0.492810 0.405882
0.000000 0.500591 0.400436
0.007353 0.522733 0.383578
0.382421 0.549358 0.391075
0.558730 0.559726 0.402490
0.637909 0.483038 0.369001
0.680865 0.388506 0.321501
0.784065 0.328976 0.274074
0.951144 0.282190 0.232925
0.000163 0.599183 0.326716
0.000000 0.605515 0.319363
0.000630 0.619748 0.310924
0.306801 0.640993 0.331189
0.514154 0.662255 0.356189
0.663441 0.660784 0.356357
0.772279 0.615010 0.328465
0.828676 0.494424 0.271814
0.959314 0.436601 0.250409
0.000082 0.718873 0.208497
0.000000 0.720159 0.205515
0.003853 0.728861 0.204128
0.157782 0.745282 0.224632
0.448958 0.764951 0.260907
0.622479 0.777101 0.286765
0.768848 0.777962 0.285115
0.914828 0.760049 0.269914
0.990196 0.683987 0.233824
0.000145 0.880973 0.025781
0.001270 0.880420 0.025463
0.005913 0.884042 0.027994
0.033333 0.891013 0.029956
0.379122 0.901574 0.053632
0.587623 0.909865 0.131005
0.763399 0.915686 0.190686
0.917537 0.914996 0.221099
0.987509 0.904648 0.224546
0.000000 0.997821 0.004466
0.000000 0.997852 0.003735
0.000654 0.997958 0.003595
0.014706 0.998448 0.004167
0.298693 0.998693 0.008497
0.556373 0.998693 0.009395
0.733333 0.998938 0.075245
0.883287 0.998693 0.188235
0.996514 0.998475 0.214815
0.000654 0.126144 0.407843
0.057271 0.135294 0.414624
0.213632 0.154155 0.423810
0.336438 0.181046 0.430637
0.434641 0.190114 0.433497
0.514052 0.193627 0.426797
0.597666 0.201961 0.422689
0.724918 0.113644 0.419608
0.916993 0.002397 0.406972
0.000000 0.176919 0.427339
0.055637 0.181536 0.427206
0.208117 0.194802 0.431099
0.338757 0.220359 0.437714
0.437173 0.231863 0.441422
0.510807 0.229822 0.428545
0.599499 0.230622 0.424030
0.730147 0.128023 0.414216
0.914043 0.009857 0.394913
0.000083 0.261660 0.455403
0.011091 0.266238 0.460600
0.214604 0.277282 0.467275
0.370525 0.303542 0.476977
0.480699 0.318137 0.480453
0.556525 0.309398 0.465450
0.640417 0.288109 0.448956
0.774816 0.144730 0.414093
0.949592 0.006127 0.371650
0.000000 0.374177 0.460303
0.003493 0.378860 0.467463
0.144499 0.394444 0.485730
0.367412 0.418448 0.503673
0.515748 0.443321 0.512439
0.593355 0.422658 0.490850
0.691266 0.341788 0.446040
0.815012 0.202635 0.383150
0.972041 0.043355 0.322585
0.000131 0.446732 0.476405
0.002209 0.457001 0.482463
0.034519 0.478614 0.497401
0.264036 0.530405 0.530305
0.611060 0.611585 0.611545
0.660294 0.544314 0.522990
0.740196 0.453971 0.447696
0.837890 0.354432 0.371555
0.982026 0.253922 0.314248
0.000598 0.588368 0.504686
0.000993 0.599355 0.505634
0.004412 0.622794 0.504657
0.031428 0.655233 0.490583
0.499181 0.683246 0.514520
0.669853 0.687549 0.528137
0.759259 0.608987 0.471296
0.840755 0.507421 0.398461
0.983399 0.447647 0.356275
0.000085 0.722847 0.431458
0.000884 0.725490 0.418006
0.004303 0.734858 0.391449
0.007721 0.749326 0.368444
0.375200 0.768627 0.405358
0.595534 0.787691 0.443301
0.748296 0.785520 0.450196
0.897487 0.753162 0.424247
0.986311 0.659637 0.380540
0.000934 0.885247 0.302708
0.000143 0.883636 0.283779
0.005306 0.887505 0.256517
0.000560 0.894888 0.249790
0.209198 0.905597 0.293048
0.560214 0.918503 0.361212
0.757017 0.924875 0.401922
0.919073 0.922424 0.417112
0.992437 0.909897 0.417834
0.002129 0.996078 0.143081
0.000000 0.995425 0.115605
0.000654 0.995985 0.107003
0.001307 0.996078 0.136846
0.067239 0.997386 0.214134
0.534360 0.997386 0.299627
0.731863 0.998039 0.367157
0.886275 0.998366 0.412990
0.996841 0.997495 0.425599
0.003025 0.164034 0.514062
0.002451 0.169935 0.523121
0.189624 0.182190 0.530882
0.330626 0.204388 0.539216
0.452369 0.231699 0.545752
0.548611 0.236765 0.549673
0.629972 0.230719 0.536881
0.730065 0.223938 0.537173
0.876253 0.198475 0.559150
0.000000 0.207003 0.524650
0.001654 0.208885 0.528493
0.181341 0.219039 0.535927
0.322042 0.240838 0.541717
0.447978 0.267341 0.548468
0.546324 0.273346 0.551532
0.629482 0.266036 0.537745
0.730576 0.254473 0.535600
0.877941 0.216503 0.555065
0.000000 0.265640 0.553035
0.003571 0.269538 0.556793
0.178631 0.278431 0.563665
0.344818 0.299580 0.572619
0.485504 0.330042 0.581583
0.585924 0.335924 0.583123
0.663065 0.320528 0.564066
0.757073 0.298669 0.553361
0.910271 0.231839 0.561905
0.001867 0.372829 0.580672
0.001751 0.373810 0.584384
0.084274 0.377111 0.592717
0.340056 0.396429 0.606863
0.515406 0.434664 0.618908
0.623529 0.448549 0.621647
0.697540 0.422032 0.596934
0.787045 0.375000 0.568838
0.950980 0.235854 0.547246
0.000000 0.472923 0.592810
0.000000 0.477591 0.596639
0.014726 0.494998 0.614166
0.277101 0.519398 0.640826
0.541246 0.560714 0.662605
0.674902 0.589647 0.670667
0.733547 0.540749 0.629804
0.842367 0.420238 0.562115
0.992624 0.210551 0.487302
0.000187 0.517740 0.590943
0.000000 0.526039 0.597882
0.004342 0.545518 0.612955
0.027451 0.585740 0.641996
0.444706 0.653176 0.683216
0.723112 0.727290 0.730569
0.782514 0.628544 0.634908
0.887216 0.519451 0.534431
0.996639 0.416247 0.453875
0.000751 0.672758 0.622361
0.000000 0.682421 0.625490
0.017983 0.699720 0.627003
0.017394 0.737951 0.625617
0.092901 0.773631 0.601555
0.640441 0.794363 0.634007
0.808918 0.796648 0.648387
0.908857 0.711697 0.573090
0.996160 0.621405 0.516585
0.003338 0.868586 0.610430
0.000000 0.871691 0.600000
0.000498 0.881170 0.571927
0.007499 0.891228 0.518954
0.038480 0.894547 0.479167
0.491299 0.907537 0.534436
0.726891 0.914566 0.577101
0.911397 0.912377 0.592034
0.989052 0.895016 0.590441
0.002745 0.997386 0.507190
0.000000 0.997386 0.491912
0.000654 0.997386 0.457598
0.003922 0.997386 0.423436
0.016667 0.997386 0.436111
0.457516 0.997386 0.489542
0.729505 0.997386 0.551447
0.884559 0.995752 0.589297
0.991830 0.993573 0.611547
0.000594 0.203209 0.657516
0.000000 0.210756 0.670588
0.146863 0.215882 0.672059
0.325980 0.234020 0.679216
0.470252 0.262521 0.684706
0.588824 0.288824 0.687745
0.682789 0.290109 0.688540
0.779944 0.279440 0.679664
0.894902 0.283529 0.690065
0.000000 0.231373 0.664799
0.000231 0.234371 0.666897
0.142157 0.243072 0.671307
0.316247 0.255882 0.676821
0.462284 0.282968 0.681738
0.582789 0.310167 0.686855
0.681793 0.314076 0.688725
0.776547 0.304960 0.678893
0.896172 0.308777 0.692810
0.000654 0.292402 0.687173
0.001042 0.293689 0.687500
0.094813 0.299620 0.691524
0.315416 0.315078 0.696281
0.476900 0.342953 0.701961
0.605503 0.373118 0.705313
0.705882 0.376673 0.704733
0.792279 0.356618 0.689767
0.909477 0.352859 0.699346
0.001867 0.380112 0.699160
0.004289 0.379902 0.700919
0.026818 0.381594 0.704491
0.271467 0.397295 0.709533
0.454534 0.425429 0.714890
0.597217 0.461354 0.720367
0.694118 0.469439 0.717850
0.779657 0.443934 0.698223
0.912418 0.431373 0.704412
0.000187 0.482540 0.720448
0.000000 0.482143 0.722269
0.010324 0.482113 0.727571
0.141106 0.484314 0.733754
0.468347 0.514846 0.743067
0.647549 0.562955 0.749860
0.750380 0.573269 0.747659
0.828712 0.533894 0.723179
0.950420 0.504762 0.719141
0.002451 0.570507 0.715033
0.000000 0.574449 0.718934
0.010320 0.583901 0.727829
0.036415 0.599440 0.741861
0.332843 0.631495 0.761397
0.587221 0.673901 0.773698
0.745098 0.703455 0.779894
0.819608 0.657292 0.744853
0.981536 0.580474 0.715441
0.001585 0.606174 0.699124
0.000490 0.608885 0.701654
0.010210 0.621569 0.711021
0.025957 0.642888 0.726860
0.073897 0.684865 0.750919
0.504530 0.752468 0.785396
0.792276 0.827332 0.832086
0.881924 0.739767 0.746324
0.974980 0.662275 0.675137
0.003268 0.811485 0.781979
0.000000 0.819762 0.784083
0.001783 0.831658 0.785312
0.010838 0.858538 0.786025
0.026298 0.897501 0.773856
0.049720 0.920658 0.726541
0.712026 0.916732 0.750261
0.900423 0.925106 0.774241
0.987768 0.885994 0.747339
0.003137 0.997516 0.843007
0.000000 0.997199 0.833165
0.019259 0.997647 0.808976
0.002941 0.997353 0.762157
0.008291 0.996863 0.696807
0.047745 0.999216 0.667059
0.709706 0.998529 0.715686
0.895574 0.998431 0.760672
0.994771 0.997255 0.773072
0.000000 0.296395 0.852372
0.000000 0.295784 0.848235
0.158431 0.303305 0.849524
0.347353 0.317549 0.848529
0.503824 0.345098 0.848137
0.634398 0.379384 0.846387
0.746373 0.405294 0.843431
0.840392 0.399902 0.839706
0.935163 0.405621 0.840261
0.000082 0.314951 0.844281
0.001139 0.317141 0.845225
0.126234 0.323327 0.844219
0.328493 0.338603 0.846324
0.488615 0.364263 0.845667
0.618594 0.400879 0.845098
0.725847 0.428105 0.843078
0.832321 0.426249 0.840607
0.934477 0.434559 0.843382
0.004067 0.356935 0.854539
0.008964 0.358792 0.853782
0.082194 0.365819 0.853418
0.322712 0.379412 0.853976
0.488453 0.406225 0.853346
0.626525 0.441013 0.851253
0.729211 0.466264 0.847863
0.826455 0.464924 0.843262
0.933551 0.468773 0.843428
0.005147 0.418219 0.868546
0.009013 0.419126 0.868868
0.044370 0.425490 0.866499
0.288725 0.437623 0.866850
0.492810 0.466047 0.864740
0.642515 0.501089 0.860380
0.763051 0.530760 0.855944
0.855384 0.528999 0.852700
0.952696 0.526634 0.854493
0.007598 0.506618 0.882843
0.014338 0.505024 0.881985
0.036601 0.504824 0.881606
0.095402 0.508181 0.878093
0.449449 0.532721 0.874387
0.638963 0.569766 0.869576
0.773631 0.604530 0.865788
0.867831 0.606618 0.863235
0.964379 0.597059 0.862827
0.002614 0.615966 0.887768
0.004420 0.615313 0.890009
0.028002 0.612439 0.890993
0.052197 0.608993 0.890467
0.259633 0.617803 0.888578
0.602926 0.651229 0.883722
0.783097 0.695538 0.880663
0.883411 0.705633 0.878431
0.978105 0.688971 0.876471
0.004412 0.696569 0.875899
0.001042 0.698039 0.877267
0.020658 0.702101 0.880882
0.049755 0.710049 0.885233
0.075000 0.727328 0.890870
0.444149 0.751550 0.898482
0.771941 0.789588 0.899730
0.912255 0.819853 0.902757
0.991013 0.792565 0.892729
0.002206 0.773938 0.893546
0.000000 0.772978 0.891912
0.005779 0.778122 0.894737
0.020106 0.785870 0.898350
0.036520 0.803248 0.904657
0.063915 0.832473 0.909529
0.588726 0.880024 0.913848
0.897365 0.943505 0.941850
0.961438 0.898856 0.900245
0.003704 0.993246 0.997059
0.000000 0.992892 0.996814
0.001961 0.994771 0.996732
0.005147 0.995915 0.996324
0.015278 0.997304 0.990278
0.014006 0.997759 0.963585
0.510948 0.998366 0.899183
0.914052 0.995425 0.911520
0.989158 0.994233 0.929412
0.280261 0.487320 0.997647
0.331863 0.499020 0.998039
0.414461 0.510866 0.997876
0.516993 0.529318 0.999440
0.626062 0.553350 0.997712
0.729248 0.577696 0.994853
0.821942 0.599813 0.988142
0.903840 0.612582 0.983252
0.982244 0.617320 0.985185
0.271339 0.500960 0.997163
0.314645 0.507414 0.997365
0.398604 0.519375 0.997075
0.508390 0.538541 0.997686
0.621691 0.564277 0.997365
0.727451 0.591054 0.995098
0.822549 0.612955 0.988725
0.903983 0.622794 0.982292
0.982353 0.624510 0.983578
0.255569 0.529495 0.999332
0.306069 0.534952 0.999813
0.395402 0.545368 0.999797
0.505509 0.562340 0.999564
0.622596 0.585185 0.999315
0.728398 0.609669 0.996890
0.825000 0.632721 0.990012
0.908808 0.643200 0.984002
0.981781 0.645343 0.983742
0.106637 0.566968 0.998341
0.199669 0.575642 0.997349
0.316682 0.584615 0.997768
0.451146 0.602209 0.997956
0.578404 0.625849 0.997570
0.691222 0.650860 0.997104
0.803486 0.673802 0.993028
0.902513 0.688318 0.987131
0.980537 0.691648 0.987146
0.040991 0.609693 0.996892
0.055385 0.615626 0.996621
0.123833 0.623750 0.997680
0.374316 0.639271 0.997459
0.538341 0.663891 0.997707
0.676001 0.689533 0.997128
0.782073 0.715508 0.995111
0.894721 0.734600 0.989201
0.982934 0.738707 0.989397
0.011193 0.660703 0.999592
0.013235 0.664076 0.999510
0.038319 0.669916 0.998543
0.065625 0.682047 1.000000
0.455672 0.705532 1.000000
0.674326 0.735968 0.999877
0.818160 0.766033 0.998492
0.923739 0.788305 0.996989
0.992484 0.794281 0.996732
0.004739 0.753105 0.999592
0.008412 0.753574 0.999557
0.019487 0.752700 0.999698
0.044354 0.754361 1.000000
0.084567 0.762302 1.000000
0.539828 0.790686 1.000000
0.790030 0.826520 0.998804
0.926186 0.857558 0.998166
0.992892 0.868873 0.998856
0.005664 0.834205 0.999455
0.004885 0.836120 0.999381
0.005134 0.839144 0.999002
0.011922 0.844784 0.999373
0.020938 0.856583 0.999790
0.234724 0.875080 0.998289
0.685506 0.899808 0.997232
0.923312 0.933842 0.996950
0.995892 0.949953 0.996732
0.007451 0.887451 0.999346
0.004706 0.886569 0.999216
0.004248 0.890741 0.999129
0.003720 0.896229 1.000000
0.008725 0.908235 1.000000
0.018602 0.929713 1.000000
0.632898 0.959259 1.000000
0.940686 0.991471 1.000000
0.985882 0.997516 0.999477
