calib/BEACH LUT/my_look_v1.0-4.cube
TITLE "my_look_v1.0"
LUT_3D_SIZE 5
0.001961 0.002614 0.000654
0.218487 0.002353 0.005266
0.420980 0.000784 0.019902
0.581373 0.000000 0.007451
0.869888 0.001401 0.000840
0.005042 0.242670 0.000934
0.249790 0.252871 0.000490
0.416314 0.162667 0.075216
0.584828 0.110190 0.062231
0.876471 0.003455 0.001027
0.006008 0.474093 0.000000
0.221752 0.489338 0.000000
0.501716 0.506495 0.000000
0.653664 0.384589 0.014241
0.897222 0.297549 0.038971
0.002696 0.718056 0.000000
0.028059 0.728736 0.000000
0.467414 0.754684 0.000000
0.765044 0.767884 0.000068
0.991422 0.722794 0.000000
0.000654 0.998301 0.000000
0.001793 0.998431 0.000000
0.403627 0.998431 0.000294
0.745490 0.998431 0.000000
0.993595 0.996732 0.000131
0.001120 0.045714 0.197087
0.206618 0.079167 0.209314
0.431746 0.072176 0.223810
0.620915 0.002451 0.155801
0.905338 0.000654 0.062963
0.001214 0.230252 0.255649
0.269722 0.283270 0.264629
0.477941 0.219240 0.229534
0.630494 0.127721 0.172346
0.910539 0.005882 0.073693
0.000082 0.487092 0.202696
0.190616 0.508053 0.212675
0.528799 0.531005 0.228370
0.659743 0.380025 0.201532
0.911928 0.292484 0.154493
0.001774 0.720448 0.007656
0.005633 0.731836 0.008057
0.462353 0.761804 0.033804
0.765156 0.769527 0.073095
0.991503 0.709711 0.021195
0.001307 0.998431 0.000000
0.001471 0.998431 0.000784
0.364314 0.998431 0.000784
0.739944 0.998431 0.000000
0.996197 0.998455 0.003209
0.000654 0.126144 0.407843
0.213632 0.154155 0.423810
0.434641 0.190114 0.433497
0.597666 0.201961 0.422689
0.916993 0.002397 0.406972
0.000083 0.261660 0.455403
0.214604 0.277282 0.467275
0.480699 0.318137 0.480453
0.640417 0.288109 0.448956
0.949592 0.006127 0.371650
0.000131 0.446732 0.476405
0.034519 0.478614 0.497401
0.611060 0.611585 0.611545
0.740196 0.453971 0.447696
0.982026 0.253922 0.314248
0.000085 0.722847 0.431458
0.004303 0.734858 0.391449
0.375200 0.768627 0.405358
0.748296 0.785520 0.450196
0.986311 0.659637 0.380540
0.002129 0.996078 0.143081
0.000654 0.995985 0.107003
0.067239 0.997386 0.214134
0.731863 0.998039 0.367157
0.996841 0.997495 0.425599
0.000594 0.203209 0.657516
0.146863 0.215882 0.672059
0.470252 0.262521 0.684706
0.682789 0.290109 0.688540
0.894902 0.283529 0.690065
0.000654 0.292402 0.687173
0.094813 0.299620 0.691524
0.476900 0.342953 0.701961
0.705882 0.376673 0.704733
0.909477 0.352859 0.699346
0.000187 0.482540 0.720448
0.010324 0.482113 0.727571
0.468347 0.514846 0.743067
0.750380 0.573269 0.747659
0.950420 0.504762 0.719141
0.001585 0.606174 0.699124
0.010210 0.621569 0.711021
0.073897 0.684865 0.750919
0.792276 0.827332 0.832086
0.974980 0.662275 0.675137
0.003137 0.997516 0.843007
0.019259 0.997647 0.808976
0.008291 0.996863 0.696807
0.709706 0.998529 0.715686
0.994771 0.997255 0.773072
0.280261 0.487320 0.997647
0.414461 0.510866 0.997876
0.626062 0.553350 0.997712
0.821942 0.599813 0.988142
0.982244 0.617320 0.985185
0.255569 0.529495 0.999332
0.395402 0.545368 0.999797
0.622596 0.585185 0.999315
0.825000 0.632721 0.990012
0.981781 0.645343 0.983742
0.040991 0.609693 0.996892
0.123833 0.623750 0.997680
0.538341 0.663891 0.997707
0.782073 0.715508 0.995111
0.982934 0.738707 0.989397
0.004739 0.753105 0.999592
0.019487 0.752700 0.999698
0.084567 0.762302 1.000000
0.790030 0.826520 0.998804
0.992892 0.868873 0.998856
0.007451 0.887451 0.999346
0.004248 0.890741 0.999129
0.008725 0.908235 1.000000
0.632898 0.959259 1.000000
0.985882 0.997516 0.999477
