calib/PRINT PROFILES/fuji_print.cube
TITLE "fuji_print"
#LUMIXPHOTOSTYLE STD
LUT_3D_SIZE 33
0.031808 0.031808 0.031808
0.031944 0.031944 0.031944
0.031863 0.031863 0.031863
0.039815 0.037854 0.030637
0.052751 0.036520 0.030447
0.071405 0.041531 0.036874
0.089897 0.046242 0.035430
0.126716 0.046977 0.033960
0.151008 0.048911 0.031863
0.183415 0.048066 0.022522
0.212636 0.056808 0.005937
0.241449 0.054357 0.000000
0.276770 0.047576 0.000000
0.309613 0.037473 0.000000
0.335158 0.031373 0.000000
0.366885 0.018083 0.000000
0.391367 0.009967 0.000000
0.415332 0.001062 0.000000
0.445153 0.000000 0.000000
0.466912 0.000000 0.000000
0.494907 0.000000 0.000871
0.521950 0.000000 0.000000
0.538126 0.000000 0.000000
0.559286 0.000000 0.000000
0.579657 0.005964 0.000000
0.601035 0.000000 0.001117
0.616885 0.000000 0.000000
0.636574 0.000000 0.000000
0.652505 0.000000 0.000000
0.667102 0.000000 0.002179
0.682544 0.000000 0.000000
0.702070 0.000000 0.000000
0.707271 0.000000 0.001253
0.027179 0.039570 0.030664
0.025245 0.039434 0.038045
0.027179 0.039325 0.030637
0.040087 0.037990 0.030664
0.059341 0.043246 0.036874
0.078949 0.048284 0.035430
0.097331 0.053132 0.034178
0.123747 0.055556 0.032190
0.157870 0.055937 0.030719
0.190033 0.054984 0.021160
0.226225 0.060730 0.003813
0.254630 0.058687 0.001688
0.281672 0.055310 0.000000
0.315005 0.047059 0.000000
0.340904 0.041394 0.000000
0.382489 0.049183 0.000000
0.406944 0.042429 0.000000
0.430610 0.033824 0.000545
0.454956 0.005120 0.000000
0.472004 0.002424 0.000000
0.494608 0.000000 0.000763
0.526688 0.004085 0.000136
0.543137 0.000599 0.000000
0.574837 0.000000 0.000000
0.585349 0.000000 0.000000
0.616885 0.000000 0.000000
0.621351 0.003159 0.000000
0.647004 0.004194 0.000000
0.657298 0.000000 0.000000
0.677015 0.000000 0.000000
0.702070 0.000000 0.000000
0.702233 0.000000 0.000000
0.712146 0.002042 0.000000
0.027424 0.054248 0.036002
0.027451 0.054167 0.035648
0.027397 0.054194 0.036084
0.039542 0.053050 0.043791
0.061819 0.058170 0.042456
0.081808 0.063480 0.041258
0.109940 0.066176 0.039243
0.136520 0.069090 0.037691
0.176743 0.076062 0.025844
0.207625 0.075436 0.023475
0.237854 0.074537 0.006563
0.271242 0.079276 0.000000
0.303513 0.084450 0.000000
0.335076 0.089488 0.000000
0.361928 0.075926 0.000000
0.391367 0.080202 0.000000
0.422059 0.071024 0.000000
0.445261 0.065714 0.000163
0.469662 0.041694 0.000000
0.502124 0.056182 0.000000
0.524455 0.047440 0.000000
0.547903 0.013889 0.000000
0.572876 0.038916 0.000000
0.589815 0.011656 0.000000
0.605937 0.007680 0.000000
0.631318 0.008606 0.000300
0.642429 0.000000 0.000000
0.667102 0.000000 0.002179
0.672413 0.000000 0.001825
0.697794 0.000000 0.000000
0.716803 0.000000 0.000000
0.722495 0.000000 0.000000
0.736029 0.002751 0.000218
0.019254 0.062119 0.042565
0.012936 0.069499 0.041231
0.012963 0.069553 0.041394
0.027533 0.068382 0.041258
0.065223 0.072576 0.040033
0.080664 0.084641 0.036111
0.109532 0.087827 0.043246
0.147304 0.089897 0.032653
0.177451 0.098066 0.028295
0.218056 0.096786 0.010103
0.252805 0.102288 0.000000
0.287500 0.099237 0.001661
0.318137 0.113317 0.000000
0.350463 0.109205 0.000000
0.382816 0.104820 0.000000
0.418083 0.105365 0.000000
0.446351 0.109368 0.000000
0.469717 0.106291 0.000000
0.497467 0.109913 0.000000
0.519880 0.105882 0.000000
0.542402 0.101416 0.000000
0.564897 0.082380 0.000000
0.587881 0.057870 0.000000
0.612881 0.078350 0.000000
0.629357 0.058061 0.000000
0.646024 0.030583 0.000000
0.664325 0.065251 0.000000
0.681645 0.011275 0.000000
0.701089 0.023883 0.000000
0.720071 0.037064 0.001471
0.725517 0.026280 0.001171
0.748856 0.056318 0.000735
0.745343 0.009069 0.000000
0.000000 0.084123 0.046814
0.000000 0.084286 0.046950
0.000000 0.084286 0.046759
0.019063 0.089570 0.045289
0.060866 0.093164 0.043328
0.094336 0.096814 0.041748
0.109123 0.108687 0.038045
0.146242 0.110158 0.035403
0.195942 0.115986 0.022331
0.227124 0.115904 0.003050
0.261846 0.122141 0.000000
0.300000 0.133742 0.000000
0.333769 0.131127 0.000000
0.371432 0.133932 0.000000
0.395670 0.132462 0.000218
0.437173 0.131427 0.002424
0.459695 0.138589 0.000000
0.487418 0.142783 0.000000
0.511547 0.130773 0.000000
0.534259 0.127642 0.000000
0.564733 0.137800 0.002233
0.592511 0.130801 0.000000
0.608279 0.131182 0.000000
0.629385 0.126498 0.000000
0.646160 0.113889 0.000000
0.669853 0.129167 0.000000
0.687337 0.102015 0.000163
0.699129 0.072985 0.003268
0.721623 0.108606 0.000000
0.728350 0.087337 0.000000
0.751362 0.105910 0.000000
0.768764 0.127941 0.001552
0.769962 0.114134 0.000000
0.003159 0.103377 0.042102
0.003023 0.103377 0.041885
0.001008 0.103595 0.050899
0.026661 0.108115 0.049047
0.039052 0.114134 0.038072
0.086111 0.123829 0.043219
0.118219 0.126580 0.031672
0.152696 0.135757 0.026934
0.196133 0.135321 0.014978
0.233197 0.142211 0.001198
0.273829 0.153840 0.000000
0.315768 0.150436 0.000000
0.347440 0.155991 0.000000
0.382380 0.166503 0.000000
0.413535 0.163671 0.000000
0.448829 0.166122 0.000000
0.483143 0.168301 0.000000
0.506236 0.166748 0.000000
0.533333 0.171024 0.000000
0.560866 0.166095 0.003622
0.587554 0.169907 0.000000
0.609123 0.167674 0.002015
0.630338 0.164788 0.000000
0.651716 0.161928 0.000000
0.666667 0.161438 0.000000
0.688099 0.147522 0.000000
0.711983 0.161683 0.000000
0.722767 0.154248 0.000000
0.739025 0.142756 0.000000
0.756563 0.160594 0.000000
0.766748 0.152751 0.000000
0.789679 0.166966 0.000000
0.789815 0.167021 0.000000
0.000381 0.115768 0.047549
0.000000 0.122712 0.045888
0.000000 0.122141 0.045507
0.000000 0.128186 0.044145
0.065114 0.131427 0.041531
0.095153 0.141204 0.036656
0.127042 0.144635 0.034613
0.170942 0.151443 0.019199
0.211029 0.158224 0.004956
0.247549 0.165114 0.000000
0.279385 0.177859 0.000000
0.327179 0.180801 0.000572
0.358252 0.186166 0.000000
0.395234 0.189434 0.000000
0.431073 0.192974 0.000000
0.459641 0.197549 0.000517
0.494118 0.200136 0.000000
0.523257 0.197440 0.000000
0.549564 0.201117 0.001117
0.576580 0.205310 0.000000
0.599837 0.196051 0.000000
0.626634 0.191667 0.000000
0.646786 0.198339 0.000000
0.672712 0.192674 0.000000
0.687881 0.193328 0.000000
0.712963 0.196977 0.000000
0.727614 0.197113 0.000000
0.744036 0.187745 0.000817
0.758442 0.187963 0.000000
0.776062 0.203568 0.000000
0.791667 0.193981 0.000000
0.808115 0.218900 0.000000
0.813290 0.215931 0.000000
0.000000 0.140196 0.049374
0.000000 0.140169 0.049156
0.000000 0.140060 0.049183
0.000000 0.151688 0.044880
0.049564 0.155583 0.032789
0.076552 0.160267 0.030093
0.118981 0.168927 0.024101
0.166285 0.176089 0.008606
0.216149 0.182081 0.002451
0.258551 0.193900 0.000000
0.297821 0.204548 0.000000
0.337582 0.208796 0.000000
0.368818 0.214406 0.000000
0.405910 0.218519 0.000000
0.439951 0.228568 0.000000
0.480964 0.229820 0.000953
0.510893 0.227751 0.000000
0.537854 0.232326 0.000000
0.566394 0.229820 0.000000
0.592647 0.233878 0.000000
0.618437 0.238045 0.000000
0.641476 0.229739 0.000000
0.666830 0.233388 0.000000
0.693001 0.229575 0.000000
0.708224 0.230392 0.000000
0.728595 0.228704 0.000000
0.743382 0.228731 0.000000
0.766176 0.240251 0.000000
0.782081 0.232680 0.000000
0.796324 0.233170 0.000054
0.811220 0.233497 0.000000
0.823175 0.250082 0.000000
0.828431 0.247576 0.000000
0.002914 0.157298 0.042320
0.000000 0.163426 0.050136
0.000000 0.168845 0.048094
0.000000 0.168873 0.048393
0.047495 0.178676 0.032298
0.070234 0.188780 0.016231
0.123638 0.191313 0.003486
0.166694 0.204739 0.000000
0.226552 0.209722 0.000000
0.265387 0.226770 0.000000
0.307462 0.231590 0.000000
0.352587 0.240877 0.000000
0.383960 0.246705 0.000000
0.420888 0.250545 0.000000
0.463017 0.252614 0.002451
0.491612 0.257625 0.000000
0.525436 0.260648 0.000000
0.552315 0.265387 0.000000
0.580801 0.263344 0.000000
0.611492 0.272767 0.000000
0.634586 0.265414 0.000000
0.659722 0.269553 0.000000
0.685076 0.273420 0.000000
0.707162 0.265468 0.000000
0.727996 0.264597 0.000000
0.742402 0.265060 0.000000
0.762500 0.263399 0.000000
0.777179 0.264107 0.003241
0.795016 0.277560 0.000000
0.809259 0.278132 0.000000
0.828922 0.276443 0.000000
0.836846 0.286601 0.000000
0.849755 0.294635 0.000408
0.000000 0.179902 0.043028
0.000000 0.180065 0.043028
0.000000 0.186138 0.040714
0.000000 0.191231 0.037990
0.037092 0.195643 0.013317
0.060076 0.205392 0.007870
0.132680 0.218192 0.000000
0.164052 0.231808 0.000000
0.216885 0.237745 0.000517
0.265795 0.253431 0.000000
0.308851 0.258715 0.000000
0.362092 0.266721 0.000000
0.393437 0.272413 0.001280
0.435103 0.280964 0.000218
0.470969 0.285022 0.000000
0.505773 0.288698 0.000000
0.539597 0.292102 0.000000
0.566422 0.296541 0.000245
0.589270 0.296623 0.000000
0.620942 0.299619 0.000000
0.648175 0.297712 0.000000
0.673666 0.301770 0.000000
0.701879 0.292919 0.000000
0.721106 0.298938 0.000000
0.741422 0.297930 0.000000
0.761465 0.296841 0.000218
0.780528 0.302669 0.000000
0.795180 0.303513 0.000000
0.809504 0.304575 0.000000
0.828023 0.310212 0.000000
0.841422 0.317756 0.000000
0.855283 0.318546 0.000000
0.862963 0.328159 0.001825
0.000000 0.201770 0.031972
0.000000 0.202179 0.032190
0.003949 0.207190 0.029031
0.000000 0.212582 0.025681
0.000000 0.223393 0.008606
0.033252 0.227751 0.000000
0.112963 0.245724 0.000000
0.171732 0.257380 0.001198
0.220915 0.268464 0.000763
0.283061 0.277478 0.000000
0.323175 0.288480 0.000000
0.368791 0.297658 0.000000
0.407380 0.302070 0.001580
0.444880 0.306073 0.000000
0.485049 0.314597 0.000000
0.519608 0.318382 0.000000
0.553350 0.321895 0.000000
0.574374 0.327941 0.001498
0.608687 0.325463 0.000000
0.634722 0.329902 0.000000
0.660294 0.334096 0.000000
0.687473 0.332761 0.000000
0.714080 0.331127 0.000000
0.734341 0.330229 0.000000
0.753568 0.335812 0.000000
0.773693 0.335485 0.000000
0.793818 0.334695 0.000000
0.812364 0.340577 0.000000
0.822712 0.336846 0.000000
0.842538 0.335975 0.003785
0.853949 0.349728 0.003922
0.867266 0.357053 0.000000
0.875899 0.359613 0.003050
0.000000 0.223393 0.030801
0.014325 0.222876 0.019336
0.000000 0.228186 0.016149
0.000000 0.233878 0.002070
0.000000 0.249183 0.000000
0.052424 0.258061 0.000000
0.111029 0.265986 0.000000
0.167702 0.282816 0.000000
0.229766 0.293083 0.000000
0.288263 0.307571 0.000218
0.332435 0.312827 0.000000
0.367075 0.328023 0.000000
0.418519 0.336084 0.000000
0.455637 0.340251 0.001198
0.491993 0.344363 0.000000
0.533088 0.346923 0.000000
0.560594 0.351988 0.000000
0.589570 0.351389 0.000000
0.620289 0.360349 0.000000
0.646215 0.364733 0.000000
0.675545 0.357979 0.000000
0.704956 0.366939 0.000000
0.725735 0.366503 0.000000
0.746024 0.366176 0.000000
0.766803 0.366068 0.000000
0.787064 0.365714 0.000000
0.805365 0.371514 0.002505
0.825381 0.370806 0.000000
0.835784 0.367647 0.000000
0.853949 0.373066 0.000000
0.867266 0.380202 0.000000
0.879820 0.387200 0.000000
0.888780 0.390305 0.004984
0.000000 0.244227 0.006264
0.000000 0.248829 0.002642
0.000000 0.248802 0.002587
0.000000 0.259286 0.000000
0.001008 0.264352 0.002996
0.009314 0.278568 0.003105
0.098883 0.300817 0.000000
0.174428 0.307026 0.000000
0.232761 0.322358 0.000000
0.292647 0.336710 0.001198
0.333851 0.346786 0.000708
0.380365 0.356073 0.000000
0.424374 0.364706 0.000000
0.468873 0.367974 0.002206
0.502560 0.377505 0.001117
0.538072 0.381808 0.000000
0.571923 0.385403 0.000000
0.598965 0.390033 0.000000
0.631400 0.393464 0.001362
0.659559 0.393056 0.000000
0.685185 0.397849 0.000000
0.716340 0.400408 0.000000
0.738181 0.394962 0.001389
0.759178 0.394880 0.000000
0.783578 0.399428 0.000000
0.802397 0.405038 0.000000
0.823529 0.398693 0.003431
0.836874 0.406209 0.000000
0.856236 0.405528 0.001307
0.869363 0.412691 0.000000
0.882217 0.419608 0.000000
0.896487 0.421024 0.000000
0.898883 0.430828 0.000000
0.000000 0.269308 0.000000
0.000000 0.269336 0.000000
0.000000 0.269336 0.000000
0.000000 0.284314 0.000000
0.000000 0.293900 0.000000
0.000000 0.307680 0.000000
0.055610 0.325899 0.000000
0.181754 0.340251 0.000000
0.229194 0.346514 0.000000
0.296242 0.364760 0.001825
0.338099 0.375027 0.001171
0.393110 0.383088 0.000000
0.434395 0.396895 0.000000
0.472113 0.401198 0.000000
0.515550 0.404793 0.001988
0.548257 0.413862 0.000790
0.582407 0.417456 0.000000
0.615795 0.421078 0.000000
0.642375 0.426144 0.000000
0.670534 0.425899 0.000000
0.694227 0.435349 0.000000
0.726716 0.433115 0.000000
0.753568 0.432271 0.000000
0.778050 0.436601 0.000000
0.798720 0.436819 0.000000
0.814352 0.432843 0.006264
0.833578 0.438235 0.000000
0.851552 0.443627 0.000000
0.867511 0.439406 0.000000
0.885485 0.444662 0.001743
0.898693 0.451988 0.000000
0.909831 0.463889 0.000000
0.918464 0.466612 0.000817
0.005773 0.288263 0.000000
0.005746 0.288344 0.000000
0.000000 0.303404 0.000000
0.000000 0.312990 0.000000
0.000000 0.317620 0.000000
0.000000 0.336383 0.000000
0.074129 0.353214 0.000000
0.159967 0.364461 0.000000
0.237010 0.378513 0.000000
0.299537 0.392402 0.002751
0.339052 0.407326 0.000000
0.394853 0.415523 0.000000
0.444717 0.428459 0.000000
0.486710 0.436438 0.000000
0.525572 0.436084 0.000000
0.565005 0.444090 0.000000
0.596977 0.452832 0.000000
0.623856 0.457516 0.000000
0.657244 0.461629 0.000000
0.684913 0.461247 0.000000
0.716313 0.464379 0.000626
0.737500 0.464869 0.000000
0.764406 0.464188 0.000000
0.789052 0.469063 0.000000
0.814570 0.467674 0.001825
0.833469 0.473230 0.000000
0.848393 0.474537 0.000000
0.868001 0.474700 0.000000
0.882162 0.476471 0.005310
0.900109 0.481509 0.000000
0.912908 0.488263 0.000000
0.929357 0.498747 0.000000
0.927723 0.503813 0.000000
0.000000 0.307898 0.003922
0.008279 0.312663 0.000000
0.004902 0.322004 0.000000
0.000000 0.331645 0.000000
0.000000 0.345969 0.000000
0.000000 0.363617 0.000000
0.062636 0.381100 0.000136
0.157298 0.391667 0.000000
0.244063 0.409913 0.000000
0.293246 0.420234 0.000000
0.355801 0.437446 0.000000
0.403922 0.446215 0.000000
0.448829 0.454820 0.000000
0.488943 0.468137 0.000000
0.533115 0.471432 0.000000
0.572413 0.479357 0.002996
0.606727 0.483224 0.000000
0.634314 0.488508 0.000000
0.660893 0.492974 0.000000
0.698856 0.495615 0.004276
0.724646 0.499946 0.000000
0.751525 0.499673 0.000517
0.778976 0.499564 0.000000
0.802887 0.503676 0.000000
0.829085 0.502751 0.000000
0.849510 0.503813 0.002315
0.863807 0.504766 0.000000
0.882053 0.510158 0.000000
0.900109 0.515196 0.000000
0.914515 0.516803 0.000000
0.926906 0.523339 0.004929
0.943056 0.533606 0.004711
0.946868 0.537391 0.000000
0.000000 0.331808 0.000000
0.000000 0.331645 0.000000
0.000000 0.340768 0.000000
0.000000 0.354466 0.000000
0.000000 0.368709 0.000109
0.000000 0.386765 0.000000
0.069744 0.403050 0.000000
0.154058 0.418546 0.000272
0.238617 0.432843 0.000000
0.300082 0.450463 0.000000
0.359096 0.463698 0.000000
0.419989 0.475218 0.002042
0.457625 0.484804 0.001362
0.500817 0.493137 0.000000
0.541966 0.501253 0.000000
0.577397 0.505120 0.004031
0.616340 0.513399 0.002696
0.643954 0.518028 0.000000
0.674864 0.526580 0.000000
0.706944 0.530392 0.000000
0.734205 0.529847 0.004003
0.766122 0.533606 0.000000
0.792375 0.533306 0.000000
0.818791 0.532625 0.000000
0.839052 0.533306 0.005283
0.863399 0.537446 0.000000
0.877832 0.539406 0.002397
0.897631 0.539270 0.000000
0.910376 0.545942 0.000000
0.928322 0.551198 0.007489
0.946160 0.556291 0.000000
0.957053 0.567402 0.000000
0.960948 0.571623 0.000000
0.000000 0.350327 0.000000
0.000000 0.350218 0.000000
0.000000 0.359423 0.000000
0.000000 0.372821 0.000000
0.000000 0.386765 0.000000
0.000000 0.395261 0.000844
0.016394 0.421541 0.000000
0.084259 0.438263 0.000000
0.250735 0.457898 0.000000
0.301253 0.468056 0.000000
0.356291 0.485212 0.000000
0.419281 0.497059 0.000000
0.457271 0.506345 0.000000
0.508061 0.513834 0.000000
0.546541 0.526416 0.000000
0.589216 0.529929 0.004956
0.628404 0.537881 0.000000
0.661874 0.541748 0.000000
0.688154 0.546296 0.000000
0.714243 0.550844 0.000000
0.752369 0.553949 0.004711
0.779248 0.553513 0.000000
0.798448 0.559069 0.001552
0.829357 0.562936 0.000000
0.850817 0.558279 0.006291
0.868164 0.568437 0.000000
0.887418 0.568791 0.000000
0.907816 0.569390 0.000000
0.925626 0.574510 0.000000
0.939924 0.575953 0.000000
0.952397 0.582135 0.000000
0.968682 0.592320 0.000000
0.975735 0.599673 0.000000
0.000000 0.368954 0.000436
0.005583 0.377342 0.000000
0.009749 0.368164 0.000082
0.000000 0.386765 0.000000
0.008497 0.399455 0.000000
0.000000 0.426225 0.000000
0.000000 0.439025 0.000000
0.090931 0.459341 0.000000
0.244281 0.479820 0.000517
0.302260 0.493219 0.000000
0.371732 0.505338 0.005501
0.417647 0.518600 0.000000
0.473448 0.534395 0.000000
0.508715 0.543382 0.001607
0.551307 0.551797 0.000245
0.591422 0.559559 0.000000
0.637173 0.566449 0.000000
0.670752 0.570370 0.002369
0.693655 0.571242 0.000000
0.724265 0.579956 0.000000
0.755637 0.583415 0.000000
0.783143 0.583442 0.000000
0.814188 0.587282 0.000000
0.834722 0.587718 0.000000
0.858824 0.592048 0.000000
0.882707 0.596324 0.000000
0.902968 0.596977 0.000000
0.922549 0.597358 0.003377
0.940714 0.602369 0.000000
0.954684 0.604031 0.000817
0.965768 0.615196 0.000980
0.978540 0.621378 0.000000
0.990822 0.627505 0.000000
0.021351 0.381536 0.000245
0.000000 0.381999 0.000354
0.008687 0.399564 0.000000
0.000000 0.408524 0.001225
0.000000 0.426225 0.000000
0.000000 0.439025 0.000000
0.023911 0.464760 0.000000
0.141013 0.487881 0.000000
0.237173 0.500953 0.000000
0.297086 0.514624 0.000490
0.369798 0.534722 0.000000
0.416667 0.547821 0.000000
0.471950 0.555365 0.000000
0.520507 0.567674 0.002505
0.569526 0.574864 0.000381
0.607026 0.587092 0.000000
0.639434 0.595534 0.000000
0.673230 0.599537 0.000000
0.707244 0.603513 0.000000
0.739297 0.607135 0.000000
0.765005 0.611983 0.000000
0.796106 0.615468 0.000000
0.827206 0.619063 0.000000
0.847958 0.619771 0.000000
0.871705 0.623965 0.000463
0.892538 0.624973 0.000000
0.912391 0.625490 0.006863
0.932190 0.625817 0.000000
0.948312 0.635648 0.000000
0.963154 0.637582 0.000000
0.979058 0.647113 0.000000
0.987691 0.649700 0.002260
0.989706 0.657653 0.000000
0.008279 0.399537 0.000000
0.000000 0.404357 0.000000
0.000000 0.404330 0.000000
0.000000 0.417375 0.000000
0.000000 0.434967 0.002315
0.000000 0.469063 0.000000
0.008197 0.481590 0.000000
0.112446 0.505038 0.000000
0.228649 0.522195 0.000000
0.292184 0.535594 0.000000
0.370997 0.550953 0.000000
0.431509 0.567130 0.000000
0.475272 0.580120 0.000000
0.528404 0.595425 0.000000
0.563562 0.604330 0.000000
0.611302 0.611193 0.000000
0.652778 0.614352 0.000000
0.684940 0.623094 0.000000
0.721732 0.630338 0.000000
0.747985 0.635103 0.002070
0.782625 0.634532 0.000000
0.807353 0.639025 0.000000
0.837936 0.642647 0.005528
0.862718 0.646868 0.000000
0.883143 0.647712 0.001716
0.907190 0.651934 0.000000
0.930719 0.655964 0.000000
0.945098 0.657516 0.006781
0.963426 0.662881 0.000000
0.982816 0.663535 0.003676
0.989924 0.670561 0.000000
0.991776 0.678513 0.000000
0.995370 0.682108 0.000000
0.020534 0.412636 0.000000
0.000000 0.417565 0.000000
0.000000 0.417211 0.000000
0.000000 0.438998 0.000000
0.000000 0.460212 0.002042
0.000000 0.477288 0.000000
0.005773 0.510512 0.000000
0.072549 0.522004 0.000000
0.212092 0.539080 0.000000
0.319744 0.562554 0.001634
0.372631 0.575790 0.000000
0.425000 0.592102 0.000000
0.478241 0.603976 0.000000
0.539270 0.618709 0.000000
0.574346 0.627342 0.000000
0.619690 0.638834 0.000000
0.658960 0.646541 0.000000
0.693246 0.650463 0.000000
0.724183 0.658742 0.000000
0.762827 0.661765 0.000000
0.788344 0.666122 0.000980
0.819989 0.669771 0.000000
0.845016 0.674292 0.000000
0.871269 0.674455 0.005093
0.895942 0.678622 0.000000
0.919717 0.682816 0.000000
0.934559 0.684586 0.000000
0.959777 0.684314 0.000000
0.977778 0.689406 0.000000
0.990169 0.695343 0.000000
0.995697 0.694499 0.000000
0.994199 0.699047 0.000000
0.995806 0.706781 0.000000
0.000000 0.426089 0.000000
0.000000 0.426171 0.000000
0.000000 0.438998 0.000000
0.000000 0.464788 0.000000
0.000000 0.485975 0.000000
0.011275 0.502179 0.000000
0.000000 0.518764 0.000000
0.076525 0.542293 0.000000
0.239352 0.562418 0.000000
0.320670 0.578676 0.000000
0.402887 0.597631 0.000000
0.431563 0.611710 0.000000
0.488916 0.627070 0.000000
0.526362 0.635920 0.000000
0.585267 0.650463 0.000000
0.630365 0.661629 0.000000
0.676661 0.668573 0.000000
0.697467 0.673965 0.000000
0.728649 0.682162 0.000000
0.767347 0.685131 0.000000
0.803214 0.692184 0.000000
0.824973 0.693491 0.000000
0.855664 0.697195 0.000000
0.885866 0.700381 0.000000
0.904439 0.705746 0.005065
0.925327 0.706536 0.000000
0.948829 0.710648 0.001307
0.966912 0.715768 0.000000
0.986520 0.716612 0.000000
0.992048 0.715741 0.000000
0.994227 0.723693 0.000000
0.994090 0.723638 0.000000
0.993900 0.723693 0.008905
0.000000 0.439080 0.000000
0.000000 0.438998 0.000000
0.023611 0.464243 0.000000
0.023775 0.464052 0.000000
0.028023 0.485458 0.003077
0.000000 0.523203 0.000000
0.000000 0.539080 0.000000
0.127179 0.565632 0.000000
0.215142 0.575681 0.000000
0.342429 0.601389 0.000000
0.384504 0.614788 0.000000
0.451416 0.633905 0.000000
0.482516 0.643491 0.000000
0.549292 0.661710 0.000000
0.598829 0.668736 0.004248
0.643873 0.680011 0.000000
0.669662 0.688943 0.000000
0.708143 0.696460 0.000000
0.739107 0.704466 0.000000
0.772004 0.708361 0.000000
0.810022 0.711383 0.003214
0.839216 0.719281 0.001607
0.864461 0.723611 0.000000
0.888807 0.727968 0.000000
0.915305 0.728540 0.006127
0.933742 0.733333 0.000000
0.959232 0.733279 0.002151
0.977642 0.738317 0.000000
0.986574 0.740959 0.000517
0.992021 0.740142 0.000000
0.997168 0.739161 0.000000
0.995643 0.743464 0.000000
0.993709 0.747740 0.000000
0.009858 0.451852 0.000000
0.009749 0.451443 0.000000
0.012908 0.472631 0.002451
0.013208 0.472958 0.002642
0.000000 0.498312 0.003322
0.020969 0.522576 0.000000
0.006727 0.559096 0.000000
0.091422 0.574401 0.000000
0.219444 0.595071 0.000000
0.313862 0.614760 0.000000
0.375191 0.631264 0.000000
0.443137 0.650381 0.001144
0.501580 0.665714 0.000000
0.550926 0.676988 0.000000
0.590877 0.689161 0.000000
0.647467 0.702996 0.000000
0.676525 0.707898 0.000000
0.721024 0.714270 0.000000
0.751961 0.722386 0.000000
0.782489 0.730692 0.000000
0.820425 0.733687 0.004194
0.846187 0.737963 0.000000
0.874891 0.745724 0.000000
0.901797 0.746160 0.000000
0.925626 0.750354 0.007353
0.944417 0.755310 0.000000
0.968110 0.759668 0.000000
0.988290 0.760594 0.000000
0.993818 0.759913 0.000000
0.993627 0.759722 0.000000
0.993791 0.759804 0.000000
0.991612 0.763916 0.002233
0.995316 0.767320 0.000000
0.000000 0.460212 0.002042
0.000000 0.460049 0.001934
0.000000 0.494336 0.000000
0.000000 0.494336 0.000000
0.000000 0.506454 0.000000
0.009477 0.530964 0.000000
0.000000 0.555583 0.000000
0.101307 0.586057 0.000000
0.255855 0.613399 0.000000
0.325626 0.629820 0.000000
0.385349 0.646242 0.000000
0.439325 0.662364 0.002342
0.506727 0.676688 0.000000
0.552914 0.692456 0.000000
0.600490 0.703513 0.000000
0.652696 0.714270 0.000000
0.682489 0.726253 0.000000
0.721432 0.733769 0.000000
0.758960 0.741258 0.000000
0.791639 0.745098 0.000000
0.821432 0.753023 0.000000
0.850708 0.760893 0.000000
0.883715 0.760621 0.001062
0.906073 0.768764 0.000000
0.930719 0.772849 0.000000
0.954657 0.777369 0.000000
0.974864 0.778214 0.005202
0.989679 0.780065 0.000000
0.995044 0.779167 0.000000
0.995180 0.779167 0.000000
0.995098 0.779139 0.000000
0.995153 0.779194 0.000000
0.992947 0.783252 0.000000
0.000000 0.468600 0.000000
0.000000 0.468927 0.000000
0.000000 0.498312 0.003322
0.000000 0.498230 0.003350
0.000000 0.527124 0.000000
0.012990 0.551008 0.000000
0.029139 0.562908 0.000000
0.073557 0.598094 0.000000
0.260539 0.624809 0.005610
0.300436 0.638971 0.000000
0.410893 0.664188 0.003486
0.449646 0.676988 0.000000
0.512527 0.695697 0.000000
0.562473 0.707026 0.000000
0.609613 0.718382 0.000000
0.654902 0.729385 0.000000
0.687636 0.737446 0.000000
0.730202 0.748339 0.001525
0.761220 0.756318 0.000000
0.797985 0.763453 0.000000
0.829929 0.767184 0.006209
0.853513 0.776171 0.005392
0.890441 0.778676 0.000000
0.913126 0.787146 0.000000
0.943028 0.790632 0.000000
0.961465 0.795888 0.000000
0.982053 0.796759 0.000000
0.991095 0.799292 0.000000
