calib/PRINT PROFILES/fuji_print.cube
TITLE "fuji_print"
#LUMIXPHOTOSTYLE STD
LUT_3D_SIZE 9
0.031808 0.031808 0.031808
0.052751 0.036520 0.030447
0.151008 0.048911 0.031863
0.276770 0.047576 0.000000
0.391367 0.009967 0.000000
0.494907 0.000000 0.000871
0.579657 0.005964 0.000000
0.652505 0.000000 0.000000
0.707271 0.000000 0.001253
0.000000 0.084123 0.046814
0.060866 0.093164 0.043328
0.195942 0.115986 0.022331
0.333769 0.131127 0.000000
0.459695 0.138589 0.000000
0.564733 0.137800 0.002233
0.646160 0.113889 0.000000
0.721623 0.108606 0.000000
0.769962 0.114134 0.000000
0.002914 0.157298 0.042320
0.047495 0.178676 0.032298
0.226552 0.209722 0.000000
0.383960 0.246705 0.000000
0.525436 0.260648 0.000000
0.634586 0.265414 0.000000
0.727996 0.264597 0.000000
0.795016 0.277560 0.000000
0.849755 0.294635 0.000408
0.000000 0.244227 0.006264
0.001008 0.264352 0.002996
0.232761 0.322358 0.000000
0.424374 0.364706 0.000000
0.571923 0.385403 0.000000
0.685185 0.397849 0.000000
0.783578 0.399428 0.000000
0.856236 0.405528 0.001307
0.898883 0.430828 0.000000
0.000000 0.331808 0.000000
0.000000 0.368709 0.000109
0.238617 0.432843 0.000000
0.457625 0.484804 0.001362
0.616340 0.513399 0.002696
0.734205 0.529847 0.004003
0.839052 0.533306 0.005283
0.910376 0.545942 0.000000
0.960948 0.571623 0.000000
0.008279 0.399537 0.000000
0.000000 0.434967 0.002315
0.228649 0.522195 0.000000
0.475272 0.580120 0.000000
0.652778 0.614352 0.000000
0.782625 0.634532 0.000000
0.883143 0.647712 0.001716
0.963426 0.662881 0.000000
0.995370 0.682108 0.000000
0.009858 0.451852 0.000000
0.000000 0.498312 0.003322
0.219444 0.595071 0.000000
0.501580 0.665714 0.000000
0.676525 0.707898 0.000000
0.820425 0.733687 0.004194
0.925626 0.750354 0.007353
0.993818 0.759913 0.000000
0.995316 0.767320 0.000000
0.000000 0.489924 0.000000
0.000000 0.539216 0.000000
0.202832 0.638480 0.000000
0.514651 0.718573 0.000000
0.703568 0.770425 0.000000
0.839733 0.800463 0.000000
0.952805 0.823856 0.000000
0.993736 0.825790 0.000000
0.993764 0.825871 0.000000
0.000000 0.566013 0.212881
0.000000 0.641068 0.173284
0.317593 0.699401 0.088453
0.551389 0.753486 0.000000
0.695343 0.789461 0.000000
0.834722 0.827315 0.000000
0.943764 0.851607 0.000000
0.994417 0.856127 0.000000
0.998230 0.847658 0.000000
0.027533 0.029439 0.082544
0.058197 0.041857 0.088753
0.168301 0.050681 0.091830
0.293600 0.033497 0.079466
0.425191 0.000000 0.078214
0.526443 0.000000 0.073448
0.615768 0.000000 0.054602
0.685784 0.000408 0.077859
0.738535 0.000000 0.127206
0.000000 0.095561 0.110076
0.057734 0.105229 0.108115
0.207843 0.125354 0.108279
0.353649 0.138263 0.090332
0.483932 0.116885 0.062473
0.584178 0.103922 0.032190
0.674074 0.070534 0.012282
0.735757 0.002887 0.026961
0.777669 0.017266 0.093927
0.000000 0.189733 0.134613
0.000000 0.200463 0.132435
0.224619 0.235621 0.126716
0.404739 0.253241 0.076089
0.541040 0.262391 0.049455
0.651089 0.259395 0.020071
0.743573 0.257571 0.004711
0.808878 0.249946 0.000735
0.843301 0.269553 0.073121
0.000000 0.282489 0.153105
0.000000 0.302151 0.147495
0.221569 0.346650 0.102560
0.436465 0.377614 0.065387
0.583987 0.397903 0.030392
0.706318 0.397576 0.000000
0.802424 0.405065 0.000000
0.865741 0.408469 0.000000
0.896078 0.420479 0.029684
0.018845 0.376035 0.158824
0.000000 0.412064 0.160049
0.195534 0.464188 0.102151
0.460240 0.510158 0.047059
0.634559 0.536901 0.003132
0.758197 0.552751 0.000000
0.856373 0.556944 0.000000
0.929003 0.564706 0.000000
0.948529 0.578758 0.027397
0.000000 0.446541 0.183197
0.000000 0.485076 0.166558
0.157816 0.552805 0.074210
0.473638 0.608524 0.033061
0.659096 0.646541 0.000000
0.794336 0.665223 0.000626
0.901580 0.677887 0.000000
0.975980 0.681618 0.000000
0.991966 0.691013 0.000000
0.001525 0.500926 0.211492
0.000000 0.550408 0.198012
0.128404 0.624455 0.097331
0.466667 0.683578 0.057979
0.676089 0.727369 0.000000
0.817484 0.749673 0.000000
0.930719 0.773175 0.000000
0.995234 0.779330 0.000000
0.996923 0.774946 0.002642
0.002179 0.541176 0.274918
0.000000 0.601225 0.266857
0.081863 0.666966 0.200354
0.467838 0.728894 0.100436
0.681100 0.772331 0.075163
0.811002 0.800054 0.022849
0.935594 0.826334 0.000000
0.997522 0.829139 0.000000
0.992919 0.825517 0.065768
0.007407 0.614434 0.428377
0.000000 0.679875 0.423039
0.151634 0.738807 0.395833
0.501362 0.791176 0.395806
0.683578 0.814978 0.351961
0.800000 0.840577 0.341612
0.911492 0.857435 0.340414
0.989080 0.873420 0.347549
0.994363 0.883442 0.417184
0.000000 0.011846 0.180882
0.070561 0.015196 0.185757
0.174374 0.018600 0.200790
0.309477 0.000000 0.198420
0.438753 0.000000 0.204439
0.545724 0.000000 0.204521
0.634368 0.000000 0.215387
0.699210 0.000000 0.233415
0.744798 0.000000 0.284259
0.001525 0.102260 0.225599
0.031563 0.113834 0.224619
0.210294 0.132898 0.237663
0.364270 0.136928 0.233442
0.500082 0.130338 0.222740
0.593900 0.072958 0.215305
0.683007 0.044336 0.215659
0.747958 0.014570 0.228649
0.786002 0.059314 0.290060
0.000000 0.212745 0.268655
0.000000 0.234178 0.276934
0.220997 0.258932 0.272059
0.409395 0.276334 0.270670
0.552723 0.279385 0.253186
0.658088 0.278840 0.253295
0.749483 0.265605 0.236928
0.809178 0.260430 0.250626
0.844662 0.284450 0.311683
0.000000 0.317892 0.302124
0.000000 0.341149 0.313807
0.206209 0.386111 0.299946
0.430392 0.413072 0.284259
0.589325 0.423339 0.275599
0.708878 0.424973 0.262391
0.796078 0.414570 0.258415
0.859668 0.418083 0.270861
0.891639 0.450163 0.331019
0.000000 0.426280 0.340686
0.007761 0.456590 0.340223
0.086057 0.511002 0.322876
0.450327 0.550735 0.312037
0.625735 0.570044 0.299755
0.748693 0.574129 0.285566
0.846242 0.574918 0.271814
0.909940 0.580338 0.284069
0.945044 0.607680 0.363290
0.000000 0.498529 0.372576
0.013971 0.539379 0.374455
0.000000 0.600136 0.354630
0.440033 0.648257 0.335566
0.644499 0.674210 0.307271
0.776171 0.690496 0.293818
0.878540 0.695888 0.290605
0.950844 0.696596 0.298175
0.979984 0.723339 0.379330
0.000000 0.547059 0.407761
0.001498 0.590877 0.408469
0.000000 0.669363 0.384314
0.444662 0.728268 0.367320
0.649592 0.761955 0.354956
0.787064 0.778377 0.323175
0.902751 0.787200 0.304820
0.974918 0.800000 0.327260
0.995833 0.811520 0.389951
0.000000 0.581972 0.467974
0.024265 0.636383 0.471187
0.000000 0.709749 0.445779
0.440087 0.768682 0.420643
0.655256 0.805556 0.414080
0.788235 0.829984 0.406481
0.914134 0.845534 0.388644
0.982598 0.858905 0.391422
0.996432 0.864052 0.445724
0.022195 0.649292 0.589597
0.000000 0.710403 0.596786
0.040768 0.773448 0.576280
0.473121 0.815741 0.568682
0.657598 0.846923 0.562827
0.787037 0.871650 0.562364
0.893981 0.893028 0.562990
0.976062 0.905174 0.571296
0.993056 0.913344 0.615005
0.004330 0.000000 0.285212
0.032407 0.000000 0.295016
0.189515 0.000000 0.308170
0.325899 0.000000 0.315768
0.451471 0.000000 0.322222
0.553568 0.000000 0.328704
0.642919 0.000000 0.339161
0.707789 0.000000 0.355664
0.752233 0.000000 0.404984
0.001852 0.075953 0.336084
0.000000 0.111846 0.343900
0.193382 0.139951 0.360566
0.368736 0.140768 0.367402
0.499782 0.119390 0.360349
0.601117 0.062990 0.354248
0.691204 0.027097 0.355991
0.750300 0.007244 0.372495
0.784395 0.002015 0.421759
0.000000 0.222168 0.402505
0.000000 0.237827 0.405910
0.199129 0.275735 0.406699
0.401825 0.288290 0.411928
0.556454 0.295997 0.402723
0.666367 0.289352 0.400000
0.753023 0.278214 0.397249
0.813072 0.273420 0.409341
0.845670 0.304357 0.464924
0.000000 0.345888 0.450599
0.000000 0.368682 0.456890
0.124346 0.411955 0.451879
0.411574 0.433878 0.446106
0.584613 0.448420 0.445098
0.706127 0.440686 0.437146
0.797903 0.440332 0.433578
0.861874 0.444254 0.449210
0.888862 0.471460 0.500000
0.017947 0.456318 0.491149
0.036737 0.486111 0.495915
0.054739 0.544336 0.487663
0.427751 0.578377 0.483660
0.616149 0.597141 0.475926
0.741476 0.605746 0.470670
0.840033 0.598938 0.463290
0.908551 0.607952 0.477941
0.938644 0.631291 0.537391
0.000000 0.531917 0.520888
0.014869 0.571950 0.532407
0.000000 0.635376 0.530910
0.401770 0.682462 0.510812
0.625300 0.708361 0.501225
0.768192 0.715986 0.495016
0.872440 0.726062 0.488671
0.943627 0.731236 0.504194
0.972958 0.753350 0.568246
0.000626 0.579112 0.557190
0.000000 0.622631 0.567865
0.000000 0.707353 0.553622
0.387718 0.754385 0.546596
0.625817 0.787092 0.539706
0.780474 0.806127 0.531236
0.890441 0.819962 0.529031
0.962064 0.829466 0.533442
0.993764 0.846623 0.593600
0.004194 0.621432 0.605964
0.000000 0.671596 0.615659
0.004847 0.739733 0.604385
0.395153 0.797386 0.591231
0.633361 0.833469 0.588943
0.772876 0.857952 0.589052
0.897985 0.874428 0.577124
0.970915 0.891013 0.589052
0.996732 0.901389 0.635376
0.000000 0.687881 0.706672
0.012854 0.729385 0.709205
0.005664 0.792511 0.695697
0.428840 0.833197 0.694826
0.642075 0.866939 0.698148
0.778513 0.891721 0.695125
0.888644 0.913208 0.696923
0.965468 0.925871 0.708878
0.992429 0.936166 0.743056
0.000000 0.000000 0.370261
0.021541 0.000000 0.378758
0.187119 0.000000 0.400708
0.337173 0.000000 0.416803
0.462064 0.000000 0.419036
0.565659 0.000000 0.425191
0.649210 0.006318 0.440305
0.720261 0.000000 0.455692
0.758715 0.005556 0.501661
0.000000 0.018001 0.423066
0.000000 0.076389 0.439869
0.212554 0.125272 0.459069
0.370615 0.109995 0.470697
0.503105 0.102369 0.468573
0.609858 0.040904 0.471487
0.696187 0.008197 0.473475
0.755828 0.000000 0.488971
0.788154 0.013317 0.534395
0.000000 0.213971 0.498965
0.000000 0.241585 0.510049
0.166585 0.276852 0.515822
0.404330 0.297277 0.528922
0.555556 0.295343 0.522467
0.666449 0.294553 0.523883
0.755202 0.283388 0.522222
0.814052 0.285975 0.537037
0.847767 0.309423 0.584613
0.007571 0.354330 0.552342
0.002587 0.377070 0.567347
0.033524 0.422549 0.567511
0.398475 0.448448 0.570507
0.575654 0.463780 0.566231
0.701607 0.456808 0.564352
0.795507 0.456563 0.565822
0.859858 0.460212 0.580174
0.891966 0.485675 0.622249
0.000000 0.478486 0.603159
0.000000 0.516394 0.619363
0.000000 0.565496 0.613371
0.395071 0.601280 0.606754
0.600572 0.615850 0.610321
0.733905 0.620234 0.606836
0.834613 0.625953 0.607298
0.909995 0.634096 0.620643
0.940931 0.657244 0.666503
0.000000 0.552505 0.635621
0.000000 0.600763 0.649891
0.000000 0.659232 0.646296
0.356972 0.704412 0.642048
0.603785 0.729984 0.639161
0.750327 0.742211 0.642456
0.870452 0.750763 0.642130
0.938453 0.756645 0.647495
0.968273 0.778513 0.697358
0.000000 0.595670 0.670588
0.000000 0.646650 0.684314
0.000000 0.730583 0.680773
0.360430 0.778649 0.671814
0.616476 0.811166 0.671242
0.758769 0.835458 0.672386
0.885458 0.847522 0.675327
0.958905 0.857108 0.679847
0.985349 0.875000 0.725899
0.013780 0.626144 0.698829
0.000000 0.683878 0.719090
0.000000 0.759259 0.713045
0.332598 0.811574 0.707217
0.611547 0.854602 0.709123
0.764025 0.877968 0.714570
0.889161 0.898039 0.712064
0.964379 0.914624 0.719145
0.996705 0.924483 0.757761
0.032162 0.704085 0.778431
0.009586 0.726852 0.783115
0.000000 0.804466 0.776525
0.408851 0.846487 0.780719
0.621324 0.884395 0.784096
0.768655 0.908170 0.789461
0.887037 0.928704 0.795398
0.957135 0.946242 0.806999
0.991830 0.955692 0.831781
0.004466 0.000000 0.436601
0.000000 0.000000 0.449401
0.191694 0.000000 0.470180
0.341204 0.000000 0.485621
0.466068 0.000000 0.496405
0.571950 0.000000 0.502751
0.657653 0.000000 0.517375
0.727233 0.002751 0.535920
0.771269 0.004466 0.576062
0.000000 0.000000 0.491939
0.004139 0.045261 0.508007
0.206509 0.105583 0.535103
0.370915 0.094444 0.550272
0.506808 0.081836 0.552505
0.615251 0.024265 0.555147
0.701961 0.000000 0.561574
0.766721 0.000000 0.576307
0.800054 0.000000 0.615414
0.000000 0.207462 0.569417
0.000000 0.234477 0.588181
0.129003 0.283252 0.597222
0.394989 0.298775 0.606509
0.545997 0.308796 0.612146
0.665877 0.288399 0.610948
0.754003 0.283469 0.612827
0.819199 0.283660 0.627260
0.852233 0.314951 0.668355
0.000436 0.358987 0.632789
0.000000 0.381808 0.647059
0.074864 0.431127 0.647059
0.393736 0.463535 0.654575
0.572958 0.469254 0.659532
0.697168 0.472249 0.660675
0.795016 0.466694 0.662827
0.865087 0.475109 0.676770
0.892320 0.496133 0.717021
0.000000 0.487772 0.677614
0.000000 0.516068 0.698203
0.026770 0.574237 0.700790
0.377941 0.611247 0.698829
0.590659 0.630065 0.705882
0.725490 0.638753 0.706073
0.834613 0.644118 0.711574
0.909586 0.643682 0.721242
0.938916 0.671269 0.760212
0.000000 0.562037 0.709641
0.000000 0.613181 0.731454
0.000000 0.668382 0.733034
0.337582 0.713971 0.729548
0.592647 0.743627 0.734613
0.745153 0.763317 0.741176
0.864788 0.768437 0.742075
0.938099 0.773175 0.755256
0.969826 0.795071 0.790414
0.000000 0.608960 0.739597
0.051389 0.651362 0.754357
0.000000 0.731727 0.763780
0.306291 0.785648 0.751334
0.597413 0.824837 0.762173
0.759586 0.847958 0.768028
0.878595 0.864515 0.774755
0.956618 0.877179 0.782571
0.989352 0.886901 0.815496
0.000000 0.651225 0.769336
0.000000 0.696432 0.786683
0.028976 0.767838 0.790114
0.292919 0.825517 0.780801
0.593791 0.868056 0.791068
0.755637 0.894472 0.799782
0.883388 0.915196 0.802424
0.961329 0.927478 0.813807
0.995915 0.937173 0.838671
0.012309 0.687609 0.813889
0.000000 0.740714 0.826988
0.000000 0.810866 0.822032
0.379793 0.853540 0.826171
0.600354 0.891068 0.840931
0.756836 0.918818 0.850191
0.881373 0.942184 0.859559
0.961574 0.954793 0.867130
0.993927 0.961057 0.884096
0.002805 0.000000 0.483442
0.000000 0.003268 0.500327
0.179112 0.000354 0.524728
0.345534 0.000000 0.543927
0.478867 0.000000 0.558088
0.577533 0.005256 0.572440
0.670997 0.000000 0.582925
0.737037 0.000000 0.597086
0.781481 0.000000 0.631699
0.000000 0.000000 0.545370
0.000000 0.011275 0.561683
0.193437 0.085212 0.596024
0.367593 0.080556 0.610539
0.502070 0.025300 0.617347
0.614515 0.017729 0.627342
0.706481 0.000000 0.637282
0.771786 0.000000 0.651416
0.806808 0.000000 0.681590
0.000000 0.189679 0.617865
0.006236 0.222440 0.639651
0.126362 0.289216 0.660703
0.392783 0.304847 0.673312
0.550545 0.301934 0.682898
0.662282 0.295724 0.684940
0.759995 0.281754 0.688263
0.818464 0.291503 0.701307
0.850517 0.309967 0.730174
0.000000 0.360321 0.686955
0.000000 0.383469 0.705202
0.000000 0.437636 0.716585
0.367402 0.470969 0.724074
0.573829 0.474619 0.728922
0.700926 0.472985 0.739134
0.800027 0.481318 0.743627
0.862908 0.481509 0.753486
0.899946 0.510158 0.784314
0.000000 0.489570 0.731618
0.000000 0.530746 0.758333
0.000000 0.583578 0.764815
0.350463 0.618464 0.764134
0.572821 0.641476 0.774510
0.721296 0.652914 0.786111
0.840550 0.652315 0.791531
0.907162 0.662364 0.800272
0.942456 0.680474 0.827778
0.000000 0.567565 0.766639
0.017620 0.610757 0.788562
0.018301 0.680746 0.796296
0.312282 0.724483 0.794199
0.580447 0.753785 0.807135
0.736983 0.773066 0.817375
0.859041 0.785539 0.824700
0.936983 0.786656 0.834559
0.965223 0.809314 0.857380
0.000000 0.614978 0.784450
0.000000 0.668900 0.808687
0.000000 0.744798 0.819036
0.269063 0.792429 0.812337
0.567919 0.835812 0.830637
0.741503 0.861983 0.839542
0.874510 0.881345 0.849646
0.956127 0.890060 0.858115
0.984913 0.900599 0.878404
0.008987 0.649374 0.810975
0.003268 0.676008 0.823012
0.006073 0.777097 0.837119
0.298911 0.830937 0.833524
0.581264 0.874455 0.847740
0.751225 0.904221 0.859749
0.875871 0.927778 0.869036
0.961601 0.939924 0.880692
0.993056 0.950408 0.893682
0.000000 0.679357 0.833660
0.003813 0.761737 0.854003
0.031236 0.812936 0.851498
0.377151 0.856127 0.859722
0.600844 0.893845 0.874728
0.754003 0.924564 0.886901
0.882353 0.944662 0.896678
0.959995 0.961057 0.907761
0.992048 0.971378 0.916721
0.000000 0.000000 0.521106
0.000000 0.000436 0.537391
0.167266 0.002315 0.561166
0.339379 0.000000 0.588072
0.475300 0.000000 0.606264
0.589406 0.000000 0.616149
0.676362 0.000000 0.630229
0.743028 0.000000 0.644581
0.789243 0.000000 0.670561
0.000000 0.000000 0.589352
0.000000 0.008279 0.601225
0.191803 0.084831 0.635294
0.357190 0.059341 0.650082
0.509477 0.035294 0.667402
0.617320 0.010812 0.677587
0.715768 0.000000 0.691449
0.777696 0.000000 0.697576
0.808306 0.000000 0.719472
0.000000 0.179521 0.649346
0.000000 0.224374 0.678431
0.089080 0.281699 0.695071
0.383442 0.297331 0.711792
0.543056 0.310920 0.732108
0.662854 0.303214 0.738045
0.756972 0.283851 0.740822
0.823366 0.283932 0.754439
0.851008 0.312609 0.771514
0.014434 0.357380 0.721650
0.000000 0.389570 0.742347
0.000000 0.439679 0.754058
0.376416 0.476906 0.765142
0.565632 0.482489 0.777533
0.695289 0.479929 0.786792
0.794417 0.489052 0.799564
0.865114 0.487745 0.805610
0.900844 0.512854 0.825218
0.008524 0.495724 0.768655
0.000000 0.528513 0.792157
0.006999 0.585675 0.802097
0.356182 0.628404 0.804357
0.571596 0.647603 0.822576
0.717647 0.655501 0.834722
0.832653 0.663725 0.846732
0.909041 0.668246 0.852042
0.942647 0.695615 0.870615
0.000000 0.565822 0.792756
0.012718 0.616939 0.821215
0.041585 0.683061 0.833279
0.303840 0.727179 0.831318
0.572113 0.760349 0.851307
0.737854 0.779112 0.865577
0.854739 0.792293 0.872849
0.936683 0.796514 0.885376
0.969608 0.814788 0.897358
0.016857 0.621405 0.813589
0.039570 0.678731 0.841204
0.000000 0.743301 0.852669
0.217783 0.796296 0.845697
0.562173 0.842429 0.867402
0.736302 0.868546 0.883769
0.870997 0.887609 0.893600
0.950245 0.900136 0.905065
0.984314 0.906972 0.914842
0.000000 0.656209 0.832217
0.017102 0.678813 0.844771
0.029684 0.780038 0.859395
0.227070 0.831781 0.859613
0.561629 0.878350 0.880937
0.737092 0.908034 0.893355
0.870153 0.931209 0.906373
0.955229 0.946678 0.913562
0.995071 0.952832 0.926607
0.000000 0.682898 0.847985
0.000000 0.754357 0.866176
0.000000 0.812908 0.866503
0.365278 0.855964 0.874592
0.588780 0.897794 0.893028
0.747712 0.924782 0.905610
0.873666 0.948312 0.918355
0.959286 0.964107 0.925763
0.993845 0.970534 0.935131
0.012881 0.000000 0.549619
0.000000 0.000000 0.569581
0.184096 0.000000 0.597086
0.338426 0.000000 0.619444
0.470588 0.000000 0.637391
0.583578 0.003758 0.655120
0.682435 0.003241 0.668791
0.754847 0.000000 0.682707
0.793219 0.000000 0.697141
0.000000 0.000000 0.609423
0.000000 0.005583 0.628704
0.176035 0.091721 0.658224
0.354003 0.078377 0.680338
0.504766 0.024455 0.698312
0.613235 0.027179 0.708061
0.712609 0.000000 0.721378
0.785458 0.000000 0.731318
0.812609 0.002696 0.745724
0.000000 0.201416 0.675327
0.000000 0.234232 0.701062
0.076089 0.300899 0.720724
0.373175 0.317892 0.741040
0.541476 0.325899 0.757407
0.654194 0.320969 0.771051
0.759722 0.306209 0.777397
0.820071 0.296405 0.780120
0.861111 0.339080 0.795969
0.000000 0.371078 0.739788
0.012881 0.392919 0.760784
0.017838 0.446786 0.776008
0.357108 0.481454 0.787064
0.549946 0.492239 0.803132
0.683551 0.499319 0.819199
0.795261 0.496650 0.828077
0.872004 0.494254 0.834314
0.903867 0.520697 0.846623
0.000000 0.499428 0.787092
0.000000 0.540332 0.809722
0.000000 0.592919 0.823557
0.309913 0.629684 0.826825
0.562745 0.655419 0.847794
0.708660 0.667810 0.859286
0.832135 0.675027 0.870997
0.908115 0.679602 0.879956
0.941176 0.698856 0.892320
0.000000 0.573502 0.810403
0.000000 0.612527 0.832571
0.024673 0.682298 0.851580
0.258170 0.731781 0.849646
0.563589 0.767429 0.872631
0.717647 0.787936 0.886601
0.848257 0.799673 0.901525
0.936438 0.807217 0.909831
0.967102 0.822086 0.914869
0.000000 0.632952 0.834695
0.006972 0.655610 0.843382
0.020588 0.746078 0.866993
0.204330 0.799455 0.863862
0.561220 0.841830 0.889515
0.734477 0.871596 0.901906
0.862228 0.891422 0.915278
0.949564 0.903350 0.923148
0.982789 0.914025 0.928622
0.000000 0.640496 0.833687
0.000000 0.712582 0.859695
0.000000 0.783224 0.873611
0.181999 0.832544 0.871051
0.546296 0.878922 0.891966
0.728622 0.911547 0.907435
0.862064 0.934831 0.924374
0.954929 0.950027 0.931645
0.990005 0.956536 0.937255
0.025136 0.682298 0.851743
0.000000 0.735240 0.868110
0.000000 0.809069 0.874183
0.334477 0.853322 0.882407
0.571950 0.895071 0.897358
0.729548 0.925926 0.913072
0.871678 0.948148 0.925926
0.954221 0.967947 0.936465
0.996923 0.973883 0.938480
