calib/PRINT PROFILES/fuji_print.cube
TITLE "fuji_print"
#LUMIXPHOTOSTYLE STD
LUT_3D_SIZE 5
0.031808 0.031808 0.031808
0.151008 0.048911 0.031863
0.391367 0.009967 0.000000
0.579657 0.005964 0.000000
0.707271 0.000000 0.001253
0.002914 0.157298 0.042320
0.226552 0.209722 0.000000
0.525436 0.260648 0.000000
0.727996 0.264597 0.000000
0.849755 0.294635 0.000408
0.000000 0.331808 0.000000
0.238617 0.432843 0.000000
0.616340 0.513399 0.002696
0.839052 0.533306 0.005283
0.960948 0.571623 0.000000
0.009858 0.451852 0.000000
0.219444 0.595071 0.000000
0.676525 0.707898 0.000000
0.925626 0.750354 0.007353
0.995316 0.767320 0.000000
0.000000 0.566013 0.212881
0.317593 0.699401 0.088453
0.695343 0.789461 0.000000
0.943764 0.851607 0.000000
0.998230 0.847658 0.000000
0.000000 0.011846 0.180882
0.174374 0.018600 0.200790
0.438753 0.000000 0.204439
0.634368 0.000000 0.215387
0.744798 0.000000 0.284259
0.000000 0.212745 0.268655
0.220997 0.258932 0.272059
0.552723 0.279385 0.253186
0.749483 0.265605 0.236928
0.844662 0.284450 0.311683
0.000000 0.426280 0.340686
0.086057 0.511002 0.322876
0.625735 0.570044 0.299755
0.846242 0.574918 0.271814
0.945044 0.607680 0.363290
0.000000 0.547059 0.407761
0.000000 0.669363 0.384314
0.649592 0.761955 0.354956
0.902751 0.787200 0.304820
0.995833 0.811520 0.389951
0.022195 0.649292 0.589597
0.040768 0.773448 0.576280
0.657598 0.846923 0.562827
0.893981 0.893028 0.562990
0.993056 0.913344 0.615005
0.000000 0.000000 0.370261
0.187119 0.000000 0.400708
0.462064 0.000000 0.419036
0.649210 0.006318 0.440305
0.758715 0.005556 0.501661
0.000000 0.213971 0.498965
0.166585 0.276852 0.515822
0.555556 0.295343 0.522467
0.755202 0.283388 0.522222
0.847767 0.309423 0.584613
0.000000 0.478486 0.603159
0.000000 0.565496 0.613371
0.600572 0.615850 0.610321
0.834613 0.625953 0.607298
0.940931 0.657244 0.666503
0.000000 0.595670 0.670588
0.000000 0.730583 0.680773
0.616476 0.811166 0.671242
0.885458 0.847522 0.675327
0.985349 0.875000 0.725899
0.032162 0.704085 0.778431
0.000000 0.804466 0.776525
0.621324 0.884395 0.784096
0.887037 0.928704 0.795398
0.991830 0.955692 0.831781
0.002805 0.000000 0.483442
0.179112 0.000354 0.524728
0.478867 0.000000 0.558088
0.670997 0.000000 0.582925
0.781481 0.000000 0.631699
0.000000 0.189679 0.617865
0.126362 0.289216 0.660703
0.550545 0.301934 0.682898
0.759995 0.281754 0.688263
0.850517 0.309967 0.730174
0.000000 0.489570 0.731618
0.000000 0.583578 0.764815
0.572821 0.641476 0.774510
0.840550 0.652315 0.791531
0.942456 0.680474 0.827778
0.000000 0.614978 0.784450
0.000000 0.744798 0.819036
0.567919 0.835812 0.830637
0.874510 0.881345 0.849646
0.984913 0.900599 0.878404
0.000000 0.679357 0.833660
0.031236 0.812936 0.851498
0.600844 0.893845 0.874728
0.882353 0.944662 0.896678
0.992048 0.971378 0.916721
0.012881 0.000000 0.549619
0.184096 0.000000 0.597086
0.470588 0.000000 0.637391
0.682435 0.003241 0.668791
0.793219 0.000000 0.697141
0.000000 0.201416 0.675327
0.076089 0.300899 0.720724
0.541476 0.325899 0.757407
0.759722 0.306209 0.777397
0.861111 0.339080 0.795969
0.000000 0.499428 0.787092
0.000000 0.592919 0.823557
0.562745 0.655419 0.847794
0.832135 0.675027 0.870997
0.941176 0.698856 0.892320
0.000000 0.632952 0.834695
0.020588 0.746078 0.866993
0.561220 0.841830 0.889515
0.862228 0.891422 0.915278
0.982789 0.914025 0.928622
0.025136 0.682298 0.851743
0.000000 0.809069 0.874183
0.571950 0.895071 0.897358
0.871678 0.948148 0.925926
0.996923 0.973883 0.938480
