calib/PRINT PROFILES/kodak_print.cube
TITLE "kodak_print"
#LUMIXPHOTOSTYLE STD
LUT_3D_SIZE 5
0.025245 0.039515 0.037936
0.165359 0.053214 0.038671
0.419444 0.029167 0.000000
0.616449 0.000000 0.000000
0.722304 0.000000 0.000000
0.000000 0.145615 0.064570
0.222849 0.198611 0.023529
0.551253 0.247386 0.000000
0.759858 0.250871 0.003595
0.858824 0.297413 0.000000
0.000000 0.321977 0.060267
0.226171 0.442075 0.000000
0.669989 0.549237 0.000000
0.893519 0.581400 0.000000
0.983824 0.620234 0.000000
0.000000 0.447767 0.002015
0.119771 0.609232 0.000000
0.718682 0.757380 0.000000
0.966040 0.818056 0.000000
0.997767 0.817538 0.000000
0.031536 0.550381 0.117565
0.273747 0.697467 0.000000
0.714461 0.824755 0.000000
0.971514 0.888698 0.000000
0.996269 0.881863 0.001825
0.000000 0.027587 0.157544
0.173366 0.051498 0.183170
0.439788 0.000000 0.192974
0.640114 0.000000 0.209477
0.742838 0.000000 0.240959
0.009858 0.174537 0.235839
0.211057 0.228513 0.249510
0.558497 0.259913 0.244608
0.757298 0.248066 0.239080
0.843328 0.279493 0.274074
0.000000 0.378813 0.292048
0.079602 0.482326 0.285539
0.635076 0.569172 0.274809
0.868573 0.588916 0.244308
0.959341 0.623420 0.291394
0.019009 0.507598 0.318382
0.011792 0.647168 0.306291
0.669417 0.764706 0.274564
0.924292 0.807898 0.211492
0.995479 0.820806 0.240114
0.015005 0.617593 0.465931
0.036220 0.742538 0.461983
0.662500 0.848420 0.454357
0.918083 0.895670 0.450436
0.993164 0.908905 0.453540
0.000000 0.000000 0.333061
0.182135 0.001852 0.373666
0.465114 0.000000 0.405692
0.662772 0.000000 0.426580
0.765904 0.000000 0.458551
0.000000 0.172903 0.440768
0.185158 0.251716 0.474864
0.564706 0.276062 0.506536
0.763344 0.273883 0.513998
0.859613 0.307544 0.542511
0.012854 0.423965 0.537827
0.051307 0.529875 0.563862
0.624455 0.610049 0.585158
0.859858 0.626770 0.585076
0.953976 0.660975 0.607108
0.026552 0.558170 0.581318
0.001743 0.702233 0.610566
0.635376 0.814434 0.619172
0.903486 0.854085 0.617456
0.996024 0.871923 0.637146
0.011166 0.684477 0.691394
0.000000 0.788807 0.700027
0.636710 0.884967 0.711438
0.888263 0.933905 0.717647
0.994907 0.947195 0.724564
0.000000 0.000000 0.462309
0.183361 0.000000 0.508388
0.486928 0.000000 0.553894
0.682435 0.000000 0.578649
0.785376 0.000000 0.611765
0.000000 0.130229 0.567974
0.152424 0.258034 0.630583
0.565387 0.280882 0.675953
0.772522 0.269717 0.688535
0.864760 0.305692 0.714869
0.026906 0.429466 0.690251
0.000000 0.548012 0.737718
0.603159 0.622222 0.768437
0.859150 0.641285 0.780637
0.951525 0.671705 0.802124
0.000000 0.580637 0.742102
0.000000 0.723611 0.787663
0.588698 0.831373 0.811819
0.890005 0.876688 0.823257
0.992402 0.893464 0.837691
0.030501 0.668927 0.801253
0.000000 0.803105 0.834205
0.601198 0.901634 0.854766
0.886819 0.948557 0.869853
0.993845 0.965196 0.876334
0.000000 0.000218 0.585430
0.206046 0.099265 0.642674
0.513508 0.040577 0.690387
0.725381 0.000000 0.717647
0.813971 0.003023 0.738017
0.024156 0.222985 0.682298
0.085212 0.344798 0.740986
0.573094 0.387064 0.794635
0.794308 0.383715 0.809749
0.893355 0.420833 0.827587
0.000000 0.468981 0.781863
0.000000 0.576797 0.828459
0.585403 0.656590 0.865714
0.849592 0.680256 0.885049
0.956073 0.700408 0.895479
0.000000 0.620670 0.835812
0.000000 0.730991 0.872113
0.575082 0.840523 0.900626
0.872440 0.882979 0.919771
0.986084 0.898911 0.926934
0.002015 0.682298 0.855447
0.000000 0.808361 0.888807
0.564461 0.902070 0.914679
0.871051 0.955120 0.932162
0.996923 0.973883 0.938480
