calib/PRINT PROFILES/kodak_print.cube
TITLE "kodak_print"
#LUMIXPHOTOSTYLE STD
LUT_3D_SIZE 9
0.025245 0.039515 0.037936
0.077505 0.048203 0.043736
0.165359 0.053214 0.038671
0.281999 0.055882 0.000000
0.419444 0.029167 0.000000
0.522195 0.000000 0.000000
0.616449 0.000000 0.000000
0.677451 0.000000 0.000000
0.722304 0.000000 0.000000
0.000000 0.070507 0.049483
0.085594 0.090468 0.051743
0.205610 0.106645 0.042347
0.335376 0.122958 0.000000
0.490251 0.123584 0.000000
0.598039 0.127179 0.000000
0.677832 0.098039 0.000000
0.737527 0.091449 0.000000
0.775218 0.108497 0.000000
0.000000 0.145615 0.064570
0.062691 0.166476 0.057244
0.222849 0.198611 0.023529
0.388263 0.234395 0.000000
0.551253 0.247386 0.000000
0.666721 0.260594 0.000000
0.759858 0.250871 0.003595
0.815577 0.268273 0.000681
0.858824 0.297413 0.000000
0.000000 0.233224 0.068437
0.000000 0.264352 0.052778
0.227151 0.317838 0.000000
0.438753 0.362745 0.000000
0.619254 0.396106 0.002696
0.744989 0.409450 0.002669
0.834014 0.417402 0.000000
0.889706 0.427968 0.000163
0.926634 0.454248 0.000000
0.000000 0.321977 0.060267
0.000000 0.372821 0.000000
0.226171 0.442075 0.000000
0.465169 0.505556 0.000000
0.669989 0.549237 0.000000
0.796351 0.576580 0.000000
0.893519 0.581400 0.000000
0.949129 0.591939 0.000490
0.983824 0.620234 0.000000
0.012745 0.390278 0.005637
0.000000 0.448066 0.002424
0.169227 0.536465 0.000000
0.478840 0.612092 0.000000
0.695969 0.666040 0.000000
0.834641 0.696541 0.000000
0.937963 0.712663 0.002723
0.990605 0.720261 0.000000
0.995643 0.731127 0.000000
0.000000 0.447767 0.002015
0.000000 0.514924 0.000000
0.119771 0.609232 0.000000
0.504303 0.696460 0.000000
0.718682 0.757380 0.000000
0.869989 0.796705 0.000000
0.966040 0.818056 0.000000
0.994227 0.814297 0.000000
0.997767 0.817538 0.000000
0.000000 0.486002 0.000000
0.000000 0.547522 0.000000
0.077778 0.644662 0.000000
0.498992 0.742375 0.000000
0.726525 0.809259 0.000000
0.873611 0.848965 0.000000
0.983578 0.875817 0.000000
0.997113 0.870561 0.000626
0.997222 0.870561 0.000517
0.031536 0.550381 0.117565
0.000000 0.622440 0.025354
0.273747 0.697467 0.000000
0.544853 0.776334 0.000000
0.714461 0.824755 0.000000
0.859831 0.861492 0.000000
0.971514 0.888698 0.000000
0.995643 0.893056 0.003350
0.996269 0.881863 0.001825
0.022249 0.037609 0.082135
0.067293 0.048693 0.088208
0.175109 0.057680 0.090959
0.291585 0.047032 0.085730
0.424020 0.003922 0.076580
0.536710 0.000000 0.070833
0.620316 0.003214 0.062418
0.686057 0.000408 0.067511
0.734423 0.002315 0.085376
0.002206 0.082162 0.105065
0.080719 0.096814 0.102233
0.204139 0.112010 0.110403
0.349510 0.124237 0.101089
0.489379 0.113371 0.080664
0.590196 0.085430 0.059014
0.680174 0.039052 0.028404
0.735648 0.002723 0.040877
0.768682 0.010458 0.066313
0.000000 0.161983 0.126634
0.030120 0.177288 0.129929
0.220833 0.214107 0.125136
0.388998 0.238943 0.101253
0.549537 0.247386 0.079466
0.664651 0.241040 0.044336
0.749809 0.247767 0.026198
0.804739 0.244444 0.006182
0.844172 0.269553 0.023502
0.004657 0.252151 0.147277
0.000000 0.287609 0.144717
0.224129 0.332026 0.117702
0.433715 0.368083 0.084749
0.608469 0.392892 0.028186
0.731100 0.401988 0.000000
0.826198 0.409123 0.000000
0.878404 0.415496 0.000272
0.918764 0.446160 0.007217
0.000000 0.349020 0.153976
0.012446 0.394308 0.151988
0.155310 0.452560 0.100626
0.456073 0.506345 0.031917
0.657298 0.551062 0.000000
0.792674 0.573121 0.003050
0.887772 0.581890 0.000000
0.945643 0.588235 0.000000
0.974891 0.617729 0.000000
0.016204 0.416176 0.158007
0.009395 0.472086 0.139352
0.115223 0.545697 0.049891
0.467184 0.617075 0.000000
0.683088 0.667674 0.000000
0.828540 0.696732 0.000245
0.932298 0.713562 0.003322
0.985185 0.721133 0.000000
0.995724 0.731509 0.000000
0.000000 0.480746 0.160757
0.008143 0.538589 0.126607
0.111737 0.617075 0.032925
0.455202 0.695779 0.003431
0.698175 0.759423 0.000000
0.848121 0.795806 0.000000
0.954630 0.819717 0.000000
0.992157 0.818519 0.000000
0.992157 0.818410 0.000000
0.012582 0.509450 0.193845
0.000000 0.578568 0.167484
0.052587 0.652505 0.079493
0.447495 0.734259 0.000000
0.708905 0.807162 0.000000
0.850218 0.840414 0.000000
0.967375 0.867021 0.000000
0.991231 0.871215 0.001471
0.995697 0.863290 0.000000
0.004548 0.585049 0.308932
0.000000 0.643682 0.301661
0.082816 0.711574 0.274673
0.483633 0.779003 0.269199
0.685784 0.819608 0.208524
0.815986 0.851008 0.168437
0.929657 0.871378 0.156073
0.994308 0.881400 0.131427
0.994744 0.877723 0.199292
0.000000 0.027587 0.157544
0.083851 0.038807 0.167974
0.173366 0.051498 0.183170
0.301525 0.031972 0.186275
0.439788 0.000000 0.192974
0.550790 0.000000 0.197740
0.640114 0.000000 0.209477
0.700381 0.000000 0.216340
0.742838 0.000000 0.240959
0.000000 0.084368 0.199646
0.068056 0.099592 0.203922
0.203486 0.121569 0.216885
0.348938 0.127288 0.218464
0.495806 0.123529 0.217865
0.599700 0.066667 0.215169
0.683796 0.016149 0.216340
0.743954 0.000000 0.223775
0.784559 0.042620 0.247386
0.009858 0.174537 0.235839
0.000000 0.203105 0.243546
0.211057 0.228513 0.249510
0.386329 0.252914 0.258279
0.558497 0.259913 0.244608
0.666694 0.263208 0.249292
0.757298 0.248066 0.239080
0.806672 0.246923 0.241040
0.843328 0.279493 0.274074
0.000000 0.275054 0.266367
0.011765 0.313399 0.276688
0.201117 0.359014 0.272576
0.421351 0.395670 0.271487
0.607108 0.410839 0.265904
0.732462 0.419744 0.255964
0.821759 0.412990 0.256808
0.875245 0.419417 0.250327
0.913017 0.455637 0.281972
0.000000 0.378813 0.292048
0.000000 0.423121 0.294090
0.079602 0.482326 0.285539
0.435730 0.535730 0.281781
0.635076 0.569172 0.274809
0.773965 0.583469 0.261057
0.868573 0.588916 0.244308
0.924428 0.586520 0.253622
0.959341 0.623420 0.291394
0.000000 0.453295 0.303758
0.000000 0.511983 0.311901
0.005419 0.572958 0.294581
0.427587 0.633878 0.292865
0.653295 0.677723 0.258824
0.801198 0.703758 0.243301
0.900054 0.713535 0.236629
0.963426 0.711492 0.231209
0.990033 0.738998 0.276552
0.019009 0.507598 0.318382
0.026225 0.564597 0.325708
0.011792 0.647168 0.306291
0.433224 0.718382 0.291939
0.669417 0.764706 0.274564
0.814542 0.790959 0.242239
0.924292 0.807898 0.211492
0.983878 0.815087 0.218382
0.995479 0.820806 0.240114
0.013535 0.543655 0.358007
0.029439 0.607571 0.357843
0.000000 0.685131 0.341013
0.419635 0.763780 0.319145
0.669227 0.812963 0.307925
0.814379 0.843164 0.291285
0.929303 0.863235 0.271160
0.990414 0.870316 0.261138
0.994717 0.869390 0.285049
0.015005 0.617593 0.465931
0.000000 0.675245 0.472740
0.036220 0.742538 0.461983
0.442702 0.804657 0.456836
0.662500 0.848420 0.454357
0.807489 0.875191 0.451525
0.918083 0.895670 0.450436
0.988426 0.909341 0.442266
0.993164 0.908905 0.453540
0.000000 0.000000 0.250272
0.071078 0.000000 0.264978
0.180937 0.002288 0.283633
0.309967 0.000000 0.296596
0.453132 0.000000 0.312663
0.559041 0.003649 0.323420
0.649455 0.000000 0.329548
0.715251 0.000000 0.336193
0.756863 0.000000 0.362827
0.000000 0.067538 0.293192
0.041367 0.106019 0.311111
0.197522 0.121215 0.328595
0.356182 0.131155 0.344635
0.502696 0.108197 0.351307
0.607979 0.055528 0.344308
0.697658 0.015904 0.350735
0.752941 0.000000 0.358252
0.783878 0.015577 0.380093
0.000000 0.180474 0.350136
0.000000 0.213426 0.366258
0.207271 0.244744 0.376879
0.388508 0.263916 0.391285
0.557435 0.278704 0.390441
0.675300 0.274020 0.396242
0.760349 0.268437 0.393246
0.815632 0.265741 0.395643
0.855964 0.302424 0.423529
0.000000 0.299809 0.396269
0.000000 0.338017 0.410784
0.124592 0.381373 0.414325
0.409314 0.411874 0.421187
0.605447 0.436057 0.427288
0.730882 0.436002 0.427696
0.819662 0.440387 0.428214
0.874891 0.441449 0.430256
0.913671 0.471460 0.457462
0.021460 0.405610 0.425381
0.005664 0.453731 0.441993
0.055801 0.512718 0.442320
0.420670 0.559014 0.449973
0.637364 0.591149 0.448066
0.773475 0.605719 0.444989
0.865196 0.607898 0.445969
0.924973 0.614352 0.446678
0.957544 0.642184 0.473883
0.000000 0.479820 0.443083
0.000000 0.541966 0.460812
0.029793 0.601389 0.464080
0.389379 0.665005 0.462745
0.647767 0.706917 0.457353
0.789515 0.730038 0.456645
0.894199 0.735512 0.450626
0.959913 0.741558 0.456373
0.990632 0.760294 0.480664
0.000000 0.545724 0.465033
0.000000 0.597658 0.479085
0.000000 0.682843 0.476062
0.358333 0.745833 0.478568
0.640931 0.794553 0.470098
0.798094 0.820507 0.473012
0.911193 0.837228 0.463535
0.974864 0.840142 0.464978
0.993655 0.852614 0.481046
0.000000 0.597195 0.501716
0.000000 0.643791 0.511547
0.018083 0.712092 0.507353
0.377533 0.789216 0.496678
0.648420 0.837500 0.503268
0.799619 0.867810 0.500354
0.915033 0.884695 0.486084
0.984450 0.898230 0.488862
0.991585 0.900626 0.508306
0.009014 0.664461 0.591258
0.008279 0.698666 0.598856
0.021432 0.769363 0.594935
0.401035 0.822440 0.595016
0.647794 0.872168 0.602587
0.795479 0.895779 0.598312
0.903649 0.917266 0.594635
0.976852 0.926525 0.598720
0.997059 0.927342 0.606781
0.000000 0.000000 0.333061
0.035430 0.000000 0.346868
0.182135 0.001852 0.373666
0.325572 0.000000 0.390359
0.465114 0.000000 0.405692
0.571378 0.002996 0.420425
0.662772 0.000000 0.426580
0.722958 0.000000 0.437854
0.765904 0.000000 0.458551
0.001661 0.003186 0.374374
0.004602 0.090278 0.395180
0.206754 0.115659 0.424564
0.359532 0.109913 0.440605
0.513317 0.098203 0.451089
0.617239 0.056236 0.457870
0.703132 0.000000 0.464679
0.759150 0.000000 0.467402
0.794472 0.014352 0.491776
0.000000 0.172903 0.440768
0.000000 0.211819 0.464815
0.185158 0.251716 0.474864
0.392075 0.279330 0.500681
0.564706 0.276062 0.506536
0.677397 0.279139 0.511874
0.763344 0.273883 0.513998
0.819417 0.270997 0.516367
0.859613 0.307544 0.542511
0.000000 0.309123 0.497113
0.000000 0.342565 0.520289
0.057925 0.392184 0.528404
0.399319 0.426770 0.543355
0.600272 0.446487 0.550626
0.733469 0.450735 0.555719
0.823693 0.455229 0.556618
0.879521 0.455991 0.558687
0.912908 0.487119 0.584150
0.012854 0.423965 0.537827
0.012092 0.475381 0.561901
0.051307 0.529875 0.563862
0.385294 0.578322 0.572277
0.624455 0.610049 0.585158
0.767947 0.620234 0.584450
0.859858 0.626770 0.585076
0.920833 0.632979 0.586111
0.953976 0.660975 0.607108
0.013971 0.500953 0.563154
0.000000 0.566721 0.584450
0.031536 0.625681 0.588698
0.348257 0.687010 0.594553
0.624809 0.725408 0.601253
0.779085 0.747467 0.606536
0.891176 0.756699 0.601743
0.950790 0.755610 0.604167
0.985349 0.777723 0.625109
0.026552 0.558170 0.581318
0.021351 0.621460 0.601961
0.001743 0.702233 0.610566
0.338235 0.766149 0.611111
0.635376 0.814434 0.619172
0.785267 0.841394 0.619172
0.903486 0.854085 0.617456
0.972440 0.860403 0.618328
0.996024 0.871923 0.637146
0.000000 0.594063 0.605828
0.000000 0.659858 0.625654
0.000000 0.739243 0.634504
0.293056 0.804003 0.634232
0.629139 0.858578 0.636792
0.785294 0.888535 0.644363
0.910103 0.904793 0.637554
0.977097 0.914706 0.641803
0.994771 0.919771 0.653568
0.011166 0.684477 0.691394
0.000000 0.703758 0.692674
0.000000 0.788807 0.700027
0.369499 0.839488 0.698448
0.636710 0.884967 0.711438
0.784368 0.912228 0.715904
0.888263 0.933905 0.717647
0.970888 0.943437 0.717947
0.994907 0.947195 0.724564
0.000545 0.000000 0.401362
0.016558 0.000000 0.419090
0.187282 0.001443 0.444499
0.327070 0.000000 0.464597
0.476280 0.000000 0.483633
0.578840 0.000000 0.498393
0.669662 0.000000 0.508687
0.735621 0.000000 0.519363
0.772522 0.000000 0.543246
0.009995 0.000000 0.445098
0.003513 0.057190 0.470180
0.199101 0.104820 0.502179
0.360648 0.095153 0.521623
0.518110 0.076471 0.535948
0.622930 0.041748 0.542647
0.714815 0.000000 0.548911
0.769635 0.000000 0.559858
0.800272 0.026988 0.578813
0.000000 0.158442 0.513862
0.000000 0.210349 0.540605
0.162772 0.252206 0.558660
0.383633 0.274619 0.584069
0.562609 0.288263 0.597032
0.681345 0.277642 0.603132
0.767947 0.271487 0.609041
0.820125 0.263017 0.612282
0.863535 0.312772 0.636683
0.020016 0.308633 0.576008
0.000000 0.351525 0.605392
0.080664 0.400817 0.613725
0.401117 0.440986 0.636819
0.602124 0.456100 0.648284
0.723339 0.467593 0.656672
0.819798 0.461275 0.654902
0.876770 0.462745 0.661574
0.914488 0.497440 0.680855
0.000000 0.433469 0.623148
0.000000 0.476117 0.647086
0.013099 0.539325 0.657217
0.377914 0.588017 0.669581
0.617511 0.619662 0.687064
0.757625 0.630692 0.690468
0.858769 0.636629 0.691966
0.917620 0.634259 0.698448
0.954493 0.665496 0.717320
0.000000 0.510240 0.647930
0.020888 0.579167 0.676607
0.000000 0.634831 0.686057
0.325408 0.696977 0.692565
0.613208 0.738698 0.707135
0.772685 0.760839 0.713099
0.882761 0.767048 0.713725
0.947086 0.768954 0.719635
0.977233 0.791721 0.731481
0.000000 0.571678 0.669472
0.000000 0.630556 0.694336
0.019935 0.706754 0.708388
0.261084 0.777342 0.709096
0.611356 0.824864 0.722168
0.781182 0.850599 0.727451
0.892402 0.867810 0.729466
0.962037 0.873938 0.734777
0.992511 0.884749 0.748475
0.042157 0.629929 0.702206
0.000000 0.680147 0.719363
0.000000 0.748066 0.726852
0.255147 0.817347 0.727206
0.616122 0.871378 0.742620
0.778322 0.901008 0.746623
0.899973 0.918083 0.745098
0.967919 0.928268 0.749782
0.995615 0.935757 0.759940
0.011792 0.678513 0.754548
0.011792 0.720479 0.765060
0.000000 0.794281 0.774592
0.348475 0.852505 0.776443
0.616122 0.894989 0.789951
0.770343 0.922849 0.795289
0.888998 0.943056 0.801062
0.959858 0.953186 0.801552
0.994227 0.959450 0.807435
0.000000 0.000000 0.462309
0.000000 0.001035 0.479330
0.183361 0.000000 0.508388
0.336356 0.000000 0.531699
0.486928 0.000000 0.553894
0.596078 0.001144 0.568110
0.682435 0.000000 0.578649
0.742456 0.002560 0.592647
0.785376 0.000000 0.611765
0.000000 0.000000 0.508687
0.000000 0.026634 0.529112
0.196296 0.081754 0.568355
0.370343 0.071895 0.590904
0.518655 0.031427 0.605147
0.629058 0.000000 0.619499
0.718927 0.006509 0.629031
0.774210 0.000000 0.639624
0.810648 0.026280 0.658034
0.000000 0.130229 0.567974
0.000000 0.197740 0.605447
0.152424 0.258034 0.630583
0.392947 0.283905 0.658633
0.565387 0.280882 0.675953
0.678513 0.277751 0.681727
0.772522 0.269717 0.688535
0.829385 0.265741 0.694553
0.864760 0.305692 0.714869
0.000000 0.308660 0.651362
0.000000 0.343056 0.673420
0.002560 0.402669 0.688589
0.367402 0.444417 0.710621
0.600109 0.461111 0.729493
0.726525 0.468028 0.739052
0.821160 0.466503 0.744172
0.880392 0.462255 0.747032
0.915441 0.507544 0.765142
0.026906 0.429466 0.690251
0.002560 0.489542 0.723856
0.000000 0.548012 0.737718
0.353649 0.594499 0.751280
0.603159 0.622222 0.768437
0.748284 0.641231 0.779357
0.859150 0.641285 0.780637
0.915822 0.648720 0.786574
0.951525 0.671705 0.802124
0.000000 0.519717 0.725300
0.000000 0.580583 0.749755
0.000000 0.651198 0.769363
0.303105 0.706618 0.773638
0.600082 0.744826 0.796460
0.765005 0.766803 0.802614
0.874183 0.776580 0.806645
0.940904 0.779139 0.808796
0.979357 0.796678 0.820888
0.000000 0.580637 0.742102
0.000000 0.646950 0.773529
0.000000 0.723611 0.787663
0.216803 0.783606 0.791068
0.588698 0.831373 0.811819
0.769227 0.859831 0.820316
0.890005 0.876688 0.823257
0.955801 0.883687 0.824673
0.992402 0.893464 0.837691
0.000000 0.635757 0.771133
0.006182 0.658361 0.779929
0.000000 0.763399 0.805256
0.181127 0.830991 0.807435
0.592347 0.881727 0.823720
0.767130 0.910621 0.835812
0.890278 0.927070 0.838480
0.961084 0.937527 0.839216
0.995289 0.944254 0.849020
0.030501 0.668927 0.801253
0.035539 0.743900 0.822603
0.000000 0.803105 0.834205
0.330038 0.858415 0.840904
0.601198 0.901634 0.854766
0.762609 0.931427 0.862963
0.886819 0.948557 0.869853
0.956318 0.962500 0.869989
0.993845 0.965196 0.876334
0.000000 0.000000 0.512990
0.000000 0.000654 0.529194
0.181481 0.000000 0.561138
0.346024 0.000000 0.592021
0.492456 0.000000 0.614025
0.608088 0.000245 0.631481
0.694962 0.000000 0.641476
0.756236 0.001797 0.651879
0.798420 0.000000 0.674183
0.000000 0.000000 0.565441
0.003132 0.014161 0.581400
0.194336 0.088589 0.619608
0.357870 0.074837 0.646024
0.526144 0.055556 0.671024
0.640033 0.000000 0.681100
0.725436 0.000000 0.694935
0.787037 0.000000 0.701225
0.817593 0.039869 0.718627
0.000000 0.120942 0.619472
0.000000 0.203268 0.659967
0.130065 0.259532 0.680310
0.381618 0.280338 0.712609
0.564978 0.299428 0.736138
0.686166 0.288399 0.749537
0.773911 0.269227 0.748611
0.827996 0.281645 0.758143
0.871351 0.310893 0.774864
0.006972 0.304276 0.697876
0.000000 0.353023 0.725599
0.011846 0.407898 0.744962
0.385539 0.448366 0.770833
0.588725 0.469063 0.789297
0.723121 0.473965 0.801498
0.817266 0.478431 0.810948
0.878649 0.474074 0.810022
0.917783 0.508824 0.825109
0.017157 0.430773 0.743437
0.000000 0.487037 0.773148
0.000000 0.553894 0.793573
0.350517 0.600000 0.810920
0.596623 0.628431 0.831590
0.747086 0.642919 0.842919
0.851035 0.648257 0.847712
0.918655 0.645316 0.850490
0.956944 0.676416 0.864842
0.008960 0.520942 0.774129
0.000000 0.585648 0.805610
0.000000 0.652614 0.825218
0.289434 0.708578 0.833469
0.589352 0.747086 0.856236
0.764461 0.768410 0.866258
0.867674 0.779003 0.874183
0.941258 0.780474 0.876225
0.973039 0.803186 0.883824
0.000000 0.594744 0.801416
0.053731 0.659913 0.828295
0.000000 0.720888 0.844063
0.088290 0.787092 0.847277
0.583197 0.837200 0.871541
0.754031 0.863017 0.884314
0.876634 0.879711 0.890986
0.953159 0.888998 0.895670
0.987990 0.895724 0.901498
0.000000 0.649156 0.822059
0.000000 0.668110 0.831291
0.000000 0.769118 0.856999
0.031509 0.830882 0.860321
0.573094 0.884777 0.879956
0.753922 0.913725 0.892102
0.883361 0.933606 0.898312
0.960376 0.942865 0.902587
0.995534 0.949483 0.908606
0.000000 0.671650 0.834586
0.010948 0.742974 0.860049
0.000000 0.809041 0.870588
0.304493 0.861547 0.877887
0.598121 0.904112 0.895534
0.757190 0.931155 0.904439
0.876280 0.955229 0.913834
0.952478 0.968655 0.917838
0.997413 0.970615 0.920479
0.000000 0.000218 0.585430
0.009123 0.017130 0.601198
0.206046 0.099265 0.642674
0.367702 0.087718 0.668627
0.513508 0.040577 0.690387
0.631182 0.023066 0.707407
0.725381 0.000000 0.717647
0.781836 0.000000 0.723802
0.813971 0.003023 0.738017
0.000000 0.041803 0.620779
0.000000 0.149837 0.657734
0.150300 0.228486 0.689406
0.370752 0.233143 0.718382
0.553486 0.237963 0.738644
0.659831 0.234069 0.755882
0.756100 0.221487 0.761901
0.813943 0.214869 0.768001
0.853132 0.251852 0.781264
0.024156 0.222985 0.682298
0.000000 0.281645 0.721596
0.085212 0.344798 0.740986
0.379085 0.371895 0.771596
0.573094 0.387064 0.794635
0.695806 0.392702 0.803704
0.794308 0.383715 0.809749
0.855719 0.370180 0.812554
0.893355 0.420833 0.827587
0.000000 0.352206 0.737092
0.016885 0.397032 0.768137
0.000000 0.459259 0.789788
0.364161 0.501825 0.811547
0.588208 0.521950 0.829766
0.727805 0.536683 0.844989
0.827859 0.531672 0.850817
0.894036 0.526961 0.857108
0.928295 0.561574 0.868301
0.000000 0.468981 0.781863
0.000000 0.519417 0.811329
0.000000 0.576797 0.828459
0.317593 0.624564 0.841912
0.585403 0.656590 0.865714
0.740033 0.671215 0.876716
0.849592 0.680256 0.885049
0.918110 0.677887 0.887418
0.956073 0.700408 0.895479
0.000000 0.532053 0.802723
0.020343 0.592293 0.831046
0.000000 0.659041 0.854221
0.246569 0.720153 0.865659
0.589379 0.761438 0.884123
0.745833 0.780692 0.898039
0.864978 0.789515 0.905882
0.939325 0.791367 0.908034
0.974129 0.809722 0.912309
0.000000 0.620670 0.835812
0.000000 0.644145 0.848203
0.000000 0.730991 0.872113
0.122113 0.796623 0.879167
0.575082 0.840523 0.900626
0.753540 0.869581 0.912881
0.872440 0.882979 0.919771
0.951988 0.888072 0.925136
0.986084 0.898911 0.926934
0.009314 0.628459 0.831373
0.000000 0.704929 0.863943
0.000000 0.775735 0.881808
0.108796 0.833170 0.885893
0.560784 0.884477 0.905937
0.743709 0.913671 0.921895
0.867892 0.934069 0.927996
0.949755 0.947059 0.935920
0.993219 0.952696 0.934041
0.002015 0.682298 0.855447
0.000000 0.731182 0.872222
0.000000 0.808361 0.888807
0.284940 0.861465 0.896432
0.564461 0.902070 0.914679
0.735131 0.932271 0.923066
0.871051 0.955120 0.932162
0.946841 0.968627 0.940060
0.996923 0.973883 0.938480
