calib/PRINT PROFILES/kodak_print.cube
TITLE "kodak_print"
#LUMIXPHOTOSTYLE STD
LUT_3D_SIZE 33
0.025245 0.039515 0.037936
0.038263 0.038263 0.038263
0.049537 0.036465 0.045997
0.057625 0.043192 0.044690
0.077505 0.048203 0.043736
0.088943 0.046324 0.043491
0.106373 0.051117 0.041885
0.141776 0.051743 0.040877
0.165359 0.053214 0.038671
0.195343 0.062010 0.026988
0.225354 0.060839 0.025163
0.254248 0.058578 0.007870
0.281999 0.055882 0.000000
0.320153 0.055392 0.000354
0.352642 0.045343 0.000000
0.389161 0.043682 0.000000
0.419444 0.029167 0.000000
0.442838 0.019826 0.000000
0.472113 0.002451 0.000000
0.499374 0.003050 0.000000
0.522195 0.000000 0.000000
0.553350 0.005065 0.000000
0.574864 0.000000 0.000000
0.595724 0.002151 0.000000
0.616449 0.000000 0.000000
0.636574 0.000000 0.000000
0.652424 0.000000 0.000000
0.662200 0.000000 0.000000
0.677451 0.000000 0.000000
0.686737 0.000354 0.000000
0.702097 0.000000 0.000000
0.717075 0.000000 0.000000
0.722304 0.000000 0.000000
0.022794 0.039788 0.046106
0.036002 0.038045 0.045997
0.044690 0.044690 0.044690
0.057598 0.043273 0.044853
0.077642 0.048203 0.043491
0.096106 0.053050 0.042157
0.113535 0.057979 0.041068
0.139107 0.060267 0.039216
0.172059 0.060103 0.037119
0.201089 0.068981 0.033687
0.238589 0.064733 0.022631
0.265931 0.073148 0.003922
0.294336 0.059286 0.000000
0.325817 0.063916 0.000000
0.364651 0.050272 0.000000
0.411792 0.052805 0.001253
0.441013 0.056345 0.000000
0.463834 0.048611 0.000000
0.486465 0.039325 0.000000
0.510594 0.007380 0.000000
0.532462 0.000000 0.000000
0.569417 0.001198 0.000000
0.585675 0.000000 0.000000
0.616449 0.000000 0.000000
0.626879 0.000000 0.000000
0.652424 0.000000 0.000000
0.657598 0.000000 0.000000
0.677451 0.000000 0.000000
0.682407 0.000000 0.000000
0.701961 0.000000 0.001280
0.722304 0.000000 0.000000
0.716803 0.000000 0.000000
0.726797 0.000000 0.000000
0.030719 0.046378 0.044907
0.030637 0.046242 0.044690
0.051743 0.051743 0.051743
0.060185 0.058224 0.050381
0.080419 0.063099 0.049101
0.099156 0.068273 0.048012
0.116068 0.072549 0.045915
0.151607 0.073529 0.044281
0.184123 0.073720 0.042593
0.212827 0.081999 0.029657
0.242456 0.081155 0.027124
0.278105 0.076498 0.008252
0.310812 0.081672 0.000000
0.348693 0.082979 0.000000
0.386438 0.071895 0.000000
0.415714 0.075763 0.000000
0.451716 0.060321 0.000000
0.479466 0.063508 0.000000
0.502288 0.056127 0.000000
0.539924 0.063617 0.000000
0.562745 0.033333 0.000000
0.584450 0.020969 0.000000
0.610076 0.022440 0.000000
0.631291 0.008796 0.000408
0.642456 0.000000 0.000000
0.662200 0.000000 0.000000
0.672168 0.005610 0.000000
0.692130 0.000000 0.000000
0.696596 0.006318 0.000000
0.722304 0.000000 0.000000
0.730801 0.014216 0.000654
0.736247 0.002968 0.000327
0.750817 0.000000 0.000000
0.022767 0.054167 0.051443
0.017075 0.061819 0.050408
0.040359 0.067293 0.049319
0.068110 0.064488 0.049101
0.088126 0.069690 0.048012
0.104412 0.074183 0.054303
0.128949 0.085049 0.051825
0.154929 0.088017 0.049837
0.187936 0.088263 0.038916
0.224619 0.094635 0.034341
0.259178 0.099918 0.020125
0.287418 0.099237 0.009150
0.326825 0.101879 0.000000
0.365468 0.093791 0.000272
0.401797 0.095044 0.002805
0.435675 0.105773 0.000000
0.475763 0.102315 0.000000
0.504575 0.094281 0.000000
0.525844 0.101879 0.000000
0.553704 0.092375 0.000000
0.575626 0.086710 0.000000
0.602288 0.073775 0.000000
0.619281 0.052614 0.000000
0.649374 0.068301 0.000000
0.659913 0.052070 0.000000
0.671051 0.033034 0.000000
0.695452 0.034777 0.000000
0.706291 0.012854 0.000000
0.720343 0.037119 0.000000
0.735131 0.032571 0.000000
0.740359 0.021487 0.000000
0.754031 0.046378 0.000218
0.754820 0.015741 0.000000
0.000000 0.070507 0.049483
0.001362 0.077206 0.056182
0.023992 0.082271 0.054902
0.056590 0.080174 0.054820
0.085594 0.090468 0.051743
0.104602 0.095398 0.050272
0.122222 0.100354 0.048911
0.157952 0.101443 0.046351
0.205610 0.106645 0.042347
0.235349 0.106291 0.039270
0.270588 0.112200 0.015931
0.303350 0.117647 0.010321
0.335376 0.122958 0.000000
0.379439 0.123203 0.000000
0.415033 0.124619 0.000000
0.456155 0.122767 0.000000
0.490251 0.123584 0.000000
0.517538 0.127560 0.000000
0.539597 0.123992 0.000000
0.567511 0.116531 0.000000
0.598039 0.127179 0.000000
0.619526 0.122903 0.000000
0.646106 0.113807 0.000000
0.661247 0.113181 0.000000
0.677832 0.098039 0.000000
0.696759 0.105937 0.000000
0.707489 0.095071 0.000000
0.719390 0.062745 0.000000
0.737527 0.091449 0.000000
0.743110 0.085240 0.000000
0.761629 0.094063 0.001062
0.773911 0.122958 0.001008
0.775218 0.108497 0.000000
0.000000 0.090441 0.061520
0.000000 0.090414 0.061247
0.013889 0.089570 0.061574
0.050027 0.100082 0.058551
0.079385 0.098039 0.058469
0.106509 0.108687 0.055392
0.134641 0.111656 0.053676
0.167293 0.120507 0.050245
0.208197 0.119499 0.047113
0.236574 0.127260 0.032544
0.279357 0.131808 0.017211
0.312010 0.137500 0.002369
0.351198 0.140441 0.000000
0.394172 0.140959 0.000000
0.429357 0.142783 0.000000
0.468981 0.150790 0.000000
0.508769 0.149428 0.000980
0.530093 0.156236 0.000000
0.563862 0.147903 0.000000
0.589842 0.151253 0.001906
0.616966 0.145016 0.000000
0.642892 0.148611 0.000000
0.663508 0.144635 0.000000
0.684423 0.140496 0.002151
0.698883 0.139651 0.000000
0.709940 0.131236 0.000000
0.733333 0.146487 0.000000
0.743791 0.138208 0.000000
0.749265 0.133905 0.000000
0.767974 0.140959 0.000000
0.778105 0.131618 0.000000
0.790741 0.155610 0.000000
0.794989 0.163099 0.000000
0.000000 0.103186 0.058905
0.000000 0.103486 0.058932
0.006209 0.109014 0.057326
0.031182 0.113943 0.063862
0.088589 0.116857 0.062500
0.103023 0.127805 0.059041
0.133061 0.131563 0.057353
0.175245 0.137963 0.052805
0.213916 0.145098 0.048257
0.250980 0.151416 0.032598
0.285430 0.157435 0.016204
0.326062 0.161656 0.000000
0.364052 0.164842 0.000000
0.407135 0.165714 0.000000
0.447549 0.173938 0.000000
0.481808 0.176362 0.000000
0.519853 0.183742 0.000000
0.548230 0.179929 0.000817
0.580419 0.181127 0.000000
0.606645 0.185321 0.000000
0.628077 0.183170 0.000000
0.654602 0.177533 0.000000
0.681127 0.171841 0.000000
0.701117 0.168246 0.000000
0.716122 0.168328 0.000000
0.734423 0.184722 0.000000
0.750272 0.174673 0.000000
0.760485 0.167810 0.003922
0.769907 0.171078 0.000000
0.788399 0.177424 0.003050
0.792974 0.184368 0.000000
0.810212 0.200408 0.000000
0.814107 0.206563 0.000000
0.003377 0.121650 0.062827
0.003023 0.121569 0.062745
0.000000 0.128159 0.069254
0.021923 0.132925 0.059423
0.078731 0.142511 0.056127
0.093137 0.152968 0.060866
0.125599 0.156400 0.058660
0.180419 0.162146 0.054058
0.220370 0.169145 0.038344
0.265387 0.174564 0.021487
0.299265 0.180202 0.004085
0.337010 0.190741 0.000000
0.374864 0.194608 0.000000
0.418328 0.196296 0.000000
0.456509 0.211710 0.000000
0.503431 0.210403 0.000000
0.536737 0.213181 0.000000
0.569118 0.215223 0.001198
0.596895 0.211792 0.000000
0.621324 0.223448 0.000000
0.652696 0.225245 0.000000
0.674592 0.215605 0.000000
0.699346 0.219390 0.000000
0.720125 0.216803 0.000000
0.740605 0.214842 0.000000
0.749973 0.218219 0.000000
0.765523 0.209341 0.000000
0.783170 0.224292 0.000000
0.793682 0.218519 0.000000
0.803186 0.221923 0.000000
0.812119 0.224918 0.000000
0.828404 0.247767 0.000000
0.833687 0.245289 0.000000
0.000000 0.145615 0.064570
0.000000 0.151825 0.062881
0.000000 0.157326 0.069390
0.000000 0.157598 0.061138
0.062691 0.166476 0.057244
0.094553 0.176062 0.062173
0.141394 0.178023 0.049891
0.171895 0.192647 0.041803
0.222849 0.198611 0.023529
0.265795 0.209641 0.002478
0.307162 0.214243 0.005147
0.352424 0.223829 0.000000
0.388263 0.234395 0.000000
0.438317 0.234995 0.000000
0.477941 0.243192 0.000000
0.517974 0.244690 0.000000
0.551253 0.247386 0.000000
0.582298 0.256808 0.000000
0.615931 0.252179 0.000000
0.645752 0.261329 0.000000
0.666721 0.260594 0.000000
0.697712 0.262527 0.000000
0.723230 0.258960 0.000000
0.739733 0.252451 0.000000
0.759858 0.250871 0.003595
0.774401 0.251280 0.000000
0.789025 0.251770 0.000000
0.798284 0.254793 0.001362
0.815577 0.268273 0.000681
0.826035 0.263671 0.000000
0.833878 0.274210 0.000000
0.847086 0.282217 0.000000
0.858824 0.297413 0.000000
0.000000 0.168764 0.074510
0.000000 0.168845 0.074537
0.000300 0.174183 0.072876
0.002124 0.185212 0.060240
0.039025 0.189352 0.058170
0.081019 0.198911 0.052887
0.139188 0.206536 0.047522
0.171732 0.220507 0.026117
0.223475 0.226225 0.018573
0.267211 0.237064 0.000000
0.314978 0.247059 0.000000
0.367456 0.254956 0.000000
0.405174 0.259259 0.000000
0.452751 0.266531 0.000000
0.492620 0.274619 0.000000
0.536955 0.281318 0.000000
0.574455 0.288971 0.000000
0.602233 0.287173 0.000000
0.628568 0.291830 0.002179
0.664052 0.298883 0.000000
0.690605 0.296460 0.000000
0.715169 0.300626 0.000000
0.737309 0.293137 0.000000
0.756400 0.299129 0.001008
0.776389 0.297903 0.000000
0.790659 0.298666 0.004330
0.810566 0.297358 0.000000
0.819009 0.307244 0.000000
0.834395 0.301280 0.002042
0.842184 0.311029 0.000000
0.856590 0.311983 0.001280
0.864297 0.321405 0.000000
0.879820 0.340223 0.001362
0.000000 0.185158 0.077533
0.000000 0.196378 0.073938
0.000000 0.202179 0.062936
0.000000 0.207135 0.070234
0.006999 0.211983 0.058252
0.059995 0.221296 0.053431
0.121569 0.234504 0.044608
0.180447 0.246296 0.020425
0.229385 0.257380 0.000000
0.281318 0.267375 0.000000
0.326498 0.282571 0.000000
0.374156 0.286329 0.000000
0.417130 0.295289 0.000000
0.465114 0.302424 0.000000
0.510839 0.309423 0.000000
0.549183 0.317402 0.000000
0.588235 0.319090 0.000000
0.618927 0.328241 0.000000
0.650572 0.331536 0.000000
0.677587 0.329711 0.001307
0.706454 0.338208 0.000272
0.734532 0.330447 0.000000
0.757653 0.340795 0.000000
0.779330 0.333687 0.000000
0.797467 0.339052 0.000763
0.812282 0.340223 0.000000
0.827070 0.341231 0.000000
0.841122 0.342456 0.000000
0.851607 0.338780 0.000000
0.860893 0.341285 0.000000
0.876117 0.359831 0.000000
0.888998 0.367239 0.000000
0.891394 0.377723 0.000000
0.000000 0.206917 0.079058
0.000000 0.217892 0.074782
0.001117 0.222794 0.063399
0.014434 0.227560 0.060784
0.000000 0.243600 0.053268
0.058224 0.252832 0.034178
0.116149 0.260294 0.026634
0.177397 0.271868 0.013562
0.237745 0.282489 0.000708
0.292184 0.302042 0.000000
0.335185 0.307271 0.000000
0.378023 0.321923 0.000000
0.435103 0.328595 0.001961
0.476035 0.337010 0.000408
0.522222 0.343954 0.000000
0.566585 0.350626 0.000000
0.605910 0.352941 0.001280
0.638290 0.356291 0.000000
0.671732 0.369172 0.000000
0.693273 0.369172 0.000000
0.724074 0.372440 0.000000
0.754548 0.375272 0.000000
0.774700 0.374946 0.000000
0.793083 0.380501 0.000000
0.814488 0.374183 0.000000
0.829357 0.375517 0.000000
0.847631 0.380828 0.000000
0.861846 0.381972 0.000000
0.867102 0.380310 0.000000
0.881291 0.381264 0.000000
0.888916 0.390142 0.004739
0.900163 0.403132 0.004711
0.913344 0.410267 0.000000
0.000000 0.233224 0.068437
0.009232 0.238045 0.066122
0.009205 0.238072 0.065959
0.004847 0.258687 0.055474
0.000000 0.264352 0.052778
0.002832 0.278568 0.028595
0.116993 0.290414 0.002642
0.167429 0.302560 0.002424
0.227151 0.317838 0.000000
0.305583 0.330664 0.000000
0.345724 0.340795 0.000000
0.395697 0.354139 0.000000
0.438753 0.362745 0.000000
0.491667 0.374455 0.000000
0.531182 0.382571 0.000000
0.580202 0.393818 0.000000
0.619254 0.396106 0.002696
0.643900 0.406019 0.000000
0.687173 0.406999 0.000000
0.714488 0.406127 0.000000
0.744989 0.409450 0.002669
0.767892 0.418954 0.001253
0.793627 0.417347 0.000000
0.815441 0.411901 0.000000
0.834014 0.417402 0.000000
0.846868 0.424401 0.003431
0.864270 0.414107 0.000000
0.877124 0.421296 0.000000
0.889706 0.427968 0.000163
0.898856 0.430528 0.000000
0.911302 0.437473 0.000000
0.919363 0.445779 0.000000
0.926634 0.454248 0.000000
0.000000 0.253922 0.068192
0.015741 0.263099 0.062963
0.015768 0.263344 0.063181
0.010866 0.283524 0.051035
0.000000 0.293873 0.030147
0.000000 0.307680 0.003949
0.073066 0.320588 0.000000
0.187990 0.334940 0.000000
0.229194 0.346514 0.000000
0.305474 0.363807 0.001580
0.343491 0.379112 0.000000
0.402914 0.391204 0.000000
0.443491 0.405147 0.000000
0.492456 0.412609 0.000000
0.552669 0.417919 0.000000
0.590959 0.425871 0.000000
0.634477 0.432190 0.000000
0.664597 0.440931 0.000000
0.696460 0.444690 0.000000
0.727832 0.448175 0.000000
0.756563 0.456182 0.000000
0.782516 0.455365 0.000000
0.806808 0.459532 0.000000
0.831127 0.463834 0.000054
0.851008 0.464052 0.000000
0.861411 0.461220 0.000000
0.881155 0.461411 0.003785
0.894118 0.467974 0.000000
0.904630 0.465359 0.000000
0.911928 0.473148 0.000000
0.924564 0.480256 0.001716
0.935975 0.492184 0.001634
0.943273 0.499809 0.000000
0.000000 0.278540 0.065223
0.000000 0.288290 0.059395
0.000626 0.302751 0.049619
0.000980 0.312500 0.027015
0.000000 0.322086 0.018246
0.011111 0.335784 0.004085
0.040931 0.353813 0.000000
0.144199 0.365060 0.000000
0.231781 0.383361 0.000000
0.304875 0.396487 0.000000
0.340278 0.416531 0.000000
0.409069 0.427533 0.000000
0.458061 0.440605 0.000000
0.504031 0.452315 0.000000
0.551471 0.459858 0.000000
0.600980 0.470779 0.000000
0.650926 0.476334 0.000000
0.676988 0.480991 0.000000
0.713126 0.488780 0.000000
0.743954 0.492157 0.000000
0.774619 0.495316 0.000000
0.801008 0.494608 0.000000
0.825054 0.498638 0.000000
0.849455 0.503486 0.002042
0.863753 0.504657 0.000000
0.881836 0.510103 0.000000
0.893028 0.508143 0.000000
0.907162 0.509096 0.000000
0.923121 0.505447 0.000000
0.929902 0.513126 0.000000
0.941176 0.524782 0.000000
0.957516 0.535049 0.000000
0.956046 0.540114 0.000000
0.000000 0.302642 0.061438
0.013208 0.307326 0.058524
0.000000 0.322004 0.047685
0.007298 0.335920 0.018873
0.000000 0.345969 0.000000
0.000000 0.363617 0.000000
0.021786 0.381808 0.000436
0.110430 0.397876 0.000000
0.244145 0.418627 0.000000
0.293519 0.429385 0.000000
0.365441 0.445398 0.000000
0.410158 0.458824 0.000000
0.463780 0.475136 0.000000
0.511057 0.487582 0.000000
0.564897 0.493845 0.003949
0.620942 0.503622 0.000000
0.651988 0.512228 0.000000
0.689134 0.520125 0.000000
0.718981 0.528268 0.000000
0.754248 0.535730 0.000000
0.784886 0.538998 0.000000
0.811520 0.538535 0.000000
0.841721 0.542130 0.000000
0.861356 0.542511 0.003922
0.879956 0.547821 0.000000
0.900381 0.548366 0.000000
0.910349 0.545915 0.000000
0.924837 0.547495 0.000000
0.937228 0.553649 0.000000
0.947821 0.551552 0.000000
0.958742 0.562745 0.000000
0.969553 0.573883 0.000000
0.976661 0.581291 0.006127
0.000000 0.321977 0.060267
0.000000 0.321950 0.060321
0.021487 0.340332 0.029657
0.000000 0.359423 0.010294
0.000000 0.372821 0.000000
0.000000 0.391558 0.000000
0.046378 0.407925 0.001008
0.125381 0.423883 0.000000
0.226171 0.442075 0.000000
0.300218 0.459014 0.005283
0.355664 0.476879 0.000000
0.419390 0.497113 0.000000
0.465169 0.505556 0.000000
0.516912 0.521569 0.000000
0.569308 0.532598 0.000000
0.621324 0.538453 0.003758
0.669989 0.549237 0.000000
0.700463 0.557707 0.000000
0.736329 0.565142 0.000000
0.767429 0.568627 0.000000
0.796351 0.576580 0.000000
0.829167 0.575899 0.000000
0.853105 0.579739 0.000000
0.878731 0.579385 0.005528
0.893519 0.581400 0.000000
0.911846 0.586492 0.003486
0.927859 0.583088 0.001961
0.941857 0.584613 0.000000
0.949129 0.591939 0.000490
0.961874 0.598312 0.000000
0.975844 0.599700 0.000000
0.981291 0.611792 0.000000
0.983824 0.620234 0.000000
0.000000 0.340904 0.045207
0.000000 0.340768 0.045071
0.000000 0.363562 0.020942
0.005583 0.376988 0.000000
0.000000 0.395615 0.000000
0.000000 0.404330 0.000000
0.000000 0.426225 0.000000
0.043110 0.447086 0.000000
0.237963 0.467075 0.000000
0.296596 0.480910 0.000000
0.348448 0.502751 0.000000
0.426117 0.517729 0.000000
0.468791 0.530773 0.000000
0.528295 0.545697 0.000000
0.586983 0.555610 0.006536
0.630828 0.567565 0.000000
0.679139 0.577887 0.000000
0.715904 0.585267 0.000000
0.739488 0.594308 0.000000
0.776906 0.597004 0.000000
0.811792 0.604630 0.000000
0.836465 0.608878 0.000000
0.862745 0.608606 0.000000
0.887010 0.613562 0.000000
0.906944 0.613807 0.000000
0.919962 0.619798 0.000000
0.935621 0.616585 0.000000
0.950300 0.618410 0.000000
0.964270 0.619798 0.000000
0.973148 0.622331 0.000000
0.984041 0.633034 0.000000
0.987636 0.636819 0.000763
0.993028 0.648720 0.001416
0.000000 0.354493 0.046514
0.001443 0.377342 0.005583
0.000000 0.363589 0.020942
0.000000 0.391558 0.000000
0.000000 0.408524 0.001225
0.000000 0.434777 0.001688
0.000000 0.448066 0.002424
0.086029 0.468001 0.000000
0.223448 0.493273 0.001580
0.286084 0.506672 0.000000
0.359913 0.527342 0.000000
0.411765 0.544199 0.000000
0.488644 0.562119 0.000000
0.529303 0.574728 0.000000
0.582162 0.585757 0.000245
0.632870 0.596378 0.000000
0.691748 0.609532 0.000000
0.720098 0.622277 0.000000
0.754439 0.621460 0.000354
0.784096 0.630174 0.000000
0.818791 0.637119 0.000000
0.843900 0.641585 0.000000
0.873992 0.645452 0.000000
0.894090 0.645779 0.000436
0.920098 0.645588 0.000000
0.932516 0.651416 0.000000
0.952505 0.652342 0.000000
0.963263 0.650245 0.000000
0.975599 0.656209 0.000000
0.984477 0.658851 0.000000
0.991857 0.666149 0.000000
0.995289 0.669444 0.000000
0.991667 0.678758 0.000000
0.000000 0.377342 0.021650
0.000000 0.376988 0.021541
0.000000 0.404357 0.007053
0.000000 0.417484 0.000000
0.000000 0.434777 0.001688
0.000000 0.452887 0.000000
0.000000 0.477560 0.000000
0.114107 0.496732 0.002941
0.199755 0.514788 0.000000
0.285975 0.531863 0.000000
0.366939 0.555828 0.000000
0.419063 0.572386 0.000000
0.475899 0.588017 0.000000
0.537119 0.602968 0.003731
0.594853 0.617266 0.000000
0.651879 0.626906 0.000000
0.694118 0.637963 0.000000
0.731073 0.645289 0.000000
0.761574 0.654112 0.000000
0.797004 0.660975 0.000000
0.826089 0.669063 0.000000
0.857108 0.673012 0.000000
0.886492 0.676307 0.000000
0.910866 0.680746 0.002315
0.930610 0.681019 0.000000
0.945588 0.682843 0.000000
0.959886 0.684423 0.000000
0.974156 0.685866 0.000000
0.988263 0.687282 0.005746
0.993600 0.686656 0.005338
0.995643 0.694581 0.000000
0.993900 0.698938 0.000000
0.997277 0.702451 0.000000
0.012745 0.390278 0.005637
0.000000 0.408687 0.001471
0.000000 0.408524 0.001225
0.000000 0.426225 0.000000
0.000000 0.448066 0.002424
0.008034 0.481481 0.000000
0.022658 0.493954 0.000000
0.091857 0.517729 0.000000
0.169227 0.536465 0.000000
0.279303 0.552560 0.002233
0.358007 0.580501 0.000000
0.421051 0.596269 0.000000
0.478840 0.612092 0.000000
0.544798 0.630202 0.000000
0.591422 0.641803 0.000000
0.646868 0.655882 0.000000
0.695969 0.666040 0.000000
0.731127 0.677996 0.000000
0.771432 0.688698 0.000000
0.803214 0.692565 0.000000
0.834641 0.696541 0.000000
0.865196 0.700054 0.008442
0.893736 0.707843 0.000000
0.917647 0.711683 0.000000
0.937963 0.712663 0.002723
0.957952 0.713371 0.000000
0.970370 0.719308 0.000000
0.979276 0.721759 0.000000
0.990605 0.720261 0.000000
0.997440 0.714815 0.000000
0.995534 0.719145 0.000000
0.993900 0.723393 0.000000
0.995643 0.731127 0.000000
0.000000 0.408497 0.001035
0.000000 0.417565 0.000000
0.000000 0.417211 0.000000
0.009858 0.451852 0.000000
0.013017 0.472767 0.002451
0.000000 0.494254 0.000000
0.021051 0.522603 0.000000
0.036411 0.534749 0.000000
0.118655 0.553785 0.000000
0.303159 0.583578 0.000000
0.363916 0.600272 0.000000
0.423066 0.620098 0.000000
0.486138 0.639270 0.000000
0.552424 0.657190 0.000000
0.606100 0.667919 0.003922
0.654929 0.682625 0.000000
0.708007 0.696351 0.000000
0.745670 0.704058 0.000000
0.779929 0.715196 0.000000
0.815686 0.722712 0.000000
0.840877 0.726906 0.000000
0.877369 0.729739 0.000000
0.901988 0.734123 0.000000
0.929793 0.741830 0.000000
0.948448 0.746923 0.000000
0.962854 0.748720 0.000000
0.979602 0.746160 0.000000
0.988371 0.748611 0.000000
0.995534 0.743273 0.000000
0.993791 0.747576 0.000000
0.993764 0.747712 0.000000
0.991912 0.752206 0.000817
0.995561 0.755338 0.000000
0.011792 0.421705 0.001334
0.011874 0.421405 0.001171
0.000000 0.447767 0.002015
0.000000 0.477288 0.000000
0.000000 0.498175 0.003431
0.000000 0.518764 0.000000
0.000000 0.535267 0.000000
0.041367 0.554820 0.000000
0.146732 0.581046 0.000000
0.283469 0.604439 0.000000
0.390060 0.626443 0.000000
0.424183 0.643437 0.000000
0.488235 0.662636 0.000000
0.535049 0.678350 0.000000
0.609504 0.691258 0.005283
0.662418 0.709286 0.003404
0.718709 0.718818 0.000000
0.747304 0.730882 0.000000
0.778050 0.739107 0.000000
0.819608 0.745234 0.004902
0.854956 0.752642 0.002778
0.880283 0.756917 0.000000
0.908551 0.764706 0.000000
0.938317 0.768083 0.000000
0.956754 0.773066 0.000000
0.971786 0.775082 0.000000
0.985784 0.776580 0.004058
0.991313 0.775735 0.003595
0.993328 0.771569 0.000000
0.993410 0.771541 0.000000
0.991776 0.775980 0.000000
0.996841 0.774918 0.002478
0.995180 0.779167 0.000000
0.000000 0.439080 0.000000
0.000000 0.438998 0.000000
0.000000 0.477288 0.000000
0.000000 0.477288 0.000000
0.011275 0.502179 0.000000
0.030964 0.534749 0.004412
0.012881 0.550926 0.000000
0.069417 0.578540 0.000000
0.098693 0.594090 0.000000
0.307271 0.626988 0.000000
0.358606 0.643464 0.003922
0.440114 0.669935 0.000000
0.481318 0.678704 0.000000
0.561356 0.699483 0.000000
0.612554 0.714052 0.006400
0.673148 0.731536 0.000000
0.711737 0.738589 0.001879
0.751334 0.753785 0.000000
0.788235 0.760784 0.000000
0.824237 0.768137 0.000000
0.859395 0.775191 0.004711
0.894063 0.782081 0.002042
0.916449 0.790468 0.000681
0.941258 0.794690 0.000000
0.959913 0.800000 0.000000
0.980038 0.800817 0.000000
0.990523 0.799156 0.005937
0.996269 0.798257 0.005147
0.992865 0.795071 0.000000
0.992947 0.795261 0.000000
0.992892 0.795071 0.000000
0.996705 0.798366 0.000000
0.996215 0.798312 0.005202
0.000000 0.447767 0.002015
0.000000 0.447413 0.001852
0.000000 0.485975 0.003023
0.000000 0.485866 0.003214
0.000000 0.514924 0.000000
0.000000 0.535212 0.004602
0.000000 0.575109 0.000000
0.027451 0.591149 0.000000
0.119771 0.609232 0.000000
0.267565 0.636220 0.000000
0.353077 0.655610 0.004630
0.421215 0.678840 0.000000
0.504303 0.696460 0.000000
0.559940 0.718573 0.000000
0.611765 0.733361 0.000000
0.679357 0.749891 0.000000
0.718682 0.757380 0.000000
0.764052 0.771160 0.000000
0.800708 0.778241 0.000000
0.830882 0.786411 0.000000
0.869989 0.796705 0.000000
0.894935 0.801062 0.000000
0.923366 0.808742 0.000000
0.948066 0.813181 0.000000
0.966040 0.818056 0.000000
0.986438 0.819036 0.000000
0.997576 0.817375 0.000000
0.992157 0.818301 0.000000
0.994227 0.814297 0.000000
0.994063 0.814161 0.000000
0.994199 0.814107 0.000000
0.993873 0.814161 0.000000
0.997767 0.817538 0.000000
0.000000 0.460212 0.002042
0.000000 0.460049 0.001934
0.000000 0.506618 0.000000
0.000000 0.506536 0.000000
0.000000 0.518709 0.000000
0.000000 0.547195 0.000000
0.000000 0.567620 0.000000
0.014052 0.598802 0.000000
0.174101 0.627587 0.007244
0.279330 0.651416 0.000000
0.353077 0.671106 0.000000
0.416857 0.690632 0.000000
0.497004 0.711983 0.000000
0.552614 0.726988 0.000000
0.609259 0.745016 0.000000
0.677642 0.761492 0.000000
0.720425 0.772086 0.003922
0.760240 0.786792 0.000000
0.800926 0.797467 0.000000
0.837092 0.804412 0.000000
0.866449 0.812146 0.000000
0.901471 0.819308 0.000000
0.932053 0.823066 0.002424
0.948856 0.831808 0.000000
0.974700 0.831917 0.000000
0.987418 0.837827 0.000000
0.993083 0.837119 0.000000
0.995507 0.833306 0.000000
0.995343 0.833088 0.000000
0.997304 0.829194 0.000000
0.997222 0.828894 0.000000
0.991694 0.829847 0.000000
0.994935 0.832979 0.009041
0.000000 0.464624 0.000000
0.000000 0.464924 0.000000
0.000000 0.506536 0.000000
0.000000 0.506454 0.000000
0.000000 0.539107 0.000000
0.000000 0.563862 0.000000
0.000000 0.575436 0.000000
0.031863 0.610158 0.000000
0.182925 0.639107 0.000000
0.265060 0.651934 0.000000
0.381073 0.689052 0.000000
0.431781 0.701198 0.000000
0.507081 0.726607 0.000000
0.562119 0.741285 0.000000
0.626443 0.758633 0.000000
0.672603 0.776688 0.000000
0.718627 0.783606 0.004875
0.762745 0.801607 0.000000
0.805910 0.808170 0.000381
0.839706 0.819145 0.000000
0.869172 0.827097 0.000000
0.900735 0.830882 0.000000
0.929139 0.838263 0.000000
0.957053 0.845643 0.000000
0.975599 0.850899 0.000708
0.992484 0.848502 0.000000
0.992456 0.848720 0.000000
0.992456 0.848529 0.000000
