calib/fujify/repo_cubes_std/classic_chrome_repo_std.cube
TITLE "Chromasmith repo-rebased - Classic Chrome"
#repo V-Log look rebased to Camera Standard via Panasonic V-Log math (approx)
LUT_3D_SIZE 33
0.000183 0.000092 0.000061
0.004456 0.000852 0.000124
0.009083 0.001615 0.000180
0.015332 0.002531 0.000235
0.030783 0.002919 0.001339
0.051807 0.003438 0.002229
0.078183 0.004442 0.002518
0.113762 0.005140 0.004326
0.152505 0.005717 0.006605
0.196292 0.006473 0.009427
0.248062 0.008988 0.012865
0.299994 0.012497 0.015848
0.358366 0.017191 0.020619
0.409879 0.021214 0.023948
0.468956 0.029507 0.031623
0.522798 0.038931 0.036719
0.573725 0.051636 0.044744
0.622002 0.063903 0.051162
0.664329 0.077856 0.061298
0.702766 0.093530 0.072874
0.740876 0.108911 0.081549
0.768907 0.130309 0.095412
0.795382 0.150848 0.108047
0.821778 0.169789 0.117977
0.842868 0.192664 0.135851
0.862776 0.216678 0.154890
0.882728 0.238991 0.171415
0.898665 0.261697 0.189643
0.911988 0.285654 0.210709
0.926368 0.309163 0.230175
0.942077 0.330376 0.248525
0.947137 0.350248 0.266255
0.947346 0.369987 0.285009
0.002176 0.003914 0.000448
0.005515 0.004254 0.000479
0.009084 0.004546 0.000502
0.015220 0.004777 0.000638
0.029260 0.004847 0.001249
0.049276 0.005156 0.001735
0.073320 0.005709 0.002407
0.106517 0.005823 0.004103
0.144097 0.006652 0.006069
0.187658 0.009015 0.008129
0.240135 0.012265 0.011229
0.290018 0.015509 0.013986
0.346328 0.019650 0.018044
0.400144 0.026152 0.021526
0.459347 0.035051 0.028408
0.512937 0.044214 0.032667
0.564805 0.056665 0.040749
0.613758 0.068640 0.047617
0.656868 0.082262 0.057982
0.696543 0.097649 0.069363
0.734968 0.114345 0.078337
0.763479 0.135219 0.092492
0.790700 0.155079 0.105043
0.817733 0.173422 0.114815
0.838993 0.197431 0.134544
0.859389 0.220865 0.153232
0.879756 0.242703 0.169549
0.896181 0.265099 0.187899
0.909732 0.289524 0.209051
0.924621 0.312428 0.228586
0.940712 0.333213 0.246841
0.945772 0.352922 0.264863
0.946215 0.372818 0.283843
0.003233 0.007687 0.000882
0.005510 0.007568 0.000881
0.007876 0.007345 0.000867
0.014663 0.007109 0.000919
0.026306 0.006890 0.000879
0.046107 0.007273 0.001480
0.070182 0.008119 0.002452
0.101852 0.008995 0.003643
0.139728 0.010699 0.005180
0.179737 0.013007 0.006571
0.230807 0.015943 0.009462
0.280204 0.019704 0.012086
0.337274 0.025628 0.015723
0.391115 0.032193 0.019109
0.449646 0.040876 0.024988
0.503032 0.050233 0.028781
0.555532 0.062590 0.036999
0.605326 0.073606 0.044157
0.649207 0.086959 0.054707
0.689905 0.103173 0.066081
0.728734 0.120215 0.075207
0.757735 0.140495 0.089609
0.785724 0.159639 0.101998
0.813261 0.178612 0.113014
0.834836 0.202618 0.133169
0.855742 0.225439 0.151480
0.876543 0.246773 0.167572
0.893334 0.269268 0.186160
0.907276 0.293773 0.207290
0.922707 0.316028 0.226886
0.939200 0.336352 0.245031
0.944256 0.355895 0.263383
0.944747 0.376275 0.282440
0.003201 0.013812 0.001516
0.004422 0.013394 0.001467
0.006667 0.012987 0.001404
0.014414 0.012921 0.001342
0.024587 0.012799 0.001258
0.044513 0.013186 0.001710
0.067896 0.013747 0.002222
0.096184 0.014698 0.002919
0.132755 0.016718 0.003982
0.171040 0.019619 0.005108
0.221646 0.023435 0.007684
0.271221 0.027939 0.009915
0.326370 0.033552 0.012861
0.380037 0.040214 0.015983
0.437956 0.049741 0.021183
0.490983 0.059244 0.025018
0.544239 0.070218 0.033101
0.594617 0.080105 0.040036
0.639581 0.094859 0.051232
0.681082 0.111782 0.062422
0.720560 0.128106 0.071554
0.750158 0.147598 0.086168
0.778993 0.166787 0.098613
0.807212 0.186397 0.111525
0.829258 0.209704 0.131376
0.850826 0.231721 0.149182
0.872195 0.252392 0.164969
0.889029 0.276043 0.184083
0.903916 0.299639 0.204961
0.920072 0.321024 0.224618
0.937090 0.340729 0.242601
0.941889 0.360381 0.261422
0.942747 0.381095 0.280550
0.001642 0.023245 0.002292
0.003171 0.022776 0.002152
0.007530 0.022745 0.002077
0.013530 0.022648 0.001953
0.025499 0.022747 0.001888
0.041852 0.023114 0.001898
0.065463 0.024089 0.002377
0.091324 0.025412 0.003039
0.127556 0.027144 0.003616
0.165849 0.029310 0.004392
0.212746 0.033027 0.005869
0.262125 0.038624 0.007933
0.315332 0.045175 0.010471
0.369103 0.052734 0.013639
0.425038 0.061226 0.017381
0.477811 0.069784 0.021570
0.532043 0.080121 0.029846
0.583197 0.091078 0.036957
0.628449 0.106344 0.048063
0.670628 0.122408 0.058710
0.710348 0.138072 0.068408
0.740912 0.158011 0.083058
0.770680 0.177587 0.096257
0.799759 0.196225 0.109910
0.822400 0.218643 0.129257
0.844746 0.239698 0.146447
0.866268 0.261767 0.162370
0.883644 0.284687 0.181620
0.899675 0.307055 0.202380
0.916718 0.327452 0.221860
0.934349 0.346394 0.239620
0.938059 0.367260 0.259023
0.940245 0.387327 0.278222
0.003049 0.038254 0.002771
0.005501 0.037805 0.002626
0.008158 0.037265 0.002447
0.014268 0.036645 0.002265
0.026323 0.036545 0.002197
0.041453 0.036931 0.002235
0.064188 0.037966 0.002709
0.090923 0.039327 0.003061
0.123430 0.041339 0.003362
0.162541 0.044502 0.004187
0.205725 0.048327 0.005194
0.254591 0.053368 0.006918
0.304807 0.059445 0.008664
0.358251 0.066843 0.011269
0.413299 0.074989 0.015464
0.466567 0.083846 0.021051
0.520527 0.094189 0.028269
0.571127 0.104564 0.034438
0.616391 0.119593 0.045357
0.659250 0.135841 0.055937
0.698838 0.152645 0.066605
0.730518 0.171890 0.080743
0.761491 0.190177 0.094856
0.790959 0.208066 0.108647
0.814542 0.230072 0.127054
0.837325 0.252238 0.143988
0.859245 0.273207 0.159615
0.877355 0.295035 0.178952
0.894697 0.315901 0.199693
0.912595 0.335419 0.218800
0.929330 0.355503 0.236723
0.933563 0.375612 0.256311
0.937336 0.394911 0.275568
0.003530 0.058277 0.003165
0.004485 0.057555 0.002993
0.009465 0.057152 0.002848
0.017214 0.056791 0.002658
0.026297 0.056447 0.002408
0.044110 0.056225 0.002375
0.063291 0.056059 0.002262
0.091365 0.057317 0.002661
0.120654 0.059528 0.003258
0.160295 0.062618 0.003947
0.199180 0.065945 0.004625
0.248753 0.071681 0.006033
0.297746 0.077529 0.008057
0.351635 0.084319 0.011774
0.403711 0.091353 0.015842
0.456277 0.099826 0.021190
0.509244 0.110312 0.027229
0.559138 0.121939 0.033212
0.604539 0.138062 0.044240
0.647700 0.153570 0.054476
0.686941 0.169451 0.065598
0.719917 0.187217 0.080084
0.751846 0.204825 0.093640
0.781711 0.223989 0.107510
0.805853 0.245858 0.125220
0.829050 0.266619 0.141632
0.851381 0.286295 0.156883
0.870457 0.306624 0.176727
0.888823 0.326968 0.197079
0.906511 0.347029 0.216054
0.923623 0.366050 0.233633
0.928570 0.385307 0.253444
0.934149 0.403736 0.272730
0.005561 0.081559 0.002710
0.009269 0.081273 0.002499
0.013113 0.081006 0.002270
0.018058 0.080711 0.001959
0.031196 0.080265 0.001853
0.046262 0.079873 0.001761
0.066664 0.080035 0.001908
0.092631 0.080774 0.002320
0.122341 0.082029 0.002871
0.158544 0.084316 0.003895
0.197430 0.087288 0.005157
0.246298 0.091740 0.007028
0.293743 0.097466 0.009071
0.345890 0.104886 0.012851
0.395389 0.112414 0.016538
0.447880 0.122097 0.021678
0.499412 0.132486 0.027122
0.547923 0.143860 0.033492
0.593240 0.158458 0.043809
0.636621 0.172420 0.054131
0.675729 0.189006 0.066073
0.709684 0.207222 0.079810
0.742416 0.224725 0.092769
0.772089 0.242894 0.106807
0.796607 0.263168 0.123756
0.820191 0.282449 0.139583
0.843187 0.301004 0.154788
0.863105 0.321330 0.175039
0.881820 0.341132 0.194899
0.899893 0.359972 0.213376
0.917397 0.377823 0.230512
0.923284 0.396175 0.250596
0.930837 0.413772 0.269856
0.008594 0.108970 0.001775
0.010474 0.108691 0.001757
0.016204 0.108312 0.001887
0.024901 0.107814 0.002097
0.035436 0.107263 0.002340
0.049944 0.106911 0.002681
0.071723 0.107132 0.003249
0.094529 0.107588 0.003858
0.126570 0.109234 0.004666
0.159601 0.111106 0.005539
0.201197 0.114580 0.006903
0.245920 0.118962 0.008556
0.292217 0.124123 0.010903
0.341497 0.130302 0.014174
0.388571 0.136465 0.017432
0.440817 0.145810 0.022404
0.490742 0.156552 0.027164
0.538125 0.169361 0.034406
0.583538 0.183761 0.045088
0.627098 0.197721 0.055169
0.665379 0.213357 0.067155
0.699845 0.229881 0.080176
0.733047 0.245799 0.092530
0.762238 0.263002 0.106688
0.787230 0.282763 0.122921
0.811663 0.301437 0.138573
0.835500 0.318793 0.153576
0.855386 0.338026 0.173885
0.874466 0.356472 0.193062
0.892922 0.374006 0.210926
0.910135 0.390704 0.227805
0.917933 0.409296 0.247953
0.927502 0.427139 0.267657
0.014095 0.142905 0.004775
0.018318 0.142090 0.004774
0.022813 0.141227 0.004772
0.028786 0.140090 0.004768
0.040272 0.139250 0.004888
0.057675 0.138871 0.005157
0.076918 0.138567 0.005467
0.102618 0.138614 0.005941
0.132352 0.138944 0.006525
0.164375 0.140672 0.007263
0.205651 0.144649 0.008662
0.246232 0.148691 0.010094
0.292574 0.154178 0.012488
0.339349 0.160128 0.015152
0.386623 0.167326 0.018378
0.436467 0.177249 0.023497
0.484089 0.187120 0.029055
0.530412 0.198915 0.037732
0.575352 0.211478 0.047566
0.618530 0.223773 0.057024
0.655782 0.238652 0.069058
0.690627 0.254955 0.081326
0.724095 0.270535 0.093206
0.752758 0.287750 0.107624
0.778500 0.305390 0.123527
0.803511 0.321948 0.138637
0.827431 0.337833 0.153686
0.847525 0.355697 0.173326
0.866965 0.372847 0.191705
0.885892 0.390396 0.208972
0.902669 0.407378 0.226047
0.912766 0.424852 0.246539
0.924252 0.441470 0.266025
0.018587 0.181165 0.006468
0.021105 0.180419 0.006365
0.027432 0.179938 0.006370
0.037356 0.179429 0.006421
0.049725 0.178840 0.006486
0.064123 0.178223 0.006563
0.084543 0.177807 0.006766
0.109980 0.177617 0.007088
0.136583 0.177552 0.007440
0.172108 0.178980 0.008241
0.209886 0.180837 0.009152
0.249608 0.183398 0.010628
0.295061 0.188029 0.013895
0.339655 0.192923 0.017189
0.386559 0.200376 0.021771
0.433526 0.209054 0.027050
0.479116 0.218763 0.032406
0.525083 0.231011 0.041617
0.569375 0.243168 0.050650
0.611781 0.255148 0.059360
0.647791 0.269790 0.071430
0.682517 0.283800 0.083236
0.716076 0.297189 0.095279
0.744093 0.312881 0.110159
0.770266 0.328372 0.125131
0.795641 0.343019 0.139492
0.819479 0.358938 0.154843
0.839989 0.376506 0.173525
0.859832 0.393290 0.191153
0.879077 0.409299 0.207855
0.895574 0.425042 0.225983
0.907817 0.441197 0.246064
0.921210 0.456569 0.265024
0.027378 0.221172 0.006221
0.032499 0.220549 0.006181
0.038066 0.219942 0.006136
0.045702 0.219279 0.006314
0.055305 0.218500 0.006660
0.073268 0.217790 0.007306
0.094250 0.217171 0.008065
0.116997 0.216718 0.008891
0.146278 0.217247 0.010029
0.180265 0.218589 0.011473
0.214712 0.220245 0.013043
0.256240 0.224085 0.015560
0.299257 0.228590 0.018368
0.342191 0.233539 0.021456
0.388416 0.241167 0.026385
0.433552 0.248669 0.031444
0.478001 0.256911 0.037605
0.522371 0.267209 0.045983
0.565207 0.277357 0.053977
0.605244 0.288124 0.062839
0.641013 0.300431 0.075335
0.675620 0.312287 0.087314
0.709030 0.324582 0.098693
0.736394 0.339811 0.113269
0.762963 0.354414 0.127441
0.788756 0.368421 0.141201
0.812188 0.383208 0.156811
0.832896 0.399060 0.174539
0.852978 0.414232 0.191754
0.872388 0.428717 0.208815
0.888889 0.443314 0.226974
0.903132 0.458296 0.246323
0.917226 0.473442 0.264521
0.037787 0.268251 0.011777
0.041565 0.267624 0.011809
0.046712 0.266995 0.011877
0.057284 0.266315 0.012095
0.070722 0.265508 0.012375
0.086738 0.264633 0.012714
0.104939 0.263764 0.013104
0.129272 0.263542 0.013843
0.158392 0.263890 0.014886
0.188728 0.264449 0.016015
0.224004 0.265983 0.017760
0.264544 0.268547 0.020286
0.305230 0.271265 0.023023
0.348052 0.275616 0.026937
0.391958 0.281089 0.031722
0.435051 0.286579 0.036697
0.478276 0.294447 0.043322
0.520911 0.303430 0.051376
0.562416 0.312250 0.059386
0.600459 0.322476 0.069603
0.635886 0.333528 0.080938
0.670313 0.344270 0.091757
0.702370 0.355565 0.103171
0.729884 0.368794 0.117059
0.756604 0.381569 0.130578
0.782542 0.393909 0.143715
0.805371 0.407646 0.159576
0.826212 0.421842 0.177295
0.846366 0.435764 0.194283
0.865879 0.449758 0.210436
0.882320 0.464169 0.228290
0.897090 0.478560 0.246771
0.911753 0.492316 0.264406
0.051393 0.313299 0.016401
0.057310 0.312838 0.016434
0.063809 0.312347 0.016470
0.072785 0.311695 0.016518
0.084251 0.310908 0.016577
0.097995 0.310036 0.016641
0.119442 0.309729 0.017155
0.143585 0.309526 0.017785
0.169596 0.309433 0.018506
0.199327 0.309786 0.019675
0.236362 0.311120 0.021929
0.274141 0.312656 0.024349
0.312870 0.314717 0.027630
0.354825 0.318699 0.032958
0.396450 0.322799 0.038404
0.437687 0.327288 0.044125
0.479741 0.334344 0.051566
0.520943 0.341367 0.059029
0.561191 0.348336 0.066499
0.597248 0.357523 0.076891
0.632243 0.366629 0.087110
0.666396 0.375459 0.096945
0.696933 0.385789 0.108615
0.724418 0.397262 0.121745
0.751138 0.408872 0.134631
0.777130 0.420572 0.147823
0.799170 0.434160 0.164522
0.820031 0.447593 0.181174
0.840234 0.460495 0.197142
0.859802 0.472851 0.212417
0.876004 0.486030 0.230214
0.891327 0.498993 0.248007
0.906451 0.511430 0.265053
0.067279 0.360191 0.017812
0.072118 0.359694 0.017927
0.077448 0.359155 0.018057
0.085229 0.358447 0.018291
0.099125 0.357814 0.019084
0.115958 0.357085 0.020072
0.135436 0.356295 0.021253
0.157194 0.355481 0.022625
0.182813 0.354926 0.024417
0.215481 0.355112 0.027040
0.249573 0.355433 0.029852
0.284642 0.355904 0.032831
0.323293 0.357848 0.037392
0.362800 0.360211 0.042372
0.402233 0.362707 0.047432
0.442378 0.366934 0.053556
0.482694 0.372292 0.060424
0.522348 0.377692 0.067356
0.560295 0.384211 0.075074
0.595585 0.392293 0.084426
0.630194 0.400242 0.093604
0.664097 0.408033 0.102629
0.692782 0.418490 0.115371
0.720065 0.429131 0.128474
0.746691 0.439477 0.141191
0.772219 0.449821 0.154053
0.793658 0.461994 0.170270
0.814453 0.473712 0.185864
0.834621 0.484959 0.200820
0.854141 0.495742 0.215179
0.870145 0.507814 0.232959
0.885890 0.519443 0.250055
0.901342 0.530897 0.266882
0.083469 0.404146 0.027242
0.089625 0.403696 0.027615
0.096437 0.403205 0.028031
0.105933 0.402531 0.028614
0.118210 0.401679 0.029375
0.133145 0.400674 0.030310
0.150509 0.399550 0.031412
0.173520 0.398758 0.032995
0.201518 0.398310 0.035033
0.231497 0.397945 0.037276
0.263018 0.397696 0.039706
0.297699 0.398385 0.043183
0.334429 0.399743 0.047320
0.371642 0.401300 0.051547
0.409323 0.403467 0.056134
0.448237 0.407768 0.062222
0.486871 0.412206 0.068405
0.525059 0.416766 0.074660
0.560850 0.422748 0.083028
0.595539 0.429099 0.092621
0.629608 0.435465 0.102225
0.661954 0.442433 0.112430
0.689630 0.451602 0.124806
0.716726 0.460578 0.136913
0.743245 0.469356 0.148750
0.767577 0.478809 0.161879
0.788842 0.489270 0.176908
0.809504 0.499332 0.191363
0.829627 0.509347 0.205089
0.848502 0.519554 0.219283
0.864840 0.530821 0.236688
0.880743 0.541647 0.253701
0.896158 0.552021 0.270106
0.105128 0.447205 0.037345
0.110406 0.446672 0.037584
0.116259 0.446084 0.037851
0.124440 0.445271 0.038227
0.135056 0.444227 0.038719
0.150008 0.443229 0.039563
0.170538 0.442497 0.040931
0.193758 0.441733 0.042513
0.219309 0.440976 0.044298
0.246801 0.440264 0.046274
0.277723 0.440170 0.049053
0.311366 0.440595 0.052483
0.346030 0.441165 0.056090
0.381390 0.441893 0.060072
0.418148 0.444493 0.065984
0.455269 0.447543 0.072244
0.492343 0.450667 0.078555
0.528659 0.454274 0.085586
0.563005 0.459216 0.094710
0.596914 0.464220 0.103868
0.630310 0.469271 0.113033
0.660214 0.475906 0.123591
0.687623 0.483751 0.134827
0.714562 0.491628 0.145794
0.741002 0.499346 0.156607
0.763909 0.508281 0.169649
0.784977 0.517531 0.183314
0.805477 0.526483 0.196560
0.825587 0.535212 0.210171
0.843824 0.544529 0.225442
0.860106 0.554389 0.242354
0.875911 0.563885 0.258752
0.891250 0.573033 0.274679
0.123821 0.486540 0.046207
0.128953 0.486048 0.046565
0.135917 0.485698 0.047139
0.145685 0.485216 0.047948
0.158416 0.484605 0.049011
0.174057 0.483882 0.050329
0.192451 0.483070 0.051895
0.213361 0.482202 0.053698
0.236494 0.481311 0.055721
0.264066 0.480845 0.058667
0.294243 0.480564 0.062085
0.325877 0.480378 0.065684
0.358604 0.480360 0.069344
0.392762 0.481467 0.073919
0.427929 0.483398 0.079207
0.463438 0.485446 0.084633
0.499079 0.487607 0.090164
0.533080 0.491249 0.097921
0.566529 0.495363 0.106228
0.599713 0.499612 0.114534
0.632470 0.504022 0.122853
0.659945 0.510587 0.133343
0.687031 0.517059 0.143749
0.713705 0.523413 0.154054
0.739764 0.529703 0.164372
0.761053 0.537696 0.178028
0.781911 0.545507 0.191476
0.802339 0.553115 0.204583
0.822342 0.560505 0.217345
0.839628 0.568950 0.232998
0.855748 0.577522 0.249250
0.871416 0.585824 0.265118
0.886641 0.593865 0.280633
0.150200 0.525610 0.061257
0.155732 0.525289 0.061659
0.161894 0.524936 0.062109
0.170556 0.524447 0.062745
0.181877 0.523822 0.063583
0.195833 0.523074 0.064627
0.212310 0.522223 0.065875
0.232038 0.521397 0.067514
0.256235 0.520776 0.069839
0.282604 0.520167 0.072405
0.310833 0.519596 0.075191
0.340605 0.519092 0.078177
0.372028 0.519294 0.081954
0.404870 0.520305 0.086596
0.438401 0.521439 0.091388
0.472383 0.522701 0.096297
0.505912 0.524774 0.102354
0.538612 0.527896 0.109906
0.571280 0.531156 0.117514
0.603808 0.534548 0.125149
0.633661 0.538837 0.133842
0.660715 0.543907 0.143986
0.687463 0.548911 0.154434
0.713836 0.553859 0.164759
0.737918 0.559516 0.176091
0.758936 0.566144 0.188826
0.779573 0.572615 0.201300
0.799828 0.578912 0.213504
0.819481 0.585141 0.225603
0.835770 0.592803 0.241397
0.851628 0.600265 0.256852
0.867067 0.607529 0.271952
0.882102 0.614599 0.286684
0.175029 0.562633 0.075734
0.179914 0.562318 0.076066
0.185363 0.561969 0.076438
0.193036 0.561485 0.076966
0.203088 0.560862 0.077664
0.216959 0.560206 0.078778
0.234496 0.559524 0.080297
0.254641 0.558776 0.082067
0.277185 0.557985 0.084079
0.301880 0.557177 0.086324
0.328456 0.556378 0.088789
0.356913 0.556161 0.091993
0.386934 0.556526 0.095875
0.417986 0.556999 0.099921
0.449815 0.557591 0.104095
0.482031 0.558498 0.108686
0.513626 0.560718 0.115936
0.545480 0.563036 0.123482
0.577457 0.565446 0.131082
0.609376 0.567956 0.138727
0.636117 0.571699 0.148375
0.662549 0.575341 0.157692
0.688757 0.579056 0.166990
0.714707 0.582828 0.176250
0.736543 0.587960 0.187555
0.757228 0.593311 0.199210
0.777580 0.598576 0.210745
0.797584 0.603745 0.222156
0.815975 0.609440 0.235027
0.832001 0.615999 0.250152
0.847649 0.622420 0.264951
0.862927 0.628700 0.279407
0.877893 0.634823 0.293750
0.198359 0.597169 0.089846
0.203658 0.596882 0.090239
0.209581 0.596564 0.090679
0.217943 0.596121 0.091346
0.228935 0.595551 0.092333
0.242581 0.594860 0.093570
0.258822 0.594063 0.095062
0.277539 0.593181 0.096807
0.298555 0.592236 0.098800
0.321657 0.591258 0.101034
0.346828 0.590893 0.104069
0.373667 0.590711 0.107489
0.401873 0.590584 0.111145
0.431200 0.590525 0.115016
0.461418 0.590548 0.119079
0.491527 0.591734 0.125143
0.522076 0.593089 0.131452
0.552952 0.594543 0.137854
0.584016 0.596095 0.144319
0.612213 0.598388 0.152118
0.638395 0.601199 0.160841
0.664492 0.604075 0.169592
0.690454 0.607004 0.178346
0.714931 0.610344 0.187741
0.735587 0.614693 0.198894
0.755961 0.618996 0.209989
0.776031 0.623245 0.221018
0.795781 0.627430 0.231973
0.812756 0.632707 0.245632
0.828559 0.638331 0.260385
0.844079 0.643856 0.274796
0.859325 0.649266 0.288775
0.874302 0.654551 0.302328
0.226427 0.626604 0.105915
0.231271 0.626359 0.106339
0.236690 0.626087 0.106816
0.244350 0.625708 0.107494
0.254439 0.625216 0.108394
0.266993 0.624616 0.109526
0.281980 0.623920 0.110893
0.299310 0.623141 0.112498
0.318980 0.622509 0.114589
0.340850 0.622091 0.117224
0.364568 0.621682 0.120121
0.389914 0.621296 0.123261
0.416659 0.620950 0.126628
0.444582 0.620660 0.130201
0.472850 0.621221 0.135236
0.501773 0.621985 0.140643
0.531266 0.622836 0.146198
0.561170 0.623773 0.151872
0.590225 0.625024 0.158175
0.615949 0.627050 0.166227
0.641743 0.629131 0.174351
0.667538 0.631259 0.182521
0.693278 0.633422 0.190715
0.714994 0.636535 0.200728
0.735242 0.639936 0.211325
0.755238 0.643346 0.222154
0.774975 0.646787 0.233239
0.794046 0.650407 0.244657
0.809988 0.655270 0.258816
0.825688 0.660051 0.272636
0.841183 0.664658 0.285912
0.856477 0.669112 0.298658
0.871008 0.673713 0.311570
0.253735 0.654790 0.123086
0.258181 0.654570 0.123473
0.263162 0.654325 0.123910
0.270211 0.653981 0.124530
0.279511 0.653534 0.125356
0.291110 0.652986 0.126395
0.305210 0.652561 0.127952
0.321591 0.652115 0.129812
0.340115 0.651636 0.131937
0.360631 0.651137 0.134317
0.382964 0.650635 0.136940
0.406920 0.650145 0.139792
0.432295 0.649683 0.142857
0.458294 0.649884 0.147173
0.485256 0.650177 0.151754
0.513029 0.650537 0.156519
0.541441 0.650968 0.161446
0.570337 0.651473 0.166511
0.595528 0.652740 0.173763
0.620813 0.654076 0.181200
0.646243 0.655457 0.188859
0.671719 0.656913 0.196971
0.695494 0.658556 0.205495
0.715410 0.661049 0.215728
0.735258 0.663591 0.225980
0.755011 0.666174 0.236226
0.774648 0.668795 0.246446
0.792278 0.672154 0.258157
0.808140 0.676092 0.270962
0.823806 0.679988 0.283516
0.839274 0.683835 0.295825
0.854546 0.687628 0.307901
0.868240 0.691962 0.321058
0.279873 0.680898 0.140220
0.284038 0.680736 0.140630
0.288707 0.680556 0.141090
0.295325 0.680303 0.141743
0.304070 0.679974 0.142610
0.315000 0.679571 0.143697
0.328116 0.679098 0.145008
0.343373 0.678564 0.146543
0.360682 0.677980 0.148296
0.379922 0.677357 0.150259
0.400943 0.676711 0.152424
0.423440 0.676162 0.154997
0.446917 0.675949 0.158479
0.471608 0.675761 0.162574
0.497348 0.675620 0.166905
0.523970 0.675535 0.171455
0.551315 0.675515 0.176203
0.576230 0.675994 0.182598
0.600696 0.676668 0.189559
0.625457 0.677419 0.196641
0.650428 0.678250 0.203822
0.675532 0.679162 0.211076
0.696032 0.680988 0.220465
0.715903 0.682980 0.230180
0.735741 0.685016 0.239913
0.755516 0.687093 0.249640
0.775203 0.689204 0.259339
0.791127 0.692508 0.271441
0.806872 0.695796 0.283419
0.822460 0.699055 0.295257
0.837885 0.702278 0.306958
0.853147 0.705460 0.318532
0.866026 0.709604 0.331889
0.302968 0.702595 0.155675
0.306878 0.702449 0.156086
0.311266 0.702286 0.156549
0.317491 0.702057 0.157209
0.325729 0.701758 0.158085
0.336046 0.701390 0.159189
0.348455 0.700957 0.160525
0.362927 0.700465 0.162097
0.379395 0.699923 0.163903
0.397759 0.699342 0.165938
0.417349 0.698998 0.168869
0.438420 0.698699 0.172178
0.460893 0.698417 0.175753
0.484609 0.698162 0.179577
0.509405 0.697944 0.183634
0.535123 0.697772 0.187906
0.559158 0.697951 0.193488
0.582716 0.698320 0.199737
0.606732 0.698756 0.206149
0.631106 0.699264 0.212699
0.655751 0.699847 0.219365
0.677849 0.700911 0.227307
0.697583 0.702395 0.236383
0.717358 0.703924 0.245505
0.737137 0.705495 0.254646
0.756885 0.707104 0.263782
0.774728 0.709258 0.274022
0.790488 0.711967 0.285434
0.806134 0.714661 0.296797
0.821658 0.717336 0.308110
0.837052 0.719986 0.319377
0.851591 0.722945 0.331005
0.864192 0.726724 0.343770
0.327119 0.723305 0.174156
0.330813 0.723175 0.174524
0.334961 0.723029 0.174938
0.340851 0.722823 0.175528
0.348656 0.722554 0.176313
0.358444 0.722222 0.177303
0.370240 0.721829 0.178503
0.383993 0.721392 0.179949
0.399102 0.721095 0.182186
0.415980 0.720781 0.184708
0.434520 0.720458 0.187508
0.454595 0.720136 0.190574
0.476067 0.719823 0.193895
0.498788 0.719530 0.197456
0.522609 0.719266 0.201242
0.545053 0.719276 0.206246
0.567476 0.719413 0.211797
0.590519 0.719606 0.217543
0.614075 0.719860 0.223462
0.638046 0.720179 0.229530
0.661133 0.720706 0.236217
0.680560 0.721728 0.244568
0.700115 0.722793 0.252994
0.719752 0.723898 0.261466
0.739426 0.725041 0.269961
0.759059 0.726228 0.278480
0.774762 0.728389 0.289357
0.790370 0.730490 0.300155
0.805833 0.732585 0.310696
0.821154 0.734705 0.321060
0.836322 0.736850 0.331232
0.849805 0.739702 0.342433
0.862415 0.742862 0.354036
0.352652 0.743175 0.193155
0.356150 0.743057 0.193480
0.360080 0.742926 0.193845
0.365665 0.742741 0.194367
0.372750 0.742570 0.195328
0.381600 0.742370 0.196577
0.392277 0.742135 0.198092
0.404770 0.741868 0.199877
0.419039 0.741576 0.201932
0.435015 0.741264 0.204254
0.452605 0.740941 0.206836
0.471660 0.740575 0.209586
0.492051 0.740162 0.212460
0.513697 0.739754 0.215543
0.533867 0.739578 0.219936
0.554875 0.739431 0.224585
0.576661 0.739317 0.229449
0.599117 0.739239 0.234510
0.622145 0.739202 0.239751
0.645520 0.739221 0.245200
0.664431 0.739742 0.252495
0.683613 0.740319 0.260105
0.703002 0.740965 0.267924
0.722533 0.741682 0.275823
0.742164 0.742471 0.283780
