calib/fujify/repo_cubes_std/classic_chrome_repo_std.cube
TITLE "Chromasmith repo-rebased - Classic Chrome"
#repo V-Log look rebased to Camera Standard via Panasonic V-Log math (approx)
LUT_3D_SIZE 5
0.000183 0.000092 0.000061
0.152505 0.005717 0.006605
0.573725 0.051636 0.044744
0.842868 0.192664 0.135851
0.947346 0.369987 0.285009
0.008594 0.108970 0.001775
0.126570 0.109234 0.004666
0.490742 0.156552 0.027164
0.787230 0.282763 0.122921
0.927502 0.427139 0.267657
0.105128 0.447205 0.037345
0.219309 0.440976 0.044298
0.492343 0.450667 0.078555
0.741002 0.499346 0.156607
0.891250 0.573033 0.274679
0.302968 0.702595 0.155675
0.379395 0.699923 0.163903
0.559158 0.697951 0.193488
0.737137 0.705495 0.254646
0.864192 0.726724 0.343770
0.480344 0.831359 0.302779
0.526267 0.830003 0.310438
0.634951 0.828374 0.335350
0.758976 0.830071 0.378419
0.862195 0.837196 0.436489
0.002355 0.004471 0.101004
0.140859 0.010195 0.092788
0.542210 0.061425 0.145062
0.818242 0.197644 0.259012
0.936411 0.370323 0.386015
0.010327 0.143788 0.159524
0.131284 0.139768 0.146606
0.487760 0.181607 0.171023
0.773816 0.295670 0.262361
0.920185 0.431278 0.378507
0.100691 0.479821 0.239615
0.216646 0.472288 0.236847
0.490029 0.475440 0.251728
0.736532 0.515713 0.306546
0.883741 0.580608 0.392365
0.293493 0.712366 0.331122
0.372266 0.709653 0.333768
0.552221 0.707522 0.348664
0.733084 0.714007 0.387708
0.859578 0.733207 0.447315
0.474375 0.834699 0.428816
0.521327 0.833502 0.433851
0.631120 0.832407 0.449646
0.756906 0.834178 0.478249
0.860502 0.840945 0.519158
0.019146 0.048049 0.404907
0.170731 0.053876 0.378510
0.537164 0.106075 0.398164
0.794046 0.232884 0.469114
0.925395 0.385361 0.551799
0.032236 0.215632 0.485768
0.168166 0.210791 0.459884
0.500874 0.240508 0.448696
0.763523 0.333563 0.492165
0.908998 0.448452 0.556908
0.121510 0.527338 0.555569
0.236476 0.520231 0.543805
0.500039 0.518495 0.532249
0.731815 0.546061 0.544900
0.873686 0.598942 0.582890
0.291761 0.729186 0.596041
0.367774 0.726919 0.593855
0.547753 0.724246 0.592490
0.729343 0.729473 0.602697
0.854766 0.746218 0.627429
0.466182 0.840695 0.636227
0.514298 0.839797 0.637076
0.623885 0.839613 0.641902
0.750972 0.841337 0.651482
0.854171 0.845478 0.666254
0.085126 0.161102 0.688530
0.233805 0.162901 0.667584
0.545281 0.208707 0.645988
0.778292 0.305354 0.661082
0.911081 0.423731 0.694405
0.098228 0.312846 0.717899
0.233575 0.310284 0.699451
0.526227 0.330382 0.676285
0.758426 0.393606 0.679248
0.895381 0.484099 0.703960
0.173282 0.567594 0.743894
0.280511 0.563158 0.735323
0.516758 0.562871 0.722166
0.730543 0.583060 0.718180
0.867095 0.624063 0.728703
0.313575 0.745773 0.765699
0.385654 0.744240 0.762630
0.557317 0.742637 0.757489
0.733233 0.747141 0.755956
0.851486 0.760234 0.762074
0.460226 0.840530 0.771846
0.503634 0.840230 0.771723
0.614455 0.840275 0.771925
0.740096 0.842011 0.773482
0.842751 0.845012 0.776553
0.191186 0.309858 0.830892
0.313396 0.312250 0.817678
0.564144 0.337014 0.796723
0.768119 0.397223 0.790431
0.895256 0.483096 0.798750
0.198142 0.413943 0.837761
0.313339 0.413523 0.827114
0.550773 0.426489 0.809541
0.754764 0.468889 0.801790
0.883617 0.535585 0.805753
0.254622 0.610991 0.850293
0.345602 0.609123 0.845146
0.548005 0.609294 0.833908
0.734950 0.624266 0.825150
0.862752 0.657429 0.825948
0.357309 0.757305 0.859212
0.421575 0.756236 0.856289
0.575729 0.755501 0.849780
0.729278 0.759575 0.845645
0.843374 0.767998 0.843503
0.458493 0.834316 0.849160
0.497849 0.834591 0.848645
0.603671 0.835592 0.847541
0.727406 0.837539 0.847607
0.827497 0.839840 0.846830
