calib/fujify/repo_cubes_std/classic_chrome_repo_std.cube
TITLE "Chromasmith repo-rebased - Classic Chrome"
#repo V-Log look rebased to Camera Standard via Panasonic V-Log math (approx)
LUT_3D_SIZE 9
0.000183 0.000092 0.000061
0.030783 0.002919 0.001339
0.152505 0.005717 0.006605
0.358366 0.017191 0.020619
0.573725 0.051636 0.044744
0.740876 0.108911 0.081549
0.842868 0.192664 0.135851
0.911988 0.285654 0.210709
0.947346 0.369987 0.285009
0.001642 0.023245 0.002292
0.025499 0.022747 0.001888
0.127556 0.027144 0.003616
0.315332 0.045175 0.010471
0.532043 0.080121 0.029846
0.710348 0.138072 0.068408
0.822400 0.218643 0.129257
0.899675 0.307055 0.202380
0.940245 0.387327 0.278222
0.008594 0.108970 0.001775
0.035436 0.107263 0.002340
0.126570 0.109234 0.004666
0.292217 0.124123 0.010903
0.490742 0.156552 0.027164
0.665379 0.213357 0.067155
0.787230 0.282763 0.122921
0.874466 0.356472 0.193062
0.927502 0.427139 0.267657
0.037787 0.268251 0.011777
0.070722 0.265508 0.012375
0.158392 0.263890 0.014886
0.305230 0.271265 0.023023
0.478276 0.294447 0.043322
0.635886 0.333528 0.080938
0.756604 0.381569 0.130578
0.846366 0.435764 0.194283
0.911753 0.492316 0.264406
0.105128 0.447205 0.037345
0.135056 0.444227 0.038719
0.219309 0.440976 0.044298
0.346030 0.441165 0.056090
0.492343 0.450667 0.078555
0.630310 0.469271 0.113033
0.741002 0.499346 0.156607
0.825587 0.535212 0.210171
0.891250 0.573033 0.274679
0.198359 0.597169 0.089846
0.228935 0.595551 0.092333
0.298555 0.592236 0.098800
0.401873 0.590584 0.111145
0.522076 0.593089 0.131452
0.638395 0.601199 0.160841
0.735587 0.614693 0.198894
0.812756 0.632707 0.245632
0.874302 0.654551 0.302328
0.302968 0.702595 0.155675
0.325729 0.701758 0.158085
0.379395 0.699923 0.163903
0.460893 0.698417 0.175753
0.559158 0.697951 0.193488
0.655751 0.699847 0.219365
0.737137 0.705495 0.254646
0.806134 0.714661 0.296797
0.864192 0.726724 0.343770
0.396239 0.776598 0.225990
0.413613 0.776127 0.228278
0.455415 0.775051 0.233868
0.518338 0.773683 0.245415
0.596888 0.772379 0.262872
0.673787 0.772888 0.286966
0.746813 0.775263 0.315869
0.807319 0.780279 0.350072
0.859501 0.787464 0.389034
0.480344 0.831359 0.302779
0.493687 0.830956 0.304987
0.526267 0.830003 0.310438
0.577968 0.828724 0.319989
0.634951 0.828374 0.335350
0.701584 0.828410 0.354268
0.758976 0.830071 0.378419
0.814341 0.832834 0.405869
0.862195 0.837196 0.436489
0.002701 0.002558 0.020890
0.027828 0.003330 0.018783
0.140114 0.005210 0.022292
0.337833 0.018701 0.036787
0.554228 0.053574 0.066678
0.726749 0.111808 0.111642
0.832756 0.193003 0.177100
0.906755 0.284308 0.248852
0.943314 0.369275 0.319929
0.001388 0.027294 0.030352
0.025187 0.027289 0.027269
0.124638 0.031396 0.028297
0.308374 0.049328 0.040495
0.523169 0.084063 0.067674
0.699627 0.140435 0.109063
0.813954 0.219718 0.171656
0.894142 0.306238 0.242851
0.936742 0.387125 0.314234
0.004828 0.120455 0.044849
0.033012 0.118086 0.041909
0.126062 0.120037 0.042277
0.290655 0.132678 0.050886
0.487377 0.164433 0.072991
0.659801 0.219364 0.112122
0.781473 0.286157 0.168318
0.869153 0.358045 0.235949
0.924949 0.428037 0.305791
0.034754 0.284732 0.064714
0.068724 0.282076 0.063972
0.157039 0.279244 0.064650
0.304651 0.284153 0.073119
0.475888 0.304834 0.095080
0.632935 0.340648 0.130182
0.752990 0.386613 0.178040
0.842285 0.439397 0.238873
0.908891 0.494155 0.303353
0.102814 0.458471 0.099294
0.132444 0.455188 0.099559
0.217433 0.451649 0.102988
0.344021 0.451119 0.112309
0.490814 0.458294 0.131505
0.628267 0.476261 0.163958
0.739075 0.504645 0.205368
0.823858 0.539347 0.255402
0.888735 0.575581 0.313935
0.195717 0.604319 0.152960
0.226329 0.602717 0.154764
0.296091 0.599391 0.159103
0.399624 0.597094 0.167858
0.520121 0.598696 0.183786
0.636433 0.605962 0.210666
0.733590 0.618554 0.246396
0.810797 0.635849 0.290076
0.872784 0.656947 0.339535
0.299312 0.705937 0.213285
0.322315 0.705096 0.214985
0.376577 0.703247 0.219111
0.458254 0.701719 0.228642
0.556436 0.701184 0.243348
0.653655 0.702944 0.265249
0.735460 0.708263 0.297369
0.804672 0.717043 0.335710
0.862561 0.728725 0.377395
0.393222 0.778472 0.276321
0.410640 0.777996 0.278147
0.452562 0.776908 0.282626
0.515788 0.775556 0.292521
0.595325 0.774267 0.307600
0.672544 0.774798 0.328790
0.745735 0.777136 0.354239
0.806380 0.781911 0.383904
0.858947 0.788868 0.419030
0.478252 0.832391 0.342894
0.491701 0.832002 0.344885
0.524548 0.831084 0.349804
0.576285 0.829896 0.358439
0.633677 0.829624 0.371965
0.700543 0.829746 0.388750
0.758450 0.831225 0.410549
0.813944 0.833981 0.435453
0.861706 0.838499 0.463313
0.002355 0.004471 0.101004
0.030006 0.005292 0.091907
0.140859 0.010195 0.092788
0.331410 0.025882 0.109614
0.542210 0.061425 0.145062
0.711615 0.118261 0.195412
0.818242 0.197644 0.259012
0.895481 0.287077 0.325101
0.936411 0.370323 0.386015
0.003062 0.039095 0.123495
0.025496 0.036357 0.114499
0.126849 0.042512 0.110767
0.308869 0.059816 0.122678
0.517000 0.094508 0.151617
0.688486 0.150738 0.197820
0.802047 0.224941 0.257833
0.883602 0.309782 0.322161
0.931023 0.388640 0.382700
0.010327 0.143788 0.159524
0.035239 0.140364 0.152409
0.131284 0.139768 0.146606
0.296171 0.149611 0.150970
0.487760 0.181607 0.171023
0.653514 0.231995 0.209479
0.773816 0.295670 0.262361
0.860890 0.363896 0.321026
0.920185 0.431278 0.378507
0.034213 0.313020 0.197825
0.069926 0.309550 0.194564
0.160185 0.305068 0.189387
0.308506 0.305813 0.191160
0.476570 0.323771 0.206112
0.629705 0.355265 0.236332
0.748581 0.397678 0.278439
0.837279 0.446896 0.327888
0.903555 0.498689 0.379938
0.100691 0.479821 0.239615
0.131319 0.476916 0.237960
0.216646 0.472288 0.236847
0.344133 0.470182 0.239780
0.490029 0.475440 0.251728
0.626813 0.491522 0.274731
0.736532 0.515713 0.306546
0.819531 0.546127 0.346645
0.883741 0.580608 0.392365
0.193461 0.617263 0.286965
0.223838 0.615646 0.286797
0.293156 0.612235 0.286635
0.397234 0.609475 0.290442
0.517665 0.609827 0.300751
0.633225 0.615503 0.318670
0.730069 0.626541 0.343964
0.806944 0.642290 0.377001
0.869433 0.661693 0.415063
0.293493 0.712366 0.331122
0.316932 0.711520 0.331859
0.372266 0.709653 0.333768
0.454041 0.708161 0.339351
0.552221 0.707522 0.348664
0.651310 0.708982 0.364404
0.733084 0.714007 0.387708
0.801716 0.722172 0.415469
0.859578 0.733207 0.447315
0.387806 0.782472 0.377375
0.405391 0.781989 0.378362
0.447766 0.780884 0.380828
0.511480 0.779467 0.387787
0.592539 0.778026 0.398552
0.669786 0.778573 0.413242
0.743480 0.780742 0.431499
0.805855 0.784674 0.455253
0.858246 0.791970 0.483640
0.474375 0.834699 0.428816
0.488013 0.834343 0.430267
0.521327 0.833502 0.433851
0.572810 0.832526 0.440140
0.631120 0.832407 0.449646
0.698446 0.832708 0.461826
0.756906 0.834178 0.478249
0.812345 0.836953 0.497443
0.860502 0.840945 0.519158
0.005361 0.016470 0.237207
0.037354 0.018043 0.224605
0.148101 0.023452 0.217296
0.333016 0.041412 0.228081
0.537663 0.076775 0.264471
0.697158 0.132843 0.308712
0.805615 0.209366 0.362128
0.884087 0.294616 0.416758
0.930954 0.374775 0.467609
0.009199 0.060848 0.271777
0.038288 0.059387 0.259088
0.142355 0.062475 0.246984
0.320180 0.080339 0.251732
0.518423 0.113157 0.277970
0.679363 0.168909 0.317046
0.791977 0.240033 0.366101
0.873596 0.317361 0.417269
0.926829 0.393248 0.467009
0.011930 0.175034 0.324089
0.046910 0.170915 0.314300
0.142106 0.168458 0.301114
0.310954 0.180718 0.298676
0.492443 0.207977 0.309149
0.651010 0.251877 0.338674
0.767707 0.311073 0.377758
0.853595 0.373801 0.422740
0.915370 0.437763 0.467983
0.045565 0.343971 0.370508
0.073702 0.339710 0.364023
0.168530 0.333410 0.353817
0.318725 0.334680 0.347208
0.481658 0.349171 0.352250
0.629905 0.376233 0.370591
0.745344 0.413369 0.399177
0.832003 0.458924 0.434730
0.897459 0.506645 0.473911
0.103447 0.503697 0.406674
0.140499 0.501067 0.403691
0.221585 0.495832 0.397520
0.350112 0.492816 0.393545
0.493680 0.495888 0.396562
0.627829 0.508996 0.408136
0.733896 0.530076 0.427913
0.814915 0.557110 0.454183
0.878062 0.589063 0.488394
0.195833 0.631006 0.440621
0.225223 0.629481 0.439306
0.292582 0.626283 0.436537
0.396944 0.623229 0.435079
0.516523 0.623060 0.437542
0.630553 0.627398 0.446144
0.726710 0.636878 0.461787
0.803352 0.651175 0.483520
0.864509 0.669071 0.510336
0.290110 0.720828 0.470097
0.313459 0.720037 0.469744
0.368445 0.718328 0.469120
0.450232 0.716677 0.470163
0.548591 0.715713 0.474087
0.649799 0.716433 0.483204
0.730188 0.720917 0.496147
0.798736 0.728799 0.514790
0.857036 0.739463 0.537539
0.383447 0.787590 0.501046
0.401489 0.786990 0.501291
0.445034 0.785578 0.501947
0.508162 0.784398 0.505807
0.589640 0.783353 0.511511
0.666952 0.783885 0.520541
0.741335 0.786014 0.532530
0.803591 0.790523 0.547888
0.856159 0.797127 0.568248
0.470215 0.837900 0.536196
0.483969 0.837593 0.536954
0.517603 0.836867 0.538839
0.568090 0.836209 0.542504
0.627899 0.836257 0.548360
0.695479 0.836801 0.556067
0.754348 0.838349 0.566446
0.809673 0.840682 0.578994
0.857995 0.843754 0.593118
0.019146 0.048049 0.404907
0.056268 0.048060 0.392458
0.170731 0.053876 0.378510
0.349023 0.072500 0.380257
0.537164 0.106075 0.398164
0.687374 0.161624 0.429301
0.794046 0.232884 0.469114
0.871778 0.310087 0.511663
0.925395 0.385361 0.551799
0.022713 0.097356 0.437298
0.058592 0.096048 0.424899
0.165264 0.097543 0.409183
0.339450 0.113568 0.404497
0.521977 0.145797 0.414613
0.673342 0.196799 0.439806
0.783019 0.263528 0.475776
0.863290 0.335477 0.515285
0.921910 0.403430 0.553075
0.032236 0.215632 0.485768
0.066381 0.212840 0.475853
0.168166 0.210791 0.459884
0.328450 0.218387 0.447643
0.500874 0.240508 0.448696
0.650825 0.282355 0.464649
0.763523 0.333563 0.492165
0.846415 0.390977 0.523873
0.908998 0.448452 0.556908
0.055882 0.376195 0.525997
0.096476 0.372693 0.519244
0.188332 0.367501 0.506374
0.333026 0.367870 0.494782
0.492000 0.378566 0.491805
0.633885 0.401080 0.499168
0.744462 0.433658 0.516048
0.827123 0.473683 0.539027
0.891252 0.517477 0.567326
0.121510 0.527338 0.555569
0.155848 0.524835 0.551596
0.236476 0.520231 0.543805
0.362253 0.516519 0.535606
0.500039 0.518495 0.532249
0.628681 0.528499 0.534773
0.731815 0.546061 0.544900
0.812046 0.569588 0.560329
0.873686 0.598942 0.582890
0.204605 0.643842 0.576533
0.232203 0.642321 0.574534
0.297730 0.639446 0.570607
0.400242 0.636534 0.566123
0.518384 0.636315 0.564303
0.630628 0.639994 0.566612
0.724834 0.648497 0.574293
0.799842 0.661433 0.587272
0.860965 0.677656 0.603781
0.291761 0.729186 0.596041
0.314529 0.728433 0.595279
0.367774 0.726919 0.593855
0.450302 0.725124 0.592324
0.547753 0.724246 0.592490
0.647535 0.725119 0.595470
0.729343 0.729473 0.602697
0.797157 0.736790 0.613479
0.854766 0.746218 0.627429
0.382939 0.792996 0.616945
0.401314 0.792447 0.616737
0.444349 0.791294 0.616594
0.507497 0.790184 0.617971
0.590433 0.789039 0.620077
0.666201 0.790528 0.624569
0.739577 0.793041 0.630940
0.802584 0.796521 0.638963
0.854043 0.802649 0.650967
0.466182 0.840695 0.636227
0.480141 0.840427 0.636467
0.514298 0.839797 0.637076
0.562889 0.839490 0.638870
0.623885 0.839613 0.641902
0.690884 0.840125 0.646074
0.750972 0.841337 0.651482
0.805763 0.843226 0.658388
0.854171 0.845478 0.666254
0.046251 0.097654 0.565020
0.084440 0.097196 0.553502
0.199559 0.099933 0.538200
0.366778 0.118016 0.529138
0.539032 0.150175 0.531359
0.681256 0.201061 0.547952
0.785361 0.264485 0.573098
0.861812 0.333815 0.600422
0.919368 0.401015 0.628174
0.047340 0.147540 0.586262
0.087426 0.146630 0.576448
0.196294 0.148411 0.560765
0.359382 0.159203 0.547829
0.528301 0.190597 0.546304
0.671192 0.236626 0.558762
0.776849 0.294778 0.580074
0.854744 0.356810 0.604727
0.913779 0.420285 0.630856
0.059344 0.261351 0.621547
0.091949 0.257829 0.613406
0.195591 0.256021 0.596625
0.349576 0.263625 0.580887
0.512546 0.284159 0.575528
0.653912 0.317874 0.581022
0.761060 0.361644 0.595655
0.840527 0.410989 0.615005
0.902091 0.463164 0.637152
0.091233 0.410070 0.646439
0.122860 0.407048 0.641111
0.216713 0.403331 0.629471
0.353789 0.402513 0.617165
0.504525 0.410277 0.610424
0.639663 0.429094 0.610152
0.744343 0.457056 0.617150
0.823744 0.491508 0.630455
0.885666 0.531011 0.648369
0.144134 0.548395 0.664752
0.173812 0.546015 0.661445
0.255556 0.542291 0.654949
0.373755 0.539240 0.646748
0.506364 0.540536 0.640268
0.630433 0.548510 0.638265
0.730892 0.563559 0.641731
0.808711 0.584957 0.650496
0.869836 0.610408 0.663156
0.217982 0.655857 0.678790
0.243223 0.654592 0.676915
0.309130 0.652434 0.673389
0.408874 0.649989 0.668436
0.524452 0.649804 0.664506
0.633172 0.652912 0.663707
0.724610 0.660432 0.666377
0.798251 0.672307 0.672701
0.858604 0.687019 0.682720
0.299389 0.737123 0.692748
0.320858 0.736494 0.691779
0.373018 0.735356 0.690062
0.455623 0.733837 0.687502
0.550371 0.733341 0.686225
0.647289 0.734586 0.686413
0.730124 0.738645 0.688923
0.796054 0.744955 0.694910
0.852979 0.753329 0.703051
0.387968 0.798428 0.706648
0.406445 0.797915 0.706224
0.446128 0.797305 0.705904
0.509027 0.796651 0.705700
0.588594 0.796291 0.705771
0.666193 0.797200 0.706713
0.738356 0.799299 0.709370
0.801913 0.802597 0.713566
0.851119 0.807061 0.719128
0.462426 0.841474 0.713789
0.476449 0.841284 0.713796
0.510456 0.840857 0.713858
0.556710 0.840771 0.714818
0.619423 0.840805 0.716256
0.684910 0.841400 0.718228
0.745945 0.842769 0.720620
0.800027 0.844248 0.724148
0.849370 0.845850 0.728357
0.085126 0.161102 0.688530
0.125092 0.159694 0.681268
0.233805 0.162901 0.667584
0.386704 0.179198 0.652746
0.545281 0.208707 0.645988
0.678619 0.251064 0.649745
0.778292 0.305354 0.661082
0.852354 0.362698 0.675863
0.911081 0.423731 0.694405
0.086678 0.209075 0.700572
0.127439 0.208458 0.693452
0.230507 0.210571 0.678980
0.381565 0.221710 0.664227
0.537843 0.245589 0.656111
0.671036 0.285066 0.657723
0.771798 0.332062 0.666535
0.846665 0.385452 0.680201
0.906449 0.441018 0.697115
0.098228 0.312846 0.717899
0.136732 0.311001 0.711717
0.233575 0.310284 0.699451
0.375281 0.315258 0.685537
0.526227 0.330382 0.676285
0.657769 0.357439 0.674229
0.758426 0.393606 0.679248
0.835388 0.435111 0.689775
0.895381 0.484099 0.703960
0.125257 0.443065 0.732031
0.162872 0.441094 0.727826
0.247524 0.437779 0.718977
0.376740 0.437418 0.708188
0.517104 0.443598 0.699471
0.643846 0.459223 0.696153
0.743788 0.482640 0.697617
0.821176 0.512382 0.703948
0.880406 0.549051 0.714681
0.173282 0.567594 0.743894
0.205996 0.566125 0.741258
0.280511 0.563158 0.735323
0.391261 0.561373 0.728297
0.516758 0.562871 0.722166
0.634049 0.569805 0.718464
0.730543 0.583060 0.718180
0.806657 0.601503 0.721497
0.867095 0.624063 0.728703
0.238207 0.668165 0.754329
0.264936 0.667358 0.752990
0.327633 0.665648 0.749916
0.421248 0.663962 0.745611
0.533077 0.663470 0.741007
0.638710 0.666793 0.738532
0.726112 0.673786 0.737296
0.797728 0.683802 0.740086
0.857269 0.697333 0.746377
0.313575 0.745773 0.765699
0.334810 0.745296 0.764786
0.385654 0.744240 0.762630
0.466181 0.742875 0.759378
0.557317 0.742637 0.757489
0.650065 0.743921 0.756234
0.733233 0.747141 0.755956
0.796406 0.752548 0.757908
0.851486 0.760234 0.762074
0.394902 0.801516 0.772217
0.410851 0.801386 0.771901
0.449576 0.801118 0.771150
0.512838 0.800834 0.769980
0.588779 0.800962 0.769196
0.668045 0.801794 0.769350
0.737427 0.803679 0.770426
0.798979 0.805687 0.771366
0.846956 0.808951 0.773072
0.460226 0.840530 0.771846
0.474214 0.840360 0.771750
0.503634 0.840230 0.771723
0.550581 0.840190 0.771785
0.614455 0.840275 0.771925
0.677139 0.840877 0.772511
0.740096 0.842011 0.773482
0.792964 0.843384 0.774926
0.842751 0.845012 0.776553
0.134881 0.236569 0.774348
0.174814 0.236137 0.768361
0.273650 0.238821 0.756334
0.411051 0.250299 0.742711
0.554902 0.273324 0.732631
0.678601 0.306907 0.729156
0.772785 0.348956 0.731790
0.845077 0.398202 0.740252
0.903161 0.449861 0.750935
0.137073 0.277128 0.778811
0.174190 0.276537 0.773169
0.271976 0.278529 0.761762
0.406573 0.287188 0.748921
0.549668 0.305869 0.738606
0.673326 0.335035 0.734401
0.767604 0.373585 0.736326
0.841068 0.417557 0.743739
0.898577 0.467857 0.753582
0.144836 0.363647 0.786556
0.184659 0.362686 0.782039
0.272275 0.361863 0.772480
0.400567 0.366141 0.760818
0.539231 0.377923 0.751225
0.661586 0.398874 0.746216
0.756830 0.428742 0.746667
0.831672 0.465364 0.751755
0.888650 0.508471 0.759577
0.170064 0.476359 0.794863
0.201917 0.475054 0.791555
0.283332 0.473348 0.784591
0.400152 0.473531 0.775783
0.529430 0.479001 0.767841
0.647451 0.491648 0.762842
0.743266 0.511274 0.761705
0.817950 0.537508 0.763943
0.876536 0.569409 0.769091
0.213195 0.588121 0.803175
0.241564 0.586985 0.800825
0.309696 0.585222 0.796407
0.414509 0.583733 0.790690
0.531080 0.586044 0.784585
0.640772 0.592696 0.779926
0.732107 0.603581 0.777655
0.805330 0.619552 0.778310
0.864752 0.640077 0.781902
0.269034 0.680882 0.812712
0.293820 0.680269 0.811469
0.352022 0.679045 0.808548
0.438917 0.678163 0.803946
0.542478 0.678653 0.798917
0.647290 0.681330 0.794606
0.729264 0.686935 0.792773
0.798055 0.696259 0.793521
0.855935 0.708515 0.796526
0.334209 0.753906 0.819809
0.354953 0.753590 0.818888
0.404893 0.752911 0.816703
0.478728 0.752074 0.814085
0.568276 0.751297 0.811657
0.653257 0.752271 0.809052
0.732594 0.755075 0.807161
0.796050 0.759147 0.806794
0.848773 0.765263 0.808148
0.401054 0.802705 0.819883
0.416755 0.802569 0.819446
0.454991 0.802282 0.818391
0.517783 0.801948 0.816693
0.587599 0.802482 0.815568
0.666708 0.803307 0.814424
0.731710 0.804358 0.814184
0.792707 0.806138 0.814000
0.840853 0.808788 0.813373
0.458792 0.837334 0.815135
0.470295 0.837371 0.815031
0.498572 0.837477 0.814781
0.545786 0.837709 0.814384
0.610296 0.838149 0.813884
0.669324 0.838959 0.814364
0.734825 0.840176 0.815085
0.785903 0.841373 0.814995
0.835146 0.842581 0.814930
0.191186 0.309858 0.830892
0.228732 0.309918 0.826616
0.313396 0.312250 0.817678
0.434545 0.320226 0.806409
0.564144 0.337014 0.796723
0.678035 0.363191 0.791116
0.768119 0.397223 0.790431
0.839792 0.436130 0.793141
0.895256 0.483096 0.798750
0.194221 0.342265 0.833100
0.229695 0.341988 0.829100
0.311981 0.344112 0.820762
0.430901 0.350793 0.810046
0.559100 0.364908 0.800819
0.673243 0.387742 0.795082
0.763925 0.418550 0.793867
0.835735 0.455403 0.796031
0.891513 0.498757 0.800768
0.198142 0.413943 0.837761
0.232350 0.413583 0.834467
0.313339 0.413523 0.827114
0.427412 0.416722 0.818004
0.550773 0.426489 0.809541
0.663323 0.444073 0.803782
0.754764 0.468889 0.801790
0.827055 0.498987 0.802515
0.883617 0.535585 0.805753
0.221418 0.511534 0.843885
0.251915 0.510633 0.841325
0.322187 0.509418 0.835760
0.428391 0.509976 0.828302
0.545138 0.514420 0.821150
0.653350 0.525096 0.815832
0.743487 0.542013 0.812828
0.815254 0.564857 0.812315
0.872994 0.592243 0.814138
0.254622 0.610991 0.850293
0.281791 0.610366 0.848733
0.345602 0.609123 0.845146
0.438645 0.608298 0.839918
0.548005 0.609294 0.833908
0.649919 0.614037 0.828361
0.734950 0.624266 0.825150
0.805034 0.639157 0.824402
0.862752 0.657429 0.825948
0.303530 0.694809 0.858396
0.325664 0.694196 0.857180
0.378252 0.692956 0.854300
0.461754 0.691370 0.849829
0.555544 0.692030 0.844437
0.651222 0.694704 0.839648
0.733552 0.699937 0.837212
0.797939 0.707918 0.836222
0.853255 0.718106 0.836702
0.357309 0.757305 0.859212
0.376761 0.756928 0.858314
0.421575 0.756236 0.856289
0.488564 0.755747 0.853393
0.575729 0.755501 0.849780
0.654201 0.757119 0.847631
0.729278 0.759575 0.845645
0.793449 0.762883 0.844078
0.843374 0.767998 0.843503
0.409486 0.800926 0.855657
0.424673 0.800797 0.855174
0.461753 0.800499 0.854000
0.518597 0.800375 0.852397
0.585762 0.801019 0.850943
0.661886 0.801987 0.849360
0.725723 0.803163 0.848272
0.784821 0.805113 0.847199
0.834853 0.807769 0.846192
0.458493 0.834316 0.849160
0.469860 0.834391 0.849010
0.497849 0.834591 0.848645
0.544720 0.834968 0.848044
0.603671 0.835592 0.847541
0.663484 0.836564 0.847671
0.727406 0.837539 0.847607
0.778630 0.838471 0.847234
0.827497 0.839840 0.846830
