calib/fujify/repo_cubes_std/eterna_cinema_repo_std.cube
TITLE "Chromasmith repo-rebased - Eterna Cinema"
#repo V-Log look rebased to Camera Standard via Panasonic V-Log math (approx)
LUT_3D_SIZE 33
0.006516 0.006104 0.006119
0.022004 0.008416 0.008424
0.038967 0.010735 0.010821
0.062241 0.013511 0.013865
0.086270 0.014929 0.017256
0.115243 0.017239 0.020838
0.143609 0.021874 0.023613
0.173745 0.023345 0.027551
0.204237 0.024298 0.031852
0.236171 0.025949 0.036988
0.271818 0.033574 0.041192
0.306742 0.044395 0.044018
0.349937 0.055804 0.047723
0.387159 0.065090 0.050915
0.429938 0.079198 0.054658
0.468721 0.093206 0.058303
0.509109 0.108071 0.061734
0.547004 0.121250 0.064691
0.583773 0.134702 0.068238
0.618945 0.148466 0.071273
0.651962 0.161511 0.073719
0.683133 0.177158 0.075695
0.712569 0.191819 0.077647
0.740370 0.205121 0.079587
0.767223 0.220515 0.082634
0.793092 0.236664 0.085366
0.817505 0.251911 0.087062
0.838924 0.267421 0.087687
0.859466 0.283629 0.087721
0.879145 0.300047 0.087379
0.899105 0.315038 0.094936
0.906935 0.330258 0.100053
0.910580 0.346029 0.102203
0.013558 0.021274 0.007818
0.026506 0.022293 0.009375
0.040577 0.023160 0.010927
0.059541 0.023865 0.012970
0.083957 0.024226 0.016339
0.112558 0.025573 0.019886
0.139919 0.027578 0.023166
0.168217 0.026698 0.026994
0.198078 0.028529 0.030869
0.230417 0.035495 0.034691
0.266336 0.045331 0.038089
0.299889 0.054656 0.040622
0.340969 0.064196 0.044420
0.379518 0.075468 0.047848
0.422377 0.089153 0.051965
0.460782 0.101700 0.055953
0.501836 0.115260 0.059480
0.540428 0.127697 0.063013
0.577515 0.140488 0.066614
0.613039 0.153647 0.069655
0.646565 0.166816 0.072074
0.678072 0.181861 0.074207
0.707817 0.195883 0.076312
0.735899 0.208632 0.078385
0.763471 0.224618 0.082007
0.789504 0.240350 0.084735
0.814116 0.255264 0.086407
0.836073 0.270529 0.087076
0.856638 0.287122 0.086740
0.876702 0.303089 0.088247
0.896878 0.317843 0.095665
0.904894 0.332974 0.100486
0.909214 0.348879 0.102353
0.018329 0.036833 0.009094
0.028338 0.036436 0.009814
0.039065 0.035716 0.010423
0.056270 0.034987 0.012276
0.081894 0.034281 0.015751
0.109530 0.034988 0.019335
0.136774 0.037024 0.022569
0.164651 0.039207 0.025279
0.194969 0.044002 0.028430
0.225349 0.050132 0.031595
0.259823 0.058453 0.034624
0.293194 0.066597 0.037152
0.334248 0.076697 0.041187
0.372463 0.087262 0.044741
0.414701 0.099393 0.049231
0.452983 0.110546 0.053476
0.494694 0.123105 0.057179
0.533638 0.134470 0.061306
0.571006 0.146622 0.064902
0.607028 0.159645 0.067874
0.640870 0.172512 0.070316
0.672701 0.186913 0.072618
0.702745 0.200265 0.074879
0.731541 0.213183 0.077589
0.759428 0.229080 0.081383
0.785630 0.244377 0.084089
0.810453 0.258944 0.085719
0.832904 0.274242 0.086266
0.853551 0.290959 0.085652
0.874037 0.306444 0.089236
0.894443 0.320946 0.096486
0.902671 0.335989 0.100947
0.907715 0.352304 0.102702
0.020528 0.058175 0.010500
0.027008 0.057158 0.010484
0.035493 0.056219 0.010726
0.055240 0.055923 0.012668
0.081331 0.055506 0.014860
0.107097 0.056502 0.017841
0.133745 0.058239 0.020422
0.160664 0.061384 0.022233
0.190114 0.065566 0.024977
0.219351 0.069943 0.027700
0.253206 0.076575 0.030561
0.287215 0.083999 0.033238
0.326090 0.092830 0.037118
0.363846 0.102289 0.040894
0.405696 0.112254 0.045855
0.444152 0.122191 0.050176
0.486003 0.133207 0.054776
0.524888 0.143360 0.059113
0.562926 0.155468 0.062491
0.599374 0.168165 0.065458
0.633366 0.180148 0.067965
0.665583 0.193709 0.070495
0.696172 0.206730 0.072838
0.725941 0.219804 0.076892
0.753972 0.235174 0.080627
0.780396 0.249909 0.083273
0.805495 0.264026 0.084822
0.828319 0.280071 0.084742
0.849322 0.296262 0.084132
0.870386 0.311105 0.090661
0.891098 0.325269 0.097651
0.899610 0.340456 0.101574
0.905676 0.357082 0.103170
0.016981 0.086296 0.012137
0.023038 0.085009 0.011896
0.037067 0.084173 0.012533
0.056913 0.083012 0.013287
0.080470 0.082256 0.014699
0.105395 0.082270 0.016351
0.131431 0.083731 0.017831
0.157546 0.086111 0.019000
0.186040 0.088609 0.021569
0.214862 0.092102 0.023759
0.246853 0.097472 0.026090
0.280980 0.103502 0.029015
0.317887 0.110646 0.032965
0.355751 0.118549 0.037192
0.395957 0.127173 0.042032
0.434513 0.135799 0.047098
0.476445 0.145636 0.052213
0.515439 0.155477 0.056087
0.553804 0.167037 0.059494
0.590276 0.178619 0.062560
0.624375 0.189684 0.065103
0.657257 0.202899 0.067726
0.688723 0.215783 0.071062
0.719035 0.228136 0.076216
0.747215 0.242855 0.079835
0.773900 0.256936 0.082356
0.799473 0.271936 0.083004
0.822540 0.287505 0.082763
0.844175 0.302869 0.084697
0.865777 0.317110 0.092579
0.886858 0.330858 0.099187
0.895669 0.347086 0.102429
0.903133 0.363268 0.103739
0.021409 0.110593 0.015047
0.032163 0.109809 0.014895
0.044169 0.108909 0.014657
0.061192 0.108005 0.014512
0.082875 0.107766 0.014764
0.106637 0.107991 0.015117
0.131000 0.109058 0.015817
0.156593 0.110252 0.016795
0.182963 0.111779 0.018671
0.211829 0.114562 0.020610
0.241877 0.118193 0.022216
0.275689 0.123276 0.025216
0.310029 0.129408 0.028901
0.347570 0.136552 0.033190
0.386855 0.144065 0.039183
0.425970 0.152008 0.044396
0.467184 0.160913 0.049125
0.505490 0.169621 0.052745
0.543934 0.180243 0.056264
0.580436 0.191045 0.059139
0.614925 0.201901 0.061602
0.648336 0.214375 0.064596
0.680560 0.226297 0.070886
0.711061 0.238078 0.075710
0.739459 0.252474 0.078892
0.766575 0.267265 0.080429
0.792412 0.281516 0.080679
0.815730 0.296407 0.080339
0.838276 0.310694 0.087560
0.860328 0.324542 0.094974
0.881608 0.339377 0.100698
0.891054 0.355156 0.103431
0.900186 0.370810 0.104371
0.028690 0.136856 0.016726
0.035358 0.135911 0.015837
0.047415 0.135212 0.015468
0.065001 0.134448 0.015157
0.086220 0.133638 0.014734
0.108409 0.133242 0.014455
0.131972 0.132998 0.014018
0.156756 0.133650 0.015365
0.181651 0.135029 0.016634
0.210127 0.137521 0.017396
0.237774 0.140526 0.017519
0.271309 0.145668 0.020836
0.303896 0.150858 0.026207
0.341865 0.156707 0.032124
0.379070 0.162681 0.037247
0.418009 0.169605 0.041938
0.458131 0.177556 0.046121
0.495808 0.185816 0.048803
0.534329 0.195985 0.052057
0.570629 0.205666 0.054941
0.605288 0.215533 0.058216
0.639424 0.226978 0.065354
0.671826 0.238422 0.070974
0.702412 0.250806 0.074789
0.731122 0.265184 0.077072
0.758485 0.279092 0.078093
0.784517 0.292425 0.077895
0.808526 0.306205 0.082975
0.831723 0.320517 0.090851
0.854103 0.335123 0.097296
0.875637 0.349271 0.102416
0.885945 0.364548 0.104532
0.896976 0.379603 0.105008
0.035473 0.162450 0.016396
0.046402 0.161978 0.015727
0.057908 0.161537 0.014977
0.073026 0.161057 0.013911
0.091296 0.160340 0.013452
0.112027 0.159678 0.012964
0.134602 0.159449 0.012804
0.158398 0.159673 0.012866
0.183402 0.160535 0.013167
0.209496 0.162621 0.014998
0.236753 0.165245 0.017698
0.268648 0.168732 0.022791
0.299728 0.172606 0.027101
0.337117 0.177588 0.032064
0.372489 0.182755 0.035882
0.411556 0.189406 0.039551
0.450137 0.196511 0.042210
0.487124 0.204014 0.044009
0.525027 0.212736 0.047374
0.561200 0.220924 0.052939
0.596494 0.231254 0.060152
0.630637 0.242878 0.066075
0.662955 0.254011 0.070452
0.693506 0.265746 0.073316
0.722392 0.279181 0.074926
0.749888 0.292095 0.075355
0.776485 0.304582 0.079144
0.801187 0.318868 0.087144
0.824709 0.333125 0.094168
0.847330 0.346974 0.099920
0.869106 0.360359 0.104267
0.880560 0.375113 0.105662
0.893588 0.389634 0.105496
0.049517 0.189374 0.014332
0.057268 0.189122 0.013553
0.067254 0.188562 0.013614
0.081238 0.187767 0.013992
0.098603 0.186864 0.014533
0.118567 0.186022 0.015241
0.139935 0.185462 0.016038
0.162490 0.185088 0.016941
0.186337 0.186130 0.018102
0.210346 0.187475 0.019292
0.238315 0.189597 0.022467
0.267529 0.192172 0.026114
0.298944 0.195341 0.029482
0.333832 0.199419 0.032531
0.366997 0.203707 0.034381
0.405857 0.209737 0.036620
0.442811 0.216556 0.037437
0.479721 0.224246 0.040501
0.517570 0.232501 0.049133
0.553490 0.240712 0.056156
0.588390 0.250270 0.061941
0.622120 0.260541 0.066530
0.654194 0.270583 0.069678
0.684643 0.281797 0.071549
0.713796 0.295104 0.072115
0.741938 0.307719 0.076898
0.768938 0.319672 0.084244
0.793642 0.333416 0.091676
0.817360 0.346864 0.097896
0.840188 0.359892 0.102757
0.861608 0.372576 0.106067
0.874642 0.388038 0.105818
0.888697 0.402970 0.109996
0.059386 0.216118 0.020612
0.068836 0.215383 0.020981
0.079036 0.214606 0.021408
0.092845 0.213583 0.022039
0.109051 0.212594 0.022539
0.126987 0.211773 0.022787
0.146980 0.211007 0.023060
0.168269 0.210937 0.023565
0.190180 0.211389 0.024240
0.213313 0.212560 0.025360
0.240663 0.214450 0.027651
0.267603 0.216455 0.028867
0.299664 0.219850 0.029947
0.332065 0.223788 0.030410
0.365416 0.228426 0.030599
0.402442 0.234183 0.034706
0.437933 0.239837 0.040411
0.474844 0.246459 0.047511
0.511486 0.253597 0.054127
0.546330 0.260733 0.059281
0.580853 0.269707 0.063526
0.614451 0.279948 0.066312
0.646524 0.290055 0.067945
0.677008 0.301564 0.068983
0.706446 0.313342 0.076250
0.734536 0.324716 0.083318
0.761211 0.335971 0.090231
0.785998 0.348939 0.096739
0.809876 0.361653 0.101863
0.832901 0.375303 0.104716
0.853543 0.388900 0.105504
0.868274 0.403398 0.109523
0.883761 0.417165 0.116631
0.076003 0.244636 0.031365
0.084050 0.243997 0.031636
0.092548 0.243511 0.031634
0.104070 0.242956 0.031531
0.118589 0.242322 0.031419
0.135749 0.241672 0.031314
0.154470 0.241304 0.031096
0.174259 0.241195 0.030690
0.195108 0.241190 0.030123
0.219369 0.241688 0.029278
0.244476 0.242379 0.027789
0.271043 0.243632 0.026877
0.301826 0.246408 0.029925
0.331807 0.249307 0.033287
0.365660 0.253320 0.038101
0.400681 0.257885 0.043454
0.434650 0.263099 0.048480
0.471537 0.269932 0.053893
0.507032 0.276910 0.057898
0.540994 0.284018 0.060328
0.575377 0.293199 0.062881
0.608315 0.302220 0.064505
0.640200 0.310842 0.070522
0.670610 0.321340 0.077409
0.699625 0.332028 0.084068
0.727317 0.342431 0.090580
0.753900 0.354435 0.096501
0.778885 0.367782 0.101060
0.802762 0.380775 0.103859
0.825553 0.393442 0.104768
0.845803 0.406119 0.109744
0.862132 0.419384 0.116650
0.878864 0.432027 0.124767
0.091160 0.274515 0.037406
0.098375 0.274071 0.037274
0.106257 0.273634 0.037111
0.117122 0.273116 0.037014
0.130962 0.272484 0.037028
0.146328 0.271847 0.036363
0.163565 0.271241 0.035687
0.182356 0.270719 0.035173
0.203392 0.270572 0.034743
0.225949 0.270757 0.034655
0.248877 0.271133 0.035132
0.276424 0.272926 0.037275
0.304841 0.275129 0.039819
0.333462 0.277574 0.042668
0.367745 0.281529 0.047335
0.401151 0.285519 0.051743
0.434749 0.290043 0.055653
0.470071 0.295947 0.058225
0.504041 0.301992 0.059313
0.537299 0.308695 0.059874
0.571121 0.316452 0.066517
0.603711 0.324037 0.073444
0.635218 0.332574 0.079926
0.665148 0.343670 0.085659
0.693878 0.354474 0.091432
0.721445 0.364986 0.097046
0.747563 0.376228 0.101667
0.772168 0.388482 0.104124
0.795806 0.400426 0.106204
0.818616 0.411949 0.111100
0.838602 0.423754 0.117546
0.856218 0.435977 0.125488
0.873400 0.448436 0.133768
0.110112 0.307847 0.043390
0.117095 0.307291 0.043542
0.124439 0.306732 0.043630
0.133459 0.306127 0.043446
0.144956 0.305387 0.043273
0.158711 0.304550 0.043164
0.174420 0.303661 0.043177
0.192453 0.302981 0.043506
0.212270 0.302541 0.044173
0.233007 0.302246 0.045117
0.256528 0.302545 0.046522
0.282795 0.303432 0.048379
0.309040 0.304416 0.050501
0.338955 0.306483 0.053596
0.371151 0.309330 0.056965
0.402646 0.312234 0.059897
0.436012 0.317098 0.060723
0.469916 0.322979 0.062585
0.502958 0.328882 0.065486
0.536238 0.335808 0.070498
0.569175 0.343399 0.076435
0.600929 0.350932 0.082309
0.631466 0.359060 0.088047
0.660757 0.368799 0.093529
0.688944 0.378321 0.098706
0.716054 0.387626 0.103413
0.741564 0.398235 0.106035
0.766020 0.409393 0.109541
0.789487 0.420539 0.113979
0.811964 0.431924 0.119428
0.831569 0.443662 0.126600
0.849568 0.455411 0.134625
0.867236 0.466693 0.142944
0.129136 0.339574 0.053617
0.134494 0.339149 0.053629
0.140403 0.338691 0.053658
0.148608 0.338070 0.053727
0.159169 0.337299 0.053866
0.171957 0.336412 0.054112
0.187154 0.335919 0.054436
0.204053 0.335505 0.054843
0.222294 0.335189 0.055338
0.242545 0.335123 0.056052
0.266169 0.335503 0.057246
0.290248 0.336043 0.058572
0.315485 0.336981 0.060067
0.345870 0.339241 0.061802
0.375964 0.341610 0.063953
0.406042 0.344291 0.066490
0.439417 0.348905 0.069181
0.472130 0.353584 0.072660
0.504094 0.358311 0.076919
0.536640 0.364669 0.082099
0.568272 0.371104 0.087278
0.598867 0.377485 0.092387
0.628448 0.385082 0.097369
0.657031 0.393590 0.101955
0.684709 0.402465 0.105601
0.711679 0.411653 0.109395
0.736732 0.422575 0.112567
0.760636 0.433410 0.116871
0.783569 0.443836 0.122418
0.805567 0.453840 0.129065
0.824866 0.464514 0.136803
0.843313 0.475066 0.144821
0.861394 0.485268 0.152874
0.146732 0.375829 0.061889
0.151949 0.375344 0.062001
0.157718 0.374816 0.062135
0.165702 0.374126 0.062314
0.175468 0.373546 0.062325
0.187306 0.372866 0.062406
0.201021 0.372110 0.062596
0.216365 0.371306 0.062941
0.233840 0.370610 0.063582
0.254550 0.370311 0.064695
0.276165 0.370123 0.066065
0.298397 0.370067 0.067717
0.325485 0.370950 0.069516
0.353642 0.372122 0.071660
0.381715 0.373413 0.074215
0.412229 0.376041 0.077422
0.444126 0.379573 0.081338
0.475490 0.383182 0.085849
0.506660 0.387939 0.090219
0.537948 0.394083 0.094014
0.568434 0.400212 0.097795
0.598060 0.406319 0.101459
0.626947 0.414330 0.104374
0.655001 0.422518 0.107660
0.682186 0.430563 0.111523
0.708350 0.438716 0.115922
0.732472 0.448461 0.120690
0.755693 0.457861 0.126452
0.778040 0.466903 0.133101
0.799517 0.475595 0.140520
0.818724 0.485344 0.148232
0.837530 0.494819 0.155890
0.855880 0.504278 0.161793
0.166644 0.410842 0.070757
0.171017 0.410458 0.070874
0.175864 0.410038 0.071015
0.182638 0.409462 0.071231
0.191425 0.408733 0.071548
0.202162 0.407871 0.071991
0.214716 0.406906 0.072591
0.230025 0.406168 0.073387
0.247704 0.405683 0.074378
0.266650 0.405271 0.075569
0.286589 0.404965 0.076980
0.310170 0.405249 0.078656
0.336073 0.405967 0.080712
0.362298 0.406847 0.083194
0.389384 0.408202 0.086134
0.419989 0.411194 0.089414
0.450367 0.414320 0.092946
0.480398 0.417572 0.096695
0.510737 0.422071 0.099804
0.540693 0.426971 0.102371
0.570047 0.431891 0.105481
0.598751 0.437249 0.108963
0.626701 0.444234 0.112279
0.653884 0.451158 0.116172
0.680287 0.458022 0.120665
0.705320 0.465516 0.125850
0.728658 0.473841 0.131851
0.751193 0.481869 0.138536
0.773062 0.489960 0.145531
0.793987 0.498246 0.152679
0.813392 0.507448 0.157966
0.832222 0.516354 0.162871
0.850505 0.524957 0.168141
0.183348 0.448886 0.080352
0.187474 0.448427 0.080585
0.192059 0.447922 0.080853
0.198485 0.447223 0.081244
0.206853 0.446327 0.081781
0.217486 0.445446 0.082417
0.230506 0.444750 0.083120
0.245248 0.444018 0.083997
0.261492 0.443285 0.085070
0.278999 0.442585 0.086362
0.299798 0.442238 0.088202
0.323169 0.442191 0.090618
0.347220 0.442246 0.093437
0.371702 0.442437 0.096474
0.399796 0.444135 0.098464
0.428676 0.446205 0.100526
0.457468 0.448356 0.102864
0.486271 0.450936 0.105470
0.515448 0.454650 0.108366
0.544220 0.458411 0.111759
0.572524 0.462204 0.115669
0.600184 0.467220 0.119464
0.627145 0.473348 0.123118
0.653445 0.479637 0.127297
0.679065 0.485848 0.132210
0.702929 0.492996 0.137928
0.725674 0.500375 0.144166
0.747759 0.507527 0.150786
0.769157 0.514520 0.155874
0.789458 0.522040 0.160780
0.808687 0.530091 0.165492
0.827383 0.537906 0.170612
0.845560 0.545492 0.176176
0.202576 0.483952 0.092501
0.206507 0.483531 0.092731
0.210958 0.483202 0.092939
0.217204 0.482750 0.093238
0.225349 0.482176 0.093642
0.235363 0.481493 0.094158
0.247150 0.480725 0.094796
0.260564 0.479898 0.095564
0.275425 0.479044 0.096467
0.293992 0.478384 0.098106
0.314546 0.477814 0.100148
0.336077 0.477332 0.102340
0.358356 0.477063 0.104473
0.383425 0.477688 0.106151
0.410456 0.478973 0.107708
0.437657 0.480373 0.109616
0.464860 0.481889 0.111891
0.492801 0.484611 0.114637
0.520779 0.487698 0.117839
0.548493 0.490873 0.121498
0.575860 0.494157 0.125620
0.602340 0.499239 0.129636
0.628303 0.504283 0.134247
0.653722 0.509261 0.139436
0.678518 0.514206 0.145178
0.701174 0.520495 0.149771
0.723262 0.526650 0.154439
0.744793 0.532649 0.159457
0.765763 0.538486 0.164798
0.785503 0.545306 0.169596
0.804523 0.552310 0.174563
0.823042 0.559144 0.180006
0.841072 0.565814 0.185955
0.222318 0.520248 0.101790
0.225951 0.519945 0.101962
0.230002 0.519610 0.102158
0.235700 0.519146 0.102441
0.243159 0.518552 0.102827
0.252370 0.517840 0.103328
0.263269 0.517029 0.103955
0.276407 0.516200 0.104805
0.292651 0.515468 0.106004
0.310342 0.514728 0.107373
0.329263 0.514007 0.108915
0.349199 0.513328 0.110638
0.371506 0.513199 0.112397
0.396223 0.513717 0.114234
0.421397 0.514349 0.116349
0.446839 0.515107 0.118752
0.472969 0.516476 0.121632
0.499896 0.518596 0.125132
0.526740 0.520812 0.129056
0.553402 0.523119 0.133422
0.579502 0.526205 0.138053
0.604939 0.530045 0.142315
0.629946 0.533862 0.146259
0.654491 0.537607 0.150499
0.677910 0.541909 0.154953
0.699925 0.547029 0.159589
0.721443 0.552041 0.164508
0.742451 0.556935 0.169689
0.762965 0.561926 0.174741
0.782306 0.568363 0.179088
0.801147 0.574664 0.184061
0.819506 0.580818 0.189664
0.837407 0.586815 0.195898
0.242028 0.554914 0.113161
0.245378 0.554604 0.113393
0.249120 0.554262 0.113656
0.254394 0.553785 0.114036
0.261315 0.553172 0.114550
0.270614 0.552484 0.115197
0.282187 0.551728 0.115988
0.295475 0.550888 0.116945
0.310335 0.549983 0.118081
0.326600 0.549036 0.119411
0.344088 0.548070 0.120948
0.364034 0.547584 0.122619
0.386184 0.547599 0.124431
0.409054 0.547712 0.126473
0.432447 0.547939 0.128748
0.456399 0.548403 0.131380
0.481970 0.549683 0.134655
0.507656 0.551072 0.137968
0.533316 0.552570 0.141477
0.558838 0.554190 0.145181
0.583552 0.556842 0.148943
0.608019 0.559507 0.152756
0.632167 0.562216 0.156805
0.655958 0.564964 0.161101
0.678094 0.568982 0.165254
0.699569 0.573243 0.169528
0.720640 0.577462 0.174037
0.741292 0.581634 0.178817
0.761175 0.586306 0.183810
0.780097 0.591760 0.189144
0.798599 0.597097 0.195056
0.816697 0.602305 0.201550
0.834237 0.607443 0.206852
0.262564 0.587454 0.127642
0.265998 0.587155 0.127860
0.269835 0.586824 0.128109
0.275249 0.586359 0.128449
0.282361 0.585756 0.128861
0.291188 0.585026 0.129385
0.301692 0.584182 0.130029
0.313795 0.583246 0.130799
0.327382 0.582242 0.131700
0.342313 0.581199 0.132739
0.360241 0.580709 0.133809
0.379753 0.580370 0.135040
0.400260 0.580065 0.136478
0.421583 0.579807 0.138140
0.443552 0.579607 0.140039
0.467343 0.580138 0.142792
0.491554 0.580808 0.145775
0.515966 0.581577 0.148950
0.540461 0.582446 0.152317
0.564542 0.583899 0.155886
0.588255 0.585753 0.159696
0.611804 0.587671 0.163765
0.635136 0.589646 0.168103
0.657806 0.592037 0.172500
0.679061 0.595436 0.176583
0.699976 0.598824 0.180983
0.720528 0.602195 0.185732
0.740694 0.605542 0.190863
0.759838 0.609815 0.196490
0.778332 0.614392 0.201453
0.796399 0.618895 0.206310
0.814050 0.623309 0.211271
0.831293 0.627631 0.216325
0.283399 0.617249 0.137678
0.286505 0.616988 0.137878
0.289979 0.616698 0.138103
0.294891 0.616293 0.138427
0.301358 0.615767 0.138860
0.309405 0.615125 0.139413
0.319011 0.614376 0.140092
0.330115 0.613536 0.140904
0.343488 0.612778 0.141902
0.359244 0.612156 0.143121
0.376328 0.611519 0.144528
0.394579 0.610884 0.146133
0.413830 0.610268 0.147945
0.433918 0.609687 0.149973
0.455773 0.609660 0.152510
0.478345 0.609777 0.155298
0.501327 0.609965 0.158296
0.524589 0.610228 0.161506
0.547851 0.610748 0.164968
0.570659 0.611905 0.168790
0.593464 0.613132 0.172888
0.616198 0.614428 0.177270
0.638806 0.615790 0.181947
0.660044 0.618097 0.186181
0.680642 0.620706 0.190546
0.700925 0.623327 0.194916
0.720870 0.625985 0.198980
0.740376 0.628817 0.203210
0.758789 0.632624 0.207719
0.776844 0.636378 0.212334
0.794530 0.640085 0.216824
0.811818 0.643756 0.221187
0.828312 0.647497 0.225442
0.303308 0.645671 0.150036
0.306133 0.645428 0.150244
0.309297 0.645157 0.150480
0.313774 0.644777 0.150818
0.319681 0.644280 0.151271
0.327047 0.643669 0.151848
0.336986 0.643086 0.152704
0.348654 0.642445 0.153748
0.361843 0.641745 0.154972
0.376445 0.641000 0.156384
0.392330 0.640227 0.157989
0.409358 0.639444 0.159794
0.427381 0.638670 0.161803
0.447352 0.638279 0.164207
0.468128 0.637939 0.166838
0.489509 0.637639 0.169691
0.511362 0.637385 0.172769
0.533563 0.637183 0.176077
0.555351 0.637735 0.179922
0.577272 0.638379 0.184062
0.599268 0.639085 0.188389
0.621231 0.639841 0.192592
0.642565 0.640935 0.196282
0.662623 0.642821 0.199399
0.682518 0.644771 0.202719
0.702218 0.646777 0.206244
0.721696 0.648837 0.209971
0.740373 0.651469 0.213848
0.758262 0.654547 0.217796
0.775811 0.657605 0.221835
0.793009 0.660635 0.225972
0.809851 0.663630 0.230212
0.825424 0.666917 0.234218
0.322767 0.672071 0.164034
0.325702 0.671866 0.164292
0.328993 0.671636 0.164584
0.333656 0.671314 0.165002
0.339816 0.670893 0.165562
0.347512 0.670376 0.166275
0.356742 0.669767 0.167148
0.367471 0.669077 0.168191
0.379634 0.668317 0.169411
0.393140 0.667503 0.170813
0.407880 0.666650 0.172404
0.423997 0.665819 0.174242
0.441940 0.665107 0.176449
0.460823 0.664379 0.178770
0.480489 0.663674 0.181261
0.500804 0.663006 0.183918
0.521643 0.662388 0.186733
0.542312 0.662350 0.189839
0.563086 0.662530 0.193116
0.584032 0.662788 0.196517
0.605068 0.663127 0.200033
0.626123 0.663550 0.203661
0.645896 0.664785 0.206831
0.665428 0.666182 0.210107
0.684847 0.667635 0.213571
0.704119 0.669143 0.217220
0.723216 0.670701 0.221053
0.740818 0.673130 0.224708
0.758133 0.675557 0.228483
0.775153 0.677967 0.232385
0.791867 0.680353 0.236420
0.808265 0.682709 0.240594
0.823059 0.685628 0.244536
0.344406 0.695501 0.177775
0.347095 0.695308 0.178039
0.350113 0.695093 0.178336
0.354393 0.694789 0.178761
0.360056 0.694391 0.179328
0.367144 0.693898 0.180045
0.375665 0.693313 0.180921
0.385596 0.692642 0.181958
0.396888 0.691893 0.183160
0.409469 0.691079 0.184530
0.424038 0.690313 0.186234
0.439885 0.689534 0.188140
0.456772 0.688742 0.190221
0.474573 0.687949 0.192473
0.493162 0.687172 0.194888
0.512415 0.686424 0.197463
0.531698 0.686113 0.200197
0.551180 0.686026 0.203076
0.570983 0.686001 0.206093
0.591020 0.686042 0.209240
0.611211 0.686156 0.212514
0.630817 0.686684 0.215713
0.649849 0.687578 0.218898
0.668858 0.688525 0.222256
0.687800 0.689525 0.225787
0.706640 0.690574 0.229490
0.724614 0.692014 0.233121
0.741601 0.693835 0.236646
0.758354 0.695648 0.240322
0.774856 0.697445 0.244155
0.791092 0.699222 0.248149
0.806700 0.701153 0.251973
0.821140 0.703619 0.255621
0.365433 0.717706 0.193131
0.367917 0.717520 0.193382
0.370706 0.717313 0.193665
0.374667 0.717019 0.194069
0.379914 0.716633 0.194609
0.386492 0.716153 0.195294
0.394418 0.715582 0.196129
0.403709 0.714930 0.197127
0.414877 0.714284 0.198415
0.427344 0.713581 0.199879
0.441028 0.712834 0.201514
0.455830 0.712054 0.203321
0.471646 0.711256 0.205293
0.488360 0.710452 0.207428
0.505859 0.709658 0.209720
0.523558 0.709223 0.212104
0.541663 0.708934 0.214616
0.560229 0.708689 0.217273
0.579163 0.708495 0.220070
0.598384 0.708359 0.223004
0.617535 0.708396 0.226030
0.635931 0.708840 0.229077
0.654399 0.709331 0.232289
0.672889 0.709870 0.235665
0.691355 0.710453 0.239201
0.709742 0.711088 0.242890
0.726308 0.712332 0.246193
0.742614 0.713463 0.249313
0.758746 0.714600 0.252442
0.774712 0.715771 0.255654
0.790494 0.716979 0.258946
0.805315 0.718698 0.262209
0.819576 0.720652 0.265545
0.386221 0.738763 0.209742
0.388535 0.738585 0.209978
0.391135 0.738386 0.210244
0.394829 0.738105 0.210624
0.399923 0.737777 0.211184
0.406340 0.737376 0.211899
0.414078 0.736900 0.212771
0.423128 0.736352 0.213802
0.433457 0.735741 0.214995
0.445013 0.735074 0.216350
0.457725 0.734362 0.217867
0.471488 0.733585 0.219483
0.486207 0.732747 0.221173
0.501810 0.731894 0.223002
0.517768 0.731349 0.224882
0.534400 0.730821 0.226910
0.551622 0.730311 0.229087
0.569342 0.729826 0.231417
0.587478 0.729373 0.233898
0.605919 0.728968 0.236531
0.623449 0.728950 0.239214
0.641118 0.728965 0.242002
0.658873 0.729018 0.244904
0.676665 0.729118 0.247941
0.694451 0.729265 0.251109
