calib/fujify/repo_cubes_std/eterna_bleach_bypass_repo_std.cube
TITLE "Chromasmith repo-rebased - Eterna Bleach Bypass"
#repo V-Log look rebased to Camera Standard via Panasonic V-Log math (approx)
LUT_3D_SIZE 33
0.000290 0.000198 0.000107
0.008297 0.002191 0.001668
0.017068 0.004281 0.003340
0.029108 0.006973 0.005562
0.042383 0.009542 0.009255
0.058351 0.013102 0.013194
0.073616 0.017923 0.016283
0.090793 0.020903 0.021008
0.109174 0.023518 0.026183
0.129393 0.026833 0.031989
0.156427 0.033840 0.039216
0.183852 0.042263 0.045889
0.222307 0.049266 0.053194
0.255362 0.055244 0.059300
0.292794 0.063179 0.066197
0.327485 0.070692 0.072049
0.359965 0.078282 0.078915
0.390490 0.085059 0.084626
0.419613 0.094364 0.094261
0.447326 0.104675 0.105092
0.474049 0.113576 0.114025
0.498403 0.129351 0.128033
0.522403 0.144812 0.141784
0.546373 0.159161 0.154154
0.566009 0.178652 0.170270
0.585553 0.199854 0.188074
0.605550 0.220640 0.205327
0.625669 0.243339 0.223073
0.645893 0.268804 0.241581
0.667194 0.295202 0.260032
0.688343 0.320268 0.277685
0.707466 0.346019 0.295127
0.726781 0.372943 0.313240
0.005516 0.009838 0.003793
0.012252 0.011100 0.004980
0.019586 0.012363 0.006227
0.029599 0.013924 0.008028
0.042929 0.015981 0.011017
0.058186 0.018810 0.014017
0.072259 0.021696 0.016583
0.088137 0.022825 0.020833
0.105922 0.025766 0.025764
0.126565 0.032408 0.031612
0.153971 0.040482 0.038559
0.179702 0.047388 0.044263
0.216096 0.053512 0.051223
0.249944 0.060725 0.057619
0.287704 0.068276 0.064412
0.322266 0.074856 0.069958
0.355115 0.081877 0.076858
0.386267 0.088612 0.083480
0.415816 0.097516 0.093311
0.443992 0.107203 0.103971
0.471288 0.116949 0.113450
0.496098 0.132495 0.127773
0.520574 0.147564 0.141564
0.544942 0.161636 0.153908
0.565054 0.182031 0.171456
0.584968 0.203107 0.189293
0.605279 0.223776 0.206587
0.625610 0.246458 0.224389
0.646622 0.272808 0.243163
0.667996 0.298820 0.261521
0.689235 0.323665 0.279082
0.708561 0.349422 0.296608
0.728180 0.376564 0.314900
0.009872 0.019835 0.007652
0.015171 0.020270 0.008407
0.020878 0.020597 0.009162
0.030095 0.021459 0.010630
0.043731 0.022988 0.012796
0.057902 0.025086 0.015286
0.071894 0.027841 0.018173
0.087481 0.030442 0.022202
0.105770 0.035205 0.026968
0.125002 0.041228 0.031821
0.150820 0.047782 0.037801
0.175976 0.053516 0.043179
0.211933 0.060258 0.050363
0.245132 0.066963 0.056131
0.282622 0.073492 0.062589
0.317040 0.079344 0.068111
0.350237 0.086104 0.075296
0.382001 0.092361 0.082540
0.411943 0.100842 0.092505
0.440702 0.110683 0.103394
0.468442 0.120630 0.113081
0.493724 0.135926 0.127714
0.518689 0.150596 0.141503
0.543625 0.165033 0.154730
0.564074 0.185763 0.172829
0.584382 0.206705 0.190698
0.605028 0.227249 0.208032
0.625845 0.250393 0.226012
0.647458 0.277216 0.244967
0.668904 0.302822 0.263191
0.690246 0.327431 0.280651
0.709803 0.353207 0.298276
0.729747 0.380863 0.316856
0.014306 0.033468 0.012942
0.017969 0.033314 0.013007
0.022681 0.033353 0.013277
0.033095 0.034674 0.015133
0.046764 0.036423 0.017603
0.059434 0.038717 0.019578
0.073044 0.041233 0.021936
0.087540 0.043959 0.024753
0.105354 0.048394 0.028773
0.123687 0.052959 0.033164
0.147971 0.057871 0.038597
0.173557 0.063014 0.043643
0.206944 0.068985 0.049381
0.239446 0.074881 0.054426
0.276765 0.080351 0.061148
0.310751 0.085691 0.066743
0.344518 0.091683 0.074316
0.376662 0.097291 0.081696
0.407294 0.106206 0.092472
0.436695 0.116224 0.103469
0.464810 0.125635 0.113002
0.490709 0.140638 0.128019
0.516417 0.155334 0.142121
0.542041 0.170113 0.156540
0.562840 0.190958 0.174849
0.583670 0.211722 0.192754
0.604762 0.232100 0.210139
0.626875 0.256992 0.228666
0.648674 0.283326 0.247573
0.670210 0.308403 0.265556
0.691698 0.332699 0.282882
0.711690 0.358847 0.300805
0.731953 0.386868 0.319613
0.017431 0.050600 0.018752
0.020827 0.050194 0.018625
0.028096 0.050803 0.020082
0.038437 0.051682 0.022143
0.050180 0.052912 0.023963
0.062130 0.054511 0.025454
0.075175 0.056495 0.027342
0.088301 0.059043 0.029133
0.105461 0.062266 0.032708
0.123531 0.065659 0.036227
0.145430 0.069490 0.040165
0.171379 0.073825 0.044513
0.202336 0.078941 0.049419
0.234751 0.083920 0.054642
0.270468 0.088538 0.060246
0.304134 0.093206 0.066195
0.338606 0.098894 0.074619
0.371201 0.104922 0.082821
0.402345 0.113839 0.093737
0.432170 0.123115 0.104216
0.460593 0.132271 0.114020
0.487514 0.147540 0.129652
0.514105 0.162358 0.144410
0.540187 0.176717 0.159104
0.561466 0.197675 0.177642
0.582927 0.218223 0.195583
0.605704 0.240706 0.213584
0.628323 0.265450 0.232299
0.650282 0.291076 0.250981
0.671970 0.315629 0.268682
0.693652 0.339543 0.285845
0.714540 0.367284 0.304651
0.734842 0.394653 0.323233
0.023610 0.065228 0.025758
0.029603 0.065665 0.026918
0.036345 0.066147 0.028197
0.045304 0.066906 0.029718
0.055544 0.068128 0.031182
0.066787 0.069666 0.032609
0.078221 0.071528 0.033399
0.091327 0.073492 0.034926
0.106446 0.075728 0.037222
0.124471 0.078391 0.039881
0.144236 0.081321 0.042570
0.170198 0.085171 0.046235
0.198061 0.089604 0.050347
0.230196 0.093888 0.055054
0.265235 0.098275 0.061579
0.299098 0.103132 0.068864
0.333403 0.108605 0.077281
0.365887 0.114111 0.085398
0.397408 0.122640 0.096060
0.427719 0.131833 0.106498
0.456740 0.141956 0.117608
0.484559 0.156618 0.132909
0.511766 0.170765 0.147943
0.538032 0.185173 0.162785
0.560338 0.206785 0.181506
0.583490 0.229332 0.200016
0.607251 0.251272 0.218197
0.630262 0.275638 0.237023
0.652310 0.300404 0.255146
0.674313 0.324681 0.272698
0.697207 0.350446 0.290802
0.718073 0.377579 0.309428
0.738416 0.404158 0.327724
0.033571 0.081674 0.034625
0.038381 0.081851 0.035308
0.044346 0.082194 0.036094
0.052512 0.082732 0.037165
0.062388 0.083444 0.038476
0.072156 0.084235 0.039341
0.082365 0.085111 0.040274
0.095234 0.086823 0.041378
0.108484 0.089028 0.042449
0.126382 0.091522 0.043991
0.143889 0.094299 0.045033
0.170107 0.098167 0.048565
0.195757 0.102045 0.053259
0.228728 0.105777 0.059353
0.261595 0.109679 0.065690
0.294880 0.114180 0.073056
0.328924 0.119502 0.081361
0.361528 0.125480 0.089617
0.393418 0.134461 0.100372
0.423984 0.143130 0.110789
0.453423 0.153056 0.122426
0.481842 0.166938 0.137692
0.509691 0.181051 0.152479
0.536439 0.197895 0.168081
0.560335 0.220312 0.187095
0.584697 0.242148 0.205711
0.609455 0.263406 0.224091
0.632562 0.287178 0.242449
0.655212 0.312533 0.260630
0.678290 0.338260 0.278865
0.701487 0.363183 0.296734
0.722277 0.389599 0.315121
0.742658 0.415258 0.333067
0.043707 0.098100 0.043642
0.049115 0.098493 0.044194
0.054852 0.098947 0.044777
0.062466 0.099612 0.045547
0.070063 0.099799 0.045980
0.078554 0.100013 0.046430
0.088673 0.100820 0.046984
0.100292 0.102355 0.047659
0.113571 0.104225 0.048307
0.129495 0.106677 0.049138
0.147324 0.109322 0.050782
0.171616 0.112013 0.054863
0.195569 0.115257 0.059229
0.228379 0.119319 0.065567
0.259357 0.123642 0.071803
0.292876 0.128576 0.079373
0.326230 0.133657 0.087107
0.358299 0.139378 0.095171
0.390166 0.147402 0.105652
0.420923 0.155160 0.116149
0.450867 0.166719 0.128989
0.480073 0.181703 0.144201
0.508650 0.196561 0.158991
0.535851 0.213603 0.174995
0.561160 0.235246 0.194036
0.586709 0.256336 0.212797
0.612390 0.277631 0.231156
0.636086 0.303256 0.249719
0.659498 0.328782 0.268053
0.682971 0.353547 0.286022
0.706482 0.377557 0.303609
0.727130 0.403162 0.321695
0.747548 0.427938 0.339258
0.057339 0.116593 0.052945
0.061994 0.117020 0.053290
0.066251 0.117024 0.053512
0.071773 0.116940 0.053805
0.078632 0.116913 0.054248
0.086920 0.117297 0.054916
0.096698 0.118515 0.055893
0.106962 0.119900 0.057135
0.120437 0.121806 0.057925
0.134137 0.123862 0.058972
0.153345 0.126247 0.061450
0.174608 0.128921 0.064296
0.199347 0.132022 0.068119
0.229569 0.135718 0.073780
0.258240 0.139661 0.079399
0.291904 0.143947 0.086544
0.324500 0.149061 0.093643
0.356693 0.155832 0.102444
0.388796 0.164264 0.113543
0.419657 0.172682 0.124280
0.449789 0.184596 0.137490
0.479487 0.198876 0.152273
0.508637 0.213080 0.166752
0.536424 0.230468 0.183333
0.563562 0.253292 0.203257
0.590289 0.275579 0.222150
0.616630 0.297063 0.240073
0.640610 0.322100 0.258444
0.664499 0.346565 0.276479
0.688363 0.370318 0.294131
0.711992 0.393513 0.311443
0.732894 0.419723 0.329535
0.753219 0.445030 0.347177
0.070447 0.137412 0.063468
0.074050 0.137265 0.063793
0.077942 0.137122 0.064167
0.083217 0.136957 0.064714
0.089735 0.137065 0.065410
0.097244 0.137494 0.066250
0.105537 0.138014 0.067288
0.115915 0.138917 0.068438
0.127593 0.140145 0.069875
0.140923 0.142102 0.071616
0.159926 0.144827 0.073123
0.178356 0.147741 0.074768
0.204879 0.151366 0.079034
0.232597 0.155328 0.083664
0.261345 0.159542 0.088741
0.294104 0.164108 0.095802
0.325611 0.168833 0.103163
0.357513 0.175479 0.112762
0.389072 0.183057 0.123222
0.419500 0.190666 0.133516
0.450117 0.203421 0.147317
0.481117 0.219349 0.162587
0.511503 0.235160 0.177937
0.540260 0.254952 0.196110
0.567720 0.276511 0.214656
0.594850 0.297443 0.232599
0.621459 0.318224 0.250123
0.645898 0.342266 0.268185
0.670304 0.365817 0.285910
0.695180 0.390421 0.303762
0.719106 0.414609 0.321310
0.739609 0.439532 0.338921
0.759385 0.463342 0.355902
0.085348 0.162478 0.076963
0.088672 0.162329 0.077351
0.091994 0.162283 0.077718
0.096411 0.162273 0.078221
0.101964 0.162286 0.078906
0.108502 0.162340 0.079791
0.116946 0.162706 0.080918
0.126925 0.163349 0.082287
0.137387 0.164067 0.083873
0.152339 0.165758 0.085184
0.168256 0.167826 0.086524
0.186544 0.170227 0.088344
0.212178 0.173304 0.091175
0.237119 0.176512 0.093870
0.266603 0.180230 0.099431
0.297815 0.184409 0.106639
0.328596 0.190232 0.114450
0.361009 0.198699 0.124947
0.392580 0.207408 0.135417
0.423244 0.216372 0.145809
0.454959 0.231295 0.161025
0.485985 0.246114 0.176349
0.516132 0.260741 0.191173
0.544711 0.280333 0.208804
0.572693 0.300593 0.226642
0.600320 0.320314 0.244003
0.627905 0.342388 0.261679
0.653506 0.366974 0.279861
0.678740 0.390839 0.297673
0.703609 0.413995 0.315065
0.726903 0.437053 0.332267
0.746796 0.460379 0.349117
0.765972 0.482592 0.365313
0.100759 0.189021 0.092358
0.103299 0.188752 0.092683
0.106092 0.188541 0.093066
0.109965 0.188424 0.093549
0.114891 0.188306 0.094147
0.121797 0.188420 0.094754
0.129713 0.188669 0.095487
0.138329 0.189066 0.096375
0.149832 0.190433 0.097547
0.163393 0.192543 0.099155
0.177121 0.194826 0.101189
0.198623 0.197868 0.103602
0.221680 0.201263 0.106425
0.245042 0.204948 0.110007
0.275917 0.209703 0.116510
0.306153 0.214686 0.122832
0.336491 0.220532 0.130038
0.368100 0.228148 0.139832
0.398886 0.235889 0.149447
0.429518 0.245487 0.160543
0.460984 0.259384 0.175334
0.491610 0.273136 0.190021
0.521991 0.288486 0.205212
0.551584 0.309642 0.223339
0.580817 0.330142 0.240937
0.609722 0.350006 0.258073
0.637175 0.371183 0.275422
0.662785 0.394186 0.293149
0.688026 0.416609 0.310441
0.712849 0.438501 0.327378
0.735138 0.460362 0.343962
0.754378 0.482144 0.359990
0.773045 0.503672 0.375546
0.118319 0.225865 0.108521
0.120642 0.225535 0.108770
0.123254 0.225212 0.109012
0.127066 0.224890 0.109229
0.131927 0.224509 0.109536
0.137746 0.224098 0.109949
0.144394 0.223686 0.110487
0.153658 0.223974 0.111722
0.164949 0.224868 0.113607
0.176721 0.225931 0.115785
0.192490 0.227602 0.118381
0.212544 0.229959 0.121531
0.232452 0.232515 0.125175
0.257851 0.235997 0.129643
0.287033 0.240207 0.134339
0.315748 0.244618 0.138877
0.346235 0.251440 0.147065
0.377242 0.259691 0.156496
0.407645 0.268308 0.165881
0.438890 0.280427 0.178678
0.470444 0.294632 0.193521
0.501291 0.308627 0.207959
0.531521 0.323980 0.222950
0.561490 0.343109 0.240064
0.591094 0.361727 0.256828
0.620360 0.379844 0.273296
0.647394 0.400309 0.290343
0.673038 0.422017 0.307304
0.698160 0.443570 0.324132
0.722712 0.465201 0.340888
0.743741 0.486518 0.356881
0.762443 0.507161 0.372009
0.780627 0.526795 0.386373
0.136595 0.261297 0.125542
0.138752 0.260986 0.125681
0.141132 0.260656 0.125846
0.144440 0.260223 0.126096
0.148700 0.259707 0.126455
0.153864 0.259149 0.126949
0.162117 0.259518 0.128455
0.171437 0.260087 0.130263
0.181509 0.260821 0.132317
0.193905 0.262002 0.134902
0.211450 0.264106 0.138628
0.229371 0.266449 0.142812
0.248882 0.269245 0.147174
0.275975 0.273542 0.151409
0.302677 0.278151 0.156039
0.329317 0.283292 0.161385
0.359803 0.290694 0.169644
0.389900 0.298403 0.177907
0.419559 0.306397 0.186141
0.451007 0.318783 0.199620
0.481980 0.331304 0.213164
0.512303 0.343640 0.226402
0.542533 0.358819 0.241328
0.572785 0.376122 0.257625
0.602843 0.393788 0.273973
0.632683 0.412048 0.290057
0.659044 0.433409 0.306934
0.684313 0.454530 0.323597
0.708956 0.474837 0.339829
0.732994 0.494308 0.355598
0.752593 0.513676 0.370293
0.770781 0.532364 0.384153
0.788519 0.550250 0.397272
0.158092 0.303066 0.146093
0.159996 0.302765 0.146255
0.162101 0.302442 0.146441
0.165158 0.302041 0.146755
0.170353 0.301851 0.147588
0.176658 0.301655 0.148623
0.183973 0.301474 0.149856
0.192168 0.301336 0.151282
0.202475 0.301566 0.153302
0.217205 0.302747 0.156685
0.232557 0.304124 0.160380
0.248319 0.305703 0.164371
0.270743 0.308925 0.168740
0.294529 0.312729 0.173480
0.318133 0.316818 0.178579
0.345263 0.322516 0.184958
0.374746 0.329360 0.192054
0.404001 0.336450 0.199168
0.434018 0.345484 0.208628
0.465238 0.357391 0.221815
0.495872 0.369337 0.234585
0.525901 0.381311 0.246894
0.556648 0.397903 0.262432
0.587110 0.415078 0.278217
0.617052 0.432049 0.293677
0.646033 0.449191 0.308969
0.671285 0.468756 0.325003
0.695948 0.487607 0.340625
0.720037 0.505719 0.355803
0.743506 0.523082 0.370497
0.761643 0.540671 0.383730
0.779364 0.557591 0.396272
0.796783 0.573951 0.408528
0.180628 0.343437 0.166829
0.182901 0.343216 0.167173
0.185419 0.342981 0.167559
0.188934 0.342669 0.168107
0.193487 0.342297 0.168832
0.199040 0.341890 0.169742
0.205516 0.341485 0.170838
0.215004 0.341684 0.172982
0.227162 0.342460 0.176082
0.240201 0.343422 0.179482
0.253937 0.344591 0.183157
0.272427 0.347064 0.187486
0.293991 0.350460 0.192406
0.315890 0.354118 0.197689
0.339024 0.358438 0.203521
0.367283 0.365007 0.210651
0.395328 0.371885 0.218159
0.423026 0.379065 0.226051
0.452729 0.388948 0.236549
0.482785 0.399777 0.247438
0.512481 0.410738 0.258080
0.542100 0.422804 0.269457
0.572505 0.438618 0.284451
0.602408 0.454289 0.299216
0.631784 0.469796 0.313755
0.659151 0.486091 0.328443
0.683753 0.503371 0.343354
0.707822 0.520008 0.357848
0.731151 0.536201 0.371830
0.752643 0.552096 0.384982
0.770270 0.568234 0.397064
0.787654 0.583718 0.408780
0.804672 0.598554 0.419988
0.207994 0.386433 0.191059
0.209890 0.386188 0.191329
0.211995 0.385924 0.191632
0.214940 0.385565 0.192064
0.218768 0.385120 0.192637
0.224606 0.384901 0.193803
0.233216 0.385145 0.195885
0.242980 0.385492 0.198298
0.253758 0.385966 0.201029
0.265397 0.386590 0.204063
0.281192 0.388226 0.208059
0.300261 0.390704 0.212899
0.319915 0.393415 0.218089
0.339986 0.396376 0.223609
0.364822 0.401812 0.230446
0.390589 0.407979 0.237778
0.416193 0.414414 0.245369
0.442587 0.421820 0.253531
0.471949 0.431546 0.262702
0.501090 0.441435 0.271739
0.529947 0.451471 0.280609
0.559403 0.464143 0.292534
0.589155 0.478661 0.306775
0.618336 0.493127 0.320834
0.646818 0.507376 0.334464
0.672110 0.522640 0.348222
0.695763 0.537967 0.361766
0.718848 0.552775 0.374839
0.741657 0.567133 0.387797
0.761737 0.581518 0.399773
0.779103 0.595884 0.410750
0.796097 0.609711 0.421309
0.812708 0.623015 0.431463
0.233145 0.427092 0.214536
0.235086 0.426912 0.214905
0.237954 0.426913 0.215601
0.241981 0.426925 0.216583
0.247236 0.426959 0.217874
0.253702 0.427031 0.219477
0.261321 0.427158 0.221386
0.270000 0.427363 0.223590
0.279626 0.427668 0.226072
0.293897 0.428969 0.229902
0.310354 0.430751 0.234444
0.327655 0.432790 0.239332
0.345700 0.435210 0.244475
0.366940 0.439442 0.250565
0.390489 0.445035 0.257406
0.414277 0.450875 0.264470
0.438164 0.456947 0.271734
0.465747 0.465349 0.279726
0.494074 0.474468 0.288118
0.522145 0.483771 0.296776
0.549900 0.493296 0.305757
0.578706 0.506340 0.318634
0.606989 0.519253 0.331207
0.634710 0.532001 0.343438
0.661701 0.544611 0.355336
0.685146 0.558338 0.368000
0.708169 0.571710 0.380353
0.730748 0.584711 0.392339
0.752893 0.597326 0.403944
0.771236 0.610275 0.414367
0.788152 0.623021 0.424204
0.804687 0.635341 0.433716
0.820829 0.647249 0.442912
0.265011 0.469466 0.241892
0.267240 0.469455 0.242390
0.269725 0.469448 0.242947
0.273221 0.469447 0.243734
0.277796 0.469462 0.244769
0.283445 0.469507 0.246057
0.290128 0.469599 0.247594
0.298978 0.470046 0.249746
0.311789 0.471323 0.253099
0.325766 0.472810 0.256803
0.340745 0.474519 0.260831
0.356562 0.476459 0.265152
0.375056 0.479668 0.270408
0.396406 0.484305 0.276705
0.418226 0.489209 0.283278
0.440361 0.494367 0.290100
0.464480 0.500832 0.297551
0.491059 0.508941 0.305797
0.517573 0.517247 0.314300
0.543918 0.525727 0.323045
0.570725 0.535700 0.333066
0.597969 0.547041 0.344169
0.624860 0.558275 0.355086
0.651318 0.569386 0.365668
0.676080 0.580837 0.376436
0.698707 0.592737 0.387681
0.720978 0.604345 0.398629
0.742892 0.615643 0.409263
0.764057 0.626678 0.419300
0.780542 0.638297 0.427994
0.796629 0.649560 0.436455
0.812341 0.660455 0.444664
0.827704 0.670973 0.452603
0.295533 0.510546 0.268186
0.297459 0.510525 0.268559
0.299610 0.510505 0.268977
0.302642 0.510484 0.269569
0.306621 0.510471 0.270349
0.313149 0.510880 0.271883
0.322097 0.511700 0.274141
0.332382 0.512692 0.276764
0.343902 0.513866 0.279738
0.356530 0.515233 0.283044
0.370131 0.516804 0.286662
0.386536 0.519526 0.291365
0.405543 0.523371 0.297125
0.425229 0.527491 0.303208
0.445433 0.531877 0.309586
0.466520 0.536821 0.316377
0.491185 0.543932 0.324513
0.515976 0.551244 0.332946
0.540740 0.558739 0.341582
0.565391 0.566423 0.350405
0.591408 0.576208 0.359844
0.617083 0.585745 0.368712
0.642411 0.595266 0.377496
0.667341 0.604747 0.386179
0.689783 0.614938 0.395752
0.711468 0.625179 0.405287
0.732833 0.635290 0.414532
0.753857 0.645266 0.423467
0.772796 0.655320 0.431874
0.788675 0.665467 0.439707
0.804252 0.675305 0.447310
0.819546 0.684825 0.454665
0.834586 0.694050 0.462382
0.325117 0.549949 0.293023
0.327723 0.550160 0.293651
0.330637 0.550399 0.294356
0.334757 0.550748 0.295376
0.340185 0.551228 0.296774
0.346929 0.551841 0.298518
0.354964 0.552597 0.300605
0.364234 0.553506 0.303028
0.374657 0.554574 0.305770
0.386130 0.555809 0.308812
0.401152 0.558364 0.313335
0.417770 0.561427 0.318485
0.435245 0.564729 0.323952
0.453424 0.568254 0.329699
0.472162 0.571992 0.335689
0.494328 0.577762 0.342785
0.516983 0.583835 0.350107
0.539803 0.590068 0.357561
0.562673 0.596436 0.365116
0.586427 0.603993 0.372957
0.610695 0.612342 0.380954
0.634766 0.620718 0.388925
0.658576 0.629100 0.396849
0.681527 0.637694 0.404889
0.702708 0.646865 0.413270
0.723622 0.655972 0.421424
0.744240 0.665007 0.429333
0.764537 0.673966 0.436976
0.781314 0.682925 0.444191
0.796768 0.691708 0.451629
0.811948 0.700252 0.458985
0.826826 0.708550 0.466149
0.841388 0.716603 0.473115
0.359285 0.588147 0.319887
0.361614 0.588345 0.320454
0.364221 0.588570 0.321089
0.367906 0.588892 0.321990
0.372762 0.589324 0.323181
0.378807 0.589876 0.324668
0.386029 0.590555 0.326454
0.394385 0.591368 0.328532
0.404999 0.592795 0.331465
0.418100 0.594963 0.335396
0.432313 0.597367 0.339693
0.447507 0.600000 0.344324
0.463546 0.602853 0.349256
0.480294 0.605918 0.354456
0.499940 0.610557 0.360559
0.520427 0.615609 0.366976
0.541267 0.620839 0.373571
0.562339 0.626226 0.380311
0.583896 0.632138 0.387218
0.606623 0.639361 0.394351
0.629306 0.646650 0.401509
0.651869 0.653982 0.408670
0.674247 0.661337 0.415812
0.695182 0.669307 0.422978
0.715519 0.677467 0.430011
0.735645 0.685624 0.437090
0.755564 0.693760 0.444238
0.774712 0.701814 0.451136
0.789924 0.709535 0.457955
0.804863 0.717080 0.464632
0.819342 0.724247 0.471056
0.833361 0.731103 0.477254
0.846395 0.737795 0.483237
0.391250 0.624306 0.345613
0.393325 0.624481 0.346091
0.395650 0.624678 0.346627
0.398942 0.624961 0.347388
0.403284 0.625340 0.348396
0.408702 0.625824 0.349657
0.416725 0.626994 0.351944
0.426228 0.628448 0.354708
0.436976 0.630122 0.357851
0.448884 0.632016 0.361355
0.461848 0.634124 0.365196
0.475756 0.636444 0.369347
0.490489 0.638970 0.373780
0.508029 0.642845 0.379065
0.526323 0.646988 0.384625
0.545134 0.651319 0.390397
0.564341 0.655821 0.396352
0.583830 0.660473 0.402460
0.604858 0.666595 0.408747
0.626039 0.672860 0.415106
0.647247 0.679214 0.421626
0.668406 0.685663 0.428532
0.688902 0.692108 0.434854
0.708413 0.699100 0.440843
0.727782 0.706058 0.446804
0.746971 0.712966 0.452724
0.765946 0.719808 0.458593
0.782430 0.726392 0.464494
0.796760 0.732746 0.470388
0.810835 0.739018 0.476174
0.824651 0.745200 0.481833
0.838206 0.751287 0.487348
0.849693 0.757107 0.492528
0.421166 0.657730 0.369713
0.423500 0.658040 0.370344
0.426116 0.658390 0.371052
0.429822 0.658888 0.372055
0.434719 0.659553 0.373383
0.440837 0.660394 0.375043
0.448175 0.661416 0.377039
0.456705 0.662625 0.379363
0.466374 0.664024 0.382004
0.477111 0.665613 0.384943
0.488829 0.667392 0.388161
0.501880 0.669576 0.391756
0.517133 0.672623 0.395988
0.533186 0.675917 0.400720
0.549890 0.679412 0.405655
0.567130 0.683095 0.410761
0.584797 0.686951 0.416004
0.603802 0.691795 0.421519
0.623337 0.696992 0.427200
0.643029 0.702285 0.432982
0.662795 0.707654 0.438848
0.682565 0.713083 0.444778
0.701420 0.719072 0.450285
0.720085 0.725131 0.455734
0.738632 0.731172 0.461176
0.757022 0.737179 0.466599
0.775218 0.743141 0.471994
0.789222 0.748780 0.477279
0.803001 0.754366 0.482463
0.816576 0.759893 0.487527
0.829942 0.765354 0.492454
0.843095 0.770744 0.497226
0.853035 0.775694 0.501634
0.451521 0.687140 0.393261
0.453605 0.687443 0.393813
0.455943 0.687785 0.394433
0.459260 0.688271 0.395313
0.463647 0.688920 0.396477
0.469138 0.689739 0.397936
0.475737 0.690735 0.399691
0.483425 0.691911 0.401739
0.492163 0.693271 0.404070
0.501894 0.694812 0.406670
0.513886 0.697097 0.409890
0.527036 0.699686 0.413433
0.541046 0.702487 0.417220
0.555811 0.705487 0.421225
0.571225 0.708674 0.425420
0.587185 0.712036 0.429778
0.604437 0.716087 0.434579
0.622428 0.720501 0.439660
0.640706 0.725033 0.444875
0.659188 0.729664 0.450205
0.677796 0.734378 0.455632
0.696014 0.739366 0.460815
0.713833 0.744569 0.465749
0.731607 0.749781 0.470705
0.749289 0.754988 0.475672
0.766836 0.760175 0.480637
0.782393 0.765235 0.485420
0.795842 0.770164 0.489943
0.809143 0.775059 0.494357
0.822285 0.779914 0.498644
0.835261 0.784724 0.502787
0.847294 0.789335 0.507368
0.856661 0.793536 0.511914
0.479673 0.715731 0.416818
0.481543 0.716019 0.417264
0.483643 0.716344 0.417765
0.486624 0.716808 0.418477
0.490573 0.717425 0.419421
0.495523 0.718206 0.420606
0.501484 0.719157 0.422036
0.508506 0.720302 0.423725
0.517585 0.722012 0.425950
0.527720 0.723941 0.428441
0.538847 0.726081 0.431185
0.550885 0.728426 0.434165
0.563748 0.730965 0.437362
0.577345 0.733689 0.440757
0.591583 0.736587 0.444327
0.607217 0.740031 0.448515
0.623622 0.743748 0.453027
0.640433 0.747597 0.457698
0.657566 0.751561 0.462510
0.674940 0.755626 0.467446
0.692293 0.759824 0.472324
0.709134 0.764222 0.476749
0.726007 0.768651 0.481221
0.742860 0.773096 0.485728
0.759644 0.777544 0.490260
0.776278 0.781982 0.494797
0.789364 0.786287 0.498608
0.802279 0.790303 0.502719
0.815076 0.794190 0.506713
0.827782 0.798035 0.510674
0.840382 0.801835 0.514601
0.850562 0.805294 0.518485
0.859534 0.808581 0.522341
0.505851 0.743316 0.438686
0.507545 0.743593 0.439050
0.509449 0.743906 0.439459
0.512153 0.744351 0.440042
0.516192 0.745079 0.440938
0.521322 0.746015 0.442082
0.527509 0.747150 0.443464
0.534746 0.748486 0.445086
0.543009 0.750023 0.446943
0.552256 0.751759 0.449030
0.562432 0.753689 0.451336
0.573431 0.755717 0.453792
0.585167 0.757805 0.456368
0.597609 0.760046 0.459119
0.611694 0.762752 0.462712
0.626387 0.765603 0.466481
0.641580 0.768579 0.470392
0.657191 0.771667 0.474423
0.673138 0.774856 0.478553
0.689328 0.778135 0.482745
0.704951 0.781550 0.486388
0.720712 0.785035 0.490385
0.736551 0.788587 0.494632
0.752412 0.792196 0.498976
0.768253 0.795853 0.503405
