calib/fujify/repo_cubes_std/eterna_cinema_repo_std.cube
TITLE "Chromasmith repo-rebased - Eterna Cinema"
#repo V-Log look rebased to Camera Standard via Panasonic V-Log math (approx)
LUT_3D_SIZE 9
0.006516 0.006104 0.006119
0.086270 0.014929 0.017256
0.204237 0.024298 0.031852
0.349937 0.055804 0.047723
0.509109 0.108071 0.061734
0.651962 0.161511 0.073719
0.767223 0.220515 0.082634
0.859466 0.283629 0.087721
0.910580 0.346029 0.102203
0.016981 0.086296 0.012137
0.080470 0.082256 0.014699
0.186040 0.088609 0.021569
0.317887 0.110646 0.032965
0.476445 0.145636 0.052213
0.624375 0.189684 0.065103
0.747215 0.242855 0.079835
0.844175 0.302869 0.084697
0.903133 0.363268 0.103739
0.049517 0.189374 0.014332
0.098603 0.186864 0.014533
0.186337 0.186130 0.018102
0.298944 0.195341 0.029482
0.442811 0.216556 0.037437
0.588390 0.250270 0.061941
0.713796 0.295104 0.072115
0.817360 0.346864 0.097896
0.888697 0.402970 0.109996
0.110112 0.307847 0.043390
0.144956 0.305387 0.043273
0.212270 0.302541 0.044173
0.309040 0.304416 0.050501
0.436012 0.317098 0.060723
0.569175 0.343399 0.076435
0.688944 0.378321 0.098706
0.789487 0.420539 0.113979
0.867236 0.466693 0.142944
0.183348 0.448886 0.080352
0.206853 0.446327 0.081781
0.261492 0.443285 0.085070
0.347220 0.442246 0.093437
0.457468 0.448356 0.102864
0.572524 0.462204 0.115669
0.679065 0.485848 0.132210
0.769157 0.514520 0.155874
0.845560 0.545492 0.176176
0.262564 0.587454 0.127642
0.282361 0.585756 0.128861
0.327382 0.582242 0.131700
0.400260 0.580065 0.136478
0.491554 0.580808 0.145775
0.588255 0.585753 0.159696
0.679061 0.595436 0.176583
0.759838 0.609815 0.196490
0.831293 0.627631 0.216325
0.344406 0.695501 0.177775
0.360056 0.694391 0.179328
0.396888 0.691893 0.183160
0.456772 0.688742 0.190221
0.531698 0.686113 0.200197
0.611211 0.686156 0.212514
0.687800 0.689525 0.225787
0.758354 0.695648 0.240322
0.821140 0.703619 0.255621
0.424708 0.774431 0.239067
0.436816 0.773620 0.240327
0.465916 0.771729 0.243459
0.511963 0.769207 0.248688
0.571117 0.766576 0.255966
0.635164 0.764693 0.265027
0.700321 0.763816 0.275573
0.761069 0.765136 0.286401
0.816990 0.767975 0.298656
0.493171 0.833313 0.297928
0.502353 0.832747 0.298901
0.524742 0.831396 0.301351
0.561049 0.829297 0.305495
0.606381 0.826871 0.310677
0.659584 0.824456 0.317414
0.712971 0.822905 0.325011
0.766447 0.822080 0.333469
0.816872 0.822391 0.342141
0.019766 0.015741 0.087344
0.085631 0.019151 0.081268
0.197526 0.024728 0.083784
0.336817 0.061855 0.087859
0.496075 0.111497 0.100987
0.641347 0.164454 0.117367
0.760370 0.221410 0.138693
0.855381 0.281984 0.156504
0.909832 0.345165 0.171775
0.018581 0.092480 0.093784
0.083540 0.090418 0.092311
0.186654 0.095786 0.090465
0.314337 0.115757 0.095338
0.471234 0.149343 0.108656
0.618080 0.191139 0.123996
0.742379 0.243386 0.144696
0.841404 0.301461 0.160211
0.902965 0.362767 0.177032
0.048243 0.196778 0.105747
0.102909 0.193718 0.105913
0.189860 0.192544 0.105744
0.301769 0.200714 0.109063
0.443452 0.220597 0.120965
0.587685 0.253446 0.136874
0.713072 0.296305 0.154583
0.815813 0.347781 0.170137
0.889035 0.403065 0.190327
0.114699 0.317644 0.122823
0.148959 0.314920 0.123446
0.216561 0.310911 0.125102
0.313085 0.311925 0.129854
0.439507 0.323497 0.140949
0.571481 0.348473 0.153997
0.690250 0.382133 0.169901
0.789624 0.422963 0.187671
0.866693 0.467801 0.205649
0.186443 0.458864 0.146225
0.210512 0.456114 0.147062
0.265197 0.452828 0.149313
0.350658 0.450982 0.155794
0.460312 0.455100 0.166229
0.575466 0.467564 0.179046
0.680053 0.490323 0.191642
0.769687 0.517222 0.210178
0.845427 0.547091 0.229112
0.265053 0.594028 0.181604
0.284731 0.592358 0.182388
0.329553 0.588866 0.184425
0.402889 0.585917 0.189723
0.493847 0.585904 0.198900
0.589892 0.589861 0.211161
0.680230 0.598500 0.225755
0.760244 0.612306 0.240854
0.831033 0.629411 0.257518
0.346374 0.698530 0.226069
0.362034 0.697317 0.227320
0.398926 0.694577 0.230421
0.458683 0.691342 0.235993
0.533098 0.688694 0.243970
0.612378 0.688439 0.254522
0.688616 0.691481 0.266470
0.758648 0.696945 0.278751
0.821134 0.704441 0.291083
0.425508 0.775507 0.279440
0.437586 0.774678 0.280468
0.466616 0.772742 0.283034
0.512549 0.770223 0.287225
0.571641 0.767612 0.293066
0.635743 0.765475 0.301001
0.700963 0.764376 0.310217
0.761302 0.765883 0.319153
0.817155 0.768471 0.329809
0.493299 0.833504 0.331224
0.502498 0.832937 0.332090
0.524932 0.831587 0.334272
0.561202 0.829512 0.337898
0.606546 0.827180 0.342237
0.659733 0.824835 0.347948
0.713216 0.823091 0.354409
0.766728 0.822168 0.361628
0.817295 0.822399 0.369055
0.030147 0.033282 0.187354
0.097469 0.032058 0.185237
0.203430 0.045160 0.186607
0.334254 0.077219 0.195660
0.490319 0.121182 0.214548
0.633701 0.170091 0.235366
0.752974 0.224659 0.254499
0.848822 0.284997 0.272275
0.908127 0.346173 0.284901
0.036610 0.110157 0.196830
0.096596 0.106732 0.194322
0.194577 0.111029 0.194495
0.317726 0.128395 0.201549
0.470489 0.158907 0.218169
0.614977 0.198548 0.237556
0.737479 0.247983 0.256803
0.836548 0.304373 0.273960
0.901942 0.364069 0.286820
0.064983 0.212581 0.214389
0.114518 0.209341 0.213187
0.200247 0.206875 0.212623
0.311323 0.212513 0.216233
0.449209 0.231159 0.228596
0.589683 0.261884 0.244208
0.712846 0.303795 0.262090
0.813267 0.352200 0.277983
0.887361 0.406042 0.292060
0.124769 0.336564 0.234998
0.158735 0.332959 0.234710
0.226618 0.328232 0.233827
0.323024 0.326271 0.237031
0.448094 0.338824 0.245443
0.576967 0.360524 0.258525
0.692616 0.391766 0.272220
0.788488 0.429831 0.286602
0.864916 0.472015 0.301094
0.194922 0.478663 0.259091
0.219710 0.475982 0.258981
0.274392 0.471318 0.259514
0.360593 0.468298 0.261763
0.468592 0.470943 0.268155
0.581129 0.481044 0.278512
0.682773 0.499603 0.289268
0.770509 0.523509 0.302560
0.844430 0.551548 0.317192
0.272050 0.607118 0.289059
0.291661 0.605080 0.289226
0.336442 0.600737 0.289775
0.409728 0.597147 0.292296
0.499610 0.595394 0.297856
0.594170 0.597738 0.306558
0.682911 0.605327 0.316930
0.761609 0.617436 0.327786
0.830876 0.632350 0.339502
0.351683 0.704281 0.324808
0.367217 0.703041 0.325537
0.403816 0.700251 0.327370
0.463127 0.696964 0.330307
0.536719 0.694130 0.334710
0.615664 0.693382 0.340784
0.690450 0.695238 0.349677
0.759335 0.699762 0.357810
0.821534 0.706566 0.366192
0.427776 0.777645 0.364014
0.439751 0.776856 0.364675
0.468549 0.775025 0.366360
0.514212 0.772534 0.369173
0.573258 0.769728 0.373365
0.636707 0.767543 0.378477
0.701256 0.766533 0.384107
0.762171 0.766971 0.390019
0.817730 0.769686 0.397285
0.494056 0.833954 0.402749
0.503259 0.833398 0.403361
0.525700 0.832080 0.404907
0.561719 0.830089 0.407329
0.607143 0.827793 0.410069
0.660320 0.825383 0.413934
0.713628 0.823522 0.418133
0.766733 0.822544 0.423101
0.816971 0.822445 0.428925
0.054436 0.076659 0.294065
0.117956 0.075275 0.289789
0.213762 0.082292 0.287208
0.338252 0.105646 0.294600
0.488820 0.140977 0.313460
0.628555 0.183919 0.336509
0.746984 0.235811 0.360050
0.842509 0.292330 0.379662
0.905790 0.352301 0.392787
0.064365 0.137101 0.310926
0.118760 0.135168 0.306537
0.211946 0.136942 0.302233
0.330171 0.150522 0.305759
0.475335 0.175997 0.321256
0.615166 0.213209 0.342357
0.735058 0.260304 0.364339
0.831985 0.311936 0.382047
0.899788 0.370170 0.395876
0.091084 0.235746 0.339204
0.136631 0.231924 0.335532
0.216894 0.228019 0.328959
0.327944 0.234019 0.331003
0.460410 0.250509 0.339669
0.596719 0.277809 0.356627
0.715030 0.317153 0.373887
0.810865 0.361983 0.389124
0.884575 0.413428 0.402279
0.144733 0.361717 0.371031
0.179069 0.358120 0.368984
0.245304 0.351670 0.364371
0.342071 0.351494 0.362251
0.462985 0.360736 0.367216
0.586948 0.379157 0.377287
0.697641 0.405615 0.388887
0.789005 0.441091 0.400475
0.863673 0.479623 0.412150
0.212722 0.501600 0.398434
0.236799 0.499086 0.397027
0.289695 0.494081 0.394224
0.374942 0.489157 0.393621
0.481681 0.489237 0.396424
0.589740 0.497495 0.400979
0.688069 0.512339 0.408165
0.772236 0.533834 0.417016
0.844881 0.558573 0.426456
0.284970 0.620330 0.423093
0.303763 0.618634 0.422412
0.347239 0.614985 0.421068
0.419810 0.610451 0.420767
0.508231 0.607559 0.423261
0.600765 0.608766 0.427442
0.687226 0.615084 0.432352
0.763776 0.625384 0.438384
0.831662 0.637996 0.445547
0.360759 0.711288 0.446919
0.375760 0.710055 0.447095
0.411342 0.707287 0.447621
0.469801 0.703931 0.448880
0.542040 0.700936 0.450918
0.620162 0.699493 0.453924
0.693217 0.700182 0.457563
0.761016 0.703900 0.461576
0.822313 0.709895 0.466182
0.432834 0.780214 0.470547
0.444649 0.779457 0.470923
0.473096 0.777688 0.471890
0.517970 0.775250 0.473546
0.576210 0.772485 0.476136
0.639038 0.770029 0.478538
0.703176 0.768552 0.481606
0.763309 0.768903 0.485725
0.818372 0.771238 0.489818
0.496041 0.834526 0.494178
0.505100 0.834029 0.494594
0.527215 0.832846 0.495651
0.562576 0.830882 0.497294
0.608276 0.828299 0.499442
0.661247 0.825756 0.502149
0.714046 0.823997 0.504141
0.766547 0.822742 0.506642
0.816377 0.822043 0.509632
0.098138 0.124337 0.423693
0.151294 0.123540 0.417907
0.237069 0.128108 0.409872
0.355442 0.143298 0.411898
0.495532 0.170470 0.426502
0.631407 0.208516 0.449363
0.745314 0.255040 0.472485
0.836647 0.306425 0.490589
0.903309 0.364211 0.504094
0.106602 0.173329 0.442940
0.153971 0.171499 0.437108
0.237089 0.171414 0.428778
0.351461 0.182178 0.427784
0.487358 0.203680 0.438961
0.621640 0.236762 0.458106
0.736112 0.279092 0.478557
0.828009 0.328696 0.494492
0.897639 0.381587 0.507108
0.131525 0.266643 0.475289
0.171344 0.263688 0.470948
0.246663 0.260308 0.463614
0.351406 0.263425 0.459640
0.479840 0.276158 0.465115
0.608543 0.302534 0.477340
0.720416 0.336041 0.491927
0.810773 0.378653 0.503134
0.882180 0.424984 0.514011
0.179093 0.392539 0.506903
0.208124 0.389200 0.503991
0.271595 0.383886 0.498695
0.366900 0.382033 0.494887
0.483692 0.387564 0.496323
0.600621 0.401651 0.501942
0.703726 0.425143 0.508397
0.790953 0.455867 0.516175
0.862986 0.490354 0.524950
0.237889 0.524338 0.529929
0.260501 0.521878 0.528236
0.313114 0.516894 0.525246
0.394746 0.511276 0.523148
0.497685 0.510503 0.523143
0.600088 0.516226 0.524030
0.694347 0.527942 0.527693
0.776367 0.545491 0.532850
0.846043 0.567050 0.538456
0.302545 0.634358 0.545219
0.320747 0.632469 0.544680
0.364770 0.628626 0.543750
0.434350 0.624020 0.542931
0.520328 0.620949 0.543241
0.609315 0.621118 0.544912
0.692645 0.625373 0.547132
0.767065 0.632966 0.549745
0.832416 0.643385 0.552941
0.372327 0.718057 0.558806
0.386697 0.716940 0.558833
0.421894 0.714447 0.559067
0.478999 0.710925 0.559798
0.549151 0.707673 0.560920
0.624709 0.705559 0.562501
0.697175 0.705490 0.563849
0.763187 0.708517 0.565701
0.823301 0.713519 0.567714
0.439518 0.783175 0.572234
0.451132 0.782450 0.572556
0.478972 0.780771 0.573357
0.523164 0.778290 0.574689
0.580988 0.775392 0.576743
0.642472 0.773213 0.578415
0.705298 0.771989 0.580295
0.764992 0.771877 0.581441
0.818857 0.773302 0.581931
0.497842 0.834172 0.583372
0.506789 0.833668 0.583801
0.528642 0.832465 0.584879
0.563158 0.830607 0.586231
0.608673 0.828316 0.587931
0.660892 0.825887 0.589622
0.713805 0.823582 0.590469
0.765591 0.821826 0.591015
0.814780 0.820656 0.591457
0.151737 0.177054 0.556584
0.192035 0.175632 0.550464
0.268987 0.176759 0.542108
0.380603 0.188221 0.541003
0.511964 0.209705 0.550343
0.638691 0.241949 0.566687
0.746018 0.281550 0.583437
0.832527 0.330118 0.596685
0.899707 0.381595 0.606933
0.158599 0.218474 0.571942
0.196419 0.216894 0.566900
0.271257 0.216450 0.559007
0.379127 0.222259 0.556251
0.507761 0.241054 0.562512
0.632369 0.268849 0.575660
0.739051 0.306044 0.589248
0.825381 0.350245 0.600699
0.893333 0.400031 0.609424
0.179337 0.304838 0.598484
0.212973 0.301289 0.594558
0.280115 0.298580 0.587319
0.381425 0.301279 0.583436
0.503423 0.312331 0.586117
0.622482 0.332507 0.593034
0.725840 0.362255 0.601211
0.810261 0.400240 0.608403
0.880129 0.440867 0.615276
0.216353 0.426168 0.620796
0.243324 0.423011 0.618838
0.303736 0.418299 0.614700
0.395092 0.414962 0.611424
0.505032 0.417039 0.611356
0.614131 0.428361 0.612406
0.710786 0.448327 0.615051
0.793612 0.474565 0.619841
0.862578 0.503859 0.624209
0.266151 0.547062 0.636001
0.287126 0.544675 0.634874
0.339005 0.539947 0.632660
0.417939 0.534847 0.630043
0.514280 0.532789 0.628513
0.612156 0.536352 0.629018
0.701478 0.545873 0.630181
0.779263 0.560208 0.632322
0.846340 0.577573 0.634104
0.324540 0.646444 0.643839
0.341950 0.644805 0.643596
0.385107 0.641298 0.643085
0.450995 0.636702 0.642609
0.534015 0.633398 0.642577
0.618874 0.633103 0.643554
0.698385 0.635926 0.644089
0.769873 0.641982 0.644206
0.833379 0.650809 0.644831
0.386852 0.724301 0.650874
0.400595 0.723303 0.651061
0.435296 0.720979 0.651247
0.490030 0.717582 0.651697
0.557825 0.714257 0.652955
0.631228 0.711972 0.654465
0.701053 0.712173 0.655525
0.765618 0.714297 0.655999
0.824360 0.717816 0.655380
0.448808 0.785953 0.657883
0.459989 0.785230 0.658366
0.486661 0.783667 0.659095
0.529775 0.781341 0.660210
0.585392 0.778710 0.661732
0.645664 0.776488 0.663255
0.706883 0.774785 0.663576
0.766161 0.773765 0.662782
0.818175 0.773829 0.661683
0.501208 0.832379 0.659715
0.509933 0.831893 0.660099
0.531200 0.830732 0.661038
0.564260 0.829068 0.662062
0.608847 0.827001 0.663565
0.659363 0.824660 0.664557
0.711868 0.822278 0.664776
0.762718 0.820209 0.664730
0.811839 0.818510 0.664840
0.207899 0.235274 0.673288
0.239443 0.233579 0.669485
0.307869 0.233662 0.662765
0.411697 0.241367 0.659853
0.533174 0.257706 0.664437
0.648588 0.282655 0.672970
0.747771 0.317875 0.681531
0.828953 0.359040 0.688334
0.894088 0.406474 0.693512
0.212854 0.271699 0.682405
0.244140 0.270115 0.679076
0.310597 0.268971 0.673281
0.411863 0.273190 0.670185
0.530434 0.285649 0.673394
0.643871 0.309476 0.679115
0.742197 0.339847 0.685976
0.822869 0.380095 0.691159
0.888897 0.422710 0.695545
0.229114 0.351220 0.697867
0.256719 0.348931 0.695656
0.319837 0.345904 0.691782
0.414578 0.345484 0.689027
0.526399 0.351892 0.688910
0.635441 0.368985 0.690939
0.730265 0.394559 0.693946
0.810538 0.426051 0.697499
0.877258 0.462169 0.699933
0.258875 0.459864 0.712296
0.282722 0.457235 0.710768
0.337028 0.452354 0.707721
0.422160 0.449320 0.704981
0.525575 0.450017 0.704496
0.627117 0.458899 0.703302
0.717845 0.474840 0.704382
0.796203 0.495654 0.705328
0.861686 0.521038 0.706242
0.299333 0.567999 0.719561
0.319887 0.566046 0.718834
0.366773 0.561915 0.717259
0.442311 0.557481 0.715571
0.532570 0.555158 0.714477
0.624292 0.557206 0.714161
0.708228 0.564165 0.714072
0.782076 0.575117 0.713745
0.846541 0.589725 0.713503
0.350397 0.657842 0.721752
0.367366 0.656422 0.721688
0.407086 0.653248 0.721605
0.469356 0.649449 0.721589
0.547149 0.646456 0.721747
0.627646 0.645445 0.722303
0.703456 0.647269 0.721477
0.772303 0.651796 0.721175
0.833648 0.659209 0.721051
0.404829 0.730380 0.724424
0.418447 0.729498 0.724653
0.450991 0.727469 0.725238
0.502624 0.724507 0.726286
0.567114 0.721565 0.727812
0.637256 0.719309 0.729104
0.706846 0.718162 0.729598
0.767525 0.719193 0.728052
0.823771 0.722019 0.726507
0.459253 0.786590 0.725321
0.469795 0.786005 0.725671
0.495352 0.784631 0.726538
0.536974 0.782542 0.728008
0.589773 0.780260 0.729621
0.648710 0.778287 0.731140
0.707474 0.776564 0.731575
0.764457 0.774844 0.730775
0.815287 0.774097 0.728121
0.504929 0.829417 0.721609
0.513376 0.829003 0.722009
0.533090 0.828032 0.722782
0.565406 0.826499 0.724008
0.609168 0.824575 0.725741
0.657739 0.822289 0.726634
0.709663 0.819984 0.727186
0.759276 0.817855 0.726738
0.807977 0.816145 0.726084
0.262958 0.297610 0.764393
0.289505 0.296157 0.762364
0.351944 0.295249 0.758987
0.445436 0.299923 0.756670
0.553688 0.311386 0.757687
0.658818 0.330841 0.759953
0.749203 0.359359 0.761732
0.825421 0.395729 0.763667
0.888923 0.433704 0.765218
0.266575 0.329112 0.768959
0.292369 0.327760 0.767118
0.352840 0.326691 0.763999
0.444811 0.328738 0.762125
0.551547 0.336932 0.762538
0.655227 0.353987 0.763932
0.744677 0.381201 0.764340
0.820669 0.413529 0.765716
0.884168 0.449593 0.766525
0.278174 0.398653 0.777275
0.302958 0.396826 0.776094
0.358759 0.393712 0.773771
0.445153 0.392784 0.771918
0.547542 0.397944 0.771145
0.646896 0.410106 0.770195
0.735445 0.429983 0.769878
0.810602 0.455964 0.769626
0.873847 0.485398 0.769556
0.300737 0.492579 0.784166
0.322247 0.490672 0.783399
0.373573 0.487248 0.781848
0.451910 0.484418 0.780026
0.545692 0.484977 0.778186
0.639119 0.490816 0.776490
0.723729 0.502302 0.775703
0.797028 0.518908 0.774613
0.860141 0.539817 0.773423
0.334848 0.587023 0.785517
0.352801 0.585418 0.785056
0.397358 0.582242 0.784284
0.466398 0.578361 0.783423
0.549882 0.576538 0.782309
0.634786 0.577707 0.781553
0.713489 0.582520 0.780516
0.783835 0.591412 0.779256
0.845835 0.603878 0.778380
0.378914 0.668531 0.784873
0.394101 0.667428 0.784854
0.430164 0.664996 0.784841
0.488686 0.661897 0.784986
0.560484 0.659270 0.785103
0.637192 0.658137 0.784888
0.708822 0.658292 0.784312
0.774367 0.662103 0.783919
0.833464 0.668401 0.782610
0.426579 0.735455 0.785215
0.439149 0.734745 0.785425
0.469328 0.733120 0.785947
0.517152 0.730801 0.786590
0.578530 0.728225 0.787262
0.643384 0.725466 0.787657
0.708622 0.723775 0.787577
0.768398 0.724241 0.785903
0.822230 0.725441 0.783758
0.469350 0.786468 0.780011
0.479316 0.785989 0.780407
0.503545 0.784866 0.781388
0.543204 0.783158 0.783060
0.593300 0.780714 0.783858
0.651480 0.777942 0.784348
0.707122 0.775688 0.784357
0.761979 0.773958 0.783779
0.811598 0.772881 0.781387
0.508444 0.826002 0.772768
0.516174 0.825632 0.773024
0.535144 0.824746 0.773661
0.566717 0.823347 0.774754
0.609632 0.821611 0.776310
0.655985 0.819291 0.777460
0.707429 0.817000 0.778832
0.755387 0.815045 0.777736
0.802817 0.813183 0.776216
0.315428 0.361217 0.835423
0.338503 0.360099 0.834296
0.393407 0.358777 0.832648
0.476747 0.359740 0.831660
0.573041 0.367998 0.830343
0.667249 0.383293 0.828677
0.750355 0.405952 0.827026
0.821838 0.433152 0.825784
0.882544 0.464842 0.823878
0.318728 0.386816 0.837631
0.340782 0.385578 0.836543
0.394958 0.384293 0.835121
0.475956 0.385256 0.833794
0.570688 0.391574 0.832127
0.663818 0.404411 0.829937
0.746423 0.424360 0.828245
0.817794 0.449675 0.826528
0.878765 0.478482 0.824776
0.326728 0.445045 0.840558
0.348750 0.443733 0.840184
0.399740 0.441336 0.839690
0.476698 0.440343 0.838203
0.566871 0.443545 0.835016
0.656708 0.452664 0.832168
0.737900 0.467666 0.830070
0.809181 0.487014 0.828308
0.870454 0.510557 0.826677
0.344895 0.524368 0.841632
0.363728 0.522987 0.840998
0.408563 0.520302 0.839656
0.480167 0.517595 0.838199
0.564403 0.517556 0.836582
0.649163 0.521471 0.834650
0.727496 0.530224 0.832714
0.797110 0.543504 0.830815
0.858853 0.559737 0.829239
0.371803 0.606285 0.838860
0.388823 0.605109 0.838816
0.428662 0.602550 0.838755
0.490538 0.599290 0.838392
0.567254 0.596744 0.837839
0.645421 0.597147 0.836995
0.718672 0.601253 0.835262
0.785731 0.608416 0.833596
0.845312 0.618103 0.831838
0.407549 0.678931 0.836495
0.421587 0.677988 0.836581
0.455700 0.675843 0.836844
0.509472 0.672816 0.837328
0.574538 0.670272 0.837572
0.645056 0.668859 0.837518
0.713677 0.669444 0.836767
0.775319 0.671824 0.834669
0.831522 0.676181 0.832054
0.445223 0.737866 0.831686
0.456568 0.737246 0.831969
0.484007 0.735762 0.832580
0.528559 0.733437 0.833412
0.586470 0.730813 0.834570
0.646631 0.728860 0.834965
0.707925 0.727504 0.834302
0.766231 0.727061 0.832275
0.818565 0.727649 0.830112
0.480399 0.784173 0.823049
0.489759 0.783753 0.823471
0.512563 0.782757 0.824497
0.549130 0.781076 0.825923
0.596139 0.778746 0.827280
0.650655 0.776415 0.828523
0.704409 0.774538 0.828003
0.757570 0.772967 0.827103
0.807572 0.771741 0.825791
0.513834 0.821976 0.814850
0.521242 0.821673 0.815175
0.539462 0.820946 0.815978
0.569905 0.819798 0.817332
0.609996 0.818273 0.818765
0.655203 0.816436 0.819546
0.704612 0.814291 0.820145
0.751597 0.811669 0.819987
0.797831 0.809733 0.819015
