calib/fujify/repo_cubes_std/eterna_bleach_bypass_repo_std.cube
TITLE "Chromasmith repo-rebased - Eterna Bleach Bypass"
#repo V-Log look rebased to Camera Standard via Panasonic V-Log math (approx)
LUT_3D_SIZE 9
0.000290 0.000198 0.000107
0.042383 0.009542 0.009255
0.109174 0.023518 0.026183
0.222307 0.049266 0.053194
0.359965 0.078282 0.078915
0.474049 0.113576 0.114025
0.566009 0.178652 0.170270
0.645893 0.268804 0.241581
0.726781 0.372943 0.313240
0.017431 0.050600 0.018752
0.050180 0.052912 0.023963
0.105461 0.062266 0.032708
0.202336 0.078941 0.049419
0.338606 0.098894 0.074619
0.460593 0.132271 0.114020
0.561466 0.197675 0.177642
0.650282 0.291076 0.250981
0.734842 0.394653 0.323233
0.057339 0.116593 0.052945
0.078632 0.116913 0.054248
0.120437 0.121806 0.057925
0.199347 0.132022 0.068119
0.324500 0.149061 0.093643
0.449789 0.184596 0.137490
0.563562 0.253292 0.203257
0.664499 0.346565 0.276479
0.753219 0.445030 0.347177
0.118319 0.225865 0.108521
0.131927 0.224509 0.109536
0.164949 0.224868 0.113607
0.232452 0.232515 0.125175
0.346235 0.251440 0.147065
0.470444 0.294632 0.193521
0.591094 0.361727 0.256828
0.698160 0.443570 0.324132
0.780627 0.526795 0.386373
0.207994 0.386433 0.191059
0.218768 0.385120 0.192637
0.253758 0.385966 0.201029
0.319915 0.393415 0.218089
0.416193 0.414414 0.245369
0.529947 0.451471 0.280609
0.646818 0.507376 0.334464
0.741657 0.567133 0.387797
0.812708 0.623015 0.431463
0.325117 0.549949 0.293023
0.340185 0.551228 0.296774
0.374657 0.554574 0.305770
0.435245 0.564729 0.323952
0.516983 0.583835 0.350107
0.610695 0.612342 0.380954
0.702708 0.646865 0.413270
0.781314 0.682925 0.444191
0.841388 0.716603 0.473115
0.451521 0.687140 0.393261
0.463647 0.688920 0.396477
0.492163 0.693271 0.404070
0.541046 0.702487 0.417220
0.604437 0.716087 0.434579
0.677796 0.734378 0.455632
0.749289 0.754988 0.475672
0.809143 0.775059 0.494357
0.856661 0.793536 0.511914
0.552570 0.785117 0.474218
0.561886 0.786721 0.476189
0.584260 0.790632 0.480990
0.621813 0.797215 0.489571
0.671747 0.806090 0.501522
0.726958 0.816778 0.515220
0.782248 0.828209 0.529414
0.829578 0.838692 0.541589
0.867036 0.848052 0.553213
0.630542 0.848599 0.539966
0.637666 0.849716 0.541293
0.655014 0.852459 0.544576
0.683393 0.856948 0.550130
0.720707 0.862516 0.557891
0.764269 0.869158 0.567399
0.805695 0.875200 0.576530
0.844737 0.881292 0.586081
0.877756 0.886845 0.595681
0.011579 0.010159 0.035381
0.045155 0.015723 0.038519
0.103543 0.026073 0.049775
0.211650 0.054836 0.072765
0.351785 0.083188 0.102937
0.470550 0.118850 0.139016
0.564618 0.182865 0.193601
0.646219 0.270688 0.259699
0.729220 0.375429 0.331537
0.023948 0.057642 0.055786
0.057383 0.060787 0.060342
0.109163 0.069172 0.066115
0.202374 0.084909 0.083320
0.337855 0.105498 0.110785
0.458710 0.138460 0.146559
0.561410 0.202755 0.201709
0.650954 0.293591 0.269616
0.737291 0.397767 0.341768
0.065907 0.125839 0.090337
0.087167 0.126237 0.092021
0.127555 0.130197 0.096902
0.206342 0.139765 0.105789
0.328531 0.157050 0.130223
0.453052 0.192570 0.168055
0.565839 0.260306 0.227212
0.667159 0.352024 0.296810
0.755568 0.449204 0.365897
0.127530 0.240633 0.141284
0.141110 0.239104 0.142283
0.173888 0.238368 0.145692
0.241005 0.244401 0.156329
0.354019 0.263716 0.176760
0.476753 0.306136 0.220943
0.597194 0.371513 0.280205
0.702692 0.451792 0.345115
0.783984 0.531225 0.405496
0.219237 0.401487 0.222510
0.229690 0.399968 0.223427
0.264808 0.400551 0.230418
0.330514 0.407789 0.245660
0.424849 0.427463 0.271010
0.538320 0.463279 0.305509
0.653630 0.516818 0.357300
0.747132 0.573698 0.408131
0.816605 0.626965 0.449832
0.336014 0.562986 0.324547
0.350818 0.563981 0.327567
0.384636 0.566599 0.334612
0.444464 0.575763 0.350702
0.524551 0.593642 0.374412
0.616612 0.620613 0.403780
0.707451 0.653457 0.434843
0.785192 0.687995 0.464684
0.843678 0.720140 0.491478
0.458510 0.694791 0.422866
0.470395 0.696459 0.425467
0.498374 0.700550 0.431627
0.546665 0.709341 0.443064
0.609176 0.722225 0.458460
0.681568 0.739424 0.477686
0.752316 0.759081 0.497247
0.811570 0.778129 0.515956
0.859025 0.795618 0.532423
0.556470 0.789507 0.500482
0.565662 0.791047 0.502243
0.587743 0.794801 0.506536
0.624981 0.801015 0.514334
0.674434 0.809346 0.525214
0.729148 0.819582 0.537593
0.783957 0.830509 0.550194
0.831080 0.840515 0.561364
0.868485 0.849685 0.572332
0.632855 0.850892 0.561901
0.639926 0.851974 0.563155
0.657149 0.854631 0.566256
0.685338 0.858961 0.571488
0.722554 0.864354 0.578706
0.765936 0.870786 0.587501
0.807253 0.876725 0.595842
0.846165 0.882608 0.604539
0.879389 0.887832 0.613424
0.027434 0.023228 0.080154
0.058798 0.026447 0.082684
0.112174 0.041891 0.093647
0.210037 0.068753 0.116508
0.347625 0.095667 0.144529
0.467699 0.129919 0.177671
0.564449 0.193945 0.231528
0.650181 0.281076 0.298557
0.735838 0.383745 0.371835
0.046037 0.072625 0.104291
0.073097 0.074267 0.106080
0.118317 0.081945 0.112030
0.205905 0.097684 0.129046
0.338727 0.118190 0.153484
0.460538 0.151003 0.187166
0.563377 0.214611 0.241244
0.656252 0.304169 0.310060
0.744111 0.406628 0.383770
0.085880 0.143582 0.144659
0.103633 0.143267 0.144352
0.142067 0.145273 0.146982
0.219312 0.153810 0.156549
0.338519 0.172487 0.177738
0.460702 0.208482 0.213929
0.574156 0.277834 0.273067
0.676790 0.365961 0.341599
0.763292 0.460024 0.411368
0.149587 0.268045 0.204489
0.162131 0.266086 0.203983
0.194265 0.263850 0.205194
0.259968 0.267997 0.213957
0.372290 0.288781 0.234726
0.492671 0.329965 0.275522
0.611652 0.392565 0.331661
0.714162 0.467695 0.394651
0.793233 0.542345 0.451050
0.246004 0.431567 0.296511
0.257319 0.430177 0.296546
0.291594 0.429959 0.300710
0.356466 0.436401 0.313175
0.447780 0.454906 0.334173
0.558665 0.488010 0.363736
0.668836 0.536282 0.410537
0.758764 0.587459 0.457315
0.826155 0.636657 0.497050
0.360733 0.587939 0.398023
0.374960 0.588630 0.400219
0.407512 0.590575 0.405520
0.465945 0.598861 0.418539
0.542643 0.614337 0.438468
0.631110 0.638213 0.462856
0.718986 0.667737 0.488814
0.794336 0.698523 0.514017
0.851751 0.727154 0.538060
0.474892 0.710398 0.488608
0.486245 0.711960 0.490541
0.512996 0.715789 0.495209
0.560276 0.724094 0.505215
0.621192 0.735890 0.518628
0.691589 0.750561 0.534875
0.759522 0.767936 0.550679
0.817299 0.784717 0.564948
0.864029 0.800427 0.577171
0.565572 0.798409 0.556204
0.574452 0.799771 0.557707
0.595793 0.803091 0.561391
0.632358 0.808698 0.568065
0.680761 0.816374 0.577269
0.734267 0.825602 0.587670
0.787927 0.835455 0.598327
0.835113 0.845038 0.607697
0.871776 0.853567 0.615106
0.638335 0.855876 0.609391
0.645292 0.856879 0.610495
0.662250 0.859343 0.613232
0.690033 0.863314 0.617786
0.726874 0.868297 0.623842
0.769527 0.874209 0.631150
0.810308 0.879622 0.638120
0.848486 0.884789 0.645164
0.881146 0.889289 0.651675
0.060679 0.054964 0.151359
0.083367 0.057134 0.148491
0.130188 0.067653 0.152469
0.221654 0.089860 0.171598
0.351237 0.115478 0.199876
0.469863 0.150404 0.236281
0.572300 0.214632 0.294323
0.662553 0.302090 0.365901
0.748522 0.402346 0.441574
0.077595 0.095261 0.181264
0.097930 0.096039 0.177576
0.140528 0.101739 0.176810
0.224425 0.117096 0.190283
0.347500 0.138810 0.215654
0.468379 0.175463 0.251702
0.575194 0.240262 0.310085
0.669808 0.326235 0.379804
0.756817 0.424952 0.454188
0.115540 0.169164 0.235594
0.130719 0.167559 0.231225
0.166117 0.168199 0.225492
0.244159 0.180711 0.234485
0.355286 0.201487 0.255133
0.477234 0.238775 0.292236
0.591924 0.308493 0.350893
0.693427 0.391028 0.418082
0.776978 0.479093 0.484201
0.185487 0.306708 0.311766
0.196457 0.303703 0.309068
0.228555 0.299923 0.305289
0.300763 0.306791 0.312458
0.404141 0.328022 0.332205
0.520518 0.366804 0.367795
0.636251 0.424246 0.420073
0.732765 0.493172 0.476382
0.807721 0.559556 0.526780
0.283957 0.470319 0.405131
0.298473 0.469561 0.405102
0.330475 0.468529 0.405526
0.394361 0.474840 0.414902
0.482200 0.491614 0.434015
0.588995 0.521494 0.460731
0.691305 0.562626 0.499316
0.775914 0.607804 0.537139
0.840102 0.650526 0.570016
0.395634 0.617343 0.497160
0.409015 0.618101 0.498809
0.440097 0.620286 0.502913
0.495857 0.627231 0.512816
0.568656 0.640644 0.528674
0.652730 0.660932 0.547729
0.735965 0.686210 0.567978
0.807368 0.712928 0.588015
0.862544 0.737023 0.608483
0.497282 0.730877 0.572948
0.508124 0.732142 0.574618
0.533999 0.735333 0.578732
0.579081 0.741922 0.586802
0.637245 0.751540 0.597736
0.704981 0.764248 0.611296
0.769991 0.778981 0.622937
0.825482 0.793288 0.632472
0.870774 0.806889 0.640710
0.579346 0.809380 0.628985
0.587836 0.810486 0.630296
0.608272 0.813193 0.633505
0.643931 0.818292 0.639233
0.690609 0.825335 0.647040
0.742474 0.833298 0.655394
0.794256 0.841652 0.663484
0.839897 0.849529 0.669891
0.876369 0.856930 0.674858
0.647298 0.862254 0.672001
0.654066 0.863156 0.673015
0.670567 0.865369 0.675520
0.697496 0.868859 0.679432
0.733214 0.873364 0.684402
0.774275 0.878602 0.690361
0.814257 0.883120 0.696166
0.851331 0.887411 0.701116
0.883279 0.891238 0.704828
0.102525 0.093310 0.260942
0.120126 0.094583 0.255148
0.163830 0.101678 0.252961
0.252578 0.118717 0.264245
0.369767 0.143396 0.288323
0.487193 0.185011 0.328551
0.589408 0.250391 0.385070
0.680646 0.332970 0.451112
0.764029 0.429560 0.522325
0.118569 0.127025 0.291704
0.134538 0.127262 0.286026
0.174176 0.131003 0.280496
0.259220 0.146182 0.287775
0.372136 0.170125 0.309075
0.489050 0.211847 0.347300
0.594823 0.277643 0.402567
0.690565 0.362201 0.469075
0.771811 0.451560 0.535389
0.156737 0.207568 0.347368
0.170934 0.206473 0.342579
0.209311 0.207480 0.337100
0.285082 0.216991 0.340535
0.391013 0.238981 0.358456
0.506109 0.286248 0.395735
0.616678 0.350029 0.448817
0.714070 0.427273 0.508896
0.791801 0.504251 0.566265
0.230756 0.350837 0.422796
0.244573 0.349068 0.420773
0.279860 0.347951 0.418460
0.350367 0.355443 0.423368
0.445716 0.376380 0.441439
0.553312 0.413246 0.474689
0.661203 0.465130 0.519741
0.752213 0.523703 0.566319
0.822309 0.579717 0.607958
0.330826 0.510409 0.509492
0.344265 0.509715 0.509417
0.378467 0.509925 0.511284
0.439637 0.515387 0.520122
0.523465 0.530748 0.538099
0.618043 0.557298 0.562725
0.713511 0.592211 0.593039
0.793418 0.629280 0.623461
0.852251 0.664728 0.649187
0.433498 0.646615 0.590523
0.445704 0.647156 0.591713
0.476556 0.649606 0.595729
0.527713 0.655670 0.604155
0.597008 0.667984 0.618691
0.675926 0.685208 0.636017
0.752970 0.705351 0.653309
0.819309 0.726028 0.668473
0.870741 0.746098 0.683051
0.521862 0.749515 0.653907
0.531883 0.750553 0.655351
0.557298 0.753568 0.659300
0.599867 0.759344 0.666455
0.655482 0.767655 0.676306
0.718885 0.778062 0.687961
0.780389 0.790004 0.698766
0.833670 0.801923 0.704915
0.877528 0.812642 0.710562
0.596284 0.821105 0.700195
0.604387 0.822169 0.701455
0.624322 0.824739 0.704578
0.658393 0.828812 0.709957
0.702801 0.834373 0.717244
0.752142 0.841411 0.725212
0.801470 0.848754 0.732330
0.846566 0.855725 0.737595
0.882321 0.861592 0.738797
0.656957 0.868188 0.732993
0.663340 0.868929 0.733947
0.678920 0.870764 0.736299
0.704791 0.873831 0.740047
0.739656 0.878044 0.745126
0.779273 0.882590 0.750714
0.818706 0.886398 0.755664
0.854444 0.889957 0.758996
0.885836 0.893285 0.761296
0.149196 0.135079 0.377849
0.163993 0.135704 0.371844
0.208062 0.141347 0.367061
0.295370 0.158105 0.373517
0.403775 0.184031 0.392636
0.514560 0.228977 0.428404
0.615025 0.292268 0.478257
0.706204 0.374608 0.540473
0.782038 0.460122 0.601487
0.164494 0.168491 0.401505
0.179941 0.169073 0.396796
0.222903 0.173218 0.391849
0.304306 0.185631 0.395578
0.411373 0.213836 0.413722
0.520765 0.257984 0.447289
0.624374 0.322982 0.497829
0.715540 0.401407 0.557434
0.789714 0.482554 0.614344
0.207036 0.254049 0.450345
0.219220 0.251740 0.445816
0.259936 0.253514 0.442485
0.337634 0.266971 0.446331
0.437888 0.293799 0.463496
0.544713 0.336341 0.495980
0.649316 0.395769 0.543703
0.737653 0.465366 0.596017
0.807074 0.531768 0.642661
0.286495 0.399332 0.518892
0.298693 0.397750 0.517449
0.338144 0.398850 0.517525
0.404675 0.406175 0.524055
0.492633 0.424793 0.541073
0.592531 0.458707 0.570753
0.689640 0.505618 0.610073
0.770671 0.555837 0.649037
0.833165 0.602351 0.681806
0.379547 0.547921 0.596233
0.391572 0.547499 0.596617
0.428320 0.549380 0.600582
0.486158 0.555325 0.609318
0.562295 0.569442 0.625708
0.648897 0.593063 0.649392
0.732957 0.622041 0.675692
0.804521 0.652380 0.700684
0.858571 0.681001 0.720208
0.471181 0.672433 0.665350
0.482429 0.673164 0.666942
0.512906 0.676198 0.672393
0.560165 0.681763 0.681343
0.625039 0.692188 0.694913
0.697361 0.706492 0.711325
0.767074 0.722556 0.726860
0.827908 0.739244 0.740205
0.876056 0.755313 0.751088
0.547858 0.765824 0.720351
0.557324 0.766843 0.722077
0.582402 0.769756 0.726312
0.621917 0.774632 0.733124
0.674137 0.781844 0.742798
0.732478 0.790725 0.753884
0.790621 0.800262 0.764793
0.841267 0.809573 0.770605
0.882585 0.817475 0.775157
0.614670 0.831080 0.759299
0.622251 0.832035 0.760635
0.641556 0.834250 0.763906
0.673145 0.837920 0.769298
0.714454 0.842894 0.776331
0.761855 0.848633 0.783719
0.808875 0.854436 0.790553
0.853463 0.860160 0.797135
0.886250 0.863713 0.795047
0.667027 0.872850 0.782694
0.673065 0.873590 0.783748
0.687838 0.875400 0.786325
0.712651 0.877787 0.790045
0.746080 0.881116 0.795175
0.783623 0.884791 0.800529
0.822303 0.888567 0.805559
0.856436 0.891599 0.808488
0.887439 0.894314 0.810923
0.205639 0.187409 0.477245
0.220171 0.187821 0.474045
0.267597 0.193652 0.472235
0.348861 0.211387 0.476883
0.448070 0.240086 0.492837
0.549490 0.283178 0.522164
0.648685 0.347217 0.569894
0.733759 0.420709 0.622730
0.802106 0.495465 0.672995
0.222820 0.223989 0.495340
0.239655 0.224966 0.493309
0.284220 0.229998 0.491721
0.361795 0.243465 0.496161
0.457378 0.269906 0.510789
0.560303 0.316838 0.542423
0.658732 0.375575 0.587726
0.742569 0.447167 0.638375
0.808828 0.515091 0.684418
0.270051 0.314615 0.535143
0.285370 0.314560 0.534137
0.327691 0.317787 0.534482
0.397840 0.328490 0.539913
0.487112 0.351532 0.555861
0.587209 0.392290 0.587735
0.683610 0.446006 0.629624
0.762604 0.504781 0.672671
0.823973 0.560047 0.709368
0.344965 0.447891 0.594544
0.360181 0.447957 0.595406
0.395899 0.449396 0.598480
0.457724 0.456980 0.607804
0.539662 0.474960 0.625525
0.631350 0.505837 0.653185
0.719032 0.545291 0.686677
0.791357 0.585649 0.717819
0.844603 0.624698 0.743441
0.429882 0.582444 0.662669
0.443711 0.583229 0.664723
0.475316 0.585445 0.669669
0.529686 0.592215 0.680484
0.600152 0.605267 0.697079
0.678282 0.624952 0.718535
0.752778 0.648710 0.741400
0.815801 0.672985 0.761886
0.863541 0.697226 0.777247
0.508243 0.695482 0.723488
0.519840 0.696552 0.725686
0.547029 0.699245 0.730905
0.592112 0.704611 0.740186
0.651261 0.713013 0.753259
0.717318 0.725714 0.768834
0.780209 0.739540 0.783757
0.832993 0.752738 0.795534
0.875863 0.766146 0.804794
0.575410 0.780352 0.769744
0.584881 0.781323 0.771609
0.607493 0.783724 0.776105
0.643490 0.787843 0.783389
0.692489 0.794486 0.793391
0.746874 0.802174 0.804315
0.802320 0.810019 0.814714
0.846956 0.816406 0.820838
0.884382 0.822996 0.825354
0.631426 0.837590 0.800171
0.639043 0.838471 0.801627
0.657503 0.840647 0.805173
0.687546 0.844313 0.811006
0.726442 0.848821 0.818000
0.770847 0.853724 0.825283
0.814093 0.858513 0.832303
0.854996 0.862361 0.837978
0.886917 0.864934 0.837958
0.676646 0.875040 0.818456
0.682308 0.875745 0.819605
0.696426 0.877199 0.822069
0.719958 0.879556 0.826056
0.751811 0.882879 0.831557
0.786991 0.886062 0.836993
0.824550 0.889349 0.842520
0.856782 0.891728 0.845800
0.887244 0.894093 0.848660
0.277942 0.256321 0.554665
0.294476 0.257144 0.554551
0.338799 0.261998 0.555936
0.410450 0.279451 0.562653
0.498200 0.308889 0.579071
0.593661 0.351073 0.609984
0.684717 0.406543 0.650949
0.761506 0.471785 0.695026
0.821594 0.530884 0.733684
0.295825 0.292708 0.568636
0.311723 0.293887 0.568707
0.355566 0.299924 0.571000
0.424103 0.314372 0.578313
0.509730 0.340024 0.595842
0.604331 0.380264 0.626928
0.694482 0.434505 0.666656
0.769133 0.494317 0.707114
0.827109 0.548393 0.743001
0.339356 0.377672 0.601149
0.356189 0.378810 0.602548
0.394524 0.382618 0.606551
0.457180 0.393302 0.616395
0.539705 0.416098 0.636742
0.630707 0.451334 0.666665
0.715783 0.496299 0.701025
0.786186 0.543850 0.734183
0.839840 0.587853 0.764036
0.406249 0.495799 0.655672
0.420044 0.496461 0.657582
0.455572 0.499749 0.663561
0.512430 0.508312 0.675177
0.586384 0.525288 0.693994
0.667524 0.551206 0.719315
0.743849 0.581905 0.746538
0.807431 0.613979 0.771023
0.856168 0.646246 0.792359
0.479752 0.614537 0.714091
0.491325 0.615253 0.716247
0.521487 0.618261 0.722674
0.569150 0.624299 0.733706
0.634148 0.636425 0.750522
0.704394 0.653225 0.770682
0.770144 0.671985 0.789914
0.825886 0.691993 0.806522
0.870474 0.713021 0.820480
0.545444 0.715956 0.766327
0.555601 0.716936 0.768625
0.579985 0.719484 0.774230
0.621637 0.724585 0.784163
0.674888 0.732258 0.796729
0.735714 0.742195 0.810199
0.792371 0.752666 0.823544
0.840287 0.764384 0.834490
0.879266 0.776487 0.843324
0.603121 0.792220 0.806105
0.611574 0.793052 0.807820
0.631872 0.795119 0.811952
0.665588 0.799162 0.819275
0.710267 0.805247 0.829584
0.759533 0.810650 0.838626
0.808885 0.816475 0.847188
0.850643 0.822262 0.854492
0.883949 0.827561 0.859113
0.648942 0.841892 0.829117
0.655844 0.842723 0.830571
0.672616 0.844778 0.834116
0.700044 0.848248 0.839943
0.735992 0.852236 0.846836
0.777933 0.856723 0.854720
0.817973 0.859674 0.861173
0.856031 0.862607 0.866642
0.886465 0.865030 0.869238
0.685702 0.875253 0.843312
0.691176 0.875842 0.844407
0.704611 0.877305 0.847105
0.726967 0.879794 0.851625
0.757344 0.883294 0.857833
0.790296 0.885911 0.863155
0.826918 0.889034 0.869073
0.857482 0.891315 0.872705
0.886962 0.893153 0.875476
0.359111 0.336703 0.615060
0.374747 0.338395 0.616478
0.412964 0.344317 0.621262
0.473642 0.357469 0.632212
0.552713 0.383312 0.654043
0.638503 0.422009 0.683764
0.718994 0.469617 0.718400
0.785934 0.518920 0.752120
0.838449 0.565867 0.782089
0.375038 0.368510 0.627133
0.389819 0.369980 0.628985
0.427635 0.376118 0.635194
0.487317 0.389347 0.647753
0.564270 0.413063 0.668983
0.648012 0.448767 0.697594
0.726697 0.492624 0.730318
0.791712 0.537526 0.761727
0.843436 0.580826 0.790046
0.412360 0.441773 0.659999
0.427128 0.443364 0.662577
0.462108 0.447953 0.669197
0.518505 0.458686 0.682109
0.590417 0.478635 0.701626
0.668707 0.508226 0.727370
0.742634 0.543417 0.756078
0.805218 0.579568 0.783564
0.853761 0.615628 0.807128
0.468110 0.542139 0.706030
0.480524 0.543243 0.708426
0.510954 0.546880 0.714889
0.561838 0.555431 0.727305
0.627040 0.570170 0.745742
0.697625 0.590627 0.768089
0.764193 0.615002 0.790980
0.820970 0.641311 0.811964
0.867012 0.668293 0.830385
0.527241 0.645550 0.756365
0.538574 0.646795 0.759119
0.565148 0.649933 0.765690
0.608354 0.655648 0.776755
0.664272 0.664492 0.791764
0.727156 0.677851 0.809168
0.785770 0.693351 0.825598
0.835808 0.710343 0.840356
0.876640 0.727948 0.852797
0.580596 0.734870 0.800352
0.589894 0.735643 0.802537
0.612869 0.737692 0.808073
0.649135 0.741294 0.816887
0.697777 0.747797 0.828395
0.751356 0.756027 0.841114
0.803831 0.764965 0.853477
0.846568 0.774380 0.862878
0.882089 0.784142 0.869945
0.626548 0.799459 0.830958
0.633980 0.800218 0.832601
0.652368 0.802158 0.836702
0.683305 0.805621 0.843678
0.723579 0.810420 0.852810
0.769062 0.815429 0.862459
0.813444 0.820581 0.871167
0.853738 0.825358 0.878248
0.884496 0.829829 0.882402
0.664411 0.844141 0.850381
0.670555 0.844849 0.851730
0.685516 0.846598 0.855022
0.710251 0.849374 0.860298
0.743696 0.852857 0.867060
0.782391 0.856806 0.874811
0.820606 0.859546 0.881717
0.855717 0.862316 0.887065
0.885673 0.864878 0.890555
0.695705 0.875675 0.863021
0.700751 0.876205 0.864068
0.713155 0.877520 0.866649
0.733857 0.879756 0.870971
0.761444 0.882589 0.876397
0.793433 0.885523 0.881869
0.827835 0.888320 0.887569
0.857558 0.889924 0.891863
0.885551 0.891538 0.895135
