calib/fujify/repo_cubes_std/eterna_cinema_repo_std.cube
TITLE "Chromasmith repo-rebased - Eterna Cinema"
#repo V-Log look rebased to Camera Standard via Panasonic V-Log math (approx)
LUT_3D_SIZE 5
0.006516 0.006104 0.006119
0.204237 0.024298 0.031852
0.509109 0.108071 0.061734
0.767223 0.220515 0.082634
0.910580 0.346029 0.102203
0.049517 0.189374 0.014332
0.186337 0.186130 0.018102
0.442811 0.216556 0.037437
0.713796 0.295104 0.072115
0.888697 0.402970 0.109996
0.183348 0.448886 0.080352
0.261492 0.443285 0.085070
0.457468 0.448356 0.102864
0.679065 0.485848 0.132210
0.845560 0.545492 0.176176
0.344406 0.695501 0.177775
0.396888 0.691893 0.183160
0.531698 0.686113 0.200197
0.687800 0.689525 0.225787
0.821140 0.703619 0.255621
0.493171 0.833313 0.297928
0.524742 0.831396 0.301351
0.606381 0.826871 0.310677
0.712971 0.822905 0.325011
0.816872 0.822391 0.342141
0.030147 0.033282 0.187354
0.203430 0.045160 0.186607
0.490319 0.121182 0.214548
0.752974 0.224659 0.254499
0.908127 0.346173 0.284901
0.064983 0.212581 0.214389
0.200247 0.206875 0.212623
0.449209 0.231159 0.228596
0.712846 0.303795 0.262090
0.887361 0.406042 0.292060
0.194922 0.478663 0.259091
0.274392 0.471318 0.259514
0.468592 0.470943 0.268155
0.682773 0.499603 0.289268
0.844430 0.551548 0.317192
0.351683 0.704281 0.324808
0.403816 0.700251 0.327370
0.536719 0.694130 0.334710
0.690450 0.695238 0.349677
0.821534 0.706566 0.366192
0.494056 0.833954 0.402749
0.525700 0.832080 0.404907
0.607143 0.827793 0.410069
0.713628 0.823522 0.418133
0.816971 0.822445 0.428925
0.098138 0.124337 0.423693
0.237069 0.128108 0.409872
0.495532 0.170470 0.426502
0.745314 0.255040 0.472485
0.903309 0.364211 0.504094
0.131525 0.266643 0.475289
0.246663 0.260308 0.463614
0.479840 0.276158 0.465115
0.720416 0.336041 0.491927
0.882180 0.424984 0.514011
0.237889 0.524338 0.529929
0.313114 0.516894 0.525246
0.497685 0.510503 0.523143
0.694347 0.527942 0.527693
0.846043 0.567050 0.538456
0.372327 0.718057 0.558806
0.421894 0.714447 0.559067
0.549151 0.707673 0.560920
0.697175 0.705490 0.563849
0.823301 0.713519 0.567714
0.497842 0.834172 0.583372
0.528642 0.832465 0.584879
0.608673 0.828316 0.587931
0.713805 0.823582 0.590469
0.814780 0.820656 0.591457
0.207899 0.235274 0.673288
0.307869 0.233662 0.662765
0.533174 0.257706 0.664437
0.747771 0.317875 0.681531
0.894088 0.406474 0.693512
0.229114 0.351220 0.697867
0.319837 0.345904 0.691782
0.526399 0.351892 0.688910
0.730265 0.394559 0.693946
0.877258 0.462169 0.699933
0.299333 0.567999 0.719561
0.366773 0.561915 0.717259
0.532570 0.555158 0.714477
0.708228 0.564165 0.714072
0.846541 0.589725 0.713503
0.404829 0.730380 0.724424
0.450991 0.727469 0.725238
0.567114 0.721565 0.727812
0.706846 0.718162 0.729598
0.823771 0.722019 0.726507
0.504929 0.829417 0.721609
0.533090 0.828032 0.722782
0.609168 0.824575 0.725741
0.709663 0.819984 0.727186
0.807977 0.816145 0.726084
0.315428 0.361217 0.835423
0.393407 0.358777 0.832648
0.573041 0.367998 0.830343
0.750355 0.405952 0.827026
0.882544 0.464842 0.823878
0.326728 0.445045 0.840558
0.399740 0.441336 0.839690
0.566871 0.443545 0.835016
0.737900 0.467666 0.830070
0.870454 0.510557 0.826677
0.371803 0.606285 0.838860
0.428662 0.602550 0.838755
0.567254 0.596744 0.837839
0.718672 0.601253 0.835262
0.845312 0.618103 0.831838
0.445223 0.737866 0.831686
0.484007 0.735762 0.832580
0.586470 0.730813 0.834570
0.707925 0.727504 0.834302
0.818565 0.727649 0.830112
0.513834 0.821976 0.814850
0.539462 0.820946 0.815978
0.609996 0.818273 0.818765
0.704612 0.814291 0.820145
0.797831 0.809733 0.819015
