calib/fujify/repo_cubes_std/eterna_bleach_bypass_repo_std.cube
TITLE "Chromasmith repo-rebased - Eterna Bleach Bypass"
#repo V-Log look rebased to Camera Standard via Panasonic V-Log math (approx)
LUT_3D_SIZE 5
0.000290 0.000198 0.000107
0.109174 0.023518 0.026183
0.359965 0.078282 0.078915
0.566009 0.178652 0.170270
0.726781 0.372943 0.313240
0.057339 0.116593 0.052945
0.120437 0.121806 0.057925
0.324500 0.149061 0.093643
0.563562 0.253292 0.203257
0.753219 0.445030 0.347177
0.207994 0.386433 0.191059
0.253758 0.385966 0.201029
0.416193 0.414414 0.245369
0.646818 0.507376 0.334464
0.812708 0.623015 0.431463
0.451521 0.687140 0.393261
0.492163 0.693271 0.404070
0.604437 0.716087 0.434579
0.749289 0.754988 0.475672
0.856661 0.793536 0.511914
0.630542 0.848599 0.539966
0.655014 0.852459 0.544576
0.720707 0.862516 0.557891
0.805695 0.875200 0.576530
0.877756 0.886845 0.595681
0.027434 0.023228 0.080154
0.112174 0.041891 0.093647
0.347625 0.095667 0.144529
0.564449 0.193945 0.231528
0.735838 0.383745 0.371835
0.085880 0.143582 0.144659
0.142067 0.145273 0.146982
0.338519 0.172487 0.177738
0.574156 0.277834 0.273067
0.763292 0.460024 0.411368
0.246004 0.431567 0.296511
0.291594 0.429959 0.300710
0.447780 0.454906 0.334173
0.668836 0.536282 0.410537
0.826155 0.636657 0.497050
0.474892 0.710398 0.488608
0.512996 0.715789 0.495209
0.621192 0.735890 0.518628
0.759522 0.767936 0.550679
0.864029 0.800427 0.577171
0.638335 0.855876 0.609391
0.662250 0.859343 0.613232
0.726874 0.868297 0.623842
0.810308 0.879622 0.638120
0.881146 0.889289 0.651675
0.102525 0.093310 0.260942
0.163830 0.101678 0.252961
0.369767 0.143396 0.288323
0.589408 0.250391 0.385070
0.764029 0.429560 0.522325
0.156737 0.207568 0.347368
0.209311 0.207480 0.337100
0.391013 0.238981 0.358456
0.616678 0.350029 0.448817
0.791801 0.504251 0.566265
0.330826 0.510409 0.509492
0.378467 0.509925 0.511284
0.523465 0.530748 0.538099
0.713511 0.592211 0.593039
0.852251 0.664728 0.649187
0.521862 0.749515 0.653907
0.557298 0.753568 0.659300
0.655482 0.767655 0.676306
0.780389 0.790004 0.698766
0.877528 0.812642 0.710562
0.656957 0.868188 0.732993
0.678920 0.870764 0.736299
0.739656 0.878044 0.745126
0.818706 0.886398 0.755664
0.885836 0.893285 0.761296
0.205639 0.187409 0.477245
0.267597 0.193652 0.472235
0.448070 0.240086 0.492837
0.648685 0.347217 0.569894
0.802106 0.495465 0.672995
0.270051 0.314615 0.535143
0.327691 0.317787 0.534482
0.487112 0.351532 0.555861
0.683610 0.446006 0.629624
0.823973 0.560047 0.709368
0.429882 0.582444 0.662669
0.475316 0.585445 0.669669
0.600152 0.605267 0.697079
0.752778 0.648710 0.741400
0.863541 0.697226 0.777247
0.575410 0.780352 0.769744
0.607493 0.783724 0.776105
0.692489 0.794486 0.793391
0.802320 0.810019 0.814714
0.884382 0.822996 0.825354
0.676646 0.875040 0.818456
0.696426 0.877199 0.822069
0.751811 0.882879 0.831557
0.824550 0.889349 0.842520
0.887244 0.894093 0.848660
0.359111 0.336703 0.615060
0.412964 0.344317 0.621262
0.552713 0.383312 0.654043
0.718994 0.469617 0.718400
0.838449 0.565867 0.782089
0.412360 0.441773 0.659999
0.462108 0.447953 0.669197
0.590417 0.478635 0.701626
0.742634 0.543417 0.756078
0.853761 0.615628 0.807128
0.527241 0.645550 0.756365
0.565148 0.649933 0.765690
0.664272 0.664492 0.791764
0.785770 0.693351 0.825598
0.876640 0.727948 0.852797
0.626548 0.799459 0.830958
0.652368 0.802158 0.836702
0.723579 0.810420 0.852810
0.813444 0.820581 0.871167
0.884496 0.829829 0.882402
0.695705 0.875675 0.863021
0.713155 0.877520 0.866649
0.761444 0.882589 0.876397
0.827835 0.888320 0.887569
0.885551 0.891538 0.895135
