calib/fujify/repo_cubes_std/pro_neg_std_repo_std.cube
TITLE "Chromasmith repo-rebased - Pro Neg Std"
#repo V-Log look rebased to Camera Standard via Panasonic V-Log math (approx)
LUT_3D_SIZE 5
0.000443 0.000381 0.000092
0.146159 0.024460 0.040349
0.484735 0.077229 0.111238
0.784141 0.173137 0.190544
0.934909 0.291396 0.297749
0.040512 0.147163 0.008825
0.150194 0.151911 0.019768
0.436451 0.191856 0.060092
0.735299 0.272430 0.148425
0.917492 0.365155 0.258273
0.147840 0.462784 0.021477
0.241396 0.458135 0.026337
0.459227 0.461896 0.053321
0.699737 0.489641 0.119916
0.878376 0.532147 0.212219
0.305427 0.724520 0.080196
0.366119 0.720893 0.085146
0.518290 0.713609 0.105596
0.698165 0.710217 0.148358
0.849575 0.715260 0.214924
0.443960 0.877871 0.182341
0.482186 0.875815 0.185433
0.583006 0.869660 0.197803
0.715724 0.861601 0.226350
0.839490 0.855868 0.271248
0.023687 0.023009 0.129214
0.153697 0.037197 0.144632
0.473125 0.089142 0.223292
0.767712 0.180463 0.323498
0.930505 0.294611 0.414117
0.059272 0.182142 0.184824
0.173956 0.181157 0.186974
0.449085 0.212028 0.223866
0.731232 0.282207 0.300553
0.914727 0.368562 0.384955
0.160265 0.488203 0.220974
0.254059 0.481679 0.222314
0.469135 0.479604 0.238314
0.702913 0.499115 0.280272
0.875859 0.535157 0.343162
0.308263 0.728790 0.255906
0.369482 0.725126 0.257111
0.519626 0.717291 0.266159
0.698690 0.712493 0.290187
0.848729 0.716089 0.333009
0.443383 0.876440 0.310600
0.481986 0.874253 0.311806
0.582999 0.867936 0.319126
0.715353 0.859618 0.337616
0.838598 0.853534 0.368261
0.091596 0.093251 0.411286
0.217894 0.098239 0.413980
0.500298 0.135034 0.469265
0.762263 0.215080 0.541754
0.927244 0.314446 0.602925
0.117995 0.251727 0.494951
0.236331 0.245500 0.485909
0.487706 0.260437 0.496032
0.739001 0.313908 0.539491
0.910524 0.385481 0.588580
0.207636 0.527369 0.534420
0.296679 0.519742 0.529625
0.497510 0.511173 0.526304
0.712024 0.519670 0.537910
0.875427 0.545718 0.564900
0.327934 0.737994 0.536219
0.386300 0.734010 0.534563
0.530379 0.725221 0.532313
0.703587 0.718549 0.535915
0.849055 0.719431 0.552967
0.449167 0.872701 0.543458
0.486832 0.870727 0.542857
0.585010 0.864153 0.543256
0.714573 0.855475 0.547511
0.834742 0.847348 0.555926
0.202802 0.211637 0.731120
0.312193 0.209262 0.721418
0.543102 0.231093 0.724094
0.766911 0.284824 0.749771
0.921350 0.358067 0.777990
0.221759 0.340156 0.755332
0.321538 0.334352 0.746985
0.536351 0.337453 0.742440
0.751074 0.368994 0.752255
0.906356 0.421440 0.771712
0.279830 0.564868 0.762890
0.355576 0.558691 0.758861
0.531914 0.548755 0.752475
0.725000 0.549833 0.751562
0.877100 0.568085 0.757957
0.370279 0.750883 0.752835
0.422142 0.747242 0.751150
0.553726 0.738745 0.747018
0.716213 0.729767 0.744856
0.850666 0.727825 0.746375
0.462586 0.864163 0.731237
0.496838 0.862036 0.730722
0.589173 0.856051 0.729042
0.712168 0.847329 0.726240
0.827861 0.837946 0.723884
0.324328 0.345360 0.917618
0.405316 0.342042 0.913895
0.585681 0.346640 0.908067
0.773866 0.373779 0.908724
0.915360 0.421501 0.914459
0.332462 0.433062 0.918759
0.408542 0.428119 0.915875
0.578767 0.425378 0.910264
0.761895 0.440420 0.907854
0.904583 0.473980 0.910115
0.366997 0.607412 0.911065
0.427339 0.602647 0.908428
0.572930 0.593082 0.904270
0.740749 0.590068 0.900507
0.880156 0.601262 0.899396
0.424660 0.761561 0.891368
0.468523 0.758625 0.890873
0.582224 0.750442 0.887116
0.723176 0.740286 0.881693
0.846822 0.734185 0.874821
0.481105 0.852193 0.853348
0.510946 0.850334 0.852756
0.593543 0.845301 0.850945
0.707183 0.837360 0.847296
0.815255 0.827642 0.842266
