calib/fujify/repo_cubes_std/pro_neg_std_repo_std.cube
TITLE "Chromasmith repo-rebased - Pro Neg Std"
#repo V-Log look rebased to Camera Standard via Panasonic V-Log math (approx)
LUT_3D_SIZE 9
0.000443 0.000381 0.000092
0.046666 0.011675 0.011566
0.146159 0.024460 0.040349
0.300365 0.046145 0.076959
0.484735 0.077229 0.111238
0.659036 0.117507 0.148084
0.784141 0.173137 0.190544
0.880512 0.232141 0.245315
0.934909 0.291396 0.297749
0.014519 0.051104 0.007440
0.049791 0.053074 0.010512
0.135558 0.063290 0.024905
0.276082 0.084768 0.051355
0.455996 0.112461 0.082839
0.631900 0.152981 0.123631
0.765089 0.203599 0.174577
0.866780 0.259905 0.229133
0.928698 0.314332 0.284015
0.040512 0.147163 0.008825
0.073192 0.146916 0.011997
0.150194 0.151911 0.019768
0.275584 0.167495 0.035758
0.436451 0.191856 0.060092
0.598285 0.229082 0.100160
0.735299 0.272430 0.148425
0.841527 0.318916 0.202734
0.917492 0.365155 0.258273
0.083476 0.296263 0.013900
0.115533 0.295242 0.015381
0.187675 0.295763 0.019191
0.300433 0.302282 0.028153
0.439943 0.317521 0.050504
0.582127 0.342910 0.084599
0.710727 0.372560 0.127565
0.816133 0.406343 0.178016
0.899413 0.441542 0.231282
0.147840 0.462784 0.021477
0.175059 0.460706 0.022557
0.241396 0.458135 0.026337
0.340146 0.457046 0.034540
0.459227 0.461896 0.053321
0.583695 0.472128 0.083662
0.699737 0.489641 0.119916
0.798069 0.510502 0.162618
0.878376 0.532147 0.212219
0.225974 0.608514 0.039037
0.249947 0.606897 0.041004
0.304587 0.603562 0.046995
0.387347 0.600651 0.057658
0.487743 0.599892 0.074319
0.594883 0.601987 0.097671
0.696875 0.607388 0.127528
0.786214 0.615560 0.163132
0.862669 0.625793 0.205546
0.305427 0.724520 0.080196
0.323519 0.723390 0.081633
0.366119 0.720893 0.085146
0.433749 0.717351 0.093159
0.518290 0.713609 0.105596
0.609452 0.710836 0.123713
0.698165 0.710217 0.148358
0.778540 0.711820 0.179269
0.849575 0.715260 0.214924
0.377328 0.810825 0.128522
0.391653 0.810009 0.129828
0.426082 0.808137 0.133050
0.480191 0.805139 0.139172
0.549451 0.801458 0.148134
0.626677 0.797644 0.162460
0.705625 0.794473 0.181137
0.777698 0.792740 0.205665
0.841559 0.792256 0.238071
0.443960 0.877871 0.182341
0.455074 0.877263 0.183222
0.482186 0.875815 0.185433
0.526408 0.873420 0.189623
0.583006 0.869660 0.197803
0.649512 0.865596 0.208641
0.715724 0.861601 0.226350
0.780661 0.858198 0.247276
0.839490 0.855868 0.271248
0.010112 0.009056 0.047452
0.048646 0.015387 0.049070
0.140718 0.024833 0.067886
0.289165 0.050038 0.098874
0.472663 0.080660 0.137189
0.647957 0.122175 0.183789
0.776293 0.175071 0.236070
0.875142 0.232440 0.289519
0.932887 0.291926 0.338514
0.018001 0.057806 0.057857
0.055330 0.059937 0.060006
0.139981 0.068773 0.071267
0.277013 0.089236 0.095875
0.454211 0.116479 0.130319
0.625225 0.155385 0.172609
0.759757 0.205002 0.223187
0.862444 0.259910 0.275786
0.927286 0.315003 0.325715
0.042593 0.158141 0.069641
0.078238 0.157641 0.071094
0.156704 0.162298 0.077474
0.280756 0.174966 0.092309
0.438871 0.197963 0.117973
0.597521 0.233557 0.155469
0.732625 0.274874 0.201266
0.838948 0.320196 0.251139
0.916228 0.365962 0.301690
0.086297 0.311002 0.072664
0.118969 0.309482 0.073798
0.192703 0.308164 0.077679
0.305689 0.311791 0.090058
0.443593 0.324994 0.113404
0.583357 0.347778 0.143043
0.710606 0.376009 0.181482
0.814910 0.408489 0.227750
0.898052 0.442519 0.275539
0.150771 0.471426 0.082092
0.177885 0.469103 0.083087
0.244633 0.466061 0.088002
0.343284 0.464561 0.098220
0.461323 0.467567 0.115222
0.585264 0.476249 0.142214
0.700363 0.492873 0.174221
0.798074 0.512820 0.212619
0.877339 0.533257 0.255633
0.228357 0.613100 0.106328
0.252150 0.611568 0.107835
0.306423 0.608431 0.111371
0.388794 0.604976 0.118940
0.489092 0.603060 0.131793
0.595791 0.604441 0.152346
0.696901 0.609057 0.179161
0.785669 0.616540 0.210542
0.861585 0.626648 0.246686
0.305632 0.725990 0.138671
0.323742 0.724876 0.139711
0.366414 0.722407 0.142266
0.434202 0.718490 0.148807
0.518647 0.714294 0.159135
0.609186 0.711588 0.174053
0.698029 0.710963 0.194759
0.778348 0.712241 0.221626
0.849213 0.715446 0.252606
0.377413 0.810945 0.178229
0.391688 0.810147 0.179234
0.426015 0.808310 0.181732
0.480042 0.805234 0.186639
0.549397 0.801413 0.193886
0.626672 0.797545 0.206070
0.705512 0.794360 0.222131
0.777418 0.792468 0.243690
0.841331 0.791893 0.272925
0.443566 0.877385 0.222925
0.454729 0.876757 0.223637
0.481966 0.875264 0.225428
0.526286 0.872792 0.228973
0.582952 0.869071 0.236186
0.649451 0.865031 0.245884
0.715648 0.860896 0.261745
0.780473 0.857453 0.280552
0.839352 0.855200 0.302137
0.023687 0.023009 0.129214
0.063136 0.025273 0.128889
0.153697 0.037197 0.144632
0.296343 0.060521 0.177891
0.473125 0.089142 0.223292
0.640397 0.129287 0.273260
0.767712 0.180463 0.323498
0.867387 0.237644 0.372202
0.930505 0.294611 0.414117
0.034738 0.074626 0.152468
0.069893 0.074172 0.150789
0.154809 0.082768 0.159867
0.290135 0.099948 0.185330
0.460576 0.125982 0.222229
0.623086 0.164387 0.266478
0.754564 0.210297 0.315157
0.856244 0.264382 0.361969
0.925968 0.317343 0.404313
0.059272 0.182142 0.184824
0.092809 0.180252 0.183279
0.173956 0.181157 0.186974
0.297938 0.189805 0.199762
0.449085 0.212028 0.223866
0.600530 0.243417 0.258355
0.731232 0.282207 0.300553
0.835428 0.324947 0.343180
0.914727 0.368562 0.384955
0.096723 0.335476 0.206176
0.131065 0.333043 0.205645
0.207256 0.329106 0.206993
0.320043 0.327788 0.215456
0.452548 0.339598 0.229666
0.588455 0.358490 0.255076
0.712150 0.383709 0.287239
0.814194 0.413311 0.323835
0.895336 0.445295 0.361598
0.160265 0.488203 0.220974
0.187967 0.485824 0.220950
0.254059 0.481679 0.222314
0.352264 0.478371 0.227449
0.469135 0.479604 0.238314
0.589738 0.487139 0.256474
0.702913 0.499115 0.280272
0.797976 0.516002 0.309700
0.875859 0.535157 0.343162
0.234759 0.622559 0.237908
0.258356 0.620817 0.238141
0.312285 0.617146 0.238824
0.394280 0.613073 0.242095
0.493539 0.610126 0.250422
0.598320 0.609637 0.264117
0.697630 0.612556 0.282262
0.785810 0.618829 0.304901
0.860958 0.627376 0.333088
0.308263 0.728790 0.255906
0.326486 0.727655 0.256237
0.369482 0.725126 0.257111
0.436500 0.721305 0.260462
0.519626 0.717291 0.266159
0.610100 0.713653 0.275436
0.698690 0.712493 0.290187
0.778112 0.713347 0.309345
0.848729 0.716089 0.333009
0.378365 0.811529 0.280054
0.392537 0.810728 0.280512
0.426645 0.808870 0.281685
0.480502 0.805594 0.284524
0.550086 0.801537 0.288943
0.626855 0.797607 0.296910
0.705108 0.794313 0.308304
0.777560 0.791805 0.325522
0.841093 0.791211 0.348191
0.443383 0.876440 0.310600
0.454606 0.875792 0.310938
0.481986 0.874253 0.311806
0.526249 0.871690 0.313981
0.582999 0.867936 0.319126
0.649356 0.863759 0.326289
0.715353 0.859618 0.337616
0.779749 0.856193 0.351486
0.838598 0.853534 0.368261
0.050283 0.050880 0.252879
0.089965 0.053186 0.251319
0.178214 0.061806 0.261737
0.315258 0.079824 0.291596
0.484539 0.104741 0.339166
0.638257 0.143811 0.385171
0.763218 0.192591 0.430728
0.861095 0.246943 0.472560
0.928986 0.301320 0.508092
0.060643 0.102268 0.286144
0.098218 0.101824 0.282968
0.183544 0.105799 0.286946
0.315718 0.120658 0.309165
0.476103 0.143943 0.346001
0.625788 0.180006 0.384873
0.752202 0.224183 0.426491
0.851542 0.273213 0.465993
0.925137 0.323300 0.501261
0.081316 0.213914 0.335767
0.119014 0.210424 0.332372
0.199545 0.208069 0.331660
0.324616 0.216020 0.340671
0.465840 0.233402 0.357505
0.609090 0.259040 0.386969
0.733527 0.294824 0.419449
0.834280 0.333548 0.454190
0.912419 0.374939 0.486823
0.120352 0.361976 0.369285
0.153389 0.358549 0.366711
0.230053 0.351932 0.362786
0.340068 0.351664 0.363647
0.468219 0.359238 0.372600
0.598790 0.373827 0.390281
0.717288 0.395221 0.413771
0.814708 0.422345 0.440859
0.893497 0.450643 0.469394
0.178132 0.507598 0.382165
0.207377 0.505145 0.381221
0.271690 0.500244 0.379321
0.368014 0.495623 0.379458
0.481791 0.494268 0.384893
0.597739 0.499103 0.394049
0.706894 0.508337 0.410391
0.798675 0.522119 0.429712
0.875054 0.539227 0.453632
0.247498 0.633159 0.392011
0.270250 0.631378 0.391368
0.322619 0.627567 0.390082
0.403376 0.622689 0.390491
0.500614 0.618311 0.392416
0.602711 0.616289 0.398375
0.699627 0.618042 0.409562
0.785766 0.623308 0.424802
0.860024 0.630889 0.442827
0.315075 0.733106 0.398783
0.333019 0.731951 0.398462
0.375474 0.729328 0.397808
0.441863 0.725026 0.397992
0.524146 0.720564 0.399752
0.613799 0.716893 0.404115
0.699822 0.714985 0.411859
0.778318 0.714907 0.424244
0.848285 0.716969 0.440846
0.382329 0.812617 0.409527
0.396405 0.811762 0.409549
0.430331 0.809770 0.409652
0.483364 0.806365 0.410171
0.552149 0.802309 0.411037
0.627992 0.797950 0.415444
0.705390 0.794150 0.422793
0.777476 0.791526 0.433951
0.840626 0.790916 0.449129
0.445039 0.875528 0.425983
0.456112 0.874920 0.425968
0.483155 0.873477 0.425975
0.526711 0.870741 0.426978
0.583467 0.866531 0.429905
0.649272 0.862023 0.433989
0.714995 0.858031 0.439957
0.778684 0.854309 0.448450
0.837198 0.850930 0.459193
0.091596 0.093251 0.411286
0.130425 0.093711 0.408150
0.217894 0.098239 0.413980
0.349655 0.111335 0.436993
0.500298 0.135034 0.469265
0.642865 0.170786 0.505487
0.762263 0.215080 0.541754
0.856116 0.264451 0.574677
0.927244 0.314446 0.602925
0.100441 0.143666 0.445117
0.138639 0.142446 0.441780
0.223075 0.143089 0.443444
0.350828 0.153373 0.457242
0.493617 0.174037 0.478312
0.633985 0.205114 0.508445
0.753751 0.245852 0.540634
0.848513 0.291135 0.571209
0.923318 0.335272 0.598542
0.117995 0.251727 0.494951
0.154300 0.248689 0.490817
0.236331 0.245500 0.485909
0.353774 0.248894 0.485952
0.487706 0.260437 0.496032
0.621133 0.284093 0.515101
0.739001 0.313908 0.539491
0.833743 0.349150 0.564117
0.910524 0.385481 0.588580
0.154540 0.390389 0.521932
0.187420 0.387134 0.518737
0.259493 0.382114 0.513145
0.365901 0.380053 0.510465
0.488190 0.383228 0.513708
0.612037 0.393447 0.523594
0.723812 0.411354 0.538382
0.816449 0.433719 0.556189
0.892676 0.459154 0.577065
0.207636 0.527369 0.534420
0.234744 0.524880 0.532865
0.296679 0.519742 0.529625
0.389456 0.513679 0.525730
0.497510 0.511173 0.526304
0.608251 0.513759 0.529047
0.712024 0.519670 0.537910
0.800817 0.530758 0.549184
0.875427 0.545718 0.564900
0.265969 0.643313 0.535742
0.287910 0.641578 0.534703
0.338748 0.637665 0.532822
0.415647 0.632222 0.530835
0.510145 0.627742 0.529429
0.609401 0.624975 0.531294
0.703699 0.625353 0.536512
0.788005 0.628988 0.544822
0.860561 0.635864 0.555743
0.327934 0.737994 0.536219
0.345280 0.736823 0.535666
0.386300 0.734010 0.534563
0.450452 0.729726 0.533206
0.530379 0.725221 0.532313
0.617933 0.721351 0.532449
0.703587 0.718549 0.535915
0.780683 0.717925 0.542867
0.849055 0.719431 0.552967
0.390373 0.813720 0.539823
0.404138 0.812927 0.539553
0.437129 0.810993 0.538939
0.489315 0.807661 0.538050
0.557627 0.803735 0.537100
0.631897 0.799266 0.538647
0.707687 0.795416 0.541863
0.779639 0.792592 0.547001
0.841091 0.791676 0.556126
0.449167 0.872701 0.543458
0.460104 0.872117 0.543275
0.486832 0.870727 0.542857
0.529147 0.867972 0.542824
0.585010 0.864153 0.543256
0.649232 0.859888 0.544550
0.714573 0.855475 0.547511
0.776878 0.851263 0.551537
0.834742 0.847348 0.555926
0.144109 0.148497 0.580289
0.179421 0.147166 0.577090
0.264621 0.147216 0.578606
0.385242 0.157669 0.586548
0.519521 0.177314 0.601054
0.651739 0.207740 0.624677
0.764159 0.245912 0.650071
0.853665 0.289008 0.673273
0.925925 0.332096 0.694148
0.149376 0.195003 0.605634
0.185631 0.193255 0.602462
0.267592 0.192213 0.599559
0.384509 0.197192 0.600109
0.516145 0.214665 0.610029
0.645722 0.240818 0.629203
0.757651 0.274982 0.650908
0.847242 0.312748 0.671604
0.920441 0.353189 0.691405
0.166868 0.293236 0.637955
0.199791 0.290206 0.633368
0.276145 0.287075 0.625751
0.386435 0.288277 0.622123
0.511885 0.297494 0.626128
0.635689 0.314440 0.637227
0.745284 0.338902 0.652615
0.835016 0.367885 0.668517
0.908830 0.399996 0.685518
0.197895 0.421247 0.655030
0.227122 0.418242 0.652380
0.296531 0.413645 0.647305
0.396151 0.409774 0.642555
0.510992 0.409925 0.642065
0.626366 0.417113 0.645464
0.731234 0.430635 0.652852
0.818786 0.449019 0.663445
0.892362 0.471389 0.676755
0.241034 0.545631 0.661153
0.265499 0.543442 0.659541
0.324409 0.538798 0.655606
0.411213 0.533314 0.651679
0.513570 0.529450 0.649516
0.619177 0.529197 0.649072
0.717762 0.533715 0.652222
0.803853 0.542366 0.658289
0.876231 0.555384 0.667898
0.291157 0.653849 0.658678
0.311656 0.652223 0.657819
0.359825 0.648530 0.655785
0.433252 0.643535 0.652949
0.523760 0.638384 0.650233
0.618631 0.634971 0.649214
0.709395 0.634021 0.650611
0.790968 0.636424 0.654926
0.861966 0.642163 0.661366
0.346640 0.743521 0.656224
0.363062 0.742429 0.655690
0.401988 0.739735 0.654037
0.463412 0.735858 0.651481
0.540221 0.731092 0.649909
0.624724 0.726635 0.649324
0.708992 0.723462 0.649748
0.783464 0.722330 0.652033
0.849672 0.723197 0.656963
0.404163 0.816375 0.654411
0.417531 0.815667 0.654130
0.448719 0.813568 0.653434
0.498938 0.810212 0.652331
0.564304 0.806128 0.651015
0.637443 0.801625 0.649823
0.710952 0.797457 0.650027
0.781760 0.793997 0.651666
0.840873 0.791617 0.655151
0.455213 0.868997 0.647372
0.465870 0.868417 0.647192
0.491871 0.867013 0.646767
0.532467 0.864203 0.646038
0.587233 0.860634 0.645157
0.649139 0.856435 0.644840
0.713403 0.851914 0.645269
0.773989 0.847305 0.645778
0.831660 0.842906 0.646206
0.202802 0.211637 0.731120
0.235729 0.209529 0.727394
0.312193 0.209262 0.721418
0.420114 0.216046 0.718683
0.543102 0.231093 0.724094
0.663021 0.253833 0.735953
0.766911 0.284824 0.749771
0.851166 0.318635 0.764536
0.921350 0.358067 0.777990
0.207417 0.252992 0.741246
0.240404 0.251244 0.737403
0.314082 0.249857 0.730838
0.420212 0.253297 0.727438
0.540653 0.263963 0.730760
0.658269 0.284393 0.739378
0.761885 0.309915 0.750992
0.846175 0.341723 0.763568
0.916851 0.376753 0.776071
0.221759 0.340156 0.755332
0.252218 0.337698 0.752360
0.321538 0.334352 0.746985
0.421785 0.333116 0.742493
0.536351 0.337453 0.742440
0.649512 0.350210 0.745249
0.751074 0.368994 0.752255
0.836370 0.392125 0.761506
0.906356 0.421440 0.771712
0.246339 0.452134 0.763441
0.273921 0.449703 0.761711
0.335536 0.445035 0.758076
0.425613 0.440900 0.753239
0.531347 0.439545 0.750207
0.639157 0.443635 0.749598
0.738093 0.453596 0.752919
0.821803 0.468243 0.758014
0.892079 0.488205 0.765467
0.279830 0.564868 0.762890
0.302887 0.562881 0.761656
0.355576 0.558691 0.758861
0.435927 0.553380 0.755581
0.531914 0.548755 0.752475
0.631449 0.547143 0.750962
0.725000 0.549833 0.751562
0.807505 0.556618 0.753991
0.877100 0.568085 0.757957
0.322508 0.665800 0.757431
0.341370 0.664295 0.756756
0.385561 0.660968 0.755203
0.454250 0.655968 0.752829
0.539712 0.650406 0.750001
0.630188 0.646631 0.749426
0.716558 0.644778 0.749018
0.794396 0.646121 0.749352
0.863188 0.650965 0.751794
0.370279 0.750883 0.752835
0.385578 0.749775 0.752331
0.422142 0.747242 0.751150
0.480212 0.743551 0.749347
0.553726 0.738745 0.747018
0.634628 0.733998 0.745276
0.716213 0.729767 0.744856
0.786932 0.727806 0.745075
0.850666 0.727825 0.746375
0.419278 0.817956 0.745396
0.431568 0.817095 0.745126
0.461371 0.815063 0.744492
0.509935 0.811942 0.743527
0.572641 0.807752 0.742247
0.644137 0.802859 0.740574
0.714837 0.798492 0.739779
0.782336 0.794061 0.738691
0.838877 0.790202 0.737323
0.462586 0.864163 0.731237
0.472876 0.863615 0.731141
0.496838 0.862036 0.730722
0.536075 0.859403 0.729978
0.589173 0.856051 0.729042
0.648463 0.851836 0.727787
0.712168 0.847329 0.726240
0.770840 0.842502 0.725025
0.827861 0.837946 0.723884
0.265610 0.280283 0.838626
0.294788 0.278585 0.836153
0.361371 0.277213 0.831684
0.456535 0.280332 0.828055
0.565626 0.289190 0.828073
0.674249 0.304966 0.830806
0.770407 0.326931 0.837021
0.850305 0.355421 0.843953
0.917939 0.387074 0.851849
0.268835 0.313983 0.842233
0.296743 0.312276 0.839879
0.361498 0.310569 0.835487
0.455094 0.311466 0.832027
0.563060 0.317246 0.831165
0.670221 0.330429 0.832506
0.765997 0.350464 0.836863
0.846520 0.375078 0.843346
0.913823 0.405113 0.850315
0.277677 0.386301 0.847466
0.304795 0.384442 0.845714
0.365110 0.381179 0.842085
0.453590 0.379240 0.838175
0.557098 0.381188 0.835756
0.661942 0.388712 0.835544
0.756848 0.402790 0.836712
0.837440 0.421995 0.841498
0.905109 0.445806 0.846891
0.295139 0.483963 0.848556
0.318741 0.481958 0.847330
0.373999 0.477861 0.844720
0.455654 0.473446 0.841268
0.552422 0.471203 0.838220
0.652446 0.473013 0.836700
0.744647 0.479828 0.836858
0.824571 0.491918 0.838364
0.892554 0.508374 0.841431
0.321834 0.585282 0.844681
0.342133 0.583593 0.843764
0.390181 0.579670 0.841805
0.463523 0.574321 0.839000
0.552454 0.569966 0.836222
0.645215 0.567773 0.834746
0.732774 0.568960 0.833643
0.810791 0.574412 0.833509
0.878644 0.583591 0.835269
0.357933 0.678899 0.838530
0.374960 0.677554 0.838118
0.415219 0.674484 0.837075
0.478319 0.669450 0.834439
0.556751 0.664207 0.831776
0.642341 0.659977 0.829905
0.724485 0.657850 0.828277
0.798832 0.658371 0.827784
0.864748 0.661587 0.828098
0.398548 0.758451 0.831576
0.412689 0.757438 0.831181
0.446670 0.755106 0.830253
0.500575 0.751425 0.828818
0.569728 0.746909 0.826945
0.644776 0.741717 0.824348
0.720893 0.737051 0.821580
0.789751 0.733087 0.819287
0.849980 0.731544 0.817656
0.435954 0.815844 0.817408
0.447524 0.815147 0.817205
0.475664 0.813506 0.816718
0.521764 0.810988 0.815944
0.580491 0.806853 0.813897
0.648678 0.801908 0.811062
0.714318 0.796616 0.809223
0.778635 0.791857 0.806929
0.835073 0.787733 0.803807
0.471433 0.858531 0.798659
0.480596 0.857890 0.798514
0.503084 0.856343 0.798162
0.540509 0.853854 0.797599
0.591368 0.850660 0.796884
0.647725 0.846526 0.795066
0.710483 0.842316 0.792910
0.766771 0.837450 0.790772
0.821646 0.832577 0.788287
0.324328 0.345360 0.917618
0.348833 0.344035 0.916359
0.405316 0.342042 0.913895
0.488863 0.341648 0.910934
0.585681 0.346640 0.908067
0.684056 0.357282 0.907518
0.773866 0.373779 0.908724
0.850812 0.394806 0.911632
0.915360 0.421501 0.914459
0.326824 0.372230 0.918860
0.350388 0.370836 0.917579
0.405723 0.368813 0.914929
0.487440 0.368074 0.911637
0.583071 0.371169 0.908958
0.680981 0.379304 0.908302
0.770271 0.393727 0.908640
0.847061 0.413115 0.910751
0.912052 0.437057 0.913048
0.332462 0.433062 0.918759
0.355497 0.431425 0.917800
0.408542 0.428119 0.915875
0.486793 0.425218 0.913125
0.578767 0.425378 0.910264
0.673775 0.430208 0.908371
0.761895 0.440420 0.907854
0.839216 0.454529 0.908704
0.904583 0.473980 0.910115
0.346129 0.516548 0.916339
0.366831 0.514737 0.915426
0.414784 0.511025 0.913578
0.487384 0.506760 0.911686
0.574479 0.503790 0.908865
0.665231 0.504463 0.906626
0.751074 0.509158 0.905412
0.827640 0.518002 0.905247
0.893966 0.531140 0.906660
0.366997 0.607412 0.911065
0.385037 0.605919 0.910288
0.427339 0.602647 0.908428
0.492490 0.597875 0.906244
0.572930 0.593082 0.904270
0.658586 0.589921 0.902278
0.740749 0.590068 0.900507
0.814881 0.594095 0.899722
0.880156 0.601262 0.899396
0.395523 0.692533 0.903907
0.410697 0.691262 0.903438
0.446864 0.688375 0.902266
0.504094 0.684258 0.900511
0.575773 0.678891 0.897880
0.654551 0.674176 0.895191
0.733051 0.671269 0.893159
0.802450 0.670553 0.891083
0.864375 0.672186 0.888824
0.424660 0.761561 0.891368
0.437587 0.760737 0.891320
0.468523 0.758625 0.890873
0.517847 0.754899 0.889241
0.582224 0.750442 0.887116
0.652347 0.745010 0.884613
0.723176 0.740286 0.881693
0.789979 0.736769 0.878352
0.846822 0.734185 0.874821
0.452870 0.812927 0.873337
0.463624 0.812205 0.873131
0.489851 0.810481 0.872628
0.532128 0.807541 0.871673
0.586781 0.803387 0.870079
0.650161 0.798842 0.868026
0.713108 0.794135 0.865160
0.774316 0.789586 0.862058
0.830578 0.785364 0.858842
0.481105 0.852193 0.853348
0.489732 0.851649 0.853177
0.510946 0.850334 0.852756
0.546380 0.848215 0.852047
0.593543 0.845301 0.850945
0.648000 0.841618 0.849318
0.707183 0.837360 0.847296
0.761974 0.832321 0.845004
0.815255 0.827642 0.842266
