calib/fujify/repo_cubes_std/pro_neg_std_repo_std.cube
TITLE "Chromasmith repo-rebased - Pro Neg Std"
#repo V-Log look rebased to Camera Standard via Panasonic V-Log math (approx)
LUT_3D_SIZE 33
0.000443 0.000381 0.000092
0.008876 0.003193 0.002127
0.018132 0.006119 0.004241
0.030865 0.009846 0.006929
0.046666 0.011675 0.011566
0.066598 0.014558 0.016793
0.088907 0.019693 0.021897
0.116651 0.022354 0.030973
0.146159 0.024460 0.040349
0.177770 0.026531 0.049519
0.216002 0.031622 0.058994
0.254675 0.038825 0.066925
0.300365 0.046145 0.076959
0.340072 0.052157 0.085575
0.389905 0.059574 0.095162
0.434829 0.068395 0.101932
0.484735 0.077229 0.111238
0.530790 0.086027 0.118605
0.575074 0.095410 0.129158
0.618355 0.106014 0.140307
0.659036 0.117507 0.148084
0.692826 0.131866 0.159111
0.725053 0.145879 0.169175
0.756513 0.159181 0.177023
0.784141 0.173137 0.190544
0.810113 0.188102 0.204492
0.835331 0.202457 0.216758
0.858219 0.216843 0.230260
0.880512 0.232141 0.245315
0.901455 0.248305 0.258492
0.921853 0.263094 0.271500
0.930224 0.277434 0.284187
0.934909 0.291396 0.297749
0.005974 0.011347 0.002239
0.013078 0.013059 0.003534
0.020817 0.014751 0.004824
0.031565 0.016553 0.006708
0.046403 0.017819 0.010400
0.065357 0.020285 0.014872
0.085435 0.023363 0.019841
0.111840 0.024621 0.029014
0.140644 0.027057 0.037663
0.172825 0.032249 0.045712
0.211868 0.038909 0.054415
0.248885 0.045538 0.061674
0.292310 0.051742 0.071576
0.334155 0.059286 0.079616
0.383720 0.067135 0.088661
0.427946 0.075512 0.095108
0.478150 0.083859 0.104592
0.524233 0.092367 0.112523
0.568838 0.101509 0.123456
0.612552 0.111987 0.134529
0.653665 0.124232 0.142513
0.687930 0.138041 0.154215
0.720780 0.151434 0.164596
0.752746 0.164140 0.172623
0.780516 0.178754 0.187348
0.806815 0.193252 0.201340
0.832356 0.207203 0.213687
0.855854 0.221295 0.227418
0.877992 0.237177 0.242214
0.899132 0.252794 0.255714
0.919706 0.267237 0.268769
0.928308 0.281295 0.281774
0.933746 0.295236 0.295452
0.010561 0.022395 0.003892
0.016120 0.022902 0.004400
0.022100 0.023243 0.004815
0.031728 0.023764 0.006297
0.045666 0.024624 0.008913
0.063699 0.026440 0.013345
0.083862 0.028909 0.018762
0.109899 0.031745 0.026389
0.139116 0.035949 0.033892
0.169197 0.041001 0.041297
0.206922 0.047089 0.049289
0.243547 0.053286 0.056227
0.287329 0.060156 0.065660
0.329072 0.067500 0.073394
0.377508 0.074997 0.081990
0.421455 0.083084 0.088221
0.471674 0.091159 0.097743
0.517535 0.099027 0.106493
0.562463 0.107984 0.117710
0.606806 0.119060 0.128654
0.648037 0.131446 0.136963
0.682800 0.144647 0.149311
0.716275 0.157388 0.159943
0.748675 0.170374 0.168769
0.776634 0.184852 0.184003
0.803278 0.198862 0.198022
0.829159 0.212390 0.210438
0.853181 0.226591 0.224270
0.875246 0.242701 0.238876
0.896598 0.257736 0.252710
0.917359 0.271811 0.265802
0.926231 0.285565 0.279160
0.932482 0.299795 0.292643
0.014140 0.035491 0.005463
0.017694 0.035024 0.005537
0.022300 0.034713 0.005845
0.032860 0.035615 0.007396
0.046953 0.036872 0.009295
0.064368 0.038464 0.013033
0.084562 0.040712 0.017376
0.108356 0.044316 0.022232
0.136614 0.048586 0.029053
0.165688 0.053036 0.035706
0.202823 0.058583 0.043018
0.239838 0.064535 0.050037
0.281497 0.071113 0.058462
0.322964 0.078177 0.065677
0.370579 0.085596 0.073955
0.414624 0.093319 0.080042
0.463954 0.100555 0.090204
0.509036 0.107766 0.099136
0.555093 0.117687 0.110616
0.599674 0.129277 0.121478
0.640701 0.141101 0.130259
0.676124 0.153488 0.143336
0.710293 0.166034 0.153976
0.743220 0.179353 0.164188
0.771442 0.193160 0.179662
0.798536 0.206538 0.193683
0.824868 0.219514 0.206163
0.849172 0.234875 0.219719
0.871489 0.250321 0.234384
0.893131 0.264583 0.248643
0.914139 0.278170 0.261760
0.923390 0.291755 0.275463
0.930783 0.306142 0.288815
0.014519 0.051104 0.007440
0.017681 0.050643 0.007507
0.025193 0.051306 0.008084
0.035835 0.052162 0.008869
0.049791 0.053074 0.010512
0.065532 0.054213 0.012663
0.086000 0.056853 0.015814
0.107754 0.060168 0.018984
0.135558 0.063290 0.024905
0.164725 0.066983 0.030551
0.199512 0.072007 0.037031
0.236328 0.078042 0.043972
0.276082 0.084768 0.051355
0.318030 0.091579 0.058479
0.363487 0.098426 0.065275
0.407407 0.105298 0.071982
0.455996 0.112461 0.082839
0.501091 0.120569 0.091388
0.547307 0.130787 0.102951
0.591312 0.141831 0.113845
0.631900 0.152981 0.123631
0.668265 0.165353 0.136553
0.703060 0.178048 0.147530
0.736533 0.190595 0.158958
0.765089 0.203599 0.174577
0.792721 0.216233 0.188549
0.819641 0.230586 0.200324
0.844132 0.245434 0.214126
0.866780 0.259905 0.229133
0.888758 0.273370 0.243586
0.910064 0.286367 0.256693
0.919781 0.300552 0.270349
0.928698 0.314332 0.284015
0.019099 0.070039 0.009492
0.024867 0.070009 0.009718
0.031308 0.069926 0.009952
0.040897 0.070020 0.010442
0.053876 0.070891 0.011406
0.069144 0.072328 0.012765
0.088274 0.074653 0.015095
0.110120 0.077207 0.018393
0.135806 0.080360 0.022932
0.165596 0.084361 0.028005
0.197616 0.088752 0.032991
0.234009 0.094057 0.039214
0.271616 0.100121 0.045473
0.313594 0.106694 0.051560
0.357851 0.113884 0.058623
0.402257 0.121041 0.066937
0.449425 0.128283 0.076303
0.493164 0.135847 0.083927
0.539039 0.145849 0.095804
0.582586 0.156944 0.106691
0.622756 0.168314 0.116936
0.659639 0.180216 0.129376
0.695154 0.192043 0.141710
0.728753 0.203790 0.153786
0.757943 0.216545 0.168862
0.786263 0.230293 0.181930
0.813567 0.244026 0.193613
0.838212 0.258060 0.207751
0.861274 0.271290 0.223343
0.883592 0.284095 0.237689
0.905058 0.297740 0.250298
0.915603 0.311202 0.264401
0.926340 0.324274 0.278406
0.025517 0.092076 0.011455
0.028881 0.091587 0.011562
0.035759 0.091564 0.011845
0.045930 0.091742 0.012273
0.058181 0.092033 0.012790
0.074060 0.092851 0.014456
0.090939 0.093807 0.016389
0.114037 0.096323 0.019543
0.138209 0.099882 0.022655
0.167701 0.103763 0.026263
0.196631 0.107911 0.029566
0.233618 0.113860 0.034789
0.270191 0.120070 0.040229
0.312680 0.126151 0.047345
0.354190 0.132326 0.054652
0.397922 0.138734 0.062683
0.443319 0.146018 0.070445
0.486445 0.154378 0.077384
0.532015 0.164913 0.089200
0.574251 0.175234 0.099865
0.613436 0.185616 0.110600
0.651001 0.196668 0.123720
0.686936 0.208056 0.135936
0.720657 0.220392 0.147840
0.750497 0.233366 0.162045
0.779242 0.246376 0.174853
0.806854 0.259387 0.186404
0.831689 0.272147 0.201514
0.855101 0.284932 0.216888
0.877654 0.298023 0.230696
0.899404 0.310875 0.243241
0.911054 0.323522 0.257866
0.923859 0.335807 0.272210
0.031458 0.117284 0.011410
0.037508 0.117415 0.011403
0.043865 0.117604 0.011384
0.052193 0.117941 0.011335
0.064988 0.118305 0.012494
0.079684 0.118806 0.013919
0.097916 0.119983 0.015696
0.119393 0.121867 0.017736
0.143060 0.124135 0.020171
0.170448 0.127188 0.023620
0.199802 0.130845 0.027568
0.235985 0.135841 0.032576
0.271504 0.141694 0.037292
0.312665 0.147822 0.044245
0.351579 0.154205 0.050545
0.395436 0.161082 0.057597
0.439361 0.168295 0.064578
0.481984 0.176139 0.072283
0.525462 0.185422 0.083652
0.566041 0.194555 0.094264
0.605171 0.205484 0.105401
0.643076 0.216945 0.117785
0.679135 0.228162 0.129396
0.712642 0.239574 0.141509
0.742888 0.251802 0.155214
0.771923 0.264069 0.167682
0.799782 0.276370 0.179466
0.824725 0.288856 0.194935
0.848422 0.301272 0.209797
0.871259 0.313511 0.223379
0.893266 0.325508 0.235805
0.906365 0.337280 0.251020
0.921361 0.348831 0.265617
0.040512 0.147163 0.008825
0.044589 0.147265 0.008820
0.051347 0.147161 0.009519
0.061133 0.147011 0.010643
0.073192 0.146916 0.011997
0.087970 0.147172 0.013513
0.106200 0.148184 0.015160
0.125472 0.149485 0.016896
0.150194 0.151911 0.019768
0.175592 0.154685 0.022852
0.206836 0.158513 0.026700
0.240286 0.162836 0.030863
0.275584 0.167495 0.035758
0.313685 0.172752 0.041527
0.349926 0.178128 0.046959
0.394137 0.184389 0.053863
0.436451 0.191856 0.060092
0.478128 0.200429 0.068249
0.519913 0.209812 0.078965
0.559619 0.219199 0.088920
0.598285 0.229082 0.100160
0.635835 0.239238 0.112089
0.671744 0.249307 0.123329
0.704954 0.259988 0.135533
0.735299 0.272430 0.148425
0.764448 0.284426 0.160851
0.792640 0.295736 0.172771
0.817580 0.307380 0.188300
0.841527 0.318916 0.202734
0.864594 0.330261 0.216023
0.886343 0.341359 0.228534
0.901418 0.353329 0.243655
0.917492 0.365155 0.258273
0.049727 0.179335 0.011623
0.055734 0.178900 0.012018
0.062196 0.178449 0.012445
0.070902 0.177869 0.013024
0.082889 0.177697 0.013741
0.098041 0.178075 0.014597
0.114929 0.178621 0.015596
0.135676 0.179807 0.017569
0.158802 0.181522 0.020182
0.183515 0.184207 0.023085
0.214434 0.187703 0.026732
0.244926 0.191311 0.030251
0.280199 0.196069 0.034469
0.316014 0.201250 0.038686
0.353451 0.206893 0.043340
0.395039 0.213486 0.049562
0.434552 0.220180 0.055954
0.475236 0.227872 0.065132
0.515556 0.236042 0.075134
0.553918 0.244156 0.084505
0.592222 0.253193 0.095732
0.629462 0.263594 0.106636
0.664918 0.273878 0.117193
0.697358 0.284767 0.129362
0.727804 0.295640 0.142463
0.757242 0.306046 0.154831
0.785453 0.316149 0.166967
0.810493 0.326930 0.182009
0.834623 0.337663 0.195916
0.857966 0.349252 0.208492
0.879365 0.360626 0.220922
0.896152 0.371756 0.236477
0.913578 0.382530 0.251216
0.060063 0.215395 0.013362
0.064495 0.214979 0.013482
0.070978 0.214881 0.013757
0.080456 0.214905 0.014201
0.092384 0.214991 0.014784
0.106453 0.215176 0.015509
0.124022 0.215750 0.016607
0.144391 0.216676 0.017957
0.165823 0.217758 0.019317
0.192719 0.219406 0.021447
0.221022 0.221288 0.023780
0.251036 0.223744 0.026564
0.286053 0.227751 0.030715
0.320513 0.231966 0.034803
0.358283 0.237067 0.040493
0.396665 0.242720 0.047009
0.433780 0.249444 0.053246
0.474123 0.257445 0.062412
0.512917 0.265468 0.071082
0.549992 0.273485 0.079186
0.587797 0.282559 0.090333
0.623918 0.291520 0.101218
0.658442 0.300281 0.112204
0.690364 0.309757 0.124923
0.720965 0.319125 0.137523
0.750564 0.328198 0.149509
0.778639 0.338396 0.161422
0.803876 0.349301 0.175464
0.828162 0.360028 0.188651
0.851488 0.370591 0.200952
0.872722 0.380916 0.214532
0.891047 0.390958 0.230067
0.909712 0.400694 0.244622
0.071057 0.253029 0.009031
0.076811 0.252814 0.009242
0.083077 0.252641 0.009509
0.091654 0.252539 0.010254
0.102531 0.252469 0.011319
0.117585 0.252505 0.012623
0.134892 0.252684 0.014137
0.153818 0.253057 0.015824
0.176575 0.254018 0.018080
0.202070 0.255508 0.020673
0.228087 0.257302 0.023225
0.259873 0.260576 0.026402
0.292818 0.264306 0.029708
0.325858 0.268261 0.033250
0.363236 0.273266 0.039014
0.399733 0.278323 0.044793
0.436426 0.283820 0.051380
0.474748 0.290389 0.059516
0.511541 0.297028 0.067138
0.547568 0.304021 0.075511
0.584130 0.311626 0.087284
0.619176 0.319084 0.098356
0.652906 0.327123 0.108219
0.684654 0.336301 0.120325
0.715335 0.345330 0.132040
0.745012 0.354196 0.143396
0.772596 0.363440 0.155867
0.797749 0.373254 0.169475
0.821939 0.382952 0.182471
0.845274 0.392450 0.195268
0.866532 0.401703 0.209216
0.886135 0.410803 0.224314
0.905063 0.420309 0.238041
0.083476 0.296263 0.013900
0.088695 0.296015 0.014083
0.094685 0.295770 0.014320
0.103852 0.295516 0.014785
0.115533 0.295242 0.015381
0.129502 0.294993 0.016095
0.145442 0.294819 0.016912
0.165089 0.295088 0.017966
0.187675 0.295763 0.019191
0.211373 0.296651 0.020443
0.238625 0.298121 0.022320
0.269467 0.300147 0.025087
0.300433 0.302282 0.028153
0.334113 0.305211 0.032630
0.369351 0.308738 0.038114
0.403918 0.312347 0.043862
0.439943 0.317521 0.050504
0.476106 0.323510 0.057960
0.511230 0.329494 0.065193
0.546787 0.336024 0.074426
0.582127 0.342910 0.084599
0.616183 0.349751 0.094126
0.648884 0.356868 0.103994
0.680279 0.364768 0.115937
0.710727 0.372560 0.127565
0.740278 0.380230 0.138901
0.767157 0.388642 0.151677
0.792066 0.397455 0.165223
0.816133 0.406343 0.178016
0.839479 0.415508 0.189919
0.860669 0.424395 0.203574
0.880330 0.433069 0.217824
0.899413 0.441542 0.231282
0.098558 0.337854 0.013387
0.103905 0.337656 0.013549
0.109790 0.337452 0.013728
0.117945 0.337192 0.013979
0.128408 0.336900 0.014304
0.141025 0.336610 0.014702
0.158331 0.336677 0.015314
0.177759 0.336850 0.016012
0.198776 0.337132 0.016773
0.222357 0.337658 0.018047
0.250428 0.338636 0.020667
0.279114 0.339777 0.023386
0.308822 0.341258 0.027034
0.342269 0.343869 0.032760
0.375450 0.346655 0.038472
0.408497 0.349745 0.044265
0.443834 0.354173 0.050975
0.478422 0.358665 0.057611
0.512183 0.363203 0.064173
0.547112 0.368719 0.073556
0.581096 0.374310 0.082683
0.613978 0.379900 0.091360
0.645847 0.386139 0.101686
0.676878 0.392859 0.113405
0.707059 0.399910 0.124631
0.736249 0.407292 0.135465
0.762127 0.415693 0.148092
0.786889 0.424057 0.160662
0.810930 0.432193 0.172787
0.834280 0.440085 0.184427
0.855071 0.447861 0.198331
0.874832 0.455515 0.212171
0.894072 0.463029 0.225283
0.113113 0.382029 0.011664
0.118075 0.381709 0.011985
0.123560 0.381364 0.012344
0.131335 0.380910 0.012851
0.142759 0.380459 0.013524
0.156612 0.379945 0.014361
0.172669 0.379397 0.015361
0.190640 0.378846 0.016520
0.211297 0.378455 0.018143
0.236262 0.378503 0.020761
0.262355 0.378685 0.023533
0.289242 0.379020 0.026435
0.319712 0.380235 0.030897
0.350959 0.381755 0.035786
0.382074 0.383422 0.040784
0.414831 0.385960 0.046399
0.448464 0.389091 0.052411
0.481554 0.392313 0.058464
0.514594 0.396367 0.065310
0.548156 0.401393 0.073537
0.580882 0.406483 0.081362
0.612743 0.411622 0.088915
0.644069 0.417719 0.099908
0.674518 0.423950 0.111099
0.704015 0.430178 0.121782
0.732283 0.436545 0.132307
0.757618 0.443805 0.144935
0.782255 0.450885 0.157111
0.806215 0.457770 0.168800
0.829490 0.464449 0.180014
0.849870 0.471261 0.194056
0.869740 0.477980 0.207417
0.889048 0.484935 0.220338
0.131067 0.422504 0.017146
0.136205 0.422158 0.017427
0.141899 0.421782 0.017744
0.149853 0.421272 0.018194
0.160167 0.420636 0.018791
0.172762 0.419900 0.019542
0.187476 0.419098 0.020449
0.205808 0.418509 0.021879
0.227284 0.418146 0.023784
0.250308 0.417869 0.025876
0.274552 0.417710 0.028131
0.301523 0.418089 0.031420
0.330217 0.418851 0.035330
0.359260 0.419760 0.039262
0.388981 0.421020 0.043318
0.421287 0.423446 0.048051
0.453374 0.426058 0.052773
0.485105 0.428860 0.057480
0.517664 0.432436 0.064275
0.550039 0.436252 0.072614
0.581782 0.440135 0.080921
0.612874 0.444289 0.089743
0.643294 0.449361 0.100449
0.672868 0.454504 0.110757
0.701584 0.459724 0.120665
0.728634 0.465338 0.131345
0.753745 0.471351 0.143373
0.778208 0.477212 0.154926
0.801966 0.483318 0.165624
0.824486 0.489525 0.176630
0.844766 0.496016 0.190136
0.864464 0.502403 0.203205
0.883549 0.508661 0.215654
0.147840 0.462784 0.021477
0.152623 0.462407 0.021663
0.157937 0.461994 0.021872
0.165378 0.461426 0.022168
0.175059 0.460706 0.022557
0.187665 0.459979 0.023173
0.203567 0.459368 0.024103
0.221569 0.458741 0.025163
0.241396 0.458135 0.026337
0.262753 0.457587 0.027606
0.286844 0.457264 0.029547
0.313092 0.457115 0.032012
0.340146 0.457046 0.034540
0.367771 0.457084 0.037555
0.397934 0.458406 0.042616
0.428629 0.460090 0.047941
0.459227 0.461896 0.053321
0.490018 0.463981 0.059401
0.521712 0.466643 0.067475
0.552963 0.469366 0.075568
0.583695 0.472128 0.083662
0.613814 0.475664 0.092866
0.643165 0.480106 0.102351
0.671789 0.484848 0.111292
0.699737 0.489641 0.119916
0.725689 0.494845 0.130292
0.750428 0.500141 0.141199
0.774513 0.505339 0.151796
0.798069 0.510502 0.162618
0.819887 0.515856 0.174614
0.839961 0.521369 0.187688
0.859451 0.526799 0.200215
0.878376 0.532147 0.212219
0.166368 0.499990 0.019826
0.170951 0.499640 0.020210
0.176405 0.499352 0.020680
0.184059 0.498955 0.021344
0.194042 0.498452 0.022219
0.206321 0.497858 0.023307
0.220780 0.497193 0.024607
0.237246 0.496482 0.026113
0.255500 0.495754 0.027815
0.277128 0.494988 0.030306
0.300750 0.494245 0.033196
0.325491 0.493612 0.036341
0.351026 0.493232 0.039847
0.378472 0.493676 0.044087
0.407267 0.494709 0.048818
0.436305 0.495856 0.053555
0.465414 0.497119 0.058269
0.495681 0.498971 0.064889
0.526030 0.501074 0.071851
0.556056 0.503317 0.078674
0.585669 0.505719 0.085402
0.614732 0.509272 0.093890
0.643288 0.512883 0.102249
0.671320 0.516525 0.110514
0.698738 0.520194 0.118842
0.723667 0.524401 0.129994
0.748004 0.528617 0.140943
0.771737 0.532839 0.151572
0.794867 0.537055 0.161862
0.815739 0.541599 0.174058
0.835543 0.546210 0.186502
0.854815 0.550779 0.198494
0.873569 0.555304 0.210050
0.186222 0.537680 0.031973
0.190691 0.537416 0.032292
0.195672 0.537125 0.032649
0.202679 0.536724 0.033156
0.211848 0.536211 0.033826
0.223170 0.535599 0.034663
0.236562 0.534906 0.035669
0.252397 0.534152 0.036981
0.271277 0.533365 0.038803
0.291853 0.532583 0.040813
0.313880 0.531837 0.042990
0.337113 0.531158 0.045316
0.362166 0.530912 0.048117
0.388929 0.531149 0.051424
0.416235 0.531488 0.054830
0.443887 0.531941 0.058317
0.472309 0.532784 0.062767
0.501542 0.534129 0.068471
0.530650 0.535626 0.074246
0.559520 0.537281 0.080101
0.588115 0.539393 0.086983
0.616464 0.541844 0.095287
0.644457 0.544283 0.103948
0.672005 0.546748 0.112516
0.698140 0.549561 0.121927
0.722443 0.552853 0.132470
0.746211 0.556169 0.142731
0.769438 0.559497 0.152687
0.791950 0.563019 0.162210
0.811945 0.567133 0.173898
0.831509 0.571216 0.185254
0.850655 0.575268 0.196280
0.869401 0.579287 0.206980
0.206008 0.574015 0.038455
0.210109 0.573748 0.038679
0.214686 0.573455 0.038930
0.221137 0.573047 0.039286
0.229598 0.572524 0.039759
0.240733 0.571882 0.040490
0.254445 0.571135 0.041471
0.270201 0.570313 0.042613
0.287838 0.569438 0.043910
0.307167 0.568537 0.045356
0.327980 0.567635 0.046942
0.350710 0.567024 0.048954
0.375081 0.566709 0.051384
0.400281 0.566471 0.053964
0.426100 0.566325 0.056687
0.452515 0.566375 0.059809
0.480260 0.567084 0.065606
0.508151 0.567884 0.071831
0.536068 0.568782 0.078090
0.563911 0.569771 0.084383
0.591780 0.571094 0.092593
0.619231 0.572628 0.100502
0.646325 0.574316 0.108224
0.673023 0.576149 0.115760
0.697458 0.578668 0.124893
0.721095 0.581364 0.134184
0.744325 0.584102 0.143235
0.767139 0.586870 0.152042
0.788711 0.589834 0.161764
0.808582 0.593082 0.173052
0.828072 0.596333 0.184056
0.847191 0.599587 0.194776
0.865856 0.602832 0.205383
0.225974 0.608514 0.039037
0.230126 0.608230 0.039287
0.234768 0.607916 0.039568
0.241323 0.607475 0.040073
0.249947 0.606897 0.041004
0.260652 0.606198 0.042165
0.273397 0.605394 0.043556
0.288088 0.604507 0.045170
0.304587 0.603562 0.046995
0.322730 0.602589 0.049019
0.342943 0.601875 0.051638
0.364597 0.601243 0.054555
0.387347 0.600651 0.057658
0.410995 0.600120 0.060924
0.435354 0.599665 0.064332
0.461314 0.599729 0.069248
0.487743 0.599892 0.074319
0.514431 0.600135 0.079428
0.541249 0.600463 0.084549
0.568110 0.601093 0.090753
0.594883 0.601987 0.097671
0.621472 0.603004 0.104555
0.647816 0.604138 0.111401
0.673292 0.605528 0.118763
0.696875 0.607388 0.127528
0.720130 0.609295 0.136134
0.743038 0.611240 0.144571
0.765584 0.613214 0.152833
0.786214 0.615560 0.163132
0.805896 0.618049 0.174190
0.825193 0.620586 0.184977
0.844116 0.623169 0.195431
0.862669 0.625793 0.205546
0.246395 0.640232 0.052226
0.250229 0.639990 0.052541
0.254519 0.639723 0.052895
0.260584 0.639350 0.053397
0.268573 0.638867 0.054062
0.278516 0.638280 0.054897
0.290390 0.637601 0.055903
0.304124 0.636844 0.057080
0.319852 0.636071 0.058621
0.337492 0.635303 0.060572
0.356618 0.634516 0.062717
0.377051 0.633728 0.065040
0.398606 0.632960 0.067529
0.421102 0.632230 0.070168
0.445202 0.631772 0.073901
0.470051 0.631410 0.077910
0.495361 0.631122 0.082027
0.520993 0.630920 0.086235
0.546818 0.630889 0.090943
0.572730 0.631186 0.097049
0.598635 0.631577 0.103237
0.624457 0.632058 0.109501
0.650135 0.632626 0.115844
0.674013 0.633602 0.123570
0.697139 0.634735 0.131647
0.719967 0.635901 0.139752
0.742466 0.637112 0.147903
0.764402 0.638449 0.156284
0.784180 0.640286 0.166993
0.803625 0.642184 0.177429
0.822637 0.644225 0.187337
0.841221 0.646415 0.196742
0.859092 0.648781 0.206317
0.267139 0.670768 0.063251
0.270695 0.670555 0.063486
0.274678 0.670319 0.063751
0.280317 0.669988 0.064128
0.287758 0.669559 0.064631
0.297041 0.669033 0.065265
0.308394 0.668403 0.066269
0.321589 0.667688 0.067478
0.336508 0.666905 0.068862
0.353028 0.666068 0.070417
0.371005 0.665195 0.072136
0.390282 0.664305 0.074011
0.410694 0.663416 0.076033
0.432806 0.662684 0.079036
0.455780 0.662000 0.082248
0.479418 0.661374 0.085612
0.503568 0.660823 0.089117
0.528094 0.660360 0.092754
0.552963 0.660102 0.098192
0.578009 0.659911 0.103853
0.603129 0.659771 0.109774
0.628187 0.659662 0.116049
0.652313 0.659741 0.122386
0.674889 0.660202 0.129769
0.697342 0.660773 0.137132
0.719639 0.661458 0.144454
0.741752 0.662258 0.151716
0.762422 0.663424 0.160306
0.781771 0.664895 0.169911
0.800826 0.666448 0.179308
0.819583 0.668073 0.188501
0.838039 0.669764 0.197496
0.855238 0.671764 0.207501
0.287777 0.699476 0.072205
0.291119 0.699251 0.072442
0.294866 0.699001 0.072708
0.300175 0.698650 0.073085
0.307190 0.698190 0.073584
0.315954 0.697624 0.074209
0.326468 0.696956 0.074961
0.338692 0.696198 0.075836
0.352554 0.695360 0.076830
0.367951 0.694459 0.077935
0.384763 0.693512 0.079141
0.402999 0.692561 0.080631
0.422832 0.691671 0.082872
0.443683 0.690777 0.085864
0.465416 0.689899 0.089026
0.487888 0.689051 0.092346
0.510967 0.688245 0.095809
0.534417 0.687519 0.100542
0.558135 0.686878 0.105682
0.582036 0.686328 0.110882
0.606028 0.685877 0.116122
0.630026 0.685536 0.121385
0.652600 0.685550 0.128118
0.674947 0.685703 0.135048
0.697215 0.685965 0.141956
0.719366 0.686339 0.148819
0.741368 0.686828 0.155617
0.760711 0.687784 0.164756
0.779800 0.688813 0.173789
0.798644 0.689906 0.182695
0.817233 0.691056 0.191478
0.835564 0.692257 0.200140
0.852076 0.693910 0.210510
0.305427 0.724520 0.080196
0.308536 0.724323 0.080441
0.312024 0.724103 0.080717
0.316972 0.723794 0.081110
0.323519 0.723390 0.081633
0.331714 0.722891 0.082295
0.341568 0.722303 0.083099
0.353055 0.721633 0.084049
0.366119 0.720893 0.085146
0.380678 0.720096 0.086390
0.397058 0.719220 0.088389
0.414813 0.718299 0.090678
0.433749 0.717351 0.093159
0.453730 0.716391 0.095824
0.474620 0.715431 0.098664
0.496283 0.714487 0.101669
0.518290 0.713609 0.105596
0.540645 0.712802 0.109981
0.563357 0.712063 0.114473
0.586323 0.711404 0.119056
0.609452 0.710836 0.123713
0.632025 0.710465 0.129285
0.654077 0.710280 0.135651
0.676140 0.710196 0.142016
0.698165 0.710217 0.148358
0.720112 0.710347 0.154654
0.740672 0.710695 0.162067
0.759699 0.711230 0.170695
0.778540 0.711820 0.179269
0.797178 0.712459 0.187784
0.815604 0.713142 0.196243
0.833349 0.714007 0.204986
0.849575 0.715260 0.214924
0.323376 0.748613 0.092111
0.326287 0.748442 0.092309
0.329556 0.748252 0.092532
0.334197 0.747985 0.092851
0.340345 0.747634 0.093276
0.348054 0.747200 0.093815
0.357340 0.746686 0.094473
0.368206 0.746093 0.095284
0.380916 0.745331 0.096765
0.395113 0.744496 0.098443
0.410707 0.743598 0.100317
0.427593 0.742650 0.102383
0.445652 0.741664 0.104637
0.464762 0.740655 0.107073
0.484796 0.739634 0.109687
0.505170 0.738687 0.113052
0.526033 0.737794 0.116763
0.547415 0.736946 0.120613
0.569210 0.736157 0.124589
0.591320 0.735439 0.128677
0.613433 0.734827 0.133212
0.634997 0.734383 0.138907
0.656672 0.734026 0.144623
0.678401 0.733764 0.150337
0.700134 0.733602 0.156027
0.721797 0.733546 0.161702
0.740662 0.733617 0.169910
0.759339 0.733637 0.177876
0.777849 0.733735 0.185609
0.796201 0.733941 0.193173
0.814382 0.734254 0.200567
0.831162 0.734877 0.209239
0.847144 0.735652 0.218560
0.341950 0.771872 0.104551
0.344685 0.771722 0.104712
0.347757 0.771553 0.104892
0.352123 0.771316 0.105151
0.358032 0.770932 0.105763
0.365466 0.770444 0.106574
0.374434 0.769861 0.107562
0.384927 0.769186 0.108733
0.396913 0.768425 0.110089
0.410331 0.767587 0.111633
0.425106 0.766680 0.113364
0.441114 0.765690 0.115270
0.458240 0.764624 0.117329
0.476410 0.763528 0.119541
0.494846 0.762541 0.122384
0.514048 0.761564 0.125371
0.533923 0.760609 0.128476
0.554364 0.759689 0.131683
0.575275 0.758814 0.134978
0.596543 0.757997 0.138377
0.617328 0.757272 0.143011
0.638330 0.756605 0.147778
0.659489 0.755992 0.152690
0.680743 0.755441 0.157691
0.702043 0.754956 0.162769
