calib/fujify/repo_cubes_std/provia_repo_std.cube
TITLE "Chromasmith repo-rebased - Provia"
#repo V-Log look rebased to Camera Standard via Panasonic V-Log math (approx)
LUT_3D_SIZE 9
0.000473 0.000290 0.000061
0.058754 0.006893 0.005833
0.207835 0.012069 0.019895
0.411168 0.024218 0.040126
0.615108 0.048447 0.059527
0.791052 0.087293 0.085495
0.916137 0.147972 0.129525
0.983014 0.216610 0.190107
0.999586 0.284187 0.253537
0.003821 0.049281 0.004515
0.043878 0.047770 0.004296
0.172150 0.051975 0.005253
0.363392 0.065062 0.011552
0.571099 0.087454 0.025950
0.755159 0.125521 0.053439
0.894688 0.182091 0.105887
0.971217 0.245138 0.167060
0.998531 0.307206 0.234692
0.001599 0.154779 0.000533
0.037204 0.150922 0.000889
0.148005 0.150689 0.001744
0.322783 0.158727 0.002565
0.519672 0.178343 0.002841
0.702488 0.212711 0.026427
0.853253 0.257539 0.065116
0.951421 0.307135 0.127972
0.991947 0.358330 0.198910
0.016458 0.315727 0.000904
0.046339 0.311933 0.000738
0.141416 0.307337 0.000777
0.303615 0.306358 0.000571
0.486093 0.315646 0.000303
0.660534 0.336690 0.011988
0.808341 0.364897 0.036954
0.919084 0.398910 0.090587
0.974721 0.436976 0.158051
0.038778 0.486697 0.000458
0.056984 0.483187 0.000430
0.149155 0.477111 0.000420
0.297163 0.470987 0.000368
0.467547 0.470634 0.003383
0.631387 0.476370 0.008779
0.770930 0.490074 0.026165
0.879663 0.508701 0.066785
0.956258 0.531103 0.127990
0.041498 0.639648 0.000473
0.081144 0.636914 0.000886
0.168803 0.631021 0.002936
0.300220 0.623477 0.005675
0.454729 0.616197 0.009595
0.605146 0.611611 0.017744
0.735699 0.611948 0.034046
0.843362 0.617482 0.059911
0.929750 0.627454 0.112962
0.105703 0.755871 0.013525
0.132475 0.753666 0.014294
0.194221 0.748609 0.016075
0.305614 0.740281 0.019757
0.448584 0.730525 0.025397
0.587180 0.721925 0.034926
0.709203 0.717352 0.049596
0.812764 0.716387 0.075532
0.897258 0.718401 0.117511
0.156539 0.841485 0.038400
0.179198 0.839608 0.039157
0.233105 0.835171 0.040984
0.324467 0.828127 0.044964
0.448747 0.819248 0.051183
0.572600 0.810625 0.062310
0.691315 0.803217 0.078108
0.790513 0.798566 0.101874
0.872465 0.796594 0.136781
0.203112 0.906258 0.074079
0.223476 0.904679 0.074773
0.272981 0.900868 0.076514
0.352885 0.894823 0.079944
0.453588 0.887611 0.087213
0.571799 0.879586 0.096461
0.674647 0.872485 0.113129
0.772228 0.866341 0.134862
0.853844 0.861974 0.163213
0.009898 0.006267 0.054081
0.057981 0.008554 0.048204
0.197136 0.011450 0.054906
0.392658 0.027298 0.068243
0.597529 0.051129 0.093010
0.776023 0.090588 0.129959
0.907002 0.148702 0.185740
0.977003 0.215456 0.241961
0.999671 0.282862 0.298675
0.004547 0.053733 0.057186
0.047546 0.052381 0.053235
0.171393 0.055033 0.052752
0.357196 0.068115 0.061663
0.562400 0.090194 0.081001
0.744337 0.126502 0.114069
0.886307 0.182482 0.166236
0.966472 0.243865 0.222720
0.997947 0.306130 0.281745
0.001399 0.164146 0.049535
0.040325 0.160154 0.045882
0.149621 0.158969 0.043079
0.323556 0.165127 0.045438
0.516142 0.183046 0.058454
0.697754 0.215785 0.084857
0.846754 0.258464 0.131563
0.947740 0.307124 0.187624
0.989901 0.357778 0.248726
0.015200 0.327329 0.029740
0.047156 0.323608 0.028033
0.140939 0.317861 0.024238
0.303312 0.315076 0.023938
0.485008 0.321995 0.037371
0.657780 0.340717 0.060864
0.804397 0.366994 0.097061
0.914235 0.399746 0.151115
0.972749 0.437031 0.209649
0.038932 0.494876 0.029077
0.055523 0.491211 0.028156
0.149197 0.484961 0.024466
0.296401 0.478253 0.021466
0.466476 0.476214 0.027753
0.629406 0.479738 0.045383
0.767017 0.492123 0.079964
0.875249 0.510082 0.124777
0.953555 0.531427 0.179383
0.042701 0.643339 0.035924
0.081583 0.640460 0.034779
0.167415 0.634229 0.032016
0.298344 0.626330 0.028849
0.452390 0.618450 0.031065
0.602151 0.613204 0.051902
0.732257 0.612867 0.080682
0.839763 0.618038 0.116778
0.926594 0.627681 0.162941
0.104898 0.756575 0.057404
0.131312 0.754206 0.056967
0.192195 0.748751 0.055886
0.303627 0.740340 0.056131
0.445529 0.730781 0.058052
0.584412 0.722263 0.065551
0.706504 0.717449 0.089070
0.810023 0.716160 0.123291
0.894921 0.718134 0.163907
0.155948 0.840873 0.088698
0.178106 0.838990 0.088670
0.230808 0.834542 0.088587
0.321994 0.827461 0.090258
0.446658 0.818531 0.093828
0.570012 0.809952 0.103193
0.688376 0.802667 0.117561
0.788188 0.798087 0.142339
0.870534 0.796139 0.177545
0.202660 0.905151 0.124490
0.222809 0.903585 0.124835
0.271787 0.899803 0.125718
0.350816 0.893837 0.127754
0.451662 0.886762 0.132833
0.569688 0.878888 0.139679
0.672852 0.871698 0.154686
0.770295 0.865564 0.174719
0.851838 0.861308 0.201190
0.020118 0.011665 0.167839
0.071449 0.011756 0.156957
0.203951 0.017868 0.156556
0.386676 0.032647 0.170792
0.586202 0.056151 0.202753
0.759407 0.095225 0.244044
0.893871 0.151775 0.291558
0.968978 0.216628 0.338942
0.998489 0.282774 0.385009
0.015275 0.063955 0.185459
0.059954 0.060258 0.175161
0.181777 0.064122 0.168669
0.360315 0.074663 0.176220
0.557734 0.096297 0.198954
0.733624 0.133789 0.233910
0.874239 0.185444 0.278236
0.960365 0.244942 0.324262
0.995694 0.305988 0.371052
0.016684 0.182583 0.199897
0.050917 0.177776 0.192523
0.164428 0.173554 0.183439
0.332950 0.176181 0.181574
0.518340 0.193298 0.191429
0.693377 0.223231 0.216220
0.838233 0.263539 0.253728
0.941944 0.309350 0.296436
0.985449 0.358382 0.343161
0.022488 0.345726 0.198559
0.054454 0.341619 0.194150
0.152998 0.333761 0.185693
0.314171 0.327791 0.179699
0.488021 0.334279 0.184187
0.655876 0.349241 0.199870
0.798172 0.372525 0.228473
0.906284 0.402722 0.267444
0.969436 0.438182 0.309415
0.040144 0.509707 0.192979
0.062266 0.505942 0.190403
0.154978 0.498349 0.183866
0.301735 0.489895 0.177443
0.468066 0.485520 0.176797
0.626909 0.487037 0.188673
0.761977 0.496461 0.210681
0.867848 0.512077 0.242667
0.948783 0.532470 0.281856
0.052854 0.649612 0.190306
0.088824 0.646764 0.187501
0.167987 0.640588 0.181345
0.298166 0.631266 0.176727
0.450060 0.622219 0.177115
0.597642 0.616104 0.186473
0.726809 0.614778 0.204872
0.833840 0.619327 0.230865
0.920369 0.628580 0.263775
0.107024 0.757606 0.191878
0.132311 0.755186 0.190907
0.190505 0.749664 0.188772
0.302547 0.741127 0.187399
0.442287 0.731345 0.187727
0.581415 0.722450 0.193115
0.701988 0.717170 0.209752
0.804852 0.715983 0.232546
0.890378 0.718042 0.261019
0.156563 0.839559 0.207821
0.177688 0.837724 0.206990
0.227920 0.833399 0.205065
0.319185 0.826308 0.204824
0.444064 0.817310 0.206059
0.565856 0.809020 0.212498
0.683371 0.801994 0.223204
0.784434 0.797058 0.241607
0.866729 0.795301 0.267555
0.202837 0.902796 0.234242
0.222464 0.901266 0.233909
0.270154 0.897576 0.233139
0.347306 0.891825 0.232582
0.448530 0.884941 0.233908
0.566012 0.877238 0.236987
0.669465 0.870067 0.247800
0.766276 0.863984 0.263146
0.847998 0.859360 0.284251
0.045932 0.029022 0.330766
0.096352 0.029520 0.318217
0.220531 0.033692 0.310420
0.393347 0.046597 0.317835
0.582922 0.067958 0.344634
0.749234 0.105826 0.378733
0.880584 0.161057 0.417266
0.961820 0.222380 0.454847
0.995263 0.285763 0.490422
0.039829 0.082981 0.356043
0.088172 0.080585 0.344279
0.207885 0.080367 0.331998
0.376778 0.090523 0.332194
0.562247 0.109385 0.349479
0.729237 0.146837 0.375673
0.864149 0.195723 0.409937
0.954829 0.249855 0.445167
0.991180 0.308706 0.480363
0.029912 0.207152 0.384694
0.077964 0.201622 0.374559
0.188953 0.194791 0.360049
0.353486 0.197676 0.352263
0.528995 0.211125 0.354420
0.695609 0.235994 0.371569
0.832341 0.272809 0.396057
0.933558 0.314971 0.427101
0.979855 0.362037 0.459696
0.040434 0.368465 0.398927
0.067360 0.363625 0.391892
0.178797 0.353118 0.377830
0.332578 0.348012 0.364416
0.499337 0.350630 0.359382
0.659614 0.361133 0.365036
0.794504 0.380770 0.380756
0.897731 0.409025 0.404859
0.965735 0.441756 0.433846
0.044022 0.525838 0.394340
0.083917 0.521828 0.389414
0.170541 0.513527 0.378807
0.316827 0.503914 0.366300
0.476407 0.496832 0.357345
0.628270 0.495891 0.357385
0.757350 0.502880 0.368100
0.861313 0.516446 0.384993
0.943651 0.535187 0.410882
0.072882 0.656354 0.383936
0.104627 0.653539 0.380292
0.175640 0.647326 0.372222
0.305852 0.637349 0.362916
0.453052 0.627364 0.355465
0.596214 0.620402 0.354318
0.722316 0.618729 0.360668
0.827699 0.622292 0.374482
0.913602 0.630082 0.395599
0.117348 0.759064 0.376107
0.140345 0.756599 0.373878
0.194825 0.750943 0.368765
0.308135 0.742437 0.362115
0.443812 0.732989 0.356171
0.580674 0.724413 0.354231
0.698496 0.718923 0.359397
0.799514 0.717100 0.370976
0.884643 0.718596 0.388134
0.162895 0.837866 0.376051
0.182822 0.836068 0.374462
0.230247 0.831807 0.370699
0.322242 0.824924 0.367088
0.445337 0.816352 0.362849
0.564151 0.808147 0.362504
0.679900 0.801050 0.365533
0.780080 0.796245 0.373836
0.861292 0.794312 0.391727
0.207715 0.899663 0.385164
0.226352 0.898235 0.384052
0.271668 0.894787 0.381368
0.346283 0.889331 0.378148
0.447479 0.882393 0.375791
0.562768 0.874747 0.374330
0.665748 0.867799 0.377070
0.760986 0.861593 0.384421
0.842727 0.856366 0.396433
0.087972 0.062479 0.509491
0.137490 0.061395 0.497576
0.255880 0.062592 0.484511
0.415636 0.072639 0.483858
0.588024 0.093317 0.496609
0.745145 0.131375 0.520459
0.870382 0.181002 0.547365
0.957725 0.235945 0.572797
0.990355 0.295340 0.596919
0.083206 0.117312 0.534994
0.132787 0.114500 0.523238
0.246779 0.110823 0.508062
0.403628 0.118111 0.500402
0.572891 0.137490 0.504383
0.729434 0.170451 0.521681
0.856932 0.214217 0.544337
0.947147 0.264875 0.566630
0.986069 0.317351 0.589796
0.075949 0.240033 0.567422
0.120827 0.235240 0.557078
0.230752 0.228198 0.539651
0.382310 0.227213 0.523933
0.547220 0.236016 0.517930
0.700353 0.258222 0.524104
0.828603 0.288710 0.537176
0.924592 0.327477 0.554657
0.975841 0.369718 0.576201
0.070346 0.392479 0.582139
0.115723 0.387520 0.574254
0.214147 0.378860 0.558474
0.359226 0.372078 0.540805
0.517051 0.370393 0.528726
0.666708 0.377208 0.524737
0.792720 0.393872 0.528765
0.890896 0.418656 0.540794
0.961956 0.448349 0.557900
0.078743 0.540821 0.576590
0.116562 0.536705 0.570743
0.205087 0.528118 0.558422
0.342999 0.517583 0.542958
0.490587 0.508843 0.529591
0.631464 0.506771 0.521044
0.755290 0.511647 0.520483
0.856577 0.523384 0.526891
0.938168 0.540213 0.539869
0.103415 0.663073 0.561091
0.131134 0.660055 0.557093
0.202260 0.653028 0.548161
0.325573 0.642600 0.535232
0.464975 0.632826 0.523439
0.601035 0.626272 0.515386
0.721663 0.624255 0.513142
0.823496 0.626701 0.517012
0.906598 0.633301 0.526308
0.136561 0.760086 0.546671
0.156919 0.757788 0.543928
0.215041 0.752408 0.537622
0.324211 0.744239 0.528082
0.452442 0.735217 0.518454
0.583385 0.726833 0.510518
0.698090 0.720910 0.507128
0.796172 0.718475 0.510500
0.879864 0.719393 0.518735
0.176691 0.837038 0.537716
0.195197 0.835326 0.535663
0.242481 0.831205 0.530946
0.333936 0.824457 0.524386
0.454622 0.816009 0.515932
0.567194 0.808402 0.510958
0.678863 0.801716 0.508903
0.779191 0.796643 0.510790
0.857188 0.794605 0.517809
0.218813 0.895804 0.531228
0.236541 0.894482 0.529714
0.279681 0.891291 0.526039
0.352094 0.886059 0.521501
0.450968 0.879180 0.516316
0.561007 0.871643 0.511383
0.662972 0.864519 0.508665
0.755318 0.857985 0.509362
0.836668 0.852100 0.512962
0.149681 0.111480 0.690010
0.195076 0.109072 0.678604
0.302901 0.106341 0.663309
0.445552 0.115609 0.651524
0.601676 0.134801 0.649921
0.745044 0.167102 0.659231
0.862948 0.208710 0.672146
0.948345 0.258613 0.684608
0.984528 0.310775 0.698165
0.143785 0.164982 0.707919
0.190493 0.162046 0.697569
0.294581 0.158666 0.679691
0.436370 0.160969 0.664010
0.589942 0.177103 0.657293
0.733214 0.203862 0.661867
0.850880 0.240639 0.670755
0.938903 0.284456 0.680954
0.980646 0.333106 0.693175
0.137678 0.276870 0.729782
0.180429 0.272155 0.720094
0.280986 0.266296 0.700896
0.416434 0.263900 0.681611
0.567053 0.269617 0.669262
0.708530 0.285170 0.665640
0.825498 0.310707 0.666842
0.916756 0.344196 0.672667
0.973634 0.382568 0.682704
0.129225 0.418018 0.733629
0.168113 0.413558 0.726839
0.262110 0.405425 0.711644
0.393660 0.396711 0.693572
0.538891 0.392282 0.677202
0.674960 0.397472 0.664896
0.792080 0.410785 0.659704
0.886337 0.432475 0.661761
0.958990 0.458533 0.669978
0.128938 0.554136 0.723955
0.162435 0.550439 0.718879
0.247170 0.542551 0.706656
0.369825 0.532286 0.689690
0.507293 0.523588 0.672894
0.640212 0.520504 0.659980
0.756691 0.524001 0.652406
0.854034 0.533514 0.651491
0.933381 0.547580 0.656229
0.141982 0.669300 0.705676
0.166291 0.666485 0.701669
0.241508 0.659718 0.692726
0.355631 0.650182 0.679294
0.484825 0.640949 0.664183
0.611811 0.633883 0.652563
0.725674 0.630817 0.645289
0.822574 0.632411 0.642783
0.902004 0.638313 0.644478
0.164015 0.762290 0.688715
0.184045 0.760168 0.685811
0.248824 0.754998 0.678707
0.351790 0.747141 0.667506
0.469466 0.738371 0.656261
0.591612 0.730259 0.645828
0.702828 0.724298 0.638109
0.795692 0.722185 0.635261
0.876113 0.722766 0.636480
0.200840 0.835997 0.675370
0.218314 0.834314 0.673214
0.269570 0.830494 0.668384
0.356037 0.824553 0.660694
0.466256 0.817197 0.651037
0.576005 0.809447 0.641579
0.681984 0.802785 0.634486
0.779849 0.797619 0.629977
0.852884 0.793982 0.630083
0.237834 0.890006 0.657810
0.254579 0.888743 0.656259
0.295495 0.885684 0.652488
0.365535 0.880784 0.646426
0.460597 0.874382 0.638298
0.562821 0.867302 0.630765
0.662102 0.860170 0.624970
0.750020 0.853287 0.621593
0.830623 0.846792 0.619448
0.224324 0.173658 0.842453
0.264551 0.170885 0.833303
0.354306 0.168447 0.815964
0.479308 0.173309 0.798229
0.618237 0.187695 0.786671
0.748569 0.211008 0.782493
0.855171 0.245929 0.781970
0.938720 0.287130 0.784302
0.980715 0.334286 0.788965
0.218537 0.221103 0.849265
0.258558 0.218299 0.840469
0.346869 0.214565 0.822929
0.471476 0.215369 0.804767
0.609231 0.224556 0.791192
0.737531 0.244977 0.783936
0.845421 0.274027 0.781025
0.929580 0.312133 0.781577
0.978756 0.354138 0.785576
0.208432 0.318671 0.855840
0.247172 0.315075 0.848277
0.333086 0.308998 0.832938
0.454642 0.304375 0.814180
0.588522 0.306269 0.797832
0.715033 0.317985 0.784951
0.823193 0.338806 0.777197
0.910908 0.366727 0.775668
0.970149 0.402286 0.778289
0.197922 0.444056 0.853300
0.234781 0.439875 0.847499
0.316198 0.431544 0.834822
0.429821 0.423604 0.816975
0.559548 0.418857 0.797639
0.683798 0.422276 0.781568
0.793797 0.432835 0.771641
0.884161 0.450519 0.767186
0.954305 0.474171 0.767783
0.188900 0.568552 0.840042
0.221635 0.565306 0.834971
0.296743 0.558277 0.823379
0.405885 0.548564 0.807617
0.530147 0.540590 0.790500
0.652186 0.537095 0.775397
0.761141 0.538903 0.764679
0.853473 0.546148 0.758162
0.929494 0.558790 0.755189
0.192730 0.676489 0.818831
0.221679 0.673756 0.815215
0.289786 0.667548 0.806725
0.390494 0.658918 0.794447
0.509729 0.649735 0.780469
0.626345 0.643388 0.766469
0.732251 0.640291 0.755561
0.823018 0.640882 0.748907
0.899288 0.645812 0.746111
0.208127 0.765768 0.801292
0.232906 0.763676 0.798532
0.292310 0.758780 0.791918
0.386586 0.751394 0.781408
0.492627 0.744051 0.769151
0.605197 0.736433 0.757411
0.712462 0.729066 0.747789
0.798154 0.726547 0.741034
0.874528 0.726224 0.737359
0.235731 0.834576 0.781680
0.256038 0.833126 0.779722
0.305377 0.829663 0.774991
0.386104 0.824187 0.767332
0.484689 0.817211 0.757909
0.589602 0.809562 0.747602
0.687513 0.803178 0.738946
0.777382 0.796982 0.730787
0.848094 0.791912 0.725146
0.262277 0.883055 0.757897
0.278248 0.881905 0.756433
0.317882 0.879073 0.752725
0.384089 0.874446 0.746521
0.474250 0.868376 0.738119
0.567395 0.861604 0.729893
0.663812 0.854567 0.721653
0.746311 0.847821 0.714938
0.824565 0.841575 0.708599
0.297881 0.240658 0.949887
0.331074 0.238330 0.944806
0.406865 0.234911 0.932437
0.514639 0.235966 0.915208
0.634912 0.244229 0.898887
0.751624 0.261092 0.885998
0.849837 0.287810 0.876298
0.929480 0.322773 0.870975
0.980870 0.361472 0.868855
0.292102 0.279140 0.951191
0.324379 0.276638 0.946344
0.398636 0.272680 0.933881
0.506782 0.271034 0.917188
0.626872 0.275981 0.900610
0.742969 0.289698 0.885833
0.841250 0.313835 0.874718
0.922430 0.344261 0.868730
0.976605 0.381156 0.866219
0.281114 0.361048 0.951372
0.313199 0.358106 0.946398
0.384861 0.352435 0.935386
0.489951 0.347270 0.918516
0.607823 0.347786 0.900172
0.722943 0.355227 0.883789
0.822878 0.371960 0.871206
0.905707 0.396143 0.863370
0.968286 0.425497 0.860280
0.267804 0.471239 0.944998
0.297872 0.468039 0.940530
0.366449 0.461606 0.928948
0.467119 0.454140 0.912675
0.582671 0.449420 0.894682
0.695469 0.450751 0.877440
0.796651 0.458621 0.864719
0.880855 0.473035 0.855932
0.950563 0.492653 0.850732
0.259159 0.583675 0.927127
0.287281 0.580808 0.922887
0.351158 0.574572 0.913546
0.447008 0.566121 0.899656
0.557117 0.559449 0.882905
0.667606 0.555710 0.867964
0.767075 0.556073 0.855753
0.852903 0.561937 0.846545
0.924310 0.572881 0.840440
0.260969 0.684730 0.906493
0.286237 0.682363 0.903168
0.345469 0.676999 0.895366
0.431409 0.669788 0.883878
0.535958 0.661684 0.870263
0.645109 0.653890 0.856530
0.740668 0.650837 0.845450
0.825655 0.651387 0.836700
0.898650 0.655436 0.830693
0.269497 0.769745 0.886652
0.291623 0.767990 0.884207
0.344923 0.763869 0.878344
0.424823 0.757596 0.869393
0.522749 0.750040 0.858188
0.621560 0.741862 0.846179
0.718401 0.734990 0.834532
0.801358 0.730777 0.825280
0.872565 0.729006 0.817920
0.280235 0.830788 0.862224
0.298785 0.829437 0.860478
0.343981 0.826201 0.856237
0.418284 0.821066 0.849311
0.504468 0.814810 0.840132
0.602549 0.807690 0.829102
0.689933 0.800057 0.819328
0.774103 0.793296 0.809707
0.843559 0.788382 0.801223
0.293320 0.874485 0.835827
0.308389 0.873456 0.834359
0.345433 0.870954 0.830752
0.407299 0.866869 0.824739
0.491860 0.861493 0.816543
0.575518 0.854905 0.808290
0.668752 0.847920 0.799060
0.744449 0.841747 0.791220
0.817233 0.835683 0.783316
0.365632 0.304571 0.990770
0.392987 0.302492 0.989382
0.456083 0.298914 0.986174
0.548798 0.296776 0.981264
0.652469 0.301885 0.973425
0.755050 0.314497 0.962692
0.845651 0.335040 0.953232
0.922093 0.361993 0.943569
0.977362 0.394946 0.935930
0.361945 0.335298 0.990682
0.388301 0.333125 0.989389
0.450225 0.329464 0.986202
0.540964 0.327027 0.980947
0.644958 0.329746 0.972744
0.747682 0.339475 0.961955
0.838899 0.357320 0.951629
0.915091 0.382413 0.941398
0.974411 0.411903 0.933619
0.350834 0.404764 0.990258
0.377413 0.402256 0.988939
0.438543 0.397098 0.985760
0.527809 0.392163 0.979925
0.629412 0.391553 0.970663
0.730790 0.397426 0.959041
0.822679 0.410392 0.946967
0.900734 0.428521 0.936416
0.965477 0.452179 0.928073
0.339828 0.500302 0.987186
0.364650 0.497751 0.985985
0.422043 0.492413 0.982625
0.508772 0.485874 0.975752
0.608024 0.481190 0.965542
0.708012 0.481462 0.952322
0.799822 0.487247 0.938878
0.879687 0.498491 0.927825
0.946619 0.514797 0.919866
0.331664 0.601160 0.981116
0.354655 0.598771 0.979180
0.408659 0.593390 0.974624
0.488655 0.586478 0.966744
0.585047 0.580010 0.955778
0.683748 0.575569 0.941226
0.774641 0.575679 0.928476
0.855096 0.580621 0.918547
0.922337 0.589602 0.910984
0.329433 0.694681 0.971306
0.349852 0.692644 0.969184
0.397725 0.687931 0.963514
0.473850 0.680939 0.954488
0.563285 0.673499 0.942323
0.659177 0.666969 0.929282
0.751073 0.662638 0.917472
0.829081 0.662232 0.907466
0.897278 0.664489 0.898434
0.327132 0.769197 0.950242
0.345890 0.767665 0.948129
0.389752 0.763987 0.943129
0.457284 0.758140 0.935312
0.545813 0.750987 0.925103
0.634551 0.743705 0.914547
0.722465 0.737464 0.903218
0.802687 0.732911 0.891468
0.868904 0.730278 0.882073
0.327747 0.824113 0.924523
0.344202 0.822926 0.922911
0.384304 0.820061 0.918980
0.446662 0.815384 0.912650
0.522894 0.809234 0.904370
0.611054 0.802433 0.894365
0.693125 0.795727 0.883138
0.771022 0.789640 0.872622
0.839874 0.784597 0.863559
0.330124 0.866113 0.897397
0.343893 0.865210 0.896049
0.377806 0.863011 0.892727
0.434628 0.859412 0.887153
0.507843 0.854463 0.879624
0.586261 0.848264 0.870741
0.669975 0.841518 0.861121
0.742158 0.835236 0.853362
0.811711 0.829481 0.845310
