calib/fujify/repo_cubes_std/provia_repo_std.cube
TITLE "Chromasmith repo-rebased - Provia"
#repo V-Log look rebased to Camera Standard via Panasonic V-Log math (approx)
LUT_3D_SIZE 33
0.000473 0.000290 0.000061
0.010664 0.001992 0.000811
0.021751 0.003733 0.001577
0.036820 0.005890 0.002522
0.058754 0.006893 0.005833
0.086978 0.008236 0.008528
0.119340 0.010878 0.009129
0.162513 0.011734 0.014064
0.207835 0.012069 0.019895
0.256255 0.012107 0.026495
0.306219 0.015034 0.031692
0.354745 0.019721 0.035129
0.411168 0.024218 0.040126
0.460424 0.028138 0.043983
0.514372 0.033463 0.051194
0.564380 0.040152 0.054456
0.615108 0.048447 0.059527
0.662019 0.057419 0.062697
0.707024 0.066691 0.071021
0.749960 0.076743 0.080339
0.791052 0.087293 0.085495
0.825789 0.102696 0.097074
0.859058 0.117821 0.107259
0.892138 0.131977 0.114478
0.916137 0.147972 0.129525
0.940462 0.165500 0.144945
0.967198 0.182082 0.158252
0.982159 0.198980 0.173423
0.983014 0.216610 0.190107
0.986679 0.234390 0.204417
0.995251 0.250639 0.219010
0.999522 0.267326 0.235354
0.999586 0.284187 0.253537
0.005114 0.009848 0.001535
0.013262 0.010749 0.002009
0.022028 0.011590 0.002463
0.034731 0.012346 0.003255
0.055484 0.012406 0.005191
0.082661 0.013069 0.006492
0.112470 0.014364 0.007425
0.153923 0.014119 0.012572
0.198108 0.014851 0.017749
0.246607 0.017910 0.021839
0.297119 0.022100 0.025923
0.344712 0.026014 0.029242
0.398944 0.029809 0.034042
0.449628 0.035467 0.037395
0.504308 0.041165 0.043446
0.554570 0.047408 0.045784
0.605718 0.055607 0.051225
0.653457 0.064289 0.055566
0.699144 0.073071 0.064270
0.742839 0.082812 0.073347
0.784109 0.094528 0.078501
0.819476 0.109351 0.090649
0.853630 0.123749 0.101037
0.887635 0.137191 0.108447
0.912017 0.154271 0.124933
0.937493 0.171211 0.140373
0.965081 0.187306 0.153831
0.980033 0.203806 0.169314
0.980742 0.221792 0.185690
0.985612 0.238985 0.200587
0.995186 0.254838 0.215363
0.999522 0.271256 0.232175
0.999500 0.288066 0.250411
0.007732 0.019608 0.002868
0.013533 0.019630 0.003032
0.019633 0.019486 0.003136
0.031754 0.019040 0.003497
0.051074 0.018191 0.003843
0.077502 0.018608 0.004943
0.107655 0.019992 0.006864
0.147110 0.021310 0.010389
0.191223 0.023578 0.013507
0.237226 0.026633 0.015648
0.286668 0.030009 0.019642
0.334556 0.033624 0.023117
0.388836 0.038566 0.027380
0.439464 0.043861 0.030326
0.494193 0.049185 0.035281
0.544597 0.055481 0.037105
0.595987 0.063831 0.043082
0.644657 0.071480 0.048471
0.690987 0.079836 0.057431
0.735237 0.090304 0.066300
0.776750 0.102295 0.071388
0.812813 0.116465 0.084108
0.847921 0.130091 0.094642
0.882380 0.144098 0.103051
0.907626 0.161104 0.120062
0.934305 0.177433 0.135517
0.962784 0.193021 0.149132
0.977105 0.209467 0.164720
0.978321 0.227467 0.180942
0.984494 0.244043 0.196444
0.995166 0.259474 0.211396
0.999525 0.275605 0.228724
0.999276 0.292642 0.246533
0.007889 0.032491 0.004056
0.011086 0.031841 0.003925
0.015840 0.031185 0.003817
0.029330 0.030904 0.004020
0.046972 0.030622 0.004270
0.072901 0.031225 0.005000
0.102839 0.032160 0.005834
0.137753 0.033722 0.006231
0.181122 0.036083 0.007548
0.225690 0.038991 0.009715
0.275350 0.041977 0.013640
0.324324 0.045556 0.016004
0.376572 0.049930 0.018963
0.427116 0.054826 0.021294
0.481736 0.060792 0.025834
0.532057 0.067265 0.027460
0.584197 0.074303 0.034154
0.633387 0.080883 0.039759
0.680450 0.090276 0.049316
0.725112 0.101401 0.057576
0.767025 0.112677 0.062528
0.804061 0.125973 0.075944
0.840165 0.139619 0.086571
0.875076 0.154214 0.096414
0.901786 0.170409 0.113625
0.930023 0.185949 0.129094
0.959657 0.200879 0.142912
0.971771 0.218132 0.158043
0.975107 0.235276 0.174565
0.983047 0.251051 0.190831
0.995229 0.265917 0.205986
0.999414 0.281917 0.223760
0.998956 0.299005 0.241265
0.003821 0.049281 0.004515
0.006784 0.048488 0.004259
0.014879 0.048323 0.004285
0.025958 0.047986 0.004306
0.043878 0.047770 0.004296
0.066722 0.047959 0.004209
0.096614 0.048963 0.004178
0.128430 0.050524 0.004115
0.172150 0.051975 0.005253
0.215990 0.053679 0.006249
0.264345 0.056123 0.007136
0.313110 0.060174 0.009189
0.363392 0.065062 0.011552
0.414541 0.070174 0.013824
0.467668 0.075424 0.015664
0.518284 0.080982 0.017823
0.571099 0.087454 0.025950
0.620495 0.095006 0.031727
0.668015 0.104629 0.040553
0.713030 0.115000 0.047826
0.755159 0.125521 0.053439
0.793407 0.139325 0.067134
0.830334 0.153372 0.077953
0.866052 0.166870 0.088509
0.894688 0.182091 0.105887
0.924746 0.196710 0.121367
0.952795 0.212678 0.134258
0.965249 0.229112 0.149825
0.971217 0.245138 0.167060
0.981372 0.260046 0.183845
0.995475 0.274221 0.199190
0.998853 0.290894 0.216690
0.998531 0.307206 0.234692
0.005197 0.069779 0.003345
0.009302 0.068971 0.003333
0.013710 0.068003 0.003324
0.023238 0.066993 0.003211
0.041626 0.066873 0.002871
0.063039 0.067259 0.002554
0.091260 0.068273 0.002446
0.124257 0.069300 0.002544
0.163670 0.070602 0.002920
0.207067 0.072611 0.003344
0.252974 0.075121 0.003459
0.301686 0.078457 0.004175
0.350410 0.082532 0.004686
0.401665 0.087285 0.005927
0.454040 0.092659 0.009595
0.505328 0.098408 0.014275
0.557609 0.104954 0.019997
0.606658 0.111889 0.023671
0.654487 0.121050 0.031630
0.699720 0.131783 0.038893
0.742085 0.143386 0.045873
0.781351 0.156583 0.057933
0.819435 0.169233 0.069557
0.855515 0.181775 0.080256
0.886212 0.196500 0.097054
0.915809 0.211930 0.111461
0.944613 0.226848 0.124202
0.957880 0.242154 0.140450
0.966864 0.256907 0.158731
0.979581 0.271046 0.175640
0.995203 0.285907 0.190139
0.998140 0.301750 0.208539
0.997999 0.317141 0.227062
0.005933 0.094075 0.001553
0.007384 0.092972 0.001484
0.014424 0.092343 0.001335
0.025257 0.091747 0.001119
0.037783 0.091124 0.000862
0.061153 0.090411 0.000691
0.086433 0.089628 0.000485
0.120698 0.090175 0.000342
0.155817 0.091921 0.000323
0.199358 0.094162 0.000343
0.242330 0.096687 0.000355
0.291147 0.100495 0.001407
0.338911 0.104474 0.003509
0.391050 0.108477 0.005798
0.441586 0.112770 0.007678
0.492675 0.117965 0.010474
0.544102 0.124757 0.014131
0.592884 0.132912 0.018001
0.640775 0.143075 0.025289
0.685963 0.153144 0.030888
0.728556 0.163674 0.037885
0.769039 0.175357 0.050099
0.807827 0.187250 0.060686
0.844129 0.200329 0.071060
0.875547 0.214975 0.086678
0.906023 0.229216 0.100612
0.935711 0.242856 0.113279
0.950003 0.256810 0.131063
0.962025 0.271164 0.149222
0.977065 0.285590 0.165414
0.995151 0.299381 0.180300
0.997269 0.314286 0.199684
0.997361 0.328637 0.218703
0.006851 0.122173 0.000105
0.010428 0.121663 0.000089
0.013987 0.121164 0.000075
0.018301 0.120573 0.000058
0.036393 0.119413 0.000065
0.057471 0.118171 0.000076
0.083756 0.117755 0.000097
0.114956 0.118377 0.000115
0.149984 0.119240 0.000274
0.192066 0.120408 0.001002
0.235308 0.121983 0.001794
0.283456 0.124356 0.002547
0.330036 0.128110 0.003395
0.380984 0.132870 0.004788
0.429420 0.138098 0.006111
0.480836 0.144349 0.008371
0.531469 0.150979 0.010240
0.579859 0.158149 0.012017
0.627281 0.166911 0.016764
0.672503 0.175556 0.022563
0.715422 0.186249 0.032148
0.756367 0.198061 0.042624
0.795745 0.209621 0.051089
0.832245 0.221737 0.060978
0.864523 0.235155 0.075745
0.895888 0.248050 0.089297
0.926178 0.260665 0.102410
0.941279 0.274720 0.120673
0.956590 0.288495 0.138476
0.974711 0.301720 0.154895
0.995463 0.314363 0.170148
0.996242 0.328253 0.190546
0.996449 0.341605 0.209863
0.001599 0.154779 0.000533
0.001801 0.154242 0.000621
0.009698 0.153396 0.000705
0.022271 0.152239 0.000801
0.037204 0.150922 0.000889
0.056157 0.149957 0.000990
0.082445 0.149975 0.001186
0.109972 0.150177 0.001399
0.148005 0.150689 0.001744
0.187083 0.151421 0.002085
0.230878 0.153210 0.002309
0.276171 0.155680 0.002412
0.322783 0.158727 0.002565
0.371791 0.162552 0.002720
0.418916 0.166620 0.002405
0.470692 0.171879 0.002280
0.519672 0.178343 0.002841
0.567200 0.186030 0.006659
0.614251 0.194622 0.014116
0.659311 0.203108 0.019600
0.702488 0.212711 0.026427
0.744000 0.223049 0.033935
0.783947 0.233315 0.040467
0.820472 0.244541 0.050539
0.853253 0.257539 0.065116
0.884919 0.269941 0.078773
0.915482 0.281761 0.091238
0.932455 0.294657 0.110166
0.951421 0.307135 0.127972
0.972740 0.319110 0.144574
0.994745 0.330672 0.160568
0.992473 0.344762 0.180424
0.991947 0.358330 0.198910
0.009384 0.192404 0.000971
0.013504 0.191260 0.000926
0.017797 0.190048 0.000876
0.023334 0.188447 0.000806
0.036255 0.187109 0.000750
0.057395 0.186223 0.000704
0.080704 0.185366 0.000633
0.111645 0.184632 0.000553
0.147383 0.184094 0.000385
0.184318 0.184723 0.000307
0.227184 0.186745 0.000251
0.269738 0.188918 0.000242
0.316685 0.192104 0.000351
0.363787 0.195789 0.000472
0.411263 0.200084 0.000760
0.460749 0.205280 0.002527
0.508262 0.210599 0.004655
0.555830 0.217068 0.007944
0.602486 0.224087 0.010974
0.647287 0.231115 0.013098
0.690644 0.239907 0.018468
0.732282 0.250141 0.025959
0.772193 0.260314 0.032323
0.808178 0.271425 0.042430
0.841510 0.282607 0.056544
0.873677 0.293404 0.069098
0.903578 0.303984 0.081457
0.924194 0.315576 0.100402
0.946628 0.326853 0.118156
0.968084 0.338939 0.134183
0.985573 0.351046 0.149759
0.985465 0.363910 0.169637
0.987459 0.376050 0.188223
0.010216 0.231728 0.000236
0.011634 0.230741 0.000239
0.018088 0.230032 0.000252
0.028584 0.229231 0.000274
0.041479 0.228290 0.000306
0.056196 0.227283 0.000348
0.079289 0.226338 0.000339
0.109562 0.225502 0.000265
0.141108 0.224775 0.000164
0.180561 0.224756 0.000149
0.222262 0.224997 0.000162
0.265338 0.225811 0.000330
0.311793 0.228214 0.000918
0.357365 0.230918 0.001282
0.404972 0.234391 0.001674
0.452661 0.238303 0.002072
0.498733 0.243143 0.003162
0.546242 0.249601 0.005507
0.592276 0.256177 0.007916
0.636694 0.262852 0.010155
0.679684 0.271625 0.015228
0.721058 0.280327 0.019207
0.760926 0.288764 0.024826
0.796505 0.298389 0.036470
0.830209 0.308058 0.048526
0.862747 0.317433 0.059884
0.891802 0.327890 0.073853
0.914458 0.339259 0.091900
0.937128 0.350409 0.108068
0.959749 0.361372 0.123001
0.975818 0.372386 0.139945
0.978545 0.383738 0.159728
0.983166 0.394491 0.178079
0.014035 0.272787 0.000335
0.018019 0.272064 0.000360
0.022336 0.271323 0.000388
0.028250 0.270382 0.000468
0.035537 0.269224 0.000567
0.056374 0.267866 0.000559
0.080979 0.266496 0.000528
0.107267 0.265228 0.000479
0.140578 0.264443 0.000542
0.179188 0.264098 0.000730
0.218339 0.264043 0.000963
0.261965 0.265422 0.001018
0.306600 0.267222 0.000988
0.351265 0.269239 0.000983
0.398728 0.272450 0.001599
0.445234 0.275848 0.002202
0.491431 0.279784 0.002952
0.538228 0.284768 0.004000
0.583542 0.289891 0.004533
0.627390 0.295728 0.005260
0.669975 0.302920 0.010102
0.711058 0.309982 0.014429
0.750344 0.317688 0.020580
0.785192 0.327018 0.033037
0.818909 0.336111 0.044104
0.851568 0.344956 0.054053
0.880055 0.354309 0.066561
0.904108 0.364461 0.082312
0.927983 0.374463 0.097876
0.951593 0.384204 0.113847
0.966302 0.394082 0.131476
0.971847 0.404142 0.150712
0.978845 0.414661 0.168110
0.016458 0.315727 0.000904
0.018214 0.314893 0.000853
0.021835 0.314045 0.000805
0.032675 0.313091 0.000776
0.046339 0.311933 0.000738
0.062442 0.310636 0.000691
0.080468 0.309281 0.000637
0.107361 0.308171 0.000674
0.141416 0.307337 0.000777
0.176941 0.306699 0.000872
0.216373 0.306408 0.000850
0.259848 0.306348 0.000710
0.303615 0.306358 0.000571
0.348989 0.307536 0.000583
0.395065 0.309667 0.000579
0.440411 0.311981 0.000373
0.486093 0.315646 0.000303
0.531387 0.320071 0.002135
0.575689 0.324620 0.004324
0.618792 0.330320 0.007825
0.660534 0.336690 0.011988
0.700990 0.342956 0.015813
0.739345 0.349575 0.020691
0.774362 0.357319 0.029097
0.808341 0.364897 0.036954
0.841336 0.372300 0.044478
0.869277 0.380761 0.056863
0.894510 0.389778 0.074054
0.919084 0.398910 0.090587
0.942714 0.408359 0.105848
0.955913 0.417948 0.123084
0.964426 0.427580 0.141162
0.974721 0.436976 0.158051
0.021024 0.356823 0.000164
0.025995 0.356252 0.000178
0.031406 0.355638 0.000192
0.038791 0.354810 0.000211
0.048066 0.353789 0.000234
0.058930 0.352623 0.000260
0.083856 0.351711 0.000267
0.112080 0.350824 0.000266
0.142175 0.349994 0.000256
0.175697 0.349171 0.000238
0.216264 0.348224 0.000233
0.257773 0.347452 0.000245
0.300212 0.347161 0.000526
0.344999 0.348459 0.001122
0.389655 0.349889 0.001770
0.434154 0.351569 0.002469
0.479799 0.354492 0.003516
0.524676 0.357580 0.004567
0.568688 0.360823 0.005492
0.611063 0.365551 0.007411
0.652273 0.370322 0.008932
0.692349 0.375014 0.009796
0.729727 0.380611 0.013207
0.764827 0.386922 0.019121
0.798770 0.393686 0.026952
0.831645 0.400888 0.038527
0.858402 0.409538 0.054855
0.883750 0.418123 0.070427
0.908553 0.426370 0.084606
0.932855 0.434261 0.097760
0.946071 0.442732 0.115030
0.958078 0.451254 0.132425
0.971596 0.459655 0.148844
0.026363 0.401616 0.000520
0.028727 0.400972 0.000582
0.031290 0.400270 0.000649
0.035717 0.399325 0.000735
0.050703 0.398281 0.000815
0.068743 0.397051 0.000901
0.089453 0.395673 0.000985
0.112360 0.394196 0.001058
0.139888 0.392683 0.001136
0.177143 0.391234 0.001263
0.216098 0.389888 0.001364
0.256254 0.388688 0.001425
0.299199 0.388429 0.001514
0.342974 0.388449 0.001567
0.386848 0.388583 0.001540
0.431461 0.389669 0.001511
0.476241 0.391475 0.001316
0.520419 0.393458 0.000756
0.563165 0.396487 0.000830
0.604260 0.400608 0.001893
0.644522 0.404771 0.003003
0.683932 0.408971 0.004120
0.720007 0.414724 0.012855
0.754787 0.420649 0.022321
0.788659 0.426490 0.030841
0.820952 0.432453 0.039379
0.847430 0.439718 0.052946
0.873353 0.446713 0.065735
0.898759 0.453421 0.078028
0.923540 0.459844 0.090200
0.937642 0.467460 0.107851
0.953010 0.475024 0.124641
0.968811 0.482714 0.140984
0.025517 0.443253 0.000523
0.031548 0.442646 0.000517
0.038176 0.441983 0.000509
0.047336 0.441074 0.000499
0.059035 0.439923 0.000486
0.073031 0.438563 0.000470
0.088955 0.437039 0.000451
0.113573 0.435518 0.000438
0.146087 0.434043 0.000427
0.180772 0.432584 0.000410
0.217079 0.431195 0.000387
0.256550 0.430228 0.000370
0.298282 0.429567 0.000362
0.340741 0.429041 0.000357
0.383749 0.428911 0.000358
0.427432 0.430142 0.000376
0.470919 0.431576 0.000381
0.514045 0.433211 0.000370
0.555780 0.435718 0.001425
0.596673 0.438540 0.004641
0.636898 0.441446 0.007900
0.675732 0.444730 0.011778
0.711206 0.449263 0.017890
0.745845 0.453802 0.023651
0.779641 0.458350 0.029196
0.810469 0.463427 0.037061
0.837426 0.469142 0.048440
0.863869 0.474632 0.059811
0.889539 0.480282 0.071789
0.912481 0.486304 0.084589
0.928661 0.493471 0.101533
0.945236 0.500391 0.118065
0.962204 0.507046 0.133728
0.038778 0.486697 0.000458
0.042064 0.486069 0.000453
0.045671 0.485377 0.000447
0.050648 0.484417 0.000439
0.056984 0.483187 0.000430
0.070015 0.481793 0.000422
0.093538 0.480339 0.000419
0.120067 0.478761 0.000419
0.149155 0.477111 0.000420
0.180318 0.475443 0.000427
0.216223 0.473871 0.000421
0.256040 0.472392 0.000398
0.297163 0.470987 0.000368
0.339246 0.469703 0.000616
0.381856 0.469724 0.001571
0.424690 0.470113 0.002507
0.467547 0.470634 0.003383
0.509909 0.471487 0.004374
0.550912 0.473052 0.005941
0.591435 0.474686 0.007432
0.631387 0.476370 0.008779
0.668648 0.479005 0.011353
0.703540 0.482553 0.015681
0.737571 0.486304 0.020840
0.770930 0.490074 0.026165
0.800029 0.494603 0.035184
0.827081 0.499375 0.045347
0.853632 0.504052 0.054939
0.879663 0.508701 0.066785
0.901474 0.514007 0.080848
0.919492 0.519880 0.097275
0.937758 0.525573 0.112970
0.956258 0.531103 0.127990
0.027549 0.526554 0.001169
0.030862 0.525940 0.001267
0.038696 0.525357 0.001372
0.049672 0.524550 0.001512
0.063959 0.523515 0.001680
0.081481 0.522273 0.001864
0.102039 0.520854 0.002045
0.125343 0.519298 0.002198
0.151034 0.517650 0.002297
0.184133 0.515824 0.002377
0.221183 0.513934 0.002420
0.259982 0.512102 0.002428
0.299817 0.510466 0.002505
0.340318 0.509565 0.002690
0.381331 0.509205 0.002973
0.422877 0.508965 0.003268
0.464733 0.508856 0.003570
0.505322 0.509378 0.004576
0.545462 0.510111 0.005812
0.585369 0.510932 0.007086
0.624895 0.511866 0.008396
0.660087 0.514321 0.012011
0.694743 0.516825 0.015591
0.728838 0.519361 0.018980
0.762146 0.521957 0.022216
0.790063 0.525568 0.033043
0.817468 0.529182 0.043907
0.844354 0.532791 0.054267
0.870726 0.536375 0.064285
0.891797 0.540895 0.078872
0.911427 0.545623 0.094399
0.931168 0.550260 0.109377
0.951011 0.554821 0.123848
0.049740 0.565998 0.004221
0.054689 0.565521 0.004169
0.060169 0.564994 0.004109
0.067814 0.564261 0.004021
0.077699 0.563320 0.003899
0.089712 0.562184 0.003740
0.103632 0.560880 0.003538
0.122840 0.559385 0.003355
0.153082 0.557647 0.003306
0.186050 0.555835 0.003244
0.221356 0.553994 0.003166
0.258609 0.552168 0.003070
0.297308 0.550676 0.003055
0.337104 0.549561 0.003149
0.377837 0.548529 0.003240
0.419237 0.547598 0.003323
0.460229 0.546953 0.003678
0.500298 0.546640 0.004379
0.540397 0.546437 0.005018
0.580404 0.546352 0.005561
0.618031 0.546982 0.006749
0.653072 0.548265 0.010093
0.687718 0.549550 0.014922
0.721884 0.550868 0.019618
0.753437 0.552724 0.026123
0.781511 0.555319 0.035192
0.809101 0.557917 0.044210
0.836202 0.560498 0.053301
0.862328 0.563253 0.063470
0.882881 0.567322 0.078950
0.903257 0.571391 0.093255
0.923458 0.575456 0.106620
0.943486 0.579514 0.119301
0.053409 0.603865 0.003104
0.056065 0.603434 0.003037
0.058999 0.602957 0.002962
0.063076 0.602292 0.002858
0.068321 0.601433 0.002721
0.082393 0.600284 0.002612
0.104845 0.598868 0.002524
0.130636 0.597281 0.002418
0.159500 0.595557 0.002294
0.191118 0.593733 0.002151
0.225148 0.591850 0.001987
0.261183 0.590097 0.001880
0.298874 0.588487 0.001830
0.337937 0.586908 0.001764
0.378068 0.585388 0.001679
0.418725 0.583979 0.001598
0.458257 0.582830 0.002901
0.498156 0.581753 0.004770
0.538227 0.580766 0.006689
0.578267 0.579885 0.008659
0.613306 0.580025 0.011437
0.647578 0.580306 0.015161
0.681616 0.580701 0.019248
0.715382 0.581205 0.023643
0.744579 0.582764 0.031424
0.772516 0.584586 0.039785
0.800113 0.586458 0.047943
0.827363 0.588379 0.055827
0.852201 0.590825 0.065359
0.873518 0.594062 0.077578
0.894623 0.597322 0.089446
0.915516 0.600602 0.101166
0.936232 0.603848 0.114375
0.041498 0.639648 0.000473
0.048413 0.639170 0.000462
0.056118 0.638639 0.000451
0.066958 0.637893 0.000535
0.081144 0.636914 0.000886
0.098630 0.635717 0.001313
0.119258 0.634319 0.001806
0.142765 0.632743 0.002352
0.168803 0.631021 0.002936
0.196955 0.629188 0.003540
0.229023 0.627321 0.004238
0.263694 0.625410 0.004963
0.300220 0.623477 0.005675
0.338308 0.621552 0.006355
0.377679 0.619665 0.006984
0.415923 0.617897 0.008215
0.454729 0.616197 0.009595
0.494041 0.614576 0.011072
0.533699 0.613052 0.012624
0.570464 0.612118 0.014876
0.605146 0.611611 0.017744
0.639752 0.611201 0.020787
0.674219 0.610887 0.023961
0.707057 0.610965 0.027989
0.735699 0.611948 0.034046
0.764054 0.613005 0.039887
0.792103 0.614136 0.045454
0.819836 0.615339 0.050684
0.843362 0.617482 0.059911
0.865304 0.619949 0.073372
0.887022 0.622436 0.087005
0.908505 0.624940 0.100198
0.929750 0.627454 0.112962
0.075245 0.671536 0.009131
0.080060 0.671113 0.009137
0.085427 0.670642 0.009142
0.092975 0.669981 0.009148
0.102847 0.669117 0.009150
0.115018 0.668056 0.009146
0.129377 0.666807 0.009129
0.145734 0.665390 0.009093
0.168088 0.663754 0.009101
0.197617 0.661906 0.009166
0.229687 0.659947 0.009210
0.264013 0.657911 0.009222
0.300303 0.655826 0.009192
0.338271 0.653725 0.009110
0.375457 0.651612 0.009721
0.413366 0.649523 0.010460
0.452109 0.647483 0.011197
0.491491 0.645514 0.011913
0.530034 0.643781 0.012900
0.564757 0.642587 0.014892
0.599594 0.641467 0.016913
0.634458 0.640422 0.018924
0.669275 0.639453 0.020882
0.699739 0.639425 0.024330
0.728638 0.639762 0.028069
0.757293 0.640179 0.033395
0.785697 0.640679 0.040950
0.813188 0.641407 0.049155
0.835839 0.643139 0.062720
0.858250 0.644906 0.075942
0.880189 0.646765 0.089135
0.901695 0.648713 0.101780
0.921309 0.650858 0.114296
0.082804 0.701998 0.009031
0.085851 0.701611 0.008951
0.089244 0.701179 0.008861
0.094012 0.700571 0.008730
0.100239 0.699774 0.008555
0.107900 0.698789 0.008332
0.126643 0.697458 0.008150
0.149627 0.695912 0.007940
0.175636 0.694189 0.007689
0.204468 0.692313 0.007392
0.235885 0.690311 0.007046
0.269624 0.688212 0.006645
0.305412 0.686046 0.006185
0.340563 0.683780 0.006253
0.376998 0.681495 0.006295
0.414606 0.679222 0.006262
0.453172 0.676985 0.006132
0.492504 0.674808 0.005880
0.527058 0.673020 0.006882
0.561762 0.671288 0.007848
0.596680 0.669600 0.009662
0.631691 0.667958 0.014402
0.664535 0.666801 0.020698
0.693288 0.666584 0.028109
0.721993 0.666466 0.035479
0.750620 0.666448 0.042783
0.779144 0.666529 0.049998
0.804546 0.667223 0.059892
0.827212 0.668420 0.071625
0.849661 0.669671 0.082772
0.871890 0.670974 0.093420
0.893896 0.672328 0.103672
0.911679 0.674150 0.115550
0.074451 0.730428 0.003247
0.080431 0.729996 0.003211
0.087124 0.729513 0.003170
0.096587 0.728832 0.003111
0.109049 0.727938 0.003032
0.124556 0.726832 0.002933
0.143060 0.725521 0.002811
0.164433 0.724017 0.002667
0.188474 0.722341 0.002500
0.214925 0.720516 0.002310
0.243481 0.718571 0.002097
0.273894 0.716494 0.001938
0.306395 0.714214 0.002129
0.340730 0.711850 0.004305
0.376611 0.709441 0.006590
0.413823 0.707009 0.008963
0.452165 0.704580 0.011405
0.486898 0.702382 0.014934
0.520971 0.700296 0.018837
0.555522 0.698281 0.022794
0.590440 0.696353 0.026774
0.625629 0.694523 0.030745
0.655673 0.693675 0.035959
0.685045 0.693034 0.041353
0.714416 0.692483 0.046737
0.743748 0.692023 0.052092
0.773011 0.691656 0.057401
0.796275 0.692231 0.066777
0.819311 0.692877 0.076013
0.842153 0.693585 0.085150
0.864790 0.694354 0.094273
0.887219 0.695182 0.103477
0.903658 0.696704 0.115601
0.105703 0.755871 0.013525
0.110325 0.755490 0.013657
0.115500 0.755063 0.013806
0.122822 0.754460 0.014016
0.132475 0.753666 0.014294
0.144500 0.752678 0.014640
0.158869 0.751500 0.015055
0.175491 0.750139 0.015535
0.194221 0.748609 0.016075
0.214865 0.746926 0.016670
0.242389 0.744861 0.017598
0.272957 0.742626 0.018644
0.305614 0.740281 0.019757
0.340143 0.737854 0.020925
0.376323 0.735370 0.022135
0.413941 0.732856 0.023369
0.448584 0.730525 0.025397
0.482304 0.728297 0.027791
0.516729 0.726109 0.030194
0.551727 0.723980 0.032582
0.587180 0.721925 0.034926
0.619695 0.720381 0.038021
0.649445 0.719294 0.041862
0.679299 0.718284 0.045725
0.709203 0.717352 0.049596
0.739112 0.716503 0.053463
0.765963 0.716120 0.059269
0.789441 0.716220 0.067295
0.812764 0.716387 0.075532
0.835917 0.716622 0.084056
0.858887 0.716923 0.092949
0.880196 0.717403 0.104195
0.897258 0.718401 0.117511
0.119205 0.780205 0.024966
0.122667 0.779850 0.024982
0.126545 0.779451 0.025000
0.132032 0.778887 0.025024
0.139268 0.778143 0.025055
0.148285 0.777213 0.025090
0.159062 0.776100 0.025129
0.171989 0.774795 0.025181
0.194751 0.773080 0.025469
0.220203 0.771185 0.025782
0.248193 0.769130 0.026115
0.278542 0.766937 0.026461
0.311051 0.764632 0.026811
0.345514 0.762239 0.027156
0.381718 0.759783 0.027484
0.414947 0.757470 0.028421
0.447836 0.755203 0.029549
0.481671 0.752946 0.030644
0.516304 0.750718 0.031682
0.551600 0.748536 0.032642
0.585915 0.746562 0.033938
0.615734 0.745107 0.036616
0.645785 0.743710 0.039332
0.675998 0.742377 0.042074
0.706312 0.741113 0.044835
0.736604 0.739930 0.047659
0.760359 0.739547 0.055237
0.783714 0.739078 0.066825
0.806924 0.738681 0.078074
0.830085 0.738380 0.088733
0.853187 0.738173 0.098814
0.872594 0.738458 0.110273
0.890183 0.739020 0.122227
0.115522 0.803059 0.025659
0.117974 0.802718 0.025597
0.120719 0.802336 0.025527
0.124602 0.801794 0.025427
0.135032 0.800980 0.025376
0.148846 0.799950 0.025321
0.165520 0.798716 0.025248
0.185043 0.797283 0.025156
0.207359 0.795663 0.025039
0.232367 0.793869 0.024893
0.259932 0.791919 0.024713
0.289824 0.789814 0.024598
0.321649 0.787573 0.024595
0.355167 0.785244 0.024581
0.385082 0.783011 0.025111
0.416264 0.780732 0.025676
0.448661 0.778423 0.026258
0.482126 0.776105 0.026852
0.516519 0.773794 0.027452
0.551546 0.771520 0.028101
0.580839 0.769710 0.030717
0.610582 0.767905 0.035520
0.640673 0.766123 0.041482
0.671025 0.764391 0.047457
0.701578 0.762717 0.053427
