calib/fujify/repo_cubes_std/provia_repo_std.cube
TITLE "Chromasmith repo-rebased - Provia"
#repo V-Log look rebased to Camera Standard via Panasonic V-Log math (approx)
LUT_3D_SIZE 5
0.000473 0.000290 0.000061
0.207835 0.012069 0.019895
0.615108 0.048447 0.059527
0.916137 0.147972 0.129525
0.999586 0.284187 0.253537
0.001599 0.154779 0.000533
0.148005 0.150689 0.001744
0.519672 0.178343 0.002841
0.853253 0.257539 0.065116
0.991947 0.358330 0.198910
0.038778 0.486697 0.000458
0.149155 0.477111 0.000420
0.467547 0.470634 0.003383
0.770930 0.490074 0.026165
0.956258 0.531103 0.127990
0.105703 0.755871 0.013525
0.194221 0.748609 0.016075
0.448584 0.730525 0.025397
0.709203 0.717352 0.049596
0.897258 0.718401 0.117511
0.203112 0.906258 0.074079
0.272981 0.900868 0.076514
0.453588 0.887611 0.087213
0.674647 0.872485 0.113129
0.853844 0.861974 0.163213
0.020118 0.011665 0.167839
0.203951 0.017868 0.156556
0.586202 0.056151 0.202753
0.893871 0.151775 0.291558
0.998489 0.282774 0.385009
0.016684 0.182583 0.199897
0.164428 0.173554 0.183439
0.518340 0.193298 0.191429
0.838233 0.263539 0.253728
0.985449 0.358382 0.343161
0.040144 0.509707 0.192979
0.154978 0.498349 0.183866
0.468066 0.485520 0.176797
0.761977 0.496461 0.210681
0.948783 0.532470 0.281856
0.107024 0.757606 0.191878
0.190505 0.749664 0.188772
0.442287 0.731345 0.187727
0.701988 0.717170 0.209752
0.890378 0.718042 0.261019
0.202837 0.902796 0.234242
0.270154 0.897576 0.233139
0.448530 0.884941 0.233908
0.669465 0.870067 0.247800
0.847998 0.859360 0.284251
0.087972 0.062479 0.509491
0.255880 0.062592 0.484511
0.588024 0.093317 0.496609
0.870382 0.181002 0.547365
0.990355 0.295340 0.596919
0.075949 0.240033 0.567422
0.230752 0.228198 0.539651
0.547220 0.236016 0.517930
0.828603 0.288710 0.537176
0.975841 0.369718 0.576201
0.078743 0.540821 0.576590
0.205087 0.528118 0.558422
0.490587 0.508843 0.529591
0.755290 0.511647 0.520483
0.938168 0.540213 0.539869
0.136561 0.760086 0.546671
0.215041 0.752408 0.537622
0.452442 0.735217 0.518454
0.698090 0.720910 0.507128
0.879864 0.719393 0.518735
0.218813 0.895804 0.531228
0.279681 0.891291 0.526039
0.450968 0.879180 0.516316
0.662972 0.864519 0.508665
0.836668 0.852100 0.512962
0.224324 0.173658 0.842453
0.354306 0.168447 0.815964
0.618237 0.187695 0.786671
0.855171 0.245929 0.781970
0.980715 0.334286 0.788965
0.208432 0.318671 0.855840
0.333086 0.308998 0.832938
0.588522 0.306269 0.797832
0.823193 0.338806 0.777197
0.970149 0.402286 0.778289
0.188900 0.568552 0.840042
0.296743 0.558277 0.823379
0.530147 0.540590 0.790500
0.761141 0.538903 0.764679
0.929494 0.558790 0.755189
0.208127 0.765768 0.801292
0.292310 0.758780 0.791918
0.492627 0.744051 0.769151
0.712462 0.729066 0.747789
0.874528 0.726224 0.737359
0.262277 0.883055 0.757897
0.317882 0.879073 0.752725
0.474250 0.868376 0.738119
0.663812 0.854567 0.721653
0.824565 0.841575 0.708599
0.365632 0.304571 0.990770
0.456083 0.298914 0.986174
0.652469 0.301885 0.973425
0.845651 0.335040 0.953232
0.977362 0.394946 0.935930
0.350834 0.404764 0.990258
0.438543 0.397098 0.985760
0.629412 0.391553 0.970663
0.822679 0.410392 0.946967
0.965477 0.452179 0.928073
0.331664 0.601160 0.981116
0.408659 0.593390 0.974624
0.585047 0.580010 0.955778
0.774641 0.575679 0.928476
0.922337 0.589602 0.910984
0.327132 0.769197 0.950242
0.389752 0.763987 0.943129
0.545813 0.750987 0.925103
0.722465 0.737464 0.903218
0.868904 0.730278 0.882073
0.330124 0.866113 0.897397
0.377806 0.863011 0.892727
0.507843 0.854463 0.879624
0.669975 0.841518 0.861121
0.811711 0.829481 0.845310
