calib/fujify/repo_cubes_std/reala_ace_repo_std.cube
TITLE "Chromasmith repo-rebased - Reala Ace"
#repo V-Log look rebased to Camera Standard via Panasonic V-Log math (approx)
LUT_3D_SIZE 33
0.000198 0.000107 0.000000
0.005689 0.000661 0.000168
0.011701 0.001214 0.000328
0.019945 0.001870 0.000508
0.034294 0.002546 0.001859
0.054251 0.003025 0.002527
0.079866 0.002961 0.001472
0.118881 0.002042 0.002395
0.165182 0.000762 0.004007
0.225528 0.000343 0.007159
0.289767 0.001650 0.010598
0.353348 0.002465 0.011651
0.409430 0.002075 0.013366
0.459220 0.000038 0.014048
0.504499 0.005097 0.018668
0.547199 0.008378 0.018982
0.587396 0.008248 0.021505
0.624833 0.009581 0.024159
0.660246 0.019631 0.030984
0.694349 0.032405 0.039557
0.727543 0.044064 0.044713
0.755169 0.071591 0.059433
0.782083 0.092938 0.070960
0.809091 0.106542 0.077797
0.832224 0.137603 0.101789
0.853949 0.171319 0.126916
0.875814 0.197142 0.146880
0.890468 0.215691 0.165700
0.898998 0.235705 0.187285
0.910987 0.260454 0.209085
0.926193 0.285054 0.232187
0.934930 0.304821 0.251197
0.938837 0.321468 0.269520
0.002774 0.006055 0.000769
0.007338 0.006275 0.000879
0.012297 0.006453 0.000979
0.019910 0.006602 0.001222
0.033855 0.006697 0.001981
0.053775 0.006282 0.001989
0.077137 0.005185 0.001486
0.111474 0.002899 0.001984
0.157317 0.002453 0.003487
0.220221 0.004894 0.005868
0.285928 0.005848 0.007673
0.345525 0.004642 0.007324
0.399901 0.003021 0.008688
0.451014 0.007125 0.010281
0.497162 0.011390 0.013279
0.540276 0.012506 0.011983
0.580675 0.013371 0.016059
0.618578 0.018880 0.019631
0.654673 0.028157 0.026283
0.689499 0.039914 0.034577
0.722727 0.053205 0.039798
0.750937 0.078281 0.054202
0.778568 0.096925 0.065183
0.806222 0.108491 0.071757
0.829249 0.143045 0.098214
0.851439 0.174555 0.122635
0.873751 0.198515 0.142105
0.888743 0.216498 0.161168
0.898141 0.239243 0.183405
0.910939 0.263800 0.205936
0.926867 0.288313 0.229380
0.935551 0.307794 0.248766
0.939276 0.324460 0.267173
0.004515 0.012337 0.001588
0.008015 0.012193 0.001652
0.011764 0.011964 0.001709
0.019822 0.011627 0.001860
0.033005 0.011076 0.001962
0.052865 0.010121 0.001890
0.076528 0.009708 0.001918
0.109800 0.009579 0.002040
0.159894 0.010758 0.003161
0.218867 0.011747 0.004083
0.281124 0.010281 0.004186
0.338063 0.009913 0.003690
0.393416 0.013533 0.005832
0.443328 0.016226 0.006447
0.489741 0.017808 0.007454
0.533041 0.019406 0.006397
0.573535 0.024432 0.012286
0.612167 0.028602 0.015007
0.648926 0.037147 0.021529
0.684224 0.049530 0.030149
0.717653 0.062951 0.034688
0.746495 0.085285 0.048768
0.774876 0.101116 0.059154
0.802839 0.114430 0.067416
0.826064 0.148873 0.094431
0.848753 0.178004 0.118072
0.871551 0.199945 0.136990
0.886866 0.218577 0.156418
0.897257 0.243129 0.179213
0.910945 0.267498 0.202539
0.927661 0.291929 0.226337
0.936248 0.311088 0.246139
0.939522 0.328024 0.263970
0.005157 0.022395 0.002529
0.007307 0.021997 0.002475
0.010600 0.021560 0.002415
0.020226 0.021273 0.002442
0.033130 0.020882 0.002468
0.053449 0.020776 0.002545
0.078668 0.021144 0.002566
0.111160 0.022188 0.002247
0.163150 0.022635 0.002270
0.218242 0.024205 0.002130
0.277606 0.024782 0.002017
0.332801 0.026219 0.001950
0.385537 0.027288 0.002076
0.433848 0.027875 0.001345
0.480559 0.031479 0.003313
0.523495 0.035423 0.004215
0.564763 0.038574 0.008211
0.604003 0.041288 0.009143
0.641483 0.051213 0.017469
0.677126 0.064012 0.025059
0.711018 0.075831 0.028119
0.740701 0.094395 0.041790
0.769792 0.109227 0.052260
0.798119 0.124691 0.062862
0.821803 0.156667 0.089446
0.845169 0.182586 0.112004
0.868624 0.201784 0.130145
0.884269 0.224195 0.150155
0.896140 0.248498 0.173547
0.911056 0.272651 0.197954
0.928854 0.296987 0.222203
0.936975 0.315836 0.242209
0.939869 0.332975 0.259578
0.003098 0.037359 0.002937
0.005479 0.036668 0.002729
0.011928 0.036700 0.002717
0.020990 0.036797 0.002692
0.035879 0.037309 0.002709
0.055318 0.038387 0.002774
0.084498 0.040446 0.002473
0.117793 0.043388 0.002070
0.169373 0.043804 0.001538
0.220284 0.044311 0.000829
0.275235 0.044410 0.000244
0.327133 0.045958 0.000165
0.377162 0.047641 0.000264
0.424727 0.049859 0.000861
0.470295 0.051947 0.001326
0.512992 0.053974 0.002187
0.555044 0.056339 0.004923
0.594772 0.060571 0.007218
0.632657 0.070603 0.014210
0.668725 0.081511 0.018861
0.702990 0.091761 0.021354
0.733586 0.108451 0.035313
0.763237 0.124083 0.046599
0.792287 0.137734 0.057740
0.816593 0.166197 0.083472
0.840801 0.188126 0.104643
0.864770 0.209420 0.121856
0.881184 0.231363 0.142354
0.894879 0.255344 0.166934
0.911382 0.279317 0.192280
0.930549 0.303567 0.217042
0.937043 0.322458 0.236015
0.940327 0.339354 0.254028
0.004934 0.059410 0.001541
0.009401 0.059447 0.001543
0.014347 0.059463 0.001559
0.024066 0.059621 0.001620
0.041377 0.060761 0.001790
0.062789 0.062808 0.001903
0.093171 0.066003 0.001710
0.129663 0.068275 0.001292
0.174217 0.069237 0.000600
0.222432 0.070025 0.000251
0.272187 0.070769 0.000165
0.321546 0.071425 0.000165
0.369380 0.072676 0.000135
0.415460 0.073997 0.000086
0.459973 0.075453 0.001242
0.503028 0.077462 0.002811
0.545068 0.080026 0.004595
0.584873 0.083494 0.005648
0.623080 0.092410 0.009809
0.659482 0.102282 0.013265
0.694091 0.113025 0.017814
0.725413 0.127985 0.029644
0.755967 0.141064 0.041758
0.785400 0.153855 0.053309
0.810578 0.178193 0.076864
0.835494 0.200291 0.096233
0.860424 0.218785 0.111947
0.877844 0.239951 0.133313
0.893677 0.263603 0.159708
0.911921 0.287640 0.185669
0.930954 0.312545 0.209382
0.937131 0.330446 0.228743
0.940902 0.347078 0.247472
0.005825 0.095074 0.000728
0.007484 0.094334 0.000750
0.015651 0.094182 0.000761
0.028450 0.094280 0.000763
0.043656 0.094551 0.000745
0.069860 0.095581 0.000608
0.098572 0.096798 0.000432
0.137752 0.097285 0.000172
0.177800 0.098751 0.000064
0.223357 0.099229 0.000111
0.267990 0.099904 0.000151
0.314989 0.100530 0.000129
0.360213 0.101327 0.000855
0.405971 0.101499 0.001480
0.450215 0.102166 0.001917
0.493234 0.103442 0.002425
0.534748 0.105948 0.003096
0.574297 0.110346 0.004059
0.612737 0.119226 0.007389
0.649739 0.127602 0.009635
0.684724 0.136995 0.013798
0.716923 0.149183 0.026245
0.748110 0.160162 0.036899
0.777666 0.173530 0.048593
0.803853 0.195399 0.069299
0.829903 0.213984 0.086472
0.855873 0.229031 0.100608
0.874522 0.249711 0.124470
0.892083 0.274681 0.151861
0.911000 0.299689 0.177362
0.931590 0.322710 0.200798
0.937247 0.339646 0.220647
0.941602 0.356018 0.240118
0.008370 0.133448 0.000119
0.013961 0.133258 0.000134
0.019666 0.133112 0.000153
0.026844 0.133010 0.000182
0.047563 0.132601 0.000151
0.071628 0.132148 0.000104
0.101912 0.132185 0.000073
0.138221 0.133061 0.000081
0.177165 0.133443 0.000221
0.220381 0.132457 0.000644
0.263611 0.131601 0.000843
0.308761 0.130581 0.001043
0.351880 0.130790 0.001264
0.396477 0.131054 0.001395
0.438762 0.131936 0.001433
0.481273 0.133798 0.001795
0.523125 0.136717 0.002114
0.563618 0.141169 0.002533
0.602605 0.147880 0.003853
0.640196 0.154253 0.005781
0.674781 0.162829 0.013526
0.707379 0.173455 0.023920
0.739420 0.183385 0.031969
0.769737 0.196112 0.042656
0.797164 0.213939 0.060492
0.824365 0.228534 0.075501
0.850977 0.241075 0.089582
0.870035 0.265297 0.116405
0.889415 0.289993 0.143509
0.910311 0.312883 0.168545
0.932541 0.333733 0.191568
0.937406 0.349876 0.212015
0.942346 0.366135 0.232017
0.008297 0.173623 0.000219
0.010067 0.173040 0.000242
0.019407 0.172060 0.000246
0.033911 0.170708 0.000249
0.051328 0.169163 0.000254
0.073634 0.168042 0.000357
0.104365 0.168073 0.000751
0.136445 0.168245 0.001277
0.175735 0.167464 0.001202
0.215886 0.167186 0.000968
0.258058 0.166128 0.000936
0.300500 0.164778 0.001010
0.343036 0.163804 0.000981
0.385790 0.163297 0.000762
0.426542 0.163344 0.000430
0.470385 0.165309 0.000177
0.512389 0.168517 0.000063
0.552483 0.172875 0.001258
0.591237 0.178097 0.004700
0.628749 0.183496 0.007704
0.664198 0.191174 0.013442
0.698142 0.199932 0.019960
0.731331 0.208338 0.025171
0.762238 0.219880 0.035326
0.789829 0.234494 0.051497
0.817150 0.247955 0.066952
0.844642 0.260381 0.080805
0.865359 0.283989 0.108695
0.887101 0.306359 0.135095
0.909986 0.326848 0.159499
0.932633 0.345149 0.181944
0.936301 0.362289 0.200931
0.941553 0.379967 0.220795
0.015469 0.210178 0.000296
0.021500 0.209033 0.000320
0.027864 0.207824 0.000349
0.036218 0.206234 0.000393
0.052154 0.204829 0.000479
0.076253 0.203761 0.000581
0.102745 0.202665 0.000636
0.136079 0.202201 0.000464
0.173829 0.202510 0.000176
0.212153 0.202679 0.000073
0.252895 0.200338 0.000230
0.293642 0.198795 0.000360
0.335324 0.197859 0.000259
0.376072 0.197408 0.000108
0.416896 0.197873 0.000018
0.459693 0.199679 0.000723
0.500772 0.201767 0.001678
0.540996 0.205014 0.003031
0.580456 0.209065 0.004530
0.618947 0.213554 0.005902
0.655019 0.220431 0.009804
0.688796 0.227915 0.015021
0.721480 0.235110 0.019493
0.751688 0.246026 0.030115
0.780739 0.258476 0.046141
0.809802 0.270094 0.059978
0.838192 0.282120 0.073904
0.861312 0.303625 0.101363
0.885172 0.323470 0.126730
0.908115 0.342553 0.148034
0.928294 0.360113 0.167019
0.933983 0.377527 0.188348
0.941301 0.395121 0.210095
0.019405 0.245288 0.000355
0.022051 0.244266 0.000385
0.030098 0.243458 0.000380
0.042890 0.242493 0.000358
0.058718 0.241337 0.000328
0.076959 0.240056 0.000288
0.102712 0.239063 0.000262
0.134727 0.238347 0.000272
0.167997 0.237692 0.000317
0.206957 0.236331 0.000330
0.247910 0.235234 0.000282
0.289007 0.234362 0.000252
0.328988 0.233062 0.000406
0.368258 0.232310 0.000433
0.409412 0.232470 0.000352
0.450653 0.233150 0.000035
0.490638 0.234717 0.000055
0.531200 0.238016 0.001466
0.570352 0.241560 0.003069
0.607962 0.245275 0.004668
0.643242 0.251143 0.008111
0.677418 0.256871 0.010681
0.710612 0.262516 0.015134
0.741935 0.272715 0.027867
0.772772 0.283304 0.040994
0.803423 0.293158 0.052897
0.831363 0.305833 0.068113
0.855397 0.325458 0.092554
0.879799 0.343647 0.114042
0.904671 0.360397 0.133162
0.924361 0.376628 0.153817
0.932370 0.394031 0.177134
0.941750 0.411454 0.200193
0.026258 0.280508 0.000208
0.032045 0.279717 0.000170
0.038494 0.278893 0.000222
0.047638 0.277833 0.000495
0.058925 0.276541 0.000801
0.081591 0.275249 0.001198
0.107738 0.273929 0.001426
0.135425 0.272650 0.001346
0.168960 0.271755 0.001081
0.206670 0.271226 0.000808
0.244272 0.270922 0.000401
0.282906 0.269977 0.000239
0.322034 0.269317 0.000143
0.361360 0.269177 0.000048
0.402637 0.269171 0.000074
0.443083 0.269534 0.000105
0.482907 0.270532 0.000415
0.522314 0.272355 0.001288
0.560357 0.274294 0.001872
0.597002 0.276957 0.002478
0.632581 0.281331 0.005713
0.667291 0.285831 0.008749
0.700941 0.291131 0.013636
0.732931 0.300945 0.026286
0.764188 0.310185 0.036973
0.794800 0.318985 0.045935
0.823086 0.331645 0.060221
0.849164 0.348612 0.081148
0.875558 0.364397 0.101218
0.902332 0.379073 0.121283
0.921387 0.394391 0.142682
0.931434 0.411902 0.167192
0.941707 0.430334 0.190567
0.060042 0.317576 0.015136
0.062747 0.316814 0.014661
0.066948 0.316019 0.013996
0.077058 0.315046 0.012590
0.089725 0.313851 0.010717
0.104528 0.312491 0.008349
0.120912 0.311036 0.005457
0.144792 0.309794 0.003531
0.174534 0.308792 0.002423
0.205041 0.307934 0.001120
0.239393 0.307085 0.000288
0.278410 0.306302 0.000182
0.317815 0.305850 0.000091
0.357935 0.305301 0.000087
0.398124 0.304819 0.000139
0.437698 0.304757 0.000203
0.476467 0.305248 0.000230
0.514459 0.306217 0.001315
0.551625 0.307567 0.002581
0.588049 0.310325 0.004741
0.623553 0.313870 0.007670
0.658032 0.317393 0.010616
0.691467 0.322136 0.014958
0.723988 0.329981 0.022742
0.755874 0.337624 0.029403
0.787195 0.345171 0.035124
0.816224 0.357676 0.049767
0.844352 0.372336 0.071995
0.872364 0.386435 0.092526
0.899339 0.400806 0.110860
0.915953 0.417372 0.132830
0.927664 0.435004 0.157319
0.940842 0.451870 0.180806
0.084998 0.353007 0.024298
0.088927 0.352403 0.022890
0.093215 0.351749 0.021352
0.099085 0.350863 0.019247
0.106494 0.349760 0.016589
0.115227 0.348485 0.013454
0.135153 0.347405 0.012128
0.157480 0.346306 0.010609
0.180973 0.345215 0.008709
0.208053 0.344163 0.006749
0.243622 0.343193 0.005191
0.279274 0.342379 0.002866
0.315232 0.341720 0.000386
0.354442 0.341085 0.000833
0.393366 0.340805 0.001293
0.431837 0.340869 0.001755
0.470106 0.340899 0.002311
0.507739 0.341230 0.002856
0.544658 0.341844 0.003315
0.580583 0.343613 0.004671
0.615611 0.345498 0.005755
0.649748 0.347419 0.006259
0.683254 0.351866 0.008880
0.716312 0.358362 0.013225
0.748850 0.365719 0.019149
0.780800 0.374049 0.029780
0.810172 0.387691 0.049979
0.838674 0.401442 0.069104
0.866612 0.414440 0.085922
0.894009 0.426707 0.100985
0.910260 0.442403 0.124189
0.925043 0.458416 0.148617
0.941072 0.473782 0.172045
0.116005 0.390939 0.045909
0.117966 0.390288 0.044910
0.120102 0.389576 0.043819
0.123592 0.388604 0.042270
0.133639 0.387432 0.039711
0.145642 0.386030 0.036525
0.159282 0.384434 0.032710
0.174168 0.382687 0.028272
0.192984 0.380970 0.023159
0.221066 0.379620 0.017154
0.249884 0.378349 0.010309
0.278924 0.377189 0.002555
0.314957 0.376317 0.001195
0.352668 0.375756 0.001249
0.390348 0.375527 0.001252
0.428086 0.375109 0.001182
0.465654 0.374577 0.000966
0.502727 0.374260 0.000533
0.538986 0.374713 0.000443
0.574317 0.376057 0.000854
0.609058 0.377854 0.001286
0.643168 0.380096 0.001717
0.677279 0.386379 0.009012
0.710753 0.393265 0.017328
0.743452 0.400107 0.025053
0.775181 0.407584 0.033433
0.804601 0.419668 0.049637
0.833437 0.431154 0.064455
0.861707 0.442052 0.078309
0.889284 0.452444 0.091806
0.906001 0.467485 0.116985
0.923753 0.481968 0.141173
0.942005 0.496438 0.164413
0.138353 0.425515 0.065772
0.141581 0.424822 0.063945
0.145137 0.424062 0.061937
0.150063 0.423015 0.059161
0.156376 0.421681 0.055615
0.163967 0.420089 0.051370
0.172657 0.418284 0.046536
0.188206 0.416675 0.040158
0.209720 0.415278 0.032391
0.232381 0.413878 0.024150
0.255743 0.412524 0.015583
0.285946 0.411571 0.011483
0.320271 0.410935 0.009362
0.354349 0.410443 0.006072
0.388472 0.410043 0.002301
0.425461 0.409623 0.001906
0.462313 0.409594 0.001321
0.498892 0.409996 0.000507
0.534710 0.410896 0.000886
0.570109 0.412355 0.003342
0.605045 0.414214 0.005955
0.639515 0.417059 0.009242
0.673449 0.422437 0.014613
0.706703 0.427879 0.019710
0.739282 0.433397 0.024560
0.770530 0.440814 0.032573
0.800157 0.450700 0.045325
0.829213 0.460134 0.057850
0.857644 0.469965 0.070960
0.883236 0.480947 0.086333
0.902000 0.495332 0.110355
0.921063 0.508951 0.133127
0.940396 0.521734 0.154056
0.169522 0.460553 0.083749
0.171417 0.459861 0.082500
0.173506 0.459095 0.081124
0.176399 0.458030 0.079217
0.180106 0.456657 0.076774
0.187535 0.455219 0.072984
0.200656 0.453924 0.067299
0.215314 0.452520 0.060933
0.231200 0.451055 0.054017
0.247979 0.449580 0.046692
0.270922 0.448201 0.038733
0.298578 0.446899 0.029631
0.326519 0.445645 0.019418
0.354414 0.444496 0.008271
0.389127 0.444290 0.006003
0.425422 0.444557 0.005340
0.461693 0.445187 0.004309
0.497675 0.446088 0.003532
0.533116 0.446973 0.004739
0.568284 0.448132 0.005977
0.603123 0.449541 0.007192
0.637381 0.452589 0.009410
0.671024 0.457166 0.012970
0.704144 0.462262 0.017207
0.736679 0.467588 0.021557
0.767353 0.475635 0.031060
0.796834 0.484553 0.042261
0.825654 0.493204 0.052770
0.853943 0.501868 0.065844
0.878022 0.512390 0.083515
0.898354 0.524490 0.105567
0.918842 0.535904 0.126057
0.939486 0.546652 0.145079
0.188342 0.492987 0.105169
0.190060 0.492371 0.104074
0.193642 0.491894 0.102268
0.198642 0.491232 0.099746
0.205119 0.490381 0.096476
0.213008 0.489356 0.092487
0.222184 0.488179 0.087838
0.232470 0.486880 0.082609
0.243653 0.485491 0.076895
0.262102 0.483872 0.065652
0.283594 0.482180 0.051606
0.305984 0.480600 0.036725
0.329535 0.479409 0.022653
0.359918 0.479320 0.016656
0.395022 0.480047 0.015507
0.429880 0.480950 0.013295
0.464212 0.482039 0.009907
0.499137 0.482901 0.009565
0.534171 0.483934 0.009541
0.568936 0.485250 0.008743
0.603318 0.486882 0.007130
0.637060 0.490755 0.010082
0.670328 0.494846 0.012985
0.703081 0.499136 0.015711
0.735205 0.503730 0.018384
0.765070 0.511292 0.030238
0.794350 0.518759 0.042009
0.822990 0.526076 0.053106
0.850981 0.533224 0.063699
0.874034 0.542845 0.082048
0.895734 0.552791 0.101751
0.917493 0.562204 0.120242
0.939312 0.571096 0.137594
0.221572 0.530105 0.124371
0.223817 0.529680 0.123140
0.226310 0.529211 0.121776
0.229798 0.528556 0.119874
0.234328 0.527711 0.117412
0.239864 0.526686 0.114418
0.246328 0.525500 0.110945
0.255797 0.524220 0.105600
0.271574 0.522956 0.096237
0.288616 0.521672 0.086283
0.306668 0.520408 0.075934
0.325469 0.519204 0.065389
0.349372 0.518603 0.056508
0.378870 0.518703 0.048909
0.408551 0.518954 0.040426
0.438133 0.519373 0.031010
0.469477 0.519910 0.023620
0.503515 0.520567 0.019434
0.537443 0.521443 0.014448
0.571121 0.522540 0.008555
0.604530 0.524663 0.005917
0.637797 0.527925 0.008915
0.670812 0.531466 0.013526
0.703410 0.535169 0.018109
0.734649 0.539956 0.024770
0.764053 0.546034 0.034191
0.792863 0.552006 0.043454
0.821059 0.557852 0.052690
0.848392 0.564046 0.063262
0.871118 0.573110 0.082440
0.893492 0.581825 0.099953
0.915520 0.590194 0.116081
0.937211 0.598221 0.131130
0.249695 0.566903 0.145487
0.251065 0.566469 0.144638
0.252585 0.565989 0.143699
0.254711 0.565318 0.142388
0.257471 0.564449 0.140691
0.263918 0.563508 0.137008
0.273813 0.562506 0.131502
0.285101 0.561395 0.125290
0.297627 0.560202 0.118489
0.311210 0.558959 0.111230
0.325651 0.557699 0.103658
0.345078 0.556901 0.093888
0.369143 0.556593 0.081538
0.393713 0.556400 0.068274
0.418522 0.556347 0.054113
0.444343 0.556457 0.040077
0.476795 0.556785 0.032747
0.509456 0.557360 0.025315
0.542181 0.558202 0.017351
0.574855 0.559343 0.008971
0.607901 0.561848 0.011843
0.640924 0.564759 0.016957
0.673449 0.567836 0.021049
0.705419 0.571065 0.023954
0.735112 0.575845 0.031319
0.763937 0.580968 0.039796
0.792249 0.586105 0.048170
0.820032 0.591249 0.056362
0.845727 0.597281 0.067226
0.868571 0.604549 0.082066
0.891078 0.611566 0.096250
0.913252 0.618334 0.110018
0.935271 0.624838 0.125341
0.273330 0.602668 0.169094
0.275995 0.602335 0.167795
0.278966 0.601965 0.166349
0.283139 0.601450 0.164343
0.288582 0.600783 0.161785
0.295301 0.599973 0.158639
0.303240 0.599034 0.154937
0.312306 0.597988 0.150729
0.322370 0.596862 0.146083
0.333281 0.595684 0.141074
0.350651 0.595097 0.130351
0.370327 0.594703 0.117946
0.390784 0.594386 0.105275
0.411788 0.594167 0.092519
0.433115 0.594065 0.079844
0.462631 0.594319 0.071012
0.492791 0.594760 0.062057
0.522869 0.595387 0.052722
0.552666 0.596208 0.042987
0.583515 0.597725 0.038398
0.615119 0.599731 0.036802
0.646437 0.601867 0.034203
0.677392 0.604121 0.030462
0.707530 0.606906 0.028616
0.736183 0.610925 0.034912
0.764414 0.614990 0.041054
0.792193 0.619093 0.046976
0.819499 0.623227 0.052607
0.843673 0.628632 0.063440
0.866737 0.634428 0.079056
0.889513 0.640025 0.094650
0.911965 0.645390 0.109547
0.934094 0.650517 0.123764
0.320844 0.639823 0.200532
0.322607 0.639511 0.199453
0.324573 0.639164 0.198251
0.327340 0.638679 0.196557
0.330961 0.638049 0.194339
0.335431 0.637279 0.191598
0.340709 0.636381 0.188354
0.346732 0.635372 0.184643
0.356316 0.634538 0.178443
0.370152 0.633972 0.169323
0.385018 0.633416 0.159609
0.400730 0.632891 0.149440
0.417098 0.632418 0.138958
0.433930 0.632015 0.128295
0.458165 0.631894 0.116490
0.483839 0.631923 0.104006
0.509665 0.632088 0.090995
0.535443 0.632398 0.077472
0.562103 0.633003 0.065065
0.592108 0.634162 0.056947
0.622041 0.635418 0.047813
0.651806 0.636761 0.037548
0.681325 0.638182 0.026033
0.709834 0.640838 0.026250
0.737799 0.643936 0.030328
0.765465 0.647190 0.036145
0.792852 0.650623 0.044431
0.819462 0.654241 0.053568
0.842856 0.658804 0.068759
0.865953 0.663203 0.083411
0.888580 0.667545 0.097943
0.910683 0.671881 0.111823
0.930291 0.676368 0.125575
0.356721 0.675270 0.230009
0.357732 0.674976 0.229045
0.358859 0.674650 0.227968
0.360441 0.674192 0.226447
0.362507 0.673595 0.224449
0.365048 0.672861 0.221969
0.372132 0.672318 0.216794
0.380812 0.671752 0.210562
0.390549 0.671141 0.203585
0.401231 0.670502 0.195950
0.412724 0.669855 0.187750
0.424886 0.669217 0.179087
0.437566 0.668607 0.170066
0.457875 0.668213 0.155808
0.479080 0.667900 0.140531
0.500618 0.667676 0.124531
0.522299 0.667553 0.107850
0.543945 0.667541 0.090520
0.571970 0.667904 0.076091
0.600354 0.668338 0.060707
0.628784 0.668879 0.044962
0.657195 0.669670 0.031097
0.685760 0.671200 0.028213
0.713604 0.673814 0.038596
0.740991 0.676432 0.047287
0.767865 0.679053 0.054198
0.794180 0.681678 0.059261
0.818590 0.684806 0.068225
0.841500 0.688328 0.081053
0.864076 0.691814 0.093136
0.886314 0.695263 0.104555
0.908215 0.698676 0.115404
0.924804 0.702612 0.128656
0.386256 0.708662 0.258078
0.388161 0.708463 0.256656
0.390293 0.708242 0.255066
0.393307 0.707932 0.252822
0.397279 0.707527 0.249872
0.402222 0.707030 0.246212
0.408124 0.706447 0.241860
0.414944 0.705787 0.236854
0.422621 0.705063 0.231250
0.431074 0.704289 0.225122
0.440208 0.703484 0.218551
0.451555 0.702715 0.210078
0.468548 0.702125 0.196517
0.486214 0.701624 0.183286
0.504422 0.701210 0.169948
0.523010 0.700903 0.156661
0.541822 0.700721 0.143574
0.566103 0.700835 0.131088
0.591934 0.701155 0.118848
0.617642 0.701649 0.106789
0.643080 0.702328 0.094926
0.668113 0.703198 0.083254
0.694019 0.704679 0.081890
0.719813 0.706274 0.080794
0.745259 0.707920 0.078445
0.770301 0.709619 0.074788
0.794892 0.711374 0.069781
0.817725 0.713986 0.079604
0.840291 0.716609 0.089244
0.862586 0.719237 0.098643
0.884603 0.721871 0.107879
0.906338 0.724511 0.117040
0.920740 0.727889 0.131111
0.434895 0.738406 0.293888
0.436244 0.738219 0.292811
0.437754 0.738009 0.291607
0.439890 0.737715 0.289906
0.442707 0.737330 0.287670
0.446216 0.736855 0.284894
0.450410 0.736295 0.281590
0.455261 0.735658 0.277788
0.460728 0.734953 0.273529
0.466754 0.734193 0.268868
0.478061 0.733701 0.259872
0.490925 0.733273 0.249726
0.504515 0.732885 0.239151
0.518699 0.732556 0.228278
0.533343 0.732302 0.217234
0.548315 0.732142 0.206145
0.567874 0.732211 0.193011
0.589500 0.732455 0.178779
0.611178 0.732831 0.164341
0.632765 0.733349 0.149722
0.654130 0.734016 0.134932
0.676888 0.734765 0.123222
0.701016 0.735542 0.113735
0.724954 0.736398 0.103350
0.748638 0.737338 0.092035
0.772011 0.738368 0.079770
0.794875 0.739817 0.076797
0.817342 0.741668 0.084663
0.839612 0.743556 0.092621
0.861670 0.745482 0.100739
0.883503 0.747445 0.109092
0.903248 0.749541 0.120361
0.917915 0.752075 0.135716
0.473580 0.766138 0.330954
0.474482 0.765958 0.330083
0.475493 0.765757 0.329108
0.476924 0.765474 0.327730
0.478811 0.765102 0.325916
0.481162 0.764642 0.323659
0.483973 0.764096 0.320967
0.487441 0.763491 0.317692
0.495194 0.763196 0.311057
0.503797 0.762898 0.303739
0.513169 0.762609 0.295819
0.523223 0.762344 0.287385
0.533859 0.762119 0.278535
0.544972 0.761948 0.269367
0.556458 0.761846 0.259978
0.572393 0.761910 0.245751
0.589995 0.762092 0.229445
0.607776 0.762371 0.212586
0.625603 0.762758 0.195209
0.643354 0.763260 0.177332
0.662089 0.763748 0.159590
0.684501 0.763910 0.143228
0.706872 0.764165 0.126165
0.729132 0.764520 0.108404
0.751217 0.764983 0.089949
0.773078 0.765567 0.071099
0.795356 0.766748 0.077940
0.817883 0.767744 0.091224
0.839985 0.768725 0.103328
0.861479 0.769757 0.112780
0.882339 0.770842 0.119595
0.899404 0.772357 0.130825
0.914874 0.774114 0.144535
0.503726 0.791872 0.365208
0.504267 0.791699 0.364506
0.504874 0.791506 0.363719
0.505731 0.791234 0.362606
0.508505 0.791096 0.359902
0.512197 0.790959 0.356358
0.516629 0.790805 0.352107
0.521787 0.790640 0.347168
0.527637 0.790471 0.341574
0.534133 0.790308 0.335373
0.541217 0.790162 0.328622
0.548947 0.789964 0.321380
0.557328 0.789688 0.313750
0.566159 0.789431 0.305840
0.580084 0.789245 0.289405
0.594606 0.789100 0.272472
0.609533 0.789004 0.255369
0.624765 0.788967 0.238253
0.640212 0.788996 0.221274
0.655927 0.789086 0.204579
0.677000 0.788747 0.188468
0.698017 0.788580 0.173946
0.718903 0.788547 0.160627
0.739580 0.788640 0.147931
0.759966 0.788868 0.135888
