calib/fujify/repo_cubes_std/reala_ace_repo_std.cube
TITLE "Chromasmith repo-rebased - Reala Ace"
#repo V-Log look rebased to Camera Standard via Panasonic V-Log math (approx)
LUT_3D_SIZE 5
0.000198 0.000107 0.000000
0.165182 0.000762 0.004007
0.587396 0.008248 0.021505
0.832224 0.137603 0.101789
0.938837 0.321468 0.269520
0.008297 0.173623 0.000219
0.175735 0.167464 0.001202
0.512389 0.168517 0.000063
0.789829 0.234494 0.051497
0.941553 0.379967 0.220795
0.169522 0.460553 0.083749
0.231200 0.451055 0.054017
0.461693 0.445187 0.004309
0.736679 0.467588 0.021557
0.939486 0.546652 0.145079
0.434895 0.738406 0.293888
0.460728 0.734953 0.273529
0.567874 0.732211 0.193011
0.748638 0.737338 0.092035
0.917915 0.752075 0.135716
0.670524 0.895359 0.517372
0.684629 0.894874 0.507534
0.732155 0.894746 0.466483
0.813984 0.896292 0.389280
0.914061 0.899673 0.283631
0.004733 0.002444 0.176673
0.203370 0.009313 0.172811
0.549151 0.018782 0.179550
0.808539 0.126507 0.251263
0.937994 0.321575 0.393486
0.010489 0.172603 0.189303
0.171529 0.181903 0.192354
0.496358 0.179254 0.181528
0.775765 0.235144 0.227813
0.939984 0.380309 0.356753
0.139624 0.482238 0.198463
0.218311 0.473471 0.184466
0.464897 0.467226 0.169353
0.744621 0.490491 0.212100
0.944740 0.557244 0.305532
0.438778 0.750371 0.372541
0.461430 0.746417 0.354609
0.569478 0.743652 0.294297
0.750773 0.746478 0.246855
0.917341 0.757263 0.293883
0.661660 0.894119 0.560073
0.675130 0.893294 0.551318
0.723162 0.893034 0.516944
0.807055 0.895094 0.458221
0.908566 0.897241 0.378679
0.018690 0.025023 0.489383
0.197867 0.034249 0.474945
0.531080 0.069586 0.472497
0.792402 0.179394 0.509656
0.929881 0.352180 0.604237
0.014390 0.171542 0.492457
0.160256 0.184704 0.492996
0.498669 0.218001 0.496824
0.777587 0.276098 0.518723
0.938643 0.408287 0.594633
0.064604 0.485003 0.510792
0.189803 0.490220 0.514973
0.495829 0.513870 0.533995
0.762068 0.531206 0.541594
0.948316 0.577005 0.578463
0.431733 0.765257 0.606606
0.459098 0.764203 0.599037
0.572713 0.764042 0.575647
0.752104 0.760568 0.551924
0.913069 0.762940 0.565471
0.640126 0.892347 0.689354
0.652005 0.891467 0.683743
0.701435 0.891198 0.661754
0.787192 0.891259 0.622917
0.891794 0.888345 0.574267
0.142633 0.125150 0.685971
0.255717 0.141411 0.682102
0.528323 0.221789 0.697233
0.763647 0.336689 0.724756
0.890361 0.452421 0.767817
0.126289 0.252561 0.727837
0.239205 0.261379 0.726291
0.523405 0.315073 0.735222
0.765419 0.401577 0.747984
0.903896 0.498251 0.775648
0.155262 0.517882 0.759119
0.249882 0.520966 0.764648
0.507576 0.541797 0.780260
0.768210 0.579346 0.791668
0.927007 0.617168 0.789672
0.408740 0.746295 0.767895
0.442376 0.747524 0.769135
0.554077 0.756410 0.777402
0.755620 0.771547 0.790661
0.906482 0.770531 0.782958
0.607283 0.876991 0.797281
0.621772 0.877578 0.795792
0.671869 0.880911 0.791487
0.757573 0.883099 0.773818
0.868763 0.876504 0.750877
0.288062 0.289890 0.805820
0.373533 0.302850 0.810169
0.576784 0.363502 0.829285
0.767543 0.450553 0.848912
0.883015 0.533816 0.866303
0.282836 0.379881 0.832673
0.368823 0.388526 0.838033
0.570753 0.430663 0.850305
0.766037 0.502455 0.865510
0.890986 0.572024 0.876484
0.321783 0.574079 0.859081
0.384354 0.575299 0.869773
0.557917 0.588137 0.892144
0.759032 0.628258 0.901782
0.894016 0.669056 0.900802
0.418277 0.738387 0.871098
0.448750 0.739138 0.876966
0.562826 0.746576 0.896213
0.739065 0.766157 0.916707
0.882862 0.775135 0.908091
0.570544 0.846164 0.861444
0.585654 0.847910 0.864191
0.630178 0.853217 0.871267
0.721203 0.862966 0.881101
0.848558 0.860848 0.878498
