calib/fujify/repo_cubes_std/reala_ace_repo_std.cube
TITLE "Chromasmith repo-rebased - Reala Ace"
#repo V-Log look rebased to Camera Standard via Panasonic V-Log math (approx)
LUT_3D_SIZE 9
0.000198 0.000107 0.000000
0.034294 0.002546 0.001859
0.165182 0.000762 0.004007
0.409430 0.002075 0.013366
0.587396 0.008248 0.021505
0.727543 0.044064 0.044713
0.832224 0.137603 0.101789
0.898998 0.235705 0.187285
0.938837 0.321468 0.269520
0.003098 0.037359 0.002937
0.035879 0.037309 0.002709
0.169373 0.043804 0.001538
0.377162 0.047641 0.000264
0.555044 0.056339 0.004923
0.702990 0.091761 0.021354
0.816593 0.166197 0.083472
0.894879 0.255344 0.166934
0.940327 0.339354 0.254028
0.008297 0.173623 0.000219
0.051328 0.169163 0.000254
0.175735 0.167464 0.001202
0.343036 0.163804 0.000981
0.512389 0.168517 0.000063
0.664198 0.191174 0.013442
0.789829 0.234494 0.051497
0.887101 0.306359 0.135095
0.941553 0.379967 0.220795
0.060042 0.317576 0.015136
0.089725 0.313851 0.010717
0.174534 0.308792 0.002423
0.317815 0.305850 0.000091
0.476467 0.305248 0.000230
0.623553 0.313870 0.007670
0.755874 0.337624 0.029403
0.872364 0.386435 0.092526
0.940842 0.451870 0.180806
0.169522 0.460553 0.083749
0.180106 0.456657 0.076774
0.231200 0.451055 0.054017
0.326519 0.445645 0.019418
0.461693 0.445187 0.004309
0.603123 0.449541 0.007192
0.736679 0.467588 0.021557
0.853943 0.501868 0.065844
0.939486 0.546652 0.145079
0.273330 0.602668 0.169094
0.288582 0.600783 0.161785
0.322370 0.596862 0.146083
0.390784 0.594386 0.105275
0.492791 0.594760 0.062057
0.615119 0.599731 0.036802
0.736183 0.610925 0.034912
0.843673 0.628632 0.063440
0.934094 0.650517 0.123764
0.434895 0.738406 0.293888
0.442707 0.737330 0.287670
0.460728 0.734953 0.273529
0.504515 0.732885 0.239151
0.567874 0.732211 0.193011
0.654130 0.734016 0.134932
0.748638 0.737338 0.092035
0.839612 0.743556 0.092621
0.917915 0.752075 0.135716
0.571012 0.833187 0.419283
0.576113 0.832780 0.414856
0.588248 0.831854 0.404560
0.615368 0.831020 0.379090
0.656223 0.830824 0.341516
0.712400 0.831115 0.289385
0.775024 0.832090 0.230191
0.842130 0.832073 0.159704
0.910774 0.834332 0.171288
0.670524 0.895359 0.517372
0.674645 0.895211 0.514454
0.684629 0.894874 0.507534
0.702039 0.894488 0.494637
0.732155 0.894746 0.466483
0.767833 0.895315 0.435631
0.813984 0.896292 0.389280
0.862915 0.897895 0.342888
0.914061 0.899673 0.283631
0.004414 0.003750 0.037741
0.036718 0.004945 0.034022
0.168335 0.000621 0.040417
0.392387 0.001899 0.048048
0.568368 0.007874 0.057596
0.712910 0.042285 0.087366
0.822993 0.128218 0.148855
0.894909 0.230591 0.231160
0.938730 0.320599 0.312641
0.002203 0.047761 0.050043
0.045920 0.052702 0.052702
0.181136 0.051650 0.051991
0.366410 0.051236 0.048450
0.540923 0.058605 0.055008
0.690681 0.088740 0.079451
0.808964 0.158371 0.135852
0.892432 0.250585 0.214211
0.939469 0.337843 0.297060
0.005822 0.182393 0.042579
0.050861 0.177987 0.041695
0.171945 0.174162 0.039832
0.336347 0.168694 0.038159
0.504802 0.172550 0.045944
0.657479 0.193322 0.066252
0.784710 0.231466 0.110133
0.884970 0.304682 0.186092
0.941087 0.379351 0.265578
0.058025 0.324741 0.037626
0.088083 0.320946 0.031438
0.170458 0.314929 0.019445
0.315599 0.311964 0.018335
0.472205 0.310578 0.029818
0.621111 0.318796 0.051438
0.755343 0.343057 0.086427
0.873459 0.391075 0.150077
0.942296 0.454041 0.229851
0.167282 0.465709 0.099105
0.177139 0.461955 0.093030
0.229099 0.456285 0.071161
0.324579 0.451062 0.038744
0.459801 0.451043 0.025533
0.604147 0.455525 0.042308
0.738600 0.474772 0.074803
0.855720 0.508566 0.125653
0.941135 0.550649 0.196311
0.275534 0.609586 0.183171
0.290414 0.607576 0.176223
0.323428 0.603356 0.160864
0.391924 0.600456 0.123141
0.494330 0.600782 0.084773
0.617096 0.606027 0.071931
0.738118 0.616528 0.084368
0.845271 0.633530 0.125388
0.935109 0.653615 0.177850
0.436731 0.741960 0.310381
0.444187 0.740793 0.304037
0.461402 0.738196 0.289549
0.505298 0.736207 0.256812
0.568534 0.735616 0.214406
0.654253 0.737184 0.162812
0.749034 0.740337 0.132561
0.840011 0.745926 0.144288
0.917667 0.753868 0.187082
0.569492 0.833736 0.433222
0.574473 0.833290 0.428838
0.586325 0.832271 0.418615
0.613680 0.831474 0.393925
0.654388 0.831365 0.358533
0.711082 0.831639 0.310779
0.774119 0.832662 0.257491
0.841655 0.833065 0.200755
0.910791 0.835063 0.215749
0.667750 0.894949 0.529935
0.671823 0.894766 0.527058
0.681690 0.894342 0.520215
0.699181 0.893859 0.507227
0.729383 0.894102 0.480474
0.765330 0.894662 0.450866
0.812059 0.895857 0.408343
0.861475 0.897535 0.365293
0.913030 0.899302 0.311206
0.004733 0.002444 0.176673
0.053565 0.003821 0.166428
0.203370 0.009313 0.172811
0.381125 0.011065 0.171250
0.549151 0.018782 0.179550
0.694482 0.049343 0.205002
0.808539 0.126507 0.251263
0.889989 0.228948 0.320674
0.937994 0.321575 0.393486
0.003903 0.050281 0.195011
0.044698 0.052348 0.190766
0.188373 0.062515 0.189892
0.356360 0.058146 0.179409
0.526182 0.065861 0.181095
0.674692 0.095641 0.199823
0.796073 0.155141 0.242395
0.888916 0.249911 0.308896
0.938398 0.337831 0.380893
0.010489 0.172603 0.189303
0.041960 0.174121 0.187561
0.171529 0.181903 0.192354
0.333199 0.176930 0.185227
0.496358 0.179254 0.181528
0.646216 0.197030 0.194224
0.775765 0.235144 0.227813
0.881687 0.306143 0.288873
0.939984 0.380309 0.356753
0.027724 0.330753 0.176711
0.066692 0.331193 0.177399
0.168423 0.329292 0.176482
0.319258 0.324884 0.177095
0.471966 0.322464 0.176639
0.619791 0.329494 0.188359
0.756147 0.354191 0.218118
0.872903 0.398707 0.267323
0.944001 0.458643 0.330219
0.139624 0.482238 0.198463
0.157692 0.479319 0.194858
0.218311 0.473471 0.184466
0.323437 0.468096 0.169554
0.464897 0.467226 0.169353
0.610634 0.472480 0.185855
0.744621 0.490491 0.212100
0.859707 0.520418 0.251582
0.944740 0.557244 0.305532
0.274859 0.628598 0.260881
0.288720 0.626416 0.254651
0.319455 0.621848 0.240915
0.393088 0.618404 0.219582
0.500029 0.617867 0.204733
0.623192 0.620874 0.202464
0.743034 0.628817 0.217707
0.848628 0.642878 0.250056
0.937702 0.659619 0.290217
0.438778 0.750371 0.372541
0.445615 0.749147 0.367054
0.461430 0.746417 0.354609
0.506157 0.744577 0.326912
0.569478 0.743652 0.294297
0.654849 0.744654 0.261171
0.750773 0.746478 0.246855
0.840708 0.750709 0.260699
0.917341 0.757263 0.293883
0.565512 0.835616 0.476998
0.570292 0.835143 0.473227
0.581672 0.834066 0.464464
0.609767 0.833255 0.443221
0.649984 0.832903 0.414451
0.707471 0.833110 0.376828
0.771434 0.834183 0.336858
0.841737 0.835111 0.298699
0.911237 0.836623 0.313069
0.661660 0.894119 0.560073
0.665597 0.893872 0.557479
0.675130 0.893294 0.551318
0.692846 0.892711 0.539223
0.723162 0.893034 0.516944
0.759697 0.893737 0.492185
0.807055 0.895094 0.458221
0.856898 0.896415 0.422844
0.908566 0.897241 0.378679
0.009620 0.008288 0.350653
0.055376 0.007742 0.332858
0.202508 0.020583 0.333143
0.369979 0.024101 0.322710
0.537916 0.033082 0.327439
0.681140 0.065033 0.341394
0.800385 0.137963 0.376750
0.889644 0.238657 0.434801
0.936906 0.328631 0.496621
0.007980 0.052400 0.348295
0.045493 0.052541 0.339203
0.182885 0.066690 0.341310
0.355158 0.076050 0.336338
0.520152 0.083098 0.333452
0.665801 0.112189 0.342945
0.790298 0.170031 0.373561
0.888836 0.259815 0.428469
0.937167 0.343732 0.488939
0.003439 0.165710 0.343768
0.040349 0.168216 0.342798
0.161019 0.178758 0.347400
0.333638 0.190818 0.349813
0.492876 0.194859 0.340201
0.639981 0.209332 0.346014
0.773353 0.248259 0.370435
0.881261 0.315146 0.418585
0.939312 0.388794 0.474289
0.025537 0.315397 0.338981
0.044868 0.316008 0.338480
0.158828 0.321982 0.343587
0.320926 0.336164 0.351763
0.475020 0.337170 0.347948
0.623385 0.345473 0.352688
0.760178 0.368841 0.374144
0.873876 0.412124 0.410077
0.945536 0.468423 0.458424
0.064767 0.483680 0.349618
0.105776 0.485503 0.350501
0.195132 0.490047 0.352509
0.331469 0.491354 0.355023
0.480091 0.490744 0.355631
0.623265 0.495389 0.361187
0.754236 0.510191 0.379400
0.863978 0.534889 0.405136
0.947061 0.566652 0.442627
0.271958 0.649439 0.414023
0.285735 0.648716 0.409893
0.317883 0.647170 0.400814
0.400948 0.642411 0.388128
0.510731 0.638825 0.378346
0.632262 0.639209 0.376024
0.749768 0.644771 0.385584
0.851228 0.654425 0.405451
0.935758 0.667397 0.431931
0.439628 0.762308 0.489186
0.445702 0.761094 0.485026
0.461043 0.758450 0.475319
0.507845 0.756351 0.456458
0.572308 0.754769 0.434181
0.655551 0.754837 0.407686
0.751731 0.754457 0.399292
0.840564 0.756307 0.409354
0.916379 0.760640 0.430720
0.558597 0.838774 0.558716
0.563044 0.838216 0.555633
0.573607 0.836914 0.548401
0.603575 0.836029 0.531432
0.643415 0.835405 0.510204
0.702253 0.835476 0.481987
0.767295 0.836219 0.453597
0.838633 0.836540 0.428458
0.907499 0.836857 0.439592
0.651862 0.893322 0.619984
0.655597 0.893046 0.617795
0.664641 0.892392 0.612572
0.683163 0.891953 0.601886
0.713647 0.892431 0.584768
0.750982 0.893113 0.564649
0.798699 0.893859 0.536695
0.849226 0.894031 0.507554
0.901462 0.893397 0.473180
0.018690 0.025023 0.489383
0.058704 0.021511 0.474240
0.197867 0.034249 0.474945
0.370633 0.053253 0.476376
0.531080 0.069586 0.472497
0.671205 0.107736 0.479564
0.792402 0.179394 0.509656
0.887485 0.270472 0.556056
0.929881 0.352180 0.604237
0.015676 0.067189 0.491167
0.054014 0.066611 0.482981
0.181981 0.079553 0.484907
0.357133 0.099840 0.487513
0.517810 0.115814 0.481139
0.661147 0.145106 0.484807
0.787493 0.205026 0.511721
0.885177 0.291501 0.555430
0.932480 0.364664 0.601266
0.014390 0.171542 0.492457
0.046445 0.173925 0.490676
0.160256 0.184704 0.492996
0.332285 0.204968 0.498094
0.498669 0.218001 0.496824
0.645911 0.237837 0.498193
0.777587 0.276098 0.518723
0.882110 0.341067 0.554947
0.938643 0.408287 0.594633
0.020119 0.316209 0.496118
0.062011 0.319064 0.496318
0.157216 0.326876 0.497943
0.316982 0.341814 0.505000
0.485406 0.357584 0.512273
0.636975 0.370413 0.517162
0.768728 0.393380 0.530744
0.876651 0.433535 0.554826
0.947016 0.483828 0.587351
0.064604 0.485003 0.510792
0.101382 0.486264 0.511749
0.189803 0.490220 0.514973
0.334876 0.499113 0.522803
0.495829 0.513870 0.533995
0.637381 0.520427 0.535402
0.762068 0.531206 0.541594
0.867088 0.550114 0.556050
0.948316 0.577005 0.578463
0.263379 0.648852 0.556333
0.276628 0.648675 0.554979
0.320197 0.649413 0.552924
0.405947 0.652879 0.551323
0.519630 0.655170 0.548458
0.640506 0.655959 0.545574
0.754108 0.658089 0.547753
0.852098 0.664025 0.556763
0.933597 0.673405 0.570024
0.431733 0.765257 0.606606
0.437396 0.764770 0.604537
0.459098 0.764203 0.599037
0.505714 0.764560 0.589429
0.572713 0.764042 0.575647
0.655706 0.762888 0.558592
0.752104 0.760568 0.551924
0.839018 0.760302 0.555605
0.913069 0.762940 0.565471
0.551740 0.842192 0.652115
0.555748 0.841748 0.650031
0.567682 0.840785 0.644465
0.598013 0.839803 0.632742
0.636405 0.838925 0.618197
0.696379 0.838858 0.598302
0.761967 0.838967 0.578706
0.834693 0.838541 0.560041
0.903469 0.837235 0.567026
0.640126 0.892347 0.689354
0.643598 0.892085 0.687700
0.652005 0.891467 0.683743
0.671770 0.891131 0.674758
0.701435 0.891198 0.661754
0.739335 0.891246 0.645278
0.787192 0.891259 0.622917
0.838487 0.890208 0.600048
0.891794 0.888345 0.574267
0.046235 0.053057 0.608918
0.079532 0.050288 0.599338
0.207328 0.069454 0.599275
0.368355 0.109191 0.598600
0.523140 0.141803 0.599143
0.659297 0.193228 0.606503
0.773281 0.262367 0.629866
0.864398 0.341224 0.662769
0.906191 0.403569 0.695554
0.039006 0.094423 0.611655
0.078802 0.096737 0.607840
0.195235 0.112574 0.607810
0.359137 0.142164 0.610109
0.516099 0.175421 0.610228
0.655305 0.219535 0.615832
0.771892 0.283704 0.635736
0.864151 0.354845 0.665100
0.910331 0.417771 0.695914
0.040506 0.194796 0.626357
0.064967 0.196518 0.623464
0.180424 0.206450 0.623918
0.340077 0.229799 0.627959
0.505788 0.258246 0.632962
0.652189 0.290288 0.637871
0.772099 0.337085 0.649486
0.866286 0.396065 0.672021
0.920831 0.450772 0.697137
0.052999 0.340036 0.641379
0.077920 0.341105 0.641307
0.180225 0.348402 0.643519
0.331547 0.362582 0.649313
0.501265 0.384124 0.659675
0.652425 0.406182 0.665121
0.774421 0.432638 0.668857
0.870566 0.470259 0.681277
0.939281 0.512097 0.699732
0.090820 0.495609 0.651508
0.117196 0.497136 0.652541
0.210348 0.502190 0.656409
0.343878 0.511212 0.662428
0.498363 0.525228 0.671276
0.646827 0.541050 0.680051
0.769369 0.554827 0.683111
0.867632 0.570474 0.688738
0.945149 0.591686 0.698174
0.251312 0.640721 0.669156
0.264346 0.640370 0.668720
0.318378 0.643020 0.670240
0.398280 0.647719 0.672526
0.515067 0.656618 0.678049
0.643438 0.664299 0.682991
0.757902 0.668908 0.685105
0.852651 0.673671 0.687186
0.928395 0.681588 0.692013
0.415758 0.755295 0.697066
0.421797 0.755108 0.696158
0.450692 0.756900 0.695149
0.494364 0.760053 0.693422
0.566504 0.764756 0.691356
0.653555 0.768959 0.688341
0.753579 0.766563 0.683473
0.838406 0.765748 0.683168
0.910693 0.766896 0.686269
0.541207 0.838349 0.731149
0.544517 0.838155 0.730163
0.561490 0.838931 0.727684
0.591311 0.840718 0.723687
0.632038 0.842594 0.717187
0.690237 0.842317 0.703303
0.757185 0.841164 0.690431
0.831956 0.838942 0.678561
0.897860 0.834613 0.679721
0.625589 0.887979 0.751111
0.628684 0.887875 0.750173
0.636487 0.887638 0.747810
0.658616 0.887732 0.741354
0.687942 0.888066 0.733059
0.726746 0.888092 0.721074
0.773165 0.888049 0.704600
0.825252 0.885958 0.687275
0.879987 0.883000 0.668308
0.142633 0.125150 0.685971
0.169790 0.126904 0.683611
0.255717 0.141411 0.682102
0.384631 0.176545 0.688884
0.528323 0.221789 0.697233
0.656715 0.272980 0.706959
0.763647 0.336689 0.724756
0.847315 0.398473 0.746255
0.890361 0.452421 0.767817
0.137101 0.164178 0.699650
0.166583 0.166752 0.697783
0.248834 0.178421 0.696205
0.380320 0.206874 0.700697
0.525905 0.247254 0.708036
0.656070 0.298533 0.717613
0.763165 0.353461 0.731092
0.847793 0.414667 0.750658
0.893875 0.464719 0.769906
0.126289 0.252561 0.727837
0.155964 0.253452 0.726663
0.239205 0.261379 0.726291
0.373206 0.281530 0.729103
0.523405 0.315073 0.735222
0.656729 0.356292 0.740208
0.765419 0.401577 0.747984
0.849850 0.449919 0.759993
0.903896 0.498251 0.775648
0.127730 0.382116 0.751542
0.160030 0.382429 0.753258
0.234892 0.384684 0.757043
0.363062 0.396530 0.760282
0.516227 0.419857 0.765011
0.657160 0.450254 0.770631
0.770967 0.481255 0.772321
0.856518 0.512879 0.775001
0.918422 0.551418 0.783904
0.155262 0.517882 0.759119
0.184374 0.518729 0.760825
0.249882 0.520966 0.764648
0.365918 0.528418 0.771914
0.507576 0.541797 0.780260
0.648502 0.559970 0.787144
0.768210 0.579346 0.791668
0.859222 0.596089 0.790969
0.927007 0.617168 0.789672
0.266367 0.641815 0.759335
0.283666 0.642289 0.760774
0.322592 0.643464 0.764081
0.397916 0.647319 0.769805
0.509539 0.655158 0.777939
0.643399 0.668657 0.787063
0.758977 0.678069 0.793304
0.851166 0.685482 0.793418
0.920294 0.693822 0.790349
0.408740 0.746295 0.767895
0.418875 0.746644 0.768285
0.442376 0.747524 0.769135
0.478848 0.749268 0.770462
0.554077 0.756410 0.777402
0.645714 0.764013 0.784527
0.755620 0.771547 0.790661
0.836970 0.770105 0.785866
0.906482 0.770531 0.782958
0.524965 0.825110 0.785879
0.532349 0.825907 0.786159
0.550032 0.827882 0.786807
0.578099 0.831237 0.787752
0.621774 0.835521 0.787812
0.680092 0.840542 0.786329
0.750151 0.840074 0.781020
0.825362 0.836111 0.774736
0.889148 0.830733 0.769512
0.607283 0.876991 0.797281
0.609934 0.876956 0.796883
0.621772 0.877578 0.795792
0.643349 0.878948 0.793951
0.671869 0.880911 0.791487
0.711900 0.881921 0.784218
0.757573 0.883099 0.773818
0.811807 0.880237 0.762528
0.868763 0.876504 0.750877
0.231274 0.211419 0.761151
0.254632 0.213485 0.760635
0.321178 0.225138 0.761597
0.426490 0.254291 0.768353
0.550138 0.297525 0.777880
0.666880 0.345626 0.787079
0.763694 0.397801 0.798855
0.839376 0.451362 0.812015
0.883206 0.494278 0.824511
0.227807 0.244187 0.773192
0.249814 0.246031 0.772808
0.317132 0.256922 0.773844
0.423996 0.281403 0.778557
0.550155 0.320547 0.787205
0.666842 0.364875 0.794618
0.764026 0.415344 0.804935
0.839858 0.463977 0.815755
0.886564 0.507637 0.827393
0.222094 0.319255 0.797554
0.249919 0.321197 0.797632
0.312369 0.326904 0.798576
0.417822 0.344196 0.801069
0.546263 0.376300 0.806788
0.667533 0.415327 0.813593
0.765013 0.455726 0.818657
0.841775 0.498862 0.825425
0.895340 0.537877 0.833827
0.231558 0.429727 0.819173
0.252564 0.429755 0.820302
0.314468 0.433388 0.823043
0.413157 0.443256 0.827552
0.537805 0.463023 0.833438
0.662443 0.491841 0.837704
0.766395 0.523438 0.839831
0.843511 0.554410 0.840556
0.903302 0.585065 0.843384
0.256774 0.546087 0.827607
0.273059 0.545684 0.828732
0.324850 0.547276 0.833506
0.411139 0.551751 0.842621
0.530002 0.563003 0.851735
0.654875 0.582130 0.858695
0.761253 0.603604 0.859077
0.844444 0.624832 0.857172
0.906759 0.644743 0.855026
0.305806 0.652352 0.830146
0.317939 0.652255 0.831667
0.348816 0.652427 0.835422
0.425525 0.656077 0.843693
0.525824 0.662983 0.854361
0.646128 0.674111 0.866586
0.756647 0.689303 0.870451
0.841553 0.701263 0.867351
0.906593 0.711465 0.863153
0.412191 0.742494 0.825651
0.419072 0.742597 0.827056
0.434932 0.742897 0.830418
0.475989 0.745378 0.837357
0.544508 0.750722 0.848025
0.645432 0.760250 0.858591
0.749708 0.770118 0.866089
0.833043 0.772658 0.863727
0.897710 0.773623 0.857297
0.512057 0.810886 0.826983
0.518178 0.811555 0.827884
0.532811 0.813220 0.830038
0.555909 0.816069 0.833439
0.603134 0.821507 0.839343
0.661373 0.828149 0.846897
0.740049 0.829532 0.848806
0.815006 0.829646 0.847502
0.878694 0.825693 0.840559
0.588361 0.862312 0.832812
0.593352 0.862803 0.833152
0.605489 0.864015 0.833961
0.625305 0.866053 0.835222
0.651357 0.868862 0.836735
0.693238 0.871727 0.834919
0.737967 0.875549 0.832560
0.798336 0.872584 0.826881
0.859371 0.868813 0.821494
0.288062 0.289890 0.805820
0.312994 0.292658 0.806888
0.373533 0.302850 0.810169
0.467350 0.324775 0.816580
0.576784 0.363502 0.829285
0.680223 0.406642 0.839872
0.767543 0.450553 0.848912
0.837273 0.494515 0.857818
0.883015 0.533816 0.866303
0.288060 0.316387 0.814396
0.311651 0.318546 0.815323
0.371677 0.328922 0.818445
0.464291 0.350184 0.825327
0.574422 0.383837 0.835487
0.680034 0.423963 0.845886
0.767274 0.464766 0.853570
0.836790 0.507620 0.861862
0.885938 0.544918 0.869248
0.282836 0.379881 0.832673
0.307797 0.382076 0.834318
0.368823 0.388526 0.838033
0.462212 0.403580 0.842856
0.570753 0.430663 0.850305
0.676293 0.465598 0.858957
0.766037 0.502455 0.865510
0.837050 0.537433 0.870958
0.890986 0.572024 0.876484
0.299235 0.473998 0.847974
0.318735 0.474256 0.850809
0.368116 0.476428 0.857209
0.456562 0.484032 0.866455
0.564532 0.502974 0.871968
0.670720 0.529509 0.877726
0.762867 0.558604 0.882383
0.837128 0.587505 0.886020
0.893560 0.614499 0.888189
0.321783 0.574079 0.859081
0.340602 0.574412 0.862229
0.384354 0.575299 0.869773
0.459157 0.579402 0.880383
0.557917 0.588137 0.892144
0.664398 0.606104 0.897537
0.759032 0.628258 0.901782
0.836716 0.650222 0.902618
0.894016 0.669056 0.900802
0.358958 0.667119 0.869388
0.373811 0.667274 0.871645
0.413236 0.668038 0.877610
0.473530 0.669548 0.886935
0.558601 0.675206 0.899653
0.654703 0.685532 0.911179
0.755720 0.702701 0.917558
0.831745 0.714965 0.914998
0.892819 0.724706 0.909931
0.418277 0.738387 0.871098
0.425737 0.738413 0.872665
0.448750 0.739138 0.876966
0.499105 0.742169 0.885434
0.562826 0.746576 0.896213
0.652106 0.756960 0.909362
0.739065 0.766157 0.916707
0.821992 0.773024 0.916175
0.882862 0.775135 0.908091
0.494488 0.794237 0.859572
0.499595 0.794647 0.861072
0.511927 0.795649 0.864666
0.539437 0.798674 0.871812
0.591418 0.805680 0.883941
0.653051 0.813170 0.895836
0.729775 0.818147 0.900619
0.801087 0.820881 0.900969
0.867414 0.820571 0.896203
0.570544 0.846164 0.861444
0.574952 0.846669 0.862250
0.585654 0.847910 0.864191
0.603063 0.849975 0.867291
0.630178 0.853217 0.871267
0.671447 0.858392 0.876103
0.721203 0.862966 0.881101
0.787504 0.862405 0.881033
0.848558 0.860848 0.878498
