calib/fujify/montage_cubes/classic_chrome_montage.cube
TITLE "Chromasmith montage fit - Classic Chrome"
#STD->look, fit from fujify comparison montages (best-effort)
LUT_3D_SIZE 33
0.000000 0.000000 0.000000
0.018295 0.000000 0.000000
0.044765 0.002603 0.000000
0.072301 0.008200 0.000070
0.100812 0.013948 0.002809
0.130205 0.019843 0.005995
0.160388 0.025878 0.009623
0.191267 0.032050 0.013684
0.222751 0.038354 0.018171
0.254747 0.044784 0.023077
0.287162 0.051335 0.028395
0.319905 0.058002 0.034118
0.352882 0.064780 0.040237
0.386002 0.071665 0.046747
0.419171 0.078651 0.053640
0.452298 0.085733 0.060908
0.485290 0.092906 0.068545
0.518054 0.100165 0.076542
0.550498 0.107505 0.084894
0.582529 0.114922 0.093592
0.614055 0.122410 0.102630
0.644984 0.129963 0.112000
0.675223 0.137578 0.121695
0.704680 0.145249 0.131708
0.733261 0.152971 0.142031
0.760876 0.160738 0.152657
0.787430 0.168547 0.163580
0.812833 0.176392 0.174791
0.836990 0.184268 0.186284
0.859811 0.192169 0.198051
0.881202 0.200092 0.210086
0.901071 0.208031 0.222380
0.919325 0.215980 0.234927
0.000000 0.012416 0.002079
0.022426 0.017949 0.003144
0.048902 0.023644 0.004723
0.076464 0.029497 0.006807
0.105019 0.035502 0.009390
0.134474 0.041654 0.012465
0.164738 0.047948 0.016025
0.195718 0.054380 0.020062
0.227322 0.060943 0.024568
0.259456 0.067634 0.029538
0.292029 0.074448 0.034963
0.324948 0.081378 0.040836
0.358121 0.088421 0.047150
0.391455 0.095570 0.053899
0.424858 0.102822 0.061073
0.458236 0.110171 0.068667
0.491499 0.117612 0.076674
0.524553 0.125140 0.085085
0.557306 0.132750 0.093894
0.589665 0.140438 0.103093
0.621538 0.148197 0.112675
0.652832 0.156023 0.122634
0.683456 0.163911 0.132961
0.713316 0.171857 0.143649
0.742320 0.179854 0.154692
0.770376 0.187898 0.166082
0.797391 0.195984 0.177812
0.823273 0.204107 0.189875
0.847929 0.212262 0.202262
0.871266 0.220444 0.214968
0.893193 0.228647 0.227985
0.913617 0.236868 0.241305
0.932445 0.245100 0.254922
0.001680 0.033662 0.009581
0.026920 0.039410 0.010288
0.053357 0.045322 0.011553
0.080899 0.051393 0.013367
0.109453 0.057616 0.015724
0.138927 0.063988 0.018616
0.169228 0.070503 0.022036
0.200264 0.077156 0.025978
0.231943 0.083942 0.030433
0.264171 0.090856 0.035395
0.296857 0.097894 0.040856
0.329908 0.105049 0.046809
0.363231 0.112318 0.053247
0.396735 0.119695 0.060162
0.430326 0.127175 0.067548
0.463912 0.134753 0.075397
0.497401 0.142423 0.083702
0.530701 0.150182 0.092455
0.563718 0.158024 0.101650
0.596360 0.165944 0.111279
0.628535 0.173937 0.121335
0.660151 0.181998 0.131811
0.691114 0.190122 0.142700
0.721333 0.198303 0.153993
0.750715 0.206538 0.165685
0.779168 0.214821 0.177767
0.806599 0.223146 0.190233
0.832915 0.231509 0.203076
0.858024 0.239905 0.216287
0.881835 0.248329 0.229860
0.904253 0.256776 0.243788
0.925187 0.265240 0.258064
0.944545 0.273717 0.272679
0.006643 0.055627 0.017202
0.031781 0.061553 0.017480
0.058135 0.067644 0.018359
0.085613 0.073894 0.019832
0.114121 0.080298 0.021891
0.143569 0.086851 0.024530
0.173862 0.093549 0.027740
0.204910 0.100385 0.031515
0.236619 0.107356 0.035848
0.268896 0.114456 0.040731
0.301650 0.121679 0.046157
0.334788 0.129022 0.052119
0.368218 0.136479 0.058609
0.401846 0.144045 0.065621
0.435581 0.151715 0.073147
0.469331 0.159483 0.081180
0.503001 0.167346 0.089712
0.536501 0.175298 0.098737
0.569738 0.183334 0.108247
0.602619 0.191448 0.118235
0.635052 0.199637 0.128694
0.666944 0.207894 0.139616
0.698203 0.216215 0.150994
0.728736 0.224596 0.162822
0.758451 0.233029 0.175091
0.787256 0.241512 0.187795
0.815058 0.250039 0.200926
0.841764 0.258604 0.214477
0.867283 0.267203 0.228442
0.891521 0.275831 0.242811
0.914386 0.284483 0.257580
0.935786 0.293153 0.272739
0.955628 0.301837 0.288282
0.012023 0.078319 0.025023
0.037014 0.084385 0.024802
0.063240 0.090616 0.025225
0.090608 0.097008 0.026285
0.119027 0.103555 0.027976
0.148403 0.110251 0.030290
0.178645 0.117093 0.033219
0.209659 0.124075 0.036757
0.241354 0.131192 0.040896
0.273636 0.138439 0.045630
0.306414 0.145811 0.050950
0.339594 0.153303 0.056849
0.373085 0.160910 0.063321
0.406794 0.168627 0.070358
0.440629 0.176449 0.077953
0.474496 0.184370 0.086099
0.508304 0.192387 0.094788
0.541960 0.200494 0.104013
0.575372 0.208685 0.113767
0.608447 0.216956 0.124043
0.641092 0.225302 0.134833
0.673216 0.233718 0.146131
0.704726 0.242199 0.157928
0.735529 0.250740 0.170218
0.765533 0.259335 0.182994
0.794645 0.267980 0.196249
0.822773 0.276670 0.209974
0.849825 0.285399 0.224163
0.875708 0.294164 0.238809
0.900329 0.302958 0.253904
0.923596 0.311776 0.269442
0.945418 0.320614 0.285414
0.965700 0.329467 0.301814
0.017823 0.101743 0.033130
0.042623 0.107911 0.032338
0.068676 0.114245 0.032234
0.095891 0.120741 0.032811
0.124176 0.127392 0.034062
0.153436 0.134194 0.035980
0.183581 0.141143 0.038557
0.214517 0.148232 0.041787
0.246153 0.155457 0.045661
0.278396 0.162813 0.050174
0.311152 0.170296 0.055317
0.344331 0.177899 0.061083
0.377838 0.185618 0.067465
0.411583 0.193448 0.074457
0.445472 0.201383 0.082050
0.479413 0.209420 0.090237
0.513314 0.217553 0.099011
0.547081 0.225776 0.108366
0.580623 0.234085 0.118293
0.613848 0.242475 0.128786
0.646661 0.250941 0.139836
0.678973 0.259477 0.151438
0.710688 0.268079 0.163584
0.741716 0.276742 0.176266
0.771964 0.285461 0.189478
0.801340 0.294230 0.203211
0.829750 0.303045 0.217460
0.857102 0.311901 0.232216
0.883305 0.320792 0.247473
0.908265 0.329714 0.263222
0.931890 0.338662 0.279458
0.954087 0.347630 0.296172
0.974765 0.356614 0.313358
0.024049 0.125907 0.041605
0.048613 0.132139 0.040170
0.074449 0.138538 0.039468
0.101466 0.145099 0.039491
0.129571 0.151817 0.040231
0.158672 0.158687 0.041682
0.188675 0.165703 0.043836
0.219489 0.172862 0.046687
0.251021 0.180158 0.050226
0.283179 0.187585 0.054446
0.315870 0.195140 0.059341
0.349002 0.202816 0.064903
0.382482 0.210609 0.071125
0.416218 0.218514 0.078000
0.450117 0.226526 0.085519
0.484087 0.234639 0.093678
0.518035 0.242849 0.102467
0.551870 0.251152 0.111879
0.585498 0.259540 0.121908
0.618827 0.268011 0.132547
0.651764 0.276558 0.143787
0.684218 0.285177 0.155623
0.716095 0.293863 0.168045
0.747304 0.302610 0.181048
0.777751 0.311414 0.194624
0.807344 0.320270 0.208766
0.835992 0.329172 0.223467
0.863600 0.338116 0.238719
0.890078 0.347096 0.254515
0.915332 0.356108 0.270848
0.939270 0.365147 0.287711
0.961799 0.374207 0.305096
0.982828 0.383284 0.322997
0.030706 0.150818 0.050530
0.054989 0.157075 0.048383
0.080564 0.163501 0.047011
0.107338 0.170089 0.046409
0.135219 0.176836 0.046568
0.164114 0.183735 0.047481
0.193932 0.190782 0.049141
0.224579 0.197972 0.051541
0.255963 0.205300 0.054673
0.287991 0.212761 0.058531
0.320572 0.220350 0.063107
0.353613 0.228061 0.068393
0.387020 0.235890 0.074383
0.420703 0.243832 0.081070
0.454567 0.251882 0.088446
0.488522 0.260034 0.096504
0.522473 0.268284 0.105236
0.556330 0.276627 0.114636
0.589999 0.285058 0.124696
0.623388 0.293571 0.135410
0.656405 0.302162 0.146769
0.688956 0.310825 0.158766
0.720951 0.319556 0.171395
0.752295 0.328350 0.184648
0.782897 0.337201 0.198517
0.812664 0.346105 0.212997
0.841504 0.355057 0.228078
0.869324 0.364051 0.243755
0.896032 0.373082 0.260020
0.921536 0.382146 0.276865
0.945742 0.391238 0.294284
0.968559 0.400352 0.312269
0.989894 0.409483 0.330814
0.037798 0.176481 0.059990
0.061755 0.182726 0.057058
0.087024 0.189141 0.054947
0.113511 0.195719 0.053648
0.141123 0.202456 0.053154
0.169769 0.209346 0.053458
0.199356 0.216386 0.054553
0.229791 0.223569 0.056431
0.260983 0.230892 0.059086
0.292837 0.238348 0.062510
0.325263 0.245932 0.066696
0.358168 0.253641 0.071636
0.391458 0.261468 0.077324
0.425043 0.269409 0.083751
0.458828 0.277459 0.090912
0.492722 0.285612 0.098799
0.526633 0.293864 0.107404
0.560467 0.302209 0.116720
0.594133 0.310644 0.126740
0.627537 0.319161 0.137457
0.660588 0.327758 0.148863
0.693193 0.336428 0.160952
0.725260 0.345166 0.173716
0.756695 0.353968 0.187147
0.787407 0.362829 0.201240
0.817304 0.371743 0.215985
0.846292 0.380706 0.231377
0.874279 0.389712 0.247408
0.901173 0.398756 0.264070
0.926881 0.407834 0.281357
0.951311 0.416941 0.299261
0.974370 0.426071 0.317775
0.995967 0.435219 0.336892
0.045329 0.202904 0.070066
0.068917 0.209099 0.066280
0.093835 0.215464 0.063357
0.119989 0.221993 0.061291
0.147289 0.228683 0.060073
0.175641 0.235527 0.059697
0.204952 0.242521 0.060156
0.235131 0.249660 0.061442
0.266085 0.256938 0.063548
0.297722 0.264352 0.066467
0.329948 0.271895 0.070191
0.362672 0.279562 0.074714
0.395801 0.287349 0.080028
0.429242 0.295251 0.086126
0.462904 0.303263 0.093001
0.496693 0.311379 0.100645
0.530518 0.319595 0.109052
0.564285 0.327905 0.118213
0.597903 0.336305 0.128122
0.631278 0.344789 0.138772
0.664319 0.353353 0.150155
0.696933 0.361992 0.162264
0.729027 0.370699 0.175091
0.760509 0.379472 0.188631
0.791287 0.388304 0.202874
0.821268 0.397190 0.217815
0.850359 0.406126 0.233446
0.878468 0.415106 0.249760
0.905503 0.424126 0.266748
0.931372 0.433180 0.284406
0.955981 0.442263 0.302724
0.979238 0.451371 0.321695
1.000000 0.460498 0.341314
0.053305 0.230093 0.080843
0.076479 0.236199 0.076131
0.101001 0.242477 0.072326
0.126779 0.248920 0.069421
0.153721 0.255524 0.067408
0.181734 0.262284 0.066281
0.210726 0.269194 0.066033
0.240604 0.276250 0.066655
0.271276 0.283447 0.068142
0.302649 0.290780 0.070485
0.334631 0.298243 0.073677
0.367130 0.305831 0.077712
0.400053 0.313541 0.082581
0.433307 0.321365 0.088278
0.466800 0.329301 0.094796
0.500440 0.337342 0.102127
0.534134 0.345483 0.110263
0.567790 0.353720 0.119199
0.601315 0.362048 0.128926
0.634616 0.370461 0.139437
0.667602 0.378954 0.150726
0.700180 0.387523 0.162784
0.732257 0.396162 0.175604
0.763741 0.404867 0.189181
0.794540 0.413632 0.203505
0.824560 0.422453 0.218570
0.853711 0.431324 0.234369
0.881898 0.440240 0.250894
0.909029 0.449197 0.268138
0.935013 0.458189 0.286095
0.959757 0.467211 0.304756
0.983168 0.476258 0.324115
1.000000 0.485326 0.344163
0.061731 0.258054 0.092403
0.084445 0.264035 0.086694
0.108527 0.270187 0.081935
0.133884 0.276506 0.078121
0.160423 0.282986 0.075243
0.188053 0.289623 0.073294
0.216680 0.296412 0.072267
0.246213 0.303348 0.072155
0.276558 0.310425 0.072951
0.307624 0.317638 0.074647
0.339317 0.324983 0.077236
0.371546 0.332455 0.080711
0.404218 0.340048 0.085065
0.437240 0.347758 0.090290
0.470520 0.355579 0.096380
0.503966 0.363507 0.103326
0.537485 0.371536 0.111122
0.570985 0.379662 0.119761
0.604372 0.387879 0.129235
0.637556 0.396183 0.139536
0.670442 0.404568 0.150659
0.702939 0.413029 0.162596
0.734955 0.421562 0.175338
0.766396 0.430161 0.188880
0.797171 0.438821 0.203214
0.827187 0.447538 0.218332
0.856351 0.456306 0.234228
0.884572 0.465120 0.250894
0.911755 0.473976 0.268323
0.937810 0.482868 0.286507
0.962644 0.491791 0.305441
0.986163 0.500740 0.325115
1.000000 0.509711 0.345523
0.070610 0.286795 0.104830
0.092820 0.292611 0.098052
0.116417 0.298600 0.092269
0.141309 0.304757 0.087474
0.167401 0.311076 0.083659
0.194603 0.317552 0.080818
0.222821 0.324181 0.078942
0.251963 0.330958 0.078024
0.281938 0.337877 0.078058
0.312651 0.344934 0.079036
0.344011 0.352123 0.080951
0.375926 0.359440 0.083796
0.408302 0.366879 0.087563
0.441048 0.374436 0.092245
0.474070 0.382105 0.097835
0.507277 0.389882 0.104326
0.540576 0.397761 0.111711
0.573875 0.405737 0.119981
0.607081 0.413806 0.129131
0.640101 0.421962 0.139153
0.672844 0.430200 0.150039
0.705216 0.438516 0.161782
0.737125 0.446904 0.174376
0.768479 0.455360 0.187812
0.799186 0.463877 0.202085
0.829152 0.472452 0.217185
0.858286 0.481079 0.233107
0.886495 0.489754 0.249842
0.913686 0.498470 0.267385
0.939767 0.507224 0.285727
0.964646 0.516010 0.304861
0.988229 0.524823 0.324780
1.000000 0.533659 0.345477
0.079948 0.316322 0.118206
0.101610 0.321936 0.110289
0.124678 0.327723 0.103411
0.149058 0.333679 0.097564
0.174659 0.339799 0.092742
0.201388 0.346077 0.088936
0.229153 0.352508 0.086139
0.257860 0.359088 0.084345
0.287419 0.365812 0.083546
0.317735 0.372674 0.083736
0.348717 0.379669 0.084905
0.380273 0.386793 0.087048
0.412309 0.394040 0.090158
0.444733 0.401406 0.094226
0.477454 0.408885 0.099246
0.510378 0.416472 0.105210
0.543412 0.424163 0.112112
0.576465 0.431952 0.119944
0.609445 0.439834 0.128699
0.642257 0.447805 0.138369
0.674811 0.455859 0.148947
0.707014 0.463991 0.160427
0.738772 0.472197 0.172800
0.769994 0.480470 0.186061
0.800588 0.488807 0.200200
0.830460 0.497202 0.215212
0.859519 0.505650 0.231088
0.887672 0.514147 0.247823
0.914825 0.522686 0.265408
0.940888 0.531264 0.283836
0.965768 0.539875 0.303100
0.989371 0.548514 0.323193
1.000000 0.557176 0.344107
0.089749 0.346642 0.132614
0.110818 0.352015 0.123487
0.133312 0.357563 0.115443
0.157137 0.363281 0.108474
0.182202 0.369163 0.102572
0.208414 0.375204 0.097731
0.235680 0.381400 0.093943
0.263908 0.387745 0.091202
0.293006 0.394235 0.089499
0.322881 0.400864 0.088828
0.353441 0.407628 0.089182
0.384592 0.414520 0.090552
0.416244 0.421538 0.092933
0.448303 0.428674 0.096316
0.480676 0.435925 0.100695
0.513272 0.443285 0.106062
0.545998 0.450750 0.112410
0.578761 0.458313 0.119732
0.611469 0.465971 0.128020
0.644029 0.473718 0.137268
0.676350 0.481550 0.147468
0.708338 0.489460 0.158613
0.739901 0.497445 0.170695
0.770947 0.505499 0.183708
0.801383 0.513617 0.197644
0.831116 0.521794 0.212495
0.860055 0.530026 0.228256
0.888107 0.538306 0.244918
0.915179 0.546631 0.262474
0.941179 0.554994 0.280918
0.966014 0.563392 0.300241
0.989593 0.571819 0.320436
1.000000 0.580269 0.341497
0.100018 0.377761 0.148138
0.120450 0.382856 0.137730
0.142325 0.388127 0.128449
0.165550 0.393568 0.120286
0.190034 0.399174 0.113234
0.215684 0.404941 0.107287
0.242408 0.410863 0.102437
0.270112 0.416935 0.098677
0.298705 0.423153 0.096000
0.328094 0.429512 0.094397
0.358186 0.436005 0.093864
0.388889 0.442629 0.094391
0.420111 0.449378 0.095971
0.451760 0.456248 0.098599
0.483742 0.463232 0.102265
0.515965 0.470327 0.106964
0.548337 0.477527 0.112687
0.580765 0.484828 0.119428
0.613158 0.492223 0.127179
0.645421 0.499709 0.135933
0.677464 0.507280 0.145684
0.709193 0.514931 0.156422
0.740516 0.522657 0.168143
0.771341 0.530453 0.180837
0.801574 0.538314 0.194498
0.831125 0.546235 0.209119
0.859899 0.554212 0.224693
0.887806 0.562238 0.241211
0.914751 0.570310 0.258668
0.940644 0.578421 0.277055
0.965390 0.586568 0.296366
0.988899 0.594744 0.316594
1.000000 0.602946 0.337730
0.110760 0.409686 0.164861
0.130509 0.414465 0.153101
0.151721 0.419420 0.142511
0.174302 0.424546 0.133083
0.198161 0.429839 0.124811
0.223204 0.435293 0.117687
0.249340 0.440904 0.111703
0.276476 0.446665 0.106854
0.304519 0.452574 0.103130
0.333377 0.458623 0.100526
0.362958 0.464808 0.099034
0.393168 0.471125 0.098646
0.423916 0.477568 0.099356
0.455109 0.484133 0.101157
0.486655 0.490813 0.104040
0.518461 0.497605 0.107999
0.550435 0.504503 0.113026
0.582484 0.511502 0.119115
0.614516 0.518597 0.126258
0.646438 0.525783 0.134448
0.678158 0.533055 0.143678
0.709584 0.540408 0.153939
0.740622 0.547838 0.165226
0.771181 0.555338 0.177531
0.801168 0.562905 0.190847
0.830491 0.570532 0.205166
0.859056 0.578216 0.220481
0.886773 0.585950 0.236785
0.913547 0.593730 0.254072
0.939287 0.601552 0.272332
0.963901 0.609409 0.291560
0.987295 0.617297 0.311748
1.000000 0.625211 0.332889
0.121979 0.442423 0.182866
0.141002 0.446848 0.169683
0.161505 0.451449 0.157713
0.183398 0.456223 0.146950
0.206586 0.461165 0.137385
0.230979 0.466268 0.129013
0.256482 0.471529 0.121825
0.283005 0.476942 0.115815
0.310454 0.482502 0.110975
0.338736 0.488205 0.107297
0.367760 0.494044 0.104776
0.397433 0.500016 0.103403
0.427663 0.506115 0.103171
0.458356 0.512336 0.104073
0.489422 0.518674 0.106102
0.520766 0.525125 0.109250
0.552297 0.531682 0.113511
0.583922 0.538342 0.118877
0.615549 0.545098 0.125341
0.647085 0.551947 0.132895
0.678438 0.558883 0.141533
0.709515 0.565900 0.151247
0.740224 0.572995 0.162029
0.770473 0.580162 0.173874
0.800168 0.587395 0.186773
0.829218 0.594691 0.200719
0.857530 0.602044 0.215705
0.885012 0.609448 0.231724
0.911571 0.616899 0.248768
0.937114 0.624393 0.266831
0.961550 0.631923 0.285905
0.984785 0.639485 0.305982
1.000000 0.647073 0.327056
0.133680 0.475980 0.202236
0.151931 0.480012 0.187558
0.171683 0.484222 0.174138
0.192842 0.488606 0.161968
0.215316 0.493157 0.151041
0.239012 0.497872 0.141349
0.263839 0.502745 0.132886
0.289704 0.507771 0.125644
0.316513 0.512946 0.119616
0.344176 0.518263 0.114794
0.372599 0.523719 0.111173
0.401690 0.529308 0.108743
0.431356 0.535025 0.107498
0.461506 0.540865 0.107431
0.492045 0.546823 0.108535
0.522883 0.552894 0.110802
0.553927 0.559073 0.114225
0.585083 0.565355 0.118796
0.616260 0.571735 0.124510
0.647366 0.578208 0.131358
0.678307 0.584769 0.139332
0.708991 0.591413 0.148427
0.739326 0.598135 0.158635
0.769220 0.604930 0.169948
0.798580 0.611793 0.182359
0.827312 0.618719 0.195861
0.855326 0.625702 0.210447
0.882529 0.632739 0.226109
0.908827 0.639823 0.242841
0.934129 0.646950 0.260635
0.958342 0.654115 0.279483
0.981374 0.661313 0.299380
1.000000 0.668538 0.320316
0.145868 0.510363 0.223053
0.163303 0.513964 0.206811
0.182258 0.517745 0.191869
0.202638 0.521700 0.178221
0.224353 0.525824 0.165860
0.247309 0.530112 0.154778
0.271415 0.534559 0.144969
0.296577 0.539161 0.136424
0.322703 0.543911 0.129137
0.349701 0.548806 0.123100
0.377478 0.553839 0.118307
0.405942 0.559007 0.114750
0.435001 0.564304 0.112421
0.464561 0.569725 0.111314
0.494531 0.575265 0.111421
0.524818 0.580918 0.112735
0.555329 0.586681 0.115249
0.585973 0.592548 0.118956
0.616656 0.598514 0.123848
0.647286 0.604573 0.129918
0.677770 0.610722 0.137160
0.708017 0.616954 0.145564
0.737934 0.623265 0.155126
0.767428 0.629650 0.165836
0.796407 0.636104 0.177688
0.824778 0.642622 0.190676
0.852449 0.649199 0.204790
0.879327 0.655829 0.220025
0.905321 0.662508 0.236373
0.930337 0.669231 0.253827
0.954283 0.675993 0.272379
0.977067 0.682788 0.292023
0.998595 0.689612 0.312751
0.158548 0.545578 0.245402
0.175122 0.548711 0.227523
0.193235 0.552024 0.210989
0.212792 0.555512 0.195792
0.233703 0.559171 0.181926
0.255875 0.562994 0.169383
0.279214 0.566978 0.158156
0.303629 0.571116 0.148238
0.329027 0.575405 0.139621
0.355316 0.579839 0.132298
0.382403 0.584412 0.126262
0.410196 0.589121 0.121506
0.438602 0.593960 0.118023
0.467528 0.598923 0.115804
0.496884 0.604007 0.114844
0.526575 0.609205 0.115135
0.556509 0.614514 0.116669
0.586595 0.619927 0.119440
0.616739 0.625440 0.123439
0.646849 0.631048 0.128661
0.676833 0.636746 0.135097
0.706598 0.642529 0.142741
0.736051 0.648391 0.151585
0.765101 0.654328 0.161622
0.793655 0.660335 0.172845
0.821619 0.666407 0.185246
0.848903 0.672539 0.198818
0.875413 0.678725 0.213555
0.901057 0.684961 0.229448
0.925742 0.691242 0.246491
0.949377 0.697562 0.264676
0.971867 0.703917 0.283996
0.993122 0.710302 0.304444
0.171723 0.581632 0.269365
0.187392 0.584258 0.249779
0.204618 0.587066 0.231581
0.223309 0.590050 0.214765
0.243371 0.593204 0.199323
0.264713 0.596525 0.185247
0.287242 0.600007 0.172532
0.310865 0.603645 0.161169
0.335490 0.607434 0.151151
0.361025 0.611368 0.142471
0.387377 0.615444 0.135121
0.414454 0.619656 0.129096
0.442163 0.623998 0.124386
0.470412 0.628467 0.120986
0.499108 0.633056 0.118887
0.528159 0.637761 0.118083
0.557472 0.642577 0.118566
0.586955 0.647499 0.120330
0.616516 0.652521 0.123366
0.646061 0.657640 0.127668
0.675499 0.662849 0.133229
0.704737 0.668144 0.140040
0.733683 0.673520 0.148096
0.762244 0.678971 0.157388
0.790328 0.684493 0.167910
0.817841 0.690081 0.179654
0.844693 0.695730 0.192613
0.870790 0.701434 0.206780
0.896040 0.707189 0.222148
0.920350 0.712989 0.238709
0.943628 0.718831 0.256456
0.965781 0.724707 0.275381
0.986718 0.730615 0.295479
0.185400 0.618532 0.295026
0.200119 0.620614 0.273661
0.216414 0.622878 0.253729
0.234192 0.625319 0.235221
0.253362 0.627932 0.218132
0.273829 0.630712 0.202454
0.295503 0.633654 0.188178
0.318289 0.636753 0.175300
0.342097 0.640004 0.163810
0.366834 0.643402 0.153701
0.392406 0.646941 0.144968
0.418722 0.650618 0.137601
0.445690 0.654426 0.131595
0.473216 0.658361 0.126941
0.501208 0.662418 0.123633
0.529574 0.666592 0.121663
0.558221 0.670878 0.121025
0.587057 0.675270 0.121710
0.615990 0.679764 0.123712
0.644926 0.684355 0.127023
0.673774 0.689038 0.131637
0.702441 0.693807 0.137545
0.730834 0.698658 0.144742
0.758862 0.703586 0.153218
0.786431 0.708585 0.162968
0.813449 0.713651 0.173985
0.839824 0.718778 0.186259
0.865463 0.723962 0.199786
0.890274 0.729198 0.214556
0.914164 0.734480 0.230564
0.937041 0.739804 0.247802
0.958813 0.745165 0.266262
0.979386 0.750556 0.285938
0.199582 0.656284 0.322466
0.213306 0.657783 0.299252
0.228626 0.659466 0.277514
0.245447 0.661327 0.257245
0.263679 0.663360 0.238438
0.283228 0.665561 0.221085
0.304001 0.667926 0.205179
0.325907 0.670448 0.190714
0.348853 0.673123 0.177681
0.372746 0.675945 0.166073
0.397495 0.678911 0.155884
0.423006 0.682014 0.147106
0.449187 0.685251 0.139731
0.475945 0.688615 0.133753
0.503189 0.692101 0.129165
0.530825 0.695706 0.125959
0.558762 0.699423 0.124127
0.586907 0.703248 0.123663
0.615166 0.707175 0.124560
0.643449 0.711201 0.126809
0.671662 0.715318 0.130405
0.699713 0.719524 0.135339
0.727509 0.723812 0.141605
0.754959 0.728178 0.149195
0.781968 0.732616 0.158103
0.808446 0.737122 0.168319
0.834300 0.741691 0.179839
0.859437 0.746317 0.192654
0.883764 0.750995 0.206757
0.907190 0.755721 0.222140
0.929621 0.760490 0.238798
0.950966 0.765296 0.256722
0.971132 0.770134 0.275905
0.214274 0.694895 0.351771
0.226959 0.695774 0.326636
0.241259 0.696837 0.303022
0.257079 0.698079 0.280920
0.274328 0.699495 0.260323
0.292913 0.701079 0.241225
0.312742 0.702828 0.223618
0.333723 0.704735 0.207494
0.355762 0.706796 0.192847
0.378768 0.709006 0.179669
0.402647 0.711359 0.167953
0.427308 0.713852 0.157692
0.452658 0.716478 0.148879
0.478605 0.719232 0.141506
0.505056 0.722111 0.135566
0.531918 0.725108 0.131052
0.559099 0.728219 0.127956
0.586507 0.731438 0.126272
0.614050 0.734761 0.125992
0.641634 0.738183 0.127109
0.669168 0.741698 0.129616
0.696558 0.745302 0.133505
0.723713 0.748989 0.138770
0.750539 0.752755 0.145402
0.776946 0.756594 0.153395
0.802839 0.760502 0.162742
0.828126 0.764474 0.173435
0.852716 0.768504 0.185468
0.876516 0.772587 0.198832
0.899432 0.776719 0.213520
0.921373 0.780894 0.229526
0.942247 0.785108 0.246843
0.961960 0.789355 0.265462
0.229481 0.734372 0.383021
0.241083 0.734592 0.355896
0.254317 0.734998 0.330333
0.269091 0.735583 0.306328
0.285314 0.736343 0.283871
0.302891 0.737273 0.262956
0.321731 0.738368 0.243576
0.341741 0.739622 0.225724
0.362829 0.741031 0.209392
0.384902 0.742590 0.194573
0.407868 0.744293 0.181259
0.431635 0.746137 0.169445
0.456109 0.748114 0.159121
0.481199 0.750222 0.150282
0.506812 0.752454 0.142919
0.532856 0.754806 0.137026
0.559238 0.757272 0.132596
0.585865 0.759848 0.129620
0.612645 0.762528 0.128093
0.639486 0.765308 0.128006
0.666296 0.768183 0.129353
0.692981 0.771147 0.132126
0.719450 0.774195 0.136318
0.745609 0.777323 0.141922
0.771367 0.780526 0.148930
0.796630 0.783798 0.157336
0.821308 0.787134 0.167132
0.845306 0.790530 0.178310
0.868532 0.793980 0.190865
0.890895 0.797479 0.204787
0.912302 0.801023 0.220071
0.932659 0.804607 0.236709
0.951876 0.808224 0.254693
0.245208 0.774721 0.416302
0.255681 0.774245 0.387114
0.267806 0.773955 0.359533
0.281490 0.773846 0.333552
0.296640 0.773912 0.309164
0.313165 0.774149 0.286362
0.330971 0.774552 0.265139
0.349966 0.775115 0.245486
0.370058 0.775834 0.227398
0.391155 0.776704 0.210867
0.413163 0.777719 0.195885
0.435990 0.778875 0.182445
0.459545 0.780167 0.170540
0.483733 0.781589 0.160164
0.508464 0.783137 0.151308
0.533644 0.784805 0.143965
0.559182 0.786589 0.138129
0.584983 0.788483 0.133791
0.610957 0.790483 0.130945
0.637011 0.792584 0.129584
0.663051 0.794779 0.129699
0.688987 0.797066 0.131285
0.714724 0.799437 0.134334
0.740172 0.801889 0.138838
0.765237 0.804417 0.144790
0.789826 0.807015 0.152184
