calib/fujify/montage_cubes/classic_chrome_montage.cube
TITLE "Chromasmith montage fit - Classic Chrome"
#STD->look, fit from fujify comparison montages (best-effort)
LUT_3D_SIZE 9
0.000000 0.000000 0.000000
0.100812 0.013948 0.002809
0.222751 0.038354 0.018171
0.352882 0.064780 0.040237
0.485290 0.092906 0.068545
0.614055 0.122410 0.102630
0.733261 0.152971 0.142031
0.836990 0.184268 0.186284
0.919325 0.215980 0.234927
0.012023 0.078319 0.025023
0.119027 0.103555 0.027976
0.241354 0.131192 0.040896
0.373085 0.160910 0.063321
0.508304 0.192387 0.094788
0.641092 0.225302 0.134833
0.765533 0.259335 0.182994
0.875708 0.294164 0.238809
0.965700 0.329467 0.301814
0.037798 0.176481 0.059990
0.141123 0.202456 0.053154
0.260983 0.230892 0.059086
0.391458 0.261468 0.077324
0.526633 0.293864 0.107404
0.660588 0.327758 0.148863
0.787407 0.362829 0.201240
0.901173 0.398756 0.264070
0.995967 0.435219 0.336892
0.070610 0.286795 0.104830
0.167401 0.311076 0.083659
0.281938 0.337877 0.078058
0.408302 0.366879 0.087563
0.540576 0.397761 0.111711
0.672844 0.430200 0.150039
0.799186 0.463877 0.202085
0.913686 0.498470 0.267385
1.000000 0.533659 0.345477
0.110760 0.409686 0.164861
0.198161 0.429839 0.124811
0.304519 0.452574 0.103130
0.423916 0.477568 0.099356
0.550435 0.504503 0.113026
0.678158 0.533055 0.143678
0.801168 0.562905 0.190847
0.913547 0.593730 0.254072
1.000000 0.625211 0.332889
0.158548 0.545578 0.245402
0.233703 0.559171 0.181926
0.329027 0.575405 0.139621
0.438602 0.593960 0.118023
0.556509 0.614514 0.116669
0.676833 0.636746 0.135097
0.793655 0.660335 0.172845
0.901057 0.684961 0.229448
0.993122 0.710302 0.304444
0.214274 0.694895 0.351771
0.274328 0.699495 0.260323
0.355762 0.706796 0.192847
0.452658 0.716478 0.148879
0.559099 0.728219 0.127956
0.669168 0.741698 0.129616
0.776946 0.756594 0.153395
0.876516 0.772587 0.198832
0.961960 0.789355 0.265462
0.278238 0.858063 0.489284
0.320336 0.851236 0.365320
0.385024 0.847172 0.268127
0.466387 0.845547 0.197244
0.558505 0.846042 0.152206
0.655463 0.848335 0.132552
0.751341 0.852106 0.137818
0.840223 0.857032 0.167541
0.916192 0.862794 0.221259
0.350742 1.000000 0.663261
0.372026 1.000000 0.502234
0.417114 0.996956 0.370780
0.480087 0.981593 0.268435
0.555028 0.968409 0.194736
0.636018 0.957083 0.149222
0.717142 0.947295 0.131429
0.792481 0.938722 0.140894
0.856117 0.931045 0.177154
0.000000 0.006224 0.057333
0.097564 0.025913 0.068111
0.219238 0.047523 0.082185
0.348147 0.070735 0.099093
0.478373 0.095227 0.118371
0.603998 0.120679 0.139557
0.719104 0.146769 0.162187
0.817775 0.173176 0.185799
0.894093 0.199579 0.209930
0.000000 0.088089 0.096690
0.109077 0.112224 0.104759
0.232958 0.138342 0.118926
0.365284 0.166120 0.138726
0.500139 0.195240 0.163697
0.631604 0.225378 0.193376
0.753763 0.256215 0.227301
0.860698 0.287428 0.265009
0.946491 0.318698 0.306036
0.017136 0.180352 0.136564
0.124792 0.206501 0.137378
0.248023 0.234693 0.147091
0.380911 0.264606 0.165237
0.517540 0.295919 0.191356
0.651990 0.328311 0.224984
0.778345 0.361462 0.265658
0.890688 0.395049 0.312915
0.983100 0.428753 0.366292
0.042070 0.283438 0.182272
0.145009 0.309168 0.171286
0.264735 0.337001 0.171998
0.395329 0.366615 0.183946
0.530875 0.397689 0.206667
0.665455 0.429903 0.239697
0.793151 0.462934 0.282574
0.908046 0.496463 0.334835
1.000000 0.530168 0.396017
0.074661 0.397772 0.239132
0.170028 0.420651 0.211800
0.283393 0.445691 0.198967
0.408838 0.472573 0.200170
0.540446 0.500976 0.214947
0.672300 0.530577 0.242834
0.798481 0.561057 0.283368
0.913073 0.592094 0.336088
1.000000 0.623367 0.400529
0.115210 0.523779 0.312461
0.200149 0.541372 0.264238
0.304297 0.561188 0.233314
0.421738 0.582905 0.219227
0.546553 0.606203 0.221514
0.672824 0.630760 0.239712
0.794635 0.656255 0.273358
0.906068 0.682367 0.321990
1.000000 0.708775 0.385145
0.164017 0.661882 0.407579
0.235673 0.671758 0.333918
0.327749 0.683916 0.280357
0.434329 0.698036 0.246434
0.549495 0.713795 0.231686
0.667329 0.730875 0.235649
0.781914 0.748952 0.257862
0.887332 0.767706 0.297861
0.977667 0.786817 0.355183
0.221383 0.812507 0.529802
0.276899 0.812232 0.426158
0.354048 0.814300 0.345415
0.446912 0.818388 0.287110
0.549573 0.824178 0.250781
0.656114 0.831346 0.235964
0.760618 0.839573 0.242198
0.857166 0.848537 0.269018
0.939842 0.857917 0.315962
0.287608 0.976078 0.684449
0.324130 0.963220 0.546276
0.383495 0.952763 0.433805
0.459787 0.944389 0.346573
0.547088 0.937774 0.284117
0.639480 0.932599 0.245975
0.731046 0.928542 0.231682
0.815869 0.925283 0.240778
0.888030 0.922499 0.272798
0.000000 0.024889 0.110919
0.098555 0.041297 0.123988
0.218315 0.059208 0.136483
0.344351 0.078302 0.147940
0.470745 0.098256 0.157898
0.591580 0.118751 0.165892
0.700937 0.139466 0.171461
0.792900 0.160078 0.174140
0.861551 0.180268 0.173469
0.000000 0.103865 0.162080
0.104528 0.125995 0.174974
0.228312 0.149688 0.190095
0.359583 0.174624 0.206979
0.492424 0.200481 0.225163
0.620917 0.226938 0.244185
0.739144 0.253675 0.263582
0.841188 0.280369 0.282892
0.921132 0.306701 0.301650
0.004686 0.191910 0.209718
0.115022 0.217329 0.217892
0.239975 0.244372 0.231092
0.373626 0.272717 0.248857
0.510058 0.302043 0.270723
0.643353 0.332030 0.296227
0.767595 0.362356 0.324907
0.876865 0.392700 0.356300
0.965246 0.422741 0.389942
0.022902 0.289449 0.259151
0.130339 0.315725 0.258058
0.253604 0.343684 0.264793
0.386779 0.373006 0.278892
0.523946 0.403369 0.299894
0.659189 0.434452 0.327335
0.786589 0.465934 0.360752
0.900229 0.497495 0.399682
0.994192 0.528812 0.443664
0.049095 0.396908 0.315696
0.150778 0.421607 0.300791
0.269499 0.448050 0.296514
0.399343 0.475915 0.302403
0.534390 0.504881 0.317995
0.668724 0.534628 0.342827
0.796428 0.564834 0.376435
0.911582 0.595178 0.418358
1.000000 0.625339 0.468132
0.083566 0.514710 0.384671
0.176639 0.535400 0.351409
0.287962 0.557893 0.331575
0.411618 0.581869 0.324708
0.541690 0.607006 0.330344
0.672260 0.632983 0.348020
0.797411 0.659480 0.377275
0.911224 0.686174 0.417644
1.000000 0.712746 0.468665
0.126616 0.643281 0.471395
0.208223 0.657528 0.415229
0.309291 0.673639 0.375293
0.423905 0.691293 0.351123
0.546146 0.710167 0.342258
0.670096 0.729942 0.348234
0.789838 0.750296 0.368588
0.899455 0.770908 0.402858
0.993029 0.791458 0.450581
0.178544 0.783044 0.581185
0.245830 0.788417 0.497570
0.333789 0.795712 0.432985
0.436504 0.804610 0.386968
0.548057 0.814789 0.359056
0.662532 0.825929 0.348785
0.774011 0.837708 0.355694
0.876575 0.849805 0.379319
0.964308 0.861899 0.419198
0.239652 0.934425 0.719359
0.289760 0.928489 0.603749
0.361753 0.924537 0.509970
0.449714 0.922246 0.437559
0.547726 0.921298 0.386054
0.649869 0.921369 0.354992
0.750228 0.922140 0.343910
0.842885 0.923288 0.352344
0.921921 0.924494 0.379833
0.000000 0.044969 0.150490
0.100669 0.057192 0.165559
0.216865 0.070500 0.176183
0.338378 0.084571 0.181899
0.459290 0.099084 0.182244
0.573684 0.113718 0.176756
0.675642 0.128153 0.164972
0.759247 0.142067 0.146428
0.818581 0.155138 0.120661
0.000000 0.122737 0.216312
0.102262 0.141957 0.233740
0.224300 0.162322 0.249524
0.352866 0.183511 0.263200
0.482043 0.205202 0.274307
0.605913 0.227074 0.282380
0.718559 0.248806 0.286958
0.814063 0.270077 0.287577
0.886507 0.290567 0.283775
0.000000 0.208245 0.274572
0.108697 0.232030 0.289813
0.233721 0.257020 0.306211
0.366485 0.282893 0.323302
0.501070 0.309329 0.340624
0.631561 0.336006 0.357713
0.752039 0.362603 0.374108
0.856586 0.388799 0.389345
0.939286 0.414273 0.402961
0.009989 0.301919 0.330586
0.120275 0.327836 0.339095
0.245429 0.355018 0.351561
0.379534 0.383143 0.367521
0.516673 0.411890 0.386513
0.650929 0.440939 0.408073
0.776383 0.469968 0.431738
0.887118 0.498656 0.457047
0.977217 0.526682 0.483535
0.030946 0.404184 0.389674
0.137294 0.429800 0.386904
0.259723 0.456740 0.390893
0.392314 0.484684 0.401176
0.529151 0.513310 0.417292
0.664316 0.542298 0.438777
0.791891 0.571325 0.465168
0.905959 0.600072 0.496002
1.000000 0.628217 0.530818
0.060500 0.515463 0.457152
0.160056 0.538345 0.438559
0.276904 0.562612 0.429524
0.405126 0.587942 0.429585
0.538805 0.614014 0.438279
0.672024 0.640507 0.455143
0.798864 0.667101 0.479714
0.913408 0.693474 0.511529
1.000000 0.719304 0.550125
0.098953 0.636183 0.538339
0.188861 0.653898 0.499376
0.297273 0.673057 0.472773
0.418270 0.693340 0.458066
0.545935 0.714425 0.454792
0.674352 0.735991 0.462489
0.797601 0.757718 0.480694
0.909766 0.779284 0.508944
1.000000 0.800368 0.546776
0.146605 0.766766 0.638553
0.224009 0.776881 0.574675
0.321129 0.788501 0.525957
0.432045 0.801303 0.491936
0.550841 0.814969 0.472149
0.671600 0.829175 0.466134
0.788404 0.843602 0.473427
0.895334 0.857928 0.493566
0.986474 0.871832 0.526088
0.203756 0.907638 0.763111
0.265801 0.907720 0.669772
0.348772 0.909367 0.594394
0.446753 0.912257 0.536514
0.553824 0.916069 0.495668
0.664070 0.920483 0.471395
0.771571 0.925177 0.463231
0.870412 0.929830 0.470713
0.954673 0.934121 0.493379
0.000081 0.063555 0.171166
0.100788 0.070690 0.187944
0.211770 0.078489 0.196406
0.327111 0.086633 0.196089
0.440891 0.094801 0.186531
0.547195 0.102670 0.167269
0.640104 0.109921 0.137840
0.713701 0.116232 0.097781
0.762068 0.121282 0.046629
0.000000 0.141796 0.254507
0.099163 0.157203 0.276177
0.217805 0.173336 0.292333
0.342016 0.189873 0.302510
0.465879 0.206493 0.306247
0.583476 0.222876 0.303081
0.688891 0.238699 0.292548
0.776204 0.253643 0.274186
0.839500 0.267387 0.247532
0.000000 0.226449 0.326245
0.102700 0.247696 0.348262
0.226145 0.269729 0.367566
0.356372 0.292226 0.383692
0.487462 0.314866 0.396178
0.613497 0.337329 0.404562
0.728561 0.359293 0.408380
0.826736 0.380437 0.407169
0.902104 0.400440 0.400468
0.000216 0.317939 0.391698
0.111699 0.342594 0.409517
0.237093 0.368093 0.427423
0.370478 0.394118 0.444952
0.505939 0.420345 0.461642
0.637558 0.446455 0.477030
0.759416 0.472126 0.490653
0.865596 0.497037 0.502048
0.950182 0.520868 0.510753
0.017096 0.416691 0.456185
0.126461 0.442320 0.465260
0.250946 0.468854 0.477222
0.384636 0.495972 0.491609
0.521613 0.523354 0.507957
0.655958 0.550678 0.525803
0.781755 0.577623 0.544685
0.893085 0.603869 0.564141
0.984032 0.629094 0.583706
0.042895 0.523129 0.525023
0.147285 0.547299 0.520808
0.268007 0.572434 0.522281
0.399146 0.598214 0.528979
0.534782 0.624317 0.540439
0.668998 0.650423 0.556199
0.795878 0.676209 0.575795
0.909503 0.701356 0.598765
1.000000 0.725542 0.624645
0.077913 0.637678 0.603531
0.174472 0.657956 0.581480
0.288576 0.679260 0.567918
0.414307 0.701268 0.562382
0.545747 0.723660 0.564409
0.676979 0.746114 0.573535
0.802086 0.768309 0.589299
0.915150 0.789924 0.611238
1.000000 0.810638 0.638888
0.122449 0.760763 0.697025
0.208322 0.774716 0.652593
0.312952 0.789756 0.619451
0.430420 0.805559 0.597135
0.554809 0.821806 0.585182
0.680201 0.838175 0.583131
0.800680 0.854346 0.590517
0.910327 0.869997 0.606878
1.000000 0.884806 0.631752
0.176804 0.892807 0.810824
0.249136 0.898003 0.739465
0.341436 0.904345 0.682197
0.447785 0.911511 0.638555
0.562267 0.919181 0.608078
0.678964 0.927033 0.590302
0.791959 0.934746 0.584765
0.895333 0.941999 0.591004
0.983170 0.948471 0.608556
0.000995 0.077739 0.168068
0.095797 0.078880 0.186263
0.199915 0.080268 0.192271
0.307433 0.081580 0.185630
0.412432 0.082498 0.165878
0.508995 0.082698 0.132550
0.591205 0.081861 0.085185
0.653144 0.079665 0.023319
0.688894 0.075789 0.000000
0.000000 0.158134 0.271784
0.092115 0.168823 0.297405
0.205710 0.179819 0.313641
0.323916 0.190801 0.320029
0.440816 0.201446 0.316105
0.550490 0.211435 0.301407
0.647023 0.220446 0.275472
0.724497 0.228159 0.237837
0.776993 0.234251 0.188040
0.000000 0.243613 0.359857
0.093914 0.261418 0.388360
0.214131 0.279589 0.410278
0.340170 0.297806 0.425148
0.466114 0.315747 0.432507
0.586045 0.333091 0.431893
0.694045 0.349518 0.422843
0.784198 0.364706 0.404894
0.850585 0.378334 0.377583
0.000000 0.334600 0.437607
0.101496 0.357088 0.464445
0.225479 0.380002 0.487499
0.356495 0.403021 0.506305
0.488628 0.425825 0.520403
0.615959 0.448091 0.529327
0.732571 0.469501 0.532616
0.832547 0.489731 0.529806
0.909969 0.508462 0.520436
0.004431 0.431520 0.510350
0.115161 0.456258 0.530978
0.240054 0.481481 0.550622
0.373192 0.506870 0.568820
0.508658 0.532103 0.585109
0.640533 0.556860 0.599026
0.762902 0.580819 0.610108
0.869845 0.603659 0.617893
0.955447 0.625059 0.621917
0.027635 0.534798 0.583405
0.135208 0.559352 0.593277
0.258155 0.584452 0.604966
0.390560 0.609778 0.618009
0.526503 0.635008 0.631945
0.660068 0.659821 0.646308
0.785337 0.683897 0.660638
0.896393 0.706913 0.674471
0.987317 0.728550 0.687344
0.060377 0.644859 0.662089
0.161938 0.666796 0.656660
0.280085 0.689340 0.655848
0.408899 0.712169 0.659191
0.542465 0.734963 0.666227
0.674863 0.757400 0.676492
0.800177 0.779159 0.689524
0.912489 0.799920 0.704859
1.000000 0.819360 0.722036
0.102959 0.762125 0.751721
0.195652 0.779014 0.726444
0.306142 0.796569 0.708586
0.428511 0.814469 0.697683
0.556843 0.832393 0.693274
0.685219 0.850021 0.694895
0.807723 0.867031 0.702083
0.918436 0.883102 0.714375
1.000000 0.897914 0.731309
0.155680 0.887024 0.857619
0.236649 0.896430 0.807949
0.336627 0.906563 0.768498
0.449695 0.917101 0.738804
0.569938 0.927723 0.718403
0.691436 0.938109 0.706834
0.808274 0.947937 0.703633
0.914532 0.956886 0.708336
1.000000 0.964635 0.720483
0.000000 0.084610 0.136315
0.082578 0.078854 0.155635
0.178183 0.072926 0.158899
0.276228 0.066504 0.145643
0.370796 0.059267 0.115404
0.455969 0.050894 0.067720
0.525829 0.041065 0.002127
0.574460 0.029457 0.000000
0.595944 0.015751 0.000000
0.000000 0.168841 0.263263
0.078000 0.173909 0.292544
0.184899 0.178864 0.308569
0.295451 0.183386 0.310875
0.403736 0.187153 0.298999
0.503838 0.189844 0.272478
0.589840 0.191138 0.230850
0.655823 0.190715 0.173651
0.695870 0.188252 0.100420
0.000000 0.256827 0.370529
0.079223 0.270286 0.405225
0.194562 0.283692 0.429466
0.314764 0.296724 0.442788
0.433912 0.309062 0.444729
0.546088 0.320384 0.434827
0.645374 0.330369 0.412617
0.725854 0.338696 0.377638
0.781610 0.345045 0.329426
0.000000 0.348993 0.463431
0.086549 0.368410 0.498997
0.207471 0.387834 0.526907
0.334468 0.406944 0.546701
0.461623 0.425419 0.557914
0.583017 0.442939 0.560083
0.692733 0.459182 0.552747
0.784854 0.473828 0.535441
0.853462 0.486554 0.507704
0.000000 0.445763 0.547288
0.100278 0.468705 0.579177
0.223928 0.491714 0.606212
0.354864 0.514469 0.627931
0.487169 0.536649 0.643869
0.614926 0.557934 0.653565
0.732216 0.578002 0.656556
0.833123 0.596533 0.652378
0.911728 0.613204 0.640570
0.011602 0.547563 0.627416
0.120709 0.571596 0.651084
0.244231 0.595757 0.672698
0.376252 0.619724 0.691796
0.510852 0.643177 0.707914
0.642116 0.665793 0.720591
0.764124 0.687254 0.729364
0.870961 0.707236 0.733768
0.956707 0.725419 0.733343
0.043231 0.654815 0.709135
0.148143 0.677508 0.720035
0.268682 0.700388 0.731682
0.398931 0.723134 0.743613
0.532971 0.745426 0.755367
0.664886 0.766942 0.766479
0.788757 0.787361 0.776487
0.898668 0.806362 0.784928
0.988701 0.823625 0.791340
0.085020 0.767946 0.797762
0.182881 0.786864 0.791348
0.297581 0.806031 0.788483
0.423202 0.825123 0.788702
0.553827 0.843821 0.791544
0.683537 0.861803 0.796546
0.806416 0.878749 0.803244
0.916545 0.894336 0.811177
1.000000 0.908245 0.819880
0.137267 0.887379 0.898615
0.225223 0.900091 0.870342
0.331228 0.913110 0.848418
0.449366 0.926116 0.832380
0.573719 0.938787 0.821765
0.698370 0.950803 0.816110
0.817400 0.961842 0.814953
0.924892 0.971583 0.817831
1.000000 0.979705 0.824280
0.000000 0.081262 0.071026
0.058016 0.067704 0.091181
0.143457 0.053555 0.091408
0.230379 0.038494 0.071245
0.312866 0.022198 0.030229
0.384998 0.004348 0.000000
0.440860 0.000000 0.000000
0.474533 0.000000 0.000000
0.480100 0.000000 0.000000
0.000000 0.171010 0.224063
0.053703 0.169551 0.256713
0.152256 0.167561 0.272235
0.253502 0.164719 0.270168
0.351524 0.160703 0.250049
0.440404 0.155192 0.211414
0.514224 0.147865 0.153801
0.567067 0.138402 0.076747
0.593015 0.126481 0.000000
0.000000 0.263184 0.353379
0.055511 0.271392 0.393977
0.164321 0.279128 0.420250
0.277036 0.286072 0.431733
0.387738 0.291902 0.427965
0.490509 0.296297 0.408482
0.579432 0.298937 0.372822
0.648590 0.299500 0.320521
0.692064 0.297665 0.251118
0.000000 0.358210 0.464291
0.063741 0.373651 0.508293
0.179953 0.388681 0.540769
0.301281 0.402977 0.561258
0.421807 0.416221 0.569295
0.535614 0.428089 0.564418
0.636784 0.438262 0.546165
0.719401 0.446418 0.514072
0.777546 0.452236 0.467677
0.000000 0.456511 0.562118
0.078695 0.476753 0.604978
0.199452 0.496642 0.639113
0.326537 0.515860 0.664060
0.454032 0.534083 0.679357
0.576019 0.550992 0.684541
0.686581 0.566265 0.679149
0.779801 0.579582 0.662717
0.849761 0.590620 0.634785
0.000000 0.558513 0.652178
0.100671 0.581121 0.689349
0.223118 0.603439 0.720597
0.353105 0.625143 0.745458
0.484713 0.645914 0.763469
0.612025 0.665431 0.774167
0.729123 0.683371 0.777091
0.830090 0.699415 0.771776
0.909009 0.713241 0.757760
0.023357 0.664639 0.739788
0.129971 0.687182 0.766726
0.251252 0.709494 0.790540
0.381285 0.731253 0.810769
0.514150 0.752139 0.826948
0.643931 0.771830 0.838616
0.764710 0.790005 0.845309
0.870569 0.806343 0.846565
0.955592 0.820523 0.841920
0.065513 0.775314 0.830267
0.166894 0.795359 0.842425
0.284154 0.815233 0.854261
0.411377 0.834613 0.865311
0.542644 0.853181 0.875113
0.672039 0.870613 0.883204
0.793642 0.886590 0.889122
0.901538 0.900790 0.892402
0.989808 0.912892 0.892583
0.118448 0.890964 0.928931
0.211741 0.906078 0.921765
0.322125 0.921080 0.917076
0.443682 0.935649 0.914403
0.570495 0.949465 0.913282
0.696647 0.962206 0.913251
0.816220 0.973551 0.913846
0.923297 0.983180 0.914606
1.000000 0.990770 0.915067
0.000000 0.064783 0.000000
0.018994 0.042520 0.000000
0.092621 0.019247 0.000000
0.166770 0.000000 0.000000
0.235525 0.000000 0.000000
0.292968 0.000000 0.000000
0.333180 0.000000 0.000000
0.350245 0.000000 0.000000
0.338246 0.000000 0.000000
0.000000 0.161730 0.149306
0.016106 0.152841 0.185032
0.104663 0.143002 0.199761
0.194954 0.131891 0.193030
0.281063 0.119188 0.164375
0.357070 0.104571 0.113335
0.417059 0.087719 0.039446
0.455112 0.068312 0.000000
0.465311 0.046027 0.000000
0.000000 0.259774 0.303528
0.019660 0.261827 0.349737
0.120292 0.262990 0.377750
0.223869 0.262940 0.387103
0.324475 0.261359 0.377334
0.416192 0.257923 0.347979
0.493101 0.252313 0.298577
0.549287 0.244207 0.228664
0.578830 0.233284 0.137777
0.000000 0.359341 0.435307
0.029956 0.369902 0.487454
0.139807 0.379633 0.524204
0.253816 0.388213 0.545096
0.366063 0.395320 0.549667
0.470634 0.400633 0.537452
0.561608 0.403831 0.507991
0.633070 0.404594 0.460819
0.679102 0.402600 0.395474
0.000000 0.460854 0.549962
0.047296 0.477492 0.603500
0.163510 0.493359 0.644443
0.285093 0.508134 0.672328
0.406128 0.521496 0.686692
0.520696 0.533125 0.687072
0.622880 0.542699 0.673006
0.706763 0.549898 0.644030
0.766427 0.554399 0.599681
0.000000 0.564739 0.652809
0.071978 0.585020 0.703193
0.191700 0.604589 0.743783
0.318003 0.623127 0.774115
0.444968 0.640313 0.793727
0.566679 0.655824 0.802156
0.677217 0.669341 0.798939
0.770665 0.680542 0.783613
0.841106 0.689106 0.755716
0.000000 0.671421 0.749168
0.104304 0.692911 0.791852
0.224678 0.713750 0.827543
0.352845 0.733618 0.855776
0.482885 0.752193 0.876091
0.608882 0.769155 0.888023
0.724919 0.784182 0.891110
0.825077 0.796952 0.884888
0.903439 0.807147 0.868896
0.041323 0.781323 0.844355
0.144573 0.801590 0.874794
0.262744 0.821266 0.901040
0.389919 0.840031 0.922629
0.520179 0.857563 0.939100
0.647607 0.873541 0.949990
0.766286 0.887645 0.954835
0.870298 0.899553 0.953172
0.953726 0.908944 0.944540
0.096107 0.894870 0.943689
0.193087 0.911481 0.957337
0.306199 0.927561 0.969592
0.429525 0.942790 0.979992
0.557150 0.956846 0.988074
0.683153 0.969409 0.993375
0.801619 0.980156 0.995432
0.906630 0.988768 0.993783
0.992268 0.994923 0.987964
