calib/fujify/montage_cubes/classic_chrome_montage.cube
TITLE "Chromasmith montage fit - Classic Chrome"
#STD->look, fit from fujify comparison montages (best-effort)
LUT_3D_SIZE 5
0.000000 0.000000 0.000000
0.222751 0.038354 0.018171
0.485290 0.092906 0.068545
0.733261 0.152971 0.142031
0.919325 0.215980 0.234927
0.037798 0.176481 0.059990
0.260983 0.230892 0.059086
0.526633 0.293864 0.107404
0.787407 0.362829 0.201240
0.995967 0.435219 0.336892
0.110760 0.409686 0.164861
0.304519 0.452574 0.103130
0.550435 0.504503 0.113026
0.801168 0.562905 0.190847
1.000000 0.625211 0.332889
0.214274 0.694895 0.351771
0.355762 0.706796 0.192847
0.559099 0.728219 0.127956
0.776946 0.756594 0.153395
0.961960 0.789355 0.265462
0.350742 1.000000 0.663261
0.417114 0.996956 0.370780
0.555028 0.968409 0.194736
0.717142 0.947295 0.131429
0.856117 0.931045 0.177154
0.000000 0.024889 0.110919
0.218315 0.059208 0.136483
0.470745 0.098256 0.157898
0.700937 0.139466 0.171461
0.861551 0.180268 0.173469
0.004686 0.191910 0.209718
0.239975 0.244372 0.231092
0.510058 0.302043 0.270723
0.767595 0.362356 0.324907
0.965246 0.422741 0.389942
0.049095 0.396908 0.315696
0.269499 0.448050 0.296514
0.534390 0.504881 0.317995
0.796428 0.564834 0.376435
1.000000 0.625339 0.468132
0.126616 0.643281 0.471395
0.309291 0.673639 0.375293
0.546146 0.710167 0.342258
0.789838 0.750296 0.368588
0.993029 0.791458 0.450581
0.239652 0.934425 0.719359
0.361753 0.924537 0.509970
0.547726 0.921298 0.386054
0.750228 0.922140 0.343910
0.921921 0.924494 0.379833
0.000081 0.063555 0.171166
0.211770 0.078489 0.196406
0.440891 0.094801 0.186531
0.640104 0.109921 0.137840
0.762068 0.121282 0.046629
0.000000 0.226449 0.326245
0.226145 0.269729 0.367566
0.487462 0.314866 0.396178
0.728561 0.359293 0.408380
0.902104 0.400440 0.400468
0.017096 0.416691 0.456185
0.250946 0.468854 0.477222
0.521613 0.523354 0.507957
0.781755 0.577623 0.544685
0.984032 0.629094 0.583706
0.077913 0.637678 0.603531
0.288576 0.679260 0.567918
0.545747 0.723660 0.564409
0.802086 0.768309 0.589299
1.000000 0.810638 0.638888
0.176804 0.892807 0.810824
0.341436 0.904345 0.682197
0.562267 0.919181 0.608078
0.791959 0.934746 0.584765
0.983170 0.948471 0.608556
0.000000 0.084610 0.136315
0.178183 0.072926 0.158899
0.370796 0.059267 0.115404
0.525829 0.041065 0.002127
0.595944 0.015751 0.000000
0.000000 0.256827 0.370529
0.194562 0.283692 0.429466
0.433912 0.309062 0.444729
0.645374 0.330369 0.412617
0.781610 0.345045 0.329426
0.000000 0.445763 0.547288
0.223928 0.491714 0.606212
0.487169 0.536649 0.643869
0.732216 0.578002 0.656556
0.911728 0.613204 0.640570
0.043231 0.654815 0.709135
0.268682 0.700388 0.731682
0.532971 0.745426 0.755367
0.788757 0.787361 0.776487
0.988701 0.823625 0.791340
0.137267 0.887379 0.898615
0.331228 0.913110 0.848418
0.573719 0.938787 0.821765
0.817400 0.961842 0.814953
1.000000 0.979705 0.824280
0.000000 0.064783 0.000000
0.092621 0.019247 0.000000
0.235525 0.000000 0.000000
0.333180 0.000000 0.000000
0.338246 0.000000 0.000000
0.000000 0.259774 0.303528
0.120292 0.262990 0.377750
0.324475 0.261359 0.377334
0.493101 0.252313 0.298577
0.578830 0.233284 0.137777
0.000000 0.460854 0.549962
0.163510 0.493359 0.644443
0.406128 0.521496 0.686692
0.622880 0.542699 0.673006
0.766427 0.554399 0.599681
0.000000 0.671421 0.749168
0.224678 0.713750 0.827543
0.482885 0.752193 0.876091
0.724919 0.784182 0.891110
0.903439 0.807147 0.868896
0.096107 0.894870 0.943689
0.306199 0.927561 0.969592
0.557150 0.956846 0.988074
0.801619 0.980156 0.995432
0.992268 0.994923 0.987964
