calib/fujify/montage_cubes/eterna_cinema_montage.cube
TITLE "Chromasmith montage fit - Eterna Cinema"
#STD->look, fit from fujify comparison montages (best-effort)
LUT_3D_SIZE 5
0.079050 0.076474 0.070194
0.272518 0.116531 0.087175
0.461892 0.132811 0.091820
0.657629 0.142314 0.090569
0.870189 0.162038 0.089858
0.107644 0.222931 0.094341
0.294821 0.279692 0.120704
0.502151 0.316705 0.140327
0.740091 0.350971 0.159649
1.000000 0.399488 0.185108
0.180046 0.433759 0.161531
0.339672 0.490562 0.175713
0.543697 0.531649 0.188752
0.802578 0.574017 0.207086
1.000000 0.634665 0.237153
0.345932 0.802906 0.370168
0.456746 0.843093 0.350608
0.636205 0.871591 0.335501
0.894767 0.905401 0.331284
1.000000 0.961520 0.344397
0.654978 1.000000 0.818656
0.695718 1.000000 0.743792
0.829351 1.000000 0.678976
1.000000 1.000000 0.630648
1.000000 1.000000 0.605244
0.035332 0.057545 0.166707
0.262678 0.102545 0.186836
0.455055 0.110905 0.182979
0.622922 0.099626 0.161574
0.776735 0.085705 0.129058
0.059394 0.206035 0.225100
0.276932 0.277831 0.266576
0.483747 0.317016 0.289663
0.690297 0.340592 0.300796
0.907041 0.365555 0.306416
0.118215 0.356676 0.256102
0.304683 0.438606 0.297364
0.504675 0.491957 0.325832
0.728649 0.533725 0.347943
0.987063 0.580912 0.370136
0.261470 0.603416 0.358119
0.395608 0.678821 0.377604
0.567516 0.729675 0.389891
0.787653 0.772977 0.401417
1.000000 0.825726 0.418621
0.538836 1.000000 0.629552
0.599382 1.000000 0.605699
0.721946 1.000000 0.580243
0.916983 1.000000 0.559623
1.000000 1.000000 0.550276
0.000000 0.004148 0.170696
0.225786 0.035683 0.173926
0.431000 0.017717 0.141518
0.580829 0.000000 0.079910
0.685730 0.000000 0.000000
0.004540 0.219101 0.345283
0.262271 0.287524 0.381825
0.478406 0.310474 0.388326
0.663400 0.304951 0.371223
0.827713 0.287953 0.336955
0.080061 0.373984 0.422046
0.303205 0.462634 0.470339
0.508998 0.509840 0.494186
0.707898 0.532602 0.500026
0.910362 0.547919 0.494297
0.230967 0.562746 0.499388
0.398263 0.654962 0.537870
0.572453 0.709764 0.557503
0.763997 0.744151 0.564724
0.983352 0.775122 0.565971
0.506933 0.879337 0.675715
0.597119 0.958458 0.682824
0.718447 1.000000 0.676679
0.881374 1.000000 0.663719
1.000000 1.000000 0.650381
0.000000 0.000000 0.000000
0.086012 0.000000 0.000000
0.313897 0.000000 0.000000
0.455521 0.000000 0.000000
0.521343 0.000000 0.000000
0.000000 0.190840 0.367547
0.175010 0.237483 0.379107
0.410297 0.225790 0.348974
0.583569 0.172761 0.283586
0.705285 0.095395 0.189381
0.000000 0.414395 0.572017
0.259408 0.491356 0.607293
0.480835 0.514011 0.606472
0.664494 0.499359 0.575993
0.820842 0.464399 0.522292
0.178592 0.609608 0.706634
0.388879 0.700227 0.744064
0.575186 0.740569 0.750993
0.747971 0.747634 0.733860
0.917692 0.738420 0.699102
0.483440 0.870430 0.869800
0.613099 0.958046 0.887823
0.743025 0.999414 0.880941
0.883675 1.000000 0.855592
1.000000 1.000000 0.818214
0.000000 0.000000 0.000000
0.000000 0.000000 0.000000
0.027915 0.000000 0.000000
0.171169 0.000000 0.000000
0.207745 0.000000 0.000000
0.000000 0.049965 0.204550
0.000000 0.056420 0.171079
0.203592 0.000000 0.084263
0.374975 0.000000 0.000000
0.463927 0.000000 0.000000
0.000000 0.406620 0.618674
0.097461 0.453485 0.620885
0.344356 0.433182 0.575347
0.522608 0.362709 0.488499
0.642675 0.259064 0.366779
0.028515 0.672714 0.892511
0.291627 0.743329 0.908842
0.499884 0.750804 0.883020
0.663743 0.712139 0.821484
0.793664 0.644332 0.730671
0.392527 0.942196 1.000000
0.571493 1.000000 1.000000
0.719850 1.000000 1.000000
0.848057 1.000000 1.000000
0.966571 0.966345 0.966433
