calib/fujify/montage_cubes/eterna_cinema_montage.cube
TITLE "Chromasmith montage fit - Eterna Cinema"
#STD->look, fit from fujify comparison montages (best-effort)
LUT_3D_SIZE 33
0.079050 0.076474 0.070194
0.103815 0.083363 0.073212
0.128373 0.089647 0.075948
0.152744 0.095361 0.078416
0.176950 0.100537 0.080629
0.201009 0.105209 0.082599
0.224943 0.109410 0.084338
0.248773 0.113172 0.085859
0.272518 0.116531 0.087175
0.296199 0.119517 0.088298
0.319837 0.122166 0.089241
0.343451 0.124509 0.090017
0.367063 0.126580 0.090637
0.390692 0.128413 0.091115
0.414360 0.130040 0.091463
0.438086 0.131495 0.091694
0.461892 0.132811 0.091820
0.485796 0.134021 0.091854
0.509821 0.135158 0.091809
0.533986 0.136256 0.091696
0.558311 0.137347 0.091529
0.582818 0.138465 0.091321
0.607526 0.139644 0.091082
0.632457 0.140916 0.090828
0.657629 0.142314 0.090569
0.683065 0.143872 0.090318
0.708784 0.145623 0.090089
0.734806 0.147600 0.089893
0.761153 0.149836 0.089743
0.787844 0.152365 0.089653
0.814900 0.155219 0.089633
0.842342 0.158433 0.089697
0.870189 0.162038 0.089858
0.081927 0.094472 0.074222
0.106573 0.101708 0.077495
0.131059 0.108348 0.080498
0.155407 0.114424 0.083244
0.179635 0.119972 0.085745
0.203765 0.125022 0.088014
0.227818 0.129610 0.090064
0.251813 0.133767 0.091907
0.275771 0.137528 0.093555
0.299712 0.140925 0.095021
0.323657 0.143991 0.096318
0.347626 0.146761 0.097459
0.371640 0.149266 0.098455
0.395719 0.151540 0.099320
0.419884 0.153617 0.100066
0.444155 0.155530 0.100706
0.468552 0.157311 0.101251
0.493095 0.158994 0.101716
0.517806 0.160612 0.102112
0.542705 0.162199 0.102452
0.567811 0.163787 0.102748
0.593147 0.165410 0.103014
0.618731 0.167102 0.103261
0.644584 0.168894 0.103503
0.670727 0.170820 0.103751
0.697181 0.172915 0.104018
0.723965 0.175210 0.104318
0.751100 0.177739 0.104662
0.778606 0.180535 0.105063
0.806505 0.183631 0.105534
0.834816 0.187061 0.106087
0.863559 0.190858 0.106735
0.892756 0.195055 0.107491
0.084808 0.112192 0.077577
0.109294 0.119742 0.081064
0.133668 0.126704 0.084292
0.157950 0.133112 0.087273
0.182160 0.138997 0.090020
0.206320 0.144394 0.092547
0.230449 0.149336 0.094865
0.254567 0.153855 0.096986
0.278697 0.157986 0.098925
0.302856 0.161761 0.100692
0.327067 0.165213 0.102301
0.351350 0.168376 0.103765
0.375725 0.171282 0.105095
0.400212 0.173966 0.106305
0.424832 0.176460 0.107406
0.449605 0.178797 0.108413
0.474552 0.181012 0.109336
0.499694 0.183135 0.110189
0.525049 0.185202 0.110984
0.550640 0.187246 0.111735
0.576486 0.189298 0.112452
0.602608 0.191393 0.113150
0.629027 0.193565 0.113841
0.655762 0.195845 0.114536
0.682834 0.198267 0.115249
0.710264 0.200865 0.115993
0.738071 0.203672 0.116779
0.766278 0.206720 0.117621
0.794902 0.210043 0.118531
0.823967 0.213675 0.119522
0.853491 0.217648 0.120605
0.883495 0.221996 0.121795
0.913999 0.226752 0.123103
0.087792 0.129816 0.080452
0.112076 0.137649 0.084110
0.136296 0.144901 0.087520
0.160471 0.151606 0.090695
0.184621 0.157798 0.093646
0.208768 0.163508 0.096388
0.232932 0.168772 0.098932
0.257134 0.173621 0.101291
0.281393 0.178089 0.103477
0.305730 0.182209 0.105504
0.330165 0.186014 0.107383
0.354720 0.189538 0.109127
0.379413 0.192813 0.110749
0.404267 0.195874 0.112261
0.429301 0.198752 0.113676
0.454536 0.201482 0.115007
0.479991 0.204096 0.116266
0.505688 0.206628 0.117466
0.531647 0.209111 0.118618
0.557889 0.211579 0.119737
0.584433 0.214063 0.120834
0.611300 0.216598 0.121921
0.638512 0.219217 0.123013
0.666087 0.221952 0.124120
0.694046 0.224838 0.125256
0.722411 0.227907 0.126434
0.751201 0.231192 0.127665
0.780436 0.234728 0.128962
0.810138 0.238546 0.130339
0.840327 0.242680 0.131807
0.871022 0.247164 0.133379
0.902245 0.252030 0.135068
0.934016 0.257312 0.136886
0.090976 0.147528 0.083038
0.115017 0.155611 0.086825
0.139040 0.163121 0.090376
0.163066 0.170092 0.093702
0.187116 0.176556 0.096816
0.211209 0.182548 0.099730
0.235367 0.188101 0.102458
0.259609 0.193247 0.105012
0.283956 0.198019 0.107404
0.308428 0.202452 0.109648
0.333047 0.206578 0.111754
0.357832 0.210430 0.113737
0.382803 0.214042 0.115609
0.407982 0.217446 0.117382
0.433388 0.220677 0.119068
0.459042 0.223767 0.120682
0.484965 0.226749 0.122234
0.511177 0.229657 0.123738
0.537697 0.232523 0.125206
0.564548 0.235382 0.126650
0.591749 0.238265 0.128084
0.619320 0.241207 0.129520
0.647282 0.244241 0.130970
0.675656 0.247399 0.132447
0.704462 0.250716 0.133964
0.733719 0.254224 0.135533
0.763450 0.257956 0.137167
0.793673 0.261945 0.138878
0.824411 0.266226 0.140679
0.855682 0.270830 0.142583
0.887507 0.275792 0.144601
0.919908 0.281144 0.146747
0.952903 0.286919 0.149034
0.094456 0.165513 0.085527
0.118212 0.173812 0.089402
0.141998 0.181547 0.093051
0.165834 0.188751 0.096486
0.189741 0.195457 0.099720
0.213738 0.201697 0.102766
0.237848 0.207506 0.105636
0.262089 0.212916 0.108342
0.286483 0.217961 0.110898
0.311050 0.222674 0.113316
0.335810 0.227088 0.115609
0.360783 0.231236 0.117788
0.385991 0.235152 0.119867
0.411453 0.238868 0.121859
0.437190 0.242418 0.123775
0.463223 0.245835 0.125628
0.489571 0.249152 0.127432
0.516255 0.252403 0.129198
0.543296 0.255621 0.130939
0.570715 0.258838 0.132667
0.598530 0.262089 0.134396
0.626764 0.265405 0.136138
0.655436 0.268821 0.137905
0.684567 0.272370 0.139710
0.714177 0.276085 0.141565
0.744286 0.279998 0.143484
0.774916 0.284144 0.145478
0.806086 0.288556 0.147561
0.837817 0.293266 0.149744
0.870129 0.298308 0.152041
0.903043 0.303715 0.154464
0.936580 0.309520 0.157025
0.970758 0.315757 0.159738
0.098329 0.183952 0.088113
0.121759 0.192436 0.092033
0.145266 0.200364 0.095738
0.168870 0.207768 0.099240
0.192593 0.214682 0.102552
0.216454 0.221139 0.105687
0.240474 0.227172 0.108656
0.264673 0.232814 0.111474
0.289072 0.238098 0.114151
0.313691 0.243059 0.116702
0.338551 0.247728 0.119138
0.363672 0.252140 0.121472
0.389074 0.256326 0.123716
0.414778 0.260322 0.125884
0.440804 0.264159 0.127987
0.467173 0.267871 0.130039
0.493906 0.271491 0.132052
0.521022 0.275052 0.134037
0.548541 0.278588 0.136009
0.576486 0.282132 0.137980
0.604875 0.285716 0.139962
0.633729 0.289375 0.141967
0.663069 0.293141 0.144009
0.692916 0.297048 0.146100
0.723288 0.301128 0.148252
0.754208 0.305415 0.150478
0.785695 0.309942 0.152790
0.817770 0.314743 0.155202
0.850454 0.319850 0.157726
0.883766 0.325297 0.160374
0.917727 0.331117 0.163159
0.952358 0.337343 0.166093
0.987678 0.344009 0.169190
0.102693 0.203031 0.090987
0.125755 0.211667 0.094910
0.148941 0.219754 0.098629
0.172272 0.227326 0.102156
0.195769 0.234416 0.105504
0.219452 0.241056 0.108685
0.243341 0.247281 0.111712
0.267456 0.253122 0.114598
0.291819 0.258614 0.117356
0.316449 0.263790 0.119997
0.341367 0.268682 0.122534
0.366594 0.273324 0.124980
0.392149 0.277750 0.127348
0.418053 0.281991 0.129650
0.444328 0.286083 0.131899
0.470992 0.290057 0.134106
0.498067 0.293947 0.136286
0.525572 0.297787 0.138450
0.553529 0.301608 0.140610
0.581958 0.305446 0.142781
0.610879 0.309332 0.144973
0.640313 0.313300 0.147200
0.670280 0.317384 0.149475
0.700800 0.321616 0.151809
0.731894 0.326029 0.154215
0.763583 0.330657 0.156707
0.795886 0.335533 0.159296
0.828824 0.340691 0.161995
0.862418 0.346163 0.164817
0.896689 0.351982 0.167774
0.931655 0.358182 0.170879
0.967339 0.364796 0.174144
1.000000 0.371858 0.177582
0.107644 0.222931 0.094341
0.130296 0.231687 0.098225
0.153121 0.239902 0.101916
0.176138 0.247609 0.105426
0.199367 0.254842 0.108767
0.222830 0.261634 0.111953
0.246546 0.268017 0.114996
0.270536 0.274025 0.117909
0.294821 0.279692 0.120704
0.319421 0.285050 0.123393
0.344356 0.290132 0.125990
0.369646 0.294973 0.128506
0.395313 0.299604 0.130955
0.421377 0.304060 0.133349
0.447857 0.308374 0.135701
0.474775 0.312578 0.138022
0.502151 0.316705 0.140327
0.530005 0.320790 0.142626
0.558357 0.324865 0.144934
0.587229 0.328964 0.147262
0.616641 0.333119 0.149623
0.646612 0.337365 0.152030
0.677164 0.341733 0.154494
0.708317 0.346257 0.157030
0.740091 0.350971 0.159649
0.772506 0.355908 0.162363
0.805584 0.361100 0.165187
0.839345 0.366582 0.168131
0.873808 0.372386 0.171209
0.908995 0.378545 0.174433
0.944925 0.385093 0.177816
0.981620 0.392063 0.181370
1.000000 0.399488 0.185108
0.113280 0.243838 0.098368
0.135481 0.252681 0.102171
0.157902 0.260991 0.105791
0.180563 0.268801 0.109242
0.203483 0.276144 0.112535
0.226684 0.283054 0.115683
0.250187 0.289563 0.118700
0.274010 0.295706 0.121597
0.298176 0.301515 0.124387
0.322703 0.307023 0.127083
0.347613 0.312263 0.129696
0.372927 0.317269 0.132241
0.398664 0.322075 0.134729
0.424844 0.326712 0.137173
0.451490 0.331215 0.139585
0.478620 0.335616 0.141979
0.506255 0.339949 0.144366
0.534416 0.344246 0.146760
0.563122 0.348542 0.149172
0.592396 0.352870 0.151615
0.622256 0.357262 0.154103
0.652724 0.361751 0.156647
0.683819 0.366372 0.159260
0.715563 0.371156 0.161955
0.747975 0.376138 0.164744
0.781077 0.381351 0.167640
0.814887 0.386827 0.170655
0.849428 0.392600 0.173802
0.884719 0.398704 0.177094
0.920781 0.405171 0.180543
0.957634 0.412034 0.184162
0.995299 0.419327 0.187962
1.000000 0.427083 0.191958
0.119697 0.265933 0.103260
0.141406 0.274831 0.106939
0.163382 0.283203 0.110447
0.185645 0.291083 0.113796
0.208215 0.298505 0.116999
0.231113 0.305501 0.120068
0.254360 0.312104 0.123016
0.277975 0.318348 0.125855
0.301979 0.324267 0.128598
0.326393 0.329892 0.131258
0.351237 0.335258 0.133847
0.376532 0.340397 0.136378
0.402297 0.345344 0.138863
0.428554 0.350130 0.141314
0.455322 0.354789 0.143746
0.482623 0.359355 0.146169
0.510476 0.363860 0.148597
0.538902 0.368339 0.151042
0.567922 0.372823 0.153516
0.597555 0.377346 0.156033
0.627823 0.381942 0.158605
0.658745 0.386644 0.161245
0.690343 0.391484 0.163964
0.722636 0.396496 0.166776
0.755645 0.401714 0.169693
0.789390 0.407170 0.172728
0.823892 0.412897 0.175893
0.859172 0.418930 0.179201
0.895249 0.425300 0.182665
0.932145 0.432042 0.186297
0.969879 0.439188 0.190109
1.000000 0.446771 0.194114
1.000000 0.454826 0.198326
0.126993 0.289402 0.109208
0.148168 0.298321 0.112722
0.169657 0.306723 0.116076
0.191481 0.314641 0.119281
0.213659 0.322108 0.122351
0.236213 0.329158 0.125299
0.259162 0.335822 0.128136
0.282528 0.342136 0.130875
0.306330 0.348131 0.133529
0.330589 0.353841 0.136111
0.355325 0.359300 0.138633
0.380559 0.364540 0.141108
0.406311 0.369595 0.143548
0.432602 0.374497 0.145965
0.459452 0.379281 0.148373
0.486882 0.383979 0.150784
0.514911 0.388624 0.153210
0.543561 0.393251 0.155665
0.572852 0.397891 0.158160
0.602804 0.402578 0.160708
0.633437 0.407345 0.163322
0.664773 0.412226 0.166015
0.696831 0.417253 0.168798
0.729632 0.422461 0.171685
0.763196 0.427881 0.174688
0.797544 0.433548 0.177820
0.832696 0.439494 0.181093
0.868673 0.445753 0.184520
0.905495 0.452358 0.188114
0.943183 0.459342 0.191886
0.981756 0.466738 0.195850
1.000000 0.474579 0.200018
1.000000 0.482900 0.204402
0.135264 0.314427 0.116406
0.155864 0.323336 0.119712
0.176825 0.331735 0.122869
0.198168 0.339658 0.125889
0.219913 0.347138 0.128784
0.242080 0.354208 0.131568
0.264691 0.360902 0.134252
0.287765 0.367252 0.136850
0.311323 0.373291 0.139373
0.335386 0.379054 0.141835
0.359973 0.384573 0.144248
0.385105 0.389881 0.146624
0.410803 0.395012 0.148976
0.437086 0.399998 0.151318
0.463977 0.404874 0.153660
0.491494 0.409671 0.156016
0.519658 0.414424 0.158399
0.548490 0.419166 0.160821
0.578010 0.423929 0.163294
0.608239 0.428747 0.165832
0.639197 0.433653 0.168446
0.670904 0.438681 0.171150
0.703381 0.443863 0.173955
0.736648 0.449233 0.176875
0.770726 0.454824 0.179922
0.805636 0.460669 0.183109
0.841396 0.466801 0.186448
0.878029 0.473254 0.189951
0.915554 0.480061 0.193632
0.953992 0.487254 0.197503
0.993363 0.494868 0.201576
1.000000 0.502935 0.205865
1.000000 0.511489 0.210381
0.144608 0.341191 0.125045
0.164591 0.350057 0.128101
0.184982 0.358421 0.131020
0.205803 0.366317 0.133812
0.227073 0.373777 0.136490
0.248813 0.380836 0.139068
0.271043 0.387525 0.141557
0.293785 0.393880 0.143971
0.317057 0.399931 0.146321
0.340881 0.405714 0.148620
0.365278 0.411260 0.150882
0.390266 0.416604 0.153118
0.415868 0.421778 0.155341
0.442103 0.426816 0.157564
0.468992 0.431751 0.159799
0.496555 0.436615 0.162059
0.524813 0.441443 0.164356
0.553786 0.446267 0.166703
0.583494 0.451121 0.169112
0.613958 0.456038 0.171597
0.645199 0.461050 0.174169
0.677236 0.466192 0.176842
0.710090 0.471496 0.179627
0.743783 0.476996 0.182538
0.778333 0.482725 0.185587
0.813762 0.488716 0.188786
0.850089 0.495002 0.192149
0.887336 0.501616 0.195687
0.925523 0.508592 0.199413
0.964670 0.515963 0.203340
1.000000 0.523762 0.207481
1.000000 0.532022 0.211847
1.000000 0.540777 0.216453
0.155122 0.369879 0.135317
0.174446 0.378669 0.138082
0.194226 0.386965 0.140720
0.214483 0.394801 0.143242
0.235237 0.402210 0.145661
0.256508 0.409224 0.147991
0.278316 0.415877 0.150243
0.300683 0.422203 0.152430
0.323629 0.428234 0.154565
0.347173 0.434004 0.156661
0.371337 0.439546 0.158729
0.396141 0.444892 0.160782
0.421605 0.450077 0.162834
0.447750 0.455134 0.164896
0.474596 0.460095 0.166981
0.502163 0.464994 0.169102
0.530473 0.469864 0.171272
0.559545 0.474739 0.173502
0.589400 0.479651 0.175806
0.620058 0.484633 0.178195
0.651539 0.489720 0.180684
0.683865 0.494943 0.183283
0.717056 0.500337 0.186006
0.751131 0.505935 0.188866
0.786112 0.511769 0.191874
0.822019 0.517873 0.195044
0.858872 0.524280 0.198388
0.896692 0.531023 0.201918
0.935498 0.538136 0.205648
0.975313 0.545651 0.209590
1.000000 0.553603 0.213755
1.000000 0.562023 0.218158
1.000000 0.570946 0.222810
0.166902 0.400674 0.147415
0.185526 0.409356 0.149846
0.204654 0.417552 0.152161
0.224305 0.425295 0.154371
0.244501 0.432619 0.156490
0.265261 0.439556 0.158529
0.286607 0.446141 0.160502
0.308558 0.452405 0.162421
0.331134 0.458383 0.164299
0.354358 0.464108 0.166148
0.378248 0.469612 0.167980
0.402825 0.474929 0.169809
0.428110 0.480093 0.171647
0.454123 0.485135 0.173507
0.480885 0.490091 0.175400
0.508415 0.494992 0.177340
0.536735 0.499872 0.179340
0.565865 0.504764 0.181411
0.595824 0.509701 0.183567
0.626635 0.514718 0.185819
0.658316 0.519845 0.188181
0.690889 0.525118 0.190665
0.724374 0.530569 0.193284
0.758792 0.536231 0.196050
0.794162 0.542138 0.198976
0.830505 0.548323 0.202075
0.867842 0.554818 0.205358
0.906193 0.561658 0.208839
0.945578 0.568875 0.212530
0.986018 0.576503 0.216443
1.000000 0.584574 0.220592
1.000000 0.593123 0.224989
1.000000 0.602181 0.229646
0.180046 0.433759 0.161531
0.197929 0.442300 0.163587
0.216362 0.450363 0.165536
0.235366 0.457981 0.167392
0.254963 0.465188 0.169167
0.275171 0.472016 0.170875
0.296011 0.478499 0.172526
0.317505 0.484670 0.174135
0.339672 0.490562 0.175713
0.362532 0.496209 0.177274
0.386107 0.501644 0.178829
0.410416 0.506899 0.180391
0.435481 0.512008 0.181973
0.461320 0.517004 0.183588
0.487956 0.521921 0.185247
0.515408 0.526792 0.186965
0.543697 0.531649 0.188752
0.572842 0.536526 0.190622
0.602866 0.541457 0.192588
0.633787 0.546474 0.194661
0.665627 0.551610 0.196855
0.698405 0.556900 0.199181
0.732143 0.562375 0.201654
0.766861 0.568070 0.204284
0.802578 0.574017 0.207086
0.839316 0.580250 0.210070
0.877096 0.586801 0.213251
0.915936 0.593705 0.216640
0.955859 0.600994 0.220250
0.996883 0.608701 0.224094
1.000000 0.616860 0.228184
1.000000 0.625504 0.232533
1.000000 0.634665 0.237153
0.194651 0.469317 0.177857
0.211750 0.477685 0.179495
0.229448 0.485583 0.181037
0.247764 0.493043 0.182497
0.266719 0.500100 0.183887
0.286334 0.506787 0.185220
0.306628 0.513136 0.186508
0.327622 0.519181 0.187764
0.349338 0.524955 0.189001
0.371794 0.530491 0.190230
0.395012 0.535823 0.191466
0.419012 0.540984 0.192719
0.443814 0.546006 0.194004
0.469439 0.550924 0.195331
0.495907 0.555770 0.196715
0.523238 0.560577 0.198167
0.551454 0.565379 0.199700
0.580575 0.570209 0.201327
0.610620 0.575100 0.203061
0.641611 0.580085 0.204913
0.673567 0.585198 0.206896
0.706510 0.590472 0.209023
0.740459 0.595939 0.211307
0.775435 0.601634 0.213760
0.811459 0.607588 0.216395
0.848550 0.613837 0.219224
0.886730 0.620412 0.222259
0.926019 0.627347 0.225514
0.966437 0.634675 0.229002
1.000000 0.642429 0.232733
1.000000 0.650643 0.236722
1.000000 0.659349 0.240981
1.000000 0.668582 0.245521
0.210813 0.507533 0.196586
0.227088 0.515695 0.197763
0.244008 0.523395 0.198856
0.261594 0.530665 0.199878
0.279867 0.537540 0.200840
0.298846 0.544052 0.201757
0.318553 0.550235 0.202639
0.339007 0.556121 0.203501
0.360229 0.561745 0.204354
0.382239 0.567138 0.205211
0.405059 0.572335 0.206084
0.428708 0.577368 0.206987
0.453206 0.582272 0.207931
0.478575 0.587078 0.208930
0.504834 0.591820 0.209995
0.532004 0.596532 0.211140
0.560105 0.601246 0.212377
0.589159 0.605996 0.213719
0.619185 0.610815 0.215178
0.650203 0.615736 0.216766
0.682235 0.620793 0.218497
0.715300 0.626018 0.220383
0.749419 0.631444 0.222436
0.784612 0.637106 0.224669
0.820900 0.643036 0.227095
0.858304 0.649268 0.229726
0.896843 0.655834 0.232575
0.936539 0.662767 0.235654
0.977411 0.670102 0.238976
1.000000 0.677871 0.242554
1.000000 0.686107 0.246399
1.000000 0.694844 0.250525
1.000000 0.704114 0.254945
0.228630 0.548590 0.217909
0.244039 0.556513 0.218584
0.260140 0.563982 0.219185
0.276955 0.571030 0.219726
0.294504 0.577690 0.220220
0.312806 0.583996 0.220677
0.331883 0.589979 0.221112
0.351755 0.595674 0.221537
0.372443 0.601114 0.221964
0.393966 0.606333 0.222406
0.416345 0.611362 0.222876
0.439602 0.616236 0.223386
0.463755 0.620987 0.223948
0.488825 0.625649 0.224575
0.514834 0.630255 0.225281
0.541801 0.634839 0.226076
0.569747 0.639433 0.226975
0.598692 0.644070 0.227989
0.628656 0.648785 0.229132
0.659661 0.653609 0.230414
0.691726 0.658577 0.231851
0.724872 0.663721 0.233453
0.759120 0.669075 0.235233
0.794489 0.674671 0.237204
0.831000 0.680544 0.239379
0.868674 0.686726 0.241770
0.907531 0.693250 0.244390
0.947592 0.700150 0.247251
0.988876 0.707459 0.250366
1.000000 0.715210 0.253747
1.000000 0.723436 0.257407
1.000000 0.732170 0.261359
1.000000 0.741446 0.265615
0.248199 0.592671 0.242019
0.262700 0.600323 0.242149
0.277941 0.607529 0.242217
0.293943 0.614322 0.242236
0.310726 0.620735 0.242217
0.328310 0.626800 0.242174
0.346716 0.632553 0.242120
0.365965 0.638024 0.242065
0.386076 0.643248 0.242025
0.407071 0.648258 0.242010
0.428969 0.653088 0.242033
0.451791 0.657769 0.242108
0.475557 0.662336 0.242246
0.500288 0.666822 0.242460
0.526005 0.671260 0.242763
0.552727 0.675682 0.243167
0.580476 0.680123 0.243686
0.609271 0.684616 0.244330
0.639133 0.689193 0.245114
0.670082 0.693888 0.246049
0.702139 0.698735 0.247149
0.735325 0.703765 0.248425
0.769659 0.709013 0.249890
0.805162 0.714512 0.251558
0.841855 0.720295 0.253440
0.879758 0.726395 0.255549
0.918891 0.732845 0.257897
0.959275 0.739678 0.260498
1.000000 0.746929 0.263363
1.000000 0.754629 0.266506
1.000000 0.762812 0.269939
1.000000 0.771512 0.273674
1.000000 0.780761 0.277725
0.269616 0.639959 0.269107
0.283168 0.647308 0.268651
0.297508 0.654219 0.268143
0.312655 0.660724 0.267597
0.328631 0.666857 0.267025
0.345455 0.672650 0.266439
0.363149 0.678138 0.265853
0.381733 0.683354 0.265278
0.401226 0.688330 0.264727
0.421650 0.693099 0.264213
0.443025 0.697696 0.263748
0.465372 0.702153 0.263346
0.488710 0.706503 0.263017
0.513060 0.710779 0.262776
0.538443 0.715016 0.262635
0.564879 0.719245 0.262606
0.592389 0.723501 0.262701
0.620992 0.727816 0.262934
0.650710 0.732224 0.263317
0.681563 0.736757 0.263863
0.713571 0.741449 0.264583
0.746754 0.746334 0.265491
0.781134 0.751444 0.266600
0.816730 0.756812 0.267921
0.853562 0.762472 0.269468
0.891653 0.768458 0.271253
0.931021 0.774801 0.273288
0.971687 0.781536 0.275586
1.000000 0.788695 0.278160
1.000000 0.796312 0.281023
1.000000 0.804420 0.284186
1.000000 0.813053 0.287663
1.000000 0.822242 0.291465
0.292980 0.690639 0.299367
0.305541 0.697652 0.298282
0.318937 0.704235 0.297157
0.333188 0.710419 0.296004
0.348315 0.716240 0.294836
0.364339 0.721729 0.293665
0.381279 0.726920 0.292505
0.399155 0.731847 0.291367
0.417990 0.736542 0.290264
0.437802 0.741038 0.289208
0.458612 0.745370 0.288213
0.480442 0.749569 0.287291
0.503310 0.753670 0.286455
0.527238 0.757705 0.285716
0.552246 0.761708 0.285088
0.578354 0.765711 0.284583
0.605583 0.769749 0.284214
0.633954 0.773854 0.283993
0.663486 0.778059 0.283933
0.694200 0.782398 0.284047
0.726117 0.786904 0.284347
0.759257 0.791610 0.284845
0.793640 0.796549 0.285554
0.829287 0.801755 0.286487
0.866219 0.807260 0.287657
0.904455 0.813098 0.289075
0.944016 0.819302 0.290755
0.984923 0.825906 0.292709
1.000000 0.832942 0.294949
1.000000 0.840443 0.297489
1.000000 0.848444 0.300341
1.000000 0.856976 0.303517
1.000000 0.866074 0.307029
0.318386 0.744894 0.332990
0.329915 0.751538 0.331234
0.342326 0.757760 0.329449
0.355640 0.763592 0.327647
0.369877 0.769067 0.325841
0.385057 0.774219 0.324044
0.401202 0.779082 0.322267
0.418330 0.783687 0.320524
0.436464 0.788068 0.318826
0.455623 0.792259 0.317188
0.475827 0.796293 0.315621
0.497098 0.800203 0.314137
0.519455 0.804021 0.312750
0.542919 0.807782 0.311472
0.567510 0.811519 0.310315
0.593249 0.815264 0.309292
0.620156 0.819051 0.308417
0.648252 0.822914 0.307700
0.677557 0.826884 0.307155
0.708092 0.830996 0.306795
0.739876 0.835283 0.306631
0.772931 0.839778 0.306677
0.807276 0.844514 0.306945
0.842933 0.849524 0.307448
0.879921 0.854842 0.308198
0.918262 0.860500 0.309208
0.957974 0.866533 0.310490
0.999080 0.872972 0.312058
1.000000 0.879852 0.313923
1.000000 0.887205 0.316098
1.000000 0.895065 0.318595
1.000000 0.903465 0.321428
1.000000 0.912438 0.324609
0.345932 0.802906 0.370168
0.356387 0.809150 0.367700
0.367772 0.814978 0.365213
0.380107 0.820425 0.362720
0.393412 0.825523 0.360234
0.407708 0.830306 0.357767
0.423015 0.834806 0.355332
0.439355 0.839057 0.352942
0.456746 0.843093 0.350608
0.475210 0.846946 0.348344
0.494767 0.850649 0.346162
0.515437 0.854236 0.344075
0.537241 0.857740 0.342095
0.560199 0.861195 0.340235
0.584333 0.864633 0.338508
0.609661 0.868087 0.336925
0.636205 0.871591 0.335501
0.663985 0.875178 0.334246
0.693021 0.878882 0.333174
0.723334 0.882734 0.332297
0.754944 0.886770 0.331629
0.787872 0.891021 0.331180
0.822139 0.895521 0.330965
0.857763 0.900303 0.330996
0.894767 0.905401 0.331284
0.933170 0.910847 0.331844
0.972993 0.916675 0.332686
1.000000 0.922918 0.333825
1.000000 0.929609 0.335272
1.000000 0.936782 0.337040
1.000000 0.944469 0.339142
1.000000 0.952704 0.341590
1.000000 0.961520 0.344397
0.375715 0.864861 0.411094
0.385055 0.870671 0.407871
0.395372 0.876073 0.404640
0.406686 0.881102 0.401414
0.419018 0.885790 0.398206
0.432388 0.890171 0.395027
0.446817 0.894277 0.391892
0.462325 0.898142 0.388812
0.478932 0.901799 0.385800
0.496660 0.905281 0.382869
0.515528 0.908621 0.380030
0.535556 0.911854 0.377297
0.556766 0.915011 0.374683
0.579177 0.918126 0.372199
0.602811 0.921233 0.369859
0.627687 0.924363 0.367674
0.653826 0.927552 0.365658
0.681248 0.930831 0.363824
0.709974 0.934235 0.362183
0.740024 0.937796 0.360748
0.771419 0.941547 0.359532
0.804179 0.945522 0.358547
0.838324 0.949753 0.357806
0.873876 0.954275 0.357322
0.910853 0.959120 0.357107
0.949278 0.964322 0.357174
0.989169 0.969913 0.357535
1.000000 0.975927 0.358203
1.000000 0.982397 0.359190
1.000000 0.989356 0.360509
1.000000 0.996838 0.362173
1.000000 1.000000 0.364194
1.000000 1.000000 0.366584
0.407832 0.930941 0.455960
0.416015 0.936284 0.451940
0.425222 0.941229 0.447923
0.435474 0.945807 0.443921
0.446791 0.950052 0.439949
0.459194 0.953998 0.436017
0.472703 0.957677 0.432140
0.487338 0.961123 0.428328
0.503121 0.964369 0.424595
0.520070 0.967448 0.420954
0.538207 0.970394 0.417417
0.557552 0.973238 0.413996
0.578126 0.976016 0.410705
0.599949 0.978760 0.407555
0.623041 0.981502 0.404560
0.647424 0.984277 0.401731
0.673116 0.987117 0.399082
0.700139 0.990057 0.396625
0.728513 0.993128 0.394373
0.758259 0.996364 0.392338
0.789397 0.999799 0.390532
0.821947 1.000000 0.388969
0.855930 1.000000 0.387661
0.891367 1.000000 0.386620
0.928277 1.000000 0.385859
0.966681 1.000000 0.385391
