calib/fujify/montage_cubes/eterna_bleach_bypass_montage.cube
TITLE "Chromasmith montage fit - Eterna Bleach Bypass"
#STD->look, fit from fujify comparison montages (best-effort)
LUT_3D_SIZE 5
0.064059 0.063173 0.059279
0.185195 0.085376 0.076122
0.338442 0.101830 0.103625
0.496427 0.134358 0.137930
0.631773 0.204785 0.175176
0.105414 0.156585 0.102071
0.217183 0.208538 0.128447
0.395055 0.268386 0.192227
0.611654 0.357954 0.289552
0.839606 0.499066 0.416562
0.307430 0.405770 0.270952
0.367203 0.458855 0.280281
0.527070 0.533480 0.353758
0.759655 0.651469 0.487523
1.000000 0.834646 0.677715
0.776910 0.933224 0.662217
0.742058 0.958823 0.627919
0.841291 1.000000 0.684511
1.000000 1.000000 0.828135
1.000000 1.000000 1.000000
1.000000 1.000000 1.000000
1.000000 1.000000 1.000000
1.000000 1.000000 1.000000
1.000000 1.000000 1.000000
1.000000 1.000000 1.000000
0.001076 0.000000 0.056646
0.148844 0.035012 0.111954
0.298571 0.036457 0.150006
0.422884 0.020405 0.166944
0.494406 0.008681 0.158908
0.068061 0.135531 0.163361
0.219003 0.221780 0.212644
0.405895 0.282352 0.271416
0.601363 0.339073 0.335817
0.778032 0.413766 0.401986
0.203221 0.293917 0.321977
0.314707 0.397031 0.338655
0.496135 0.488113 0.391566
0.720129 0.588988 0.476847
0.959315 0.721480 0.590641
0.513358 0.591901 0.628789
0.542759 0.683261 0.586282
0.676093 0.776234 0.606749
0.885985 0.892644 0.686332
1.000000 1.000000 0.821170
1.000000 1.000000 1.000000
1.000000 1.000000 1.000000
1.000000 1.000000 1.000000
1.000000 1.000000 1.000000
1.000000 1.000000 1.000000
0.000000 0.000000 0.000000
0.041563 0.000000 0.064447
0.152372 0.000000 0.126401
0.207614 0.000000 0.139325
0.179915 0.000000 0.099357
0.081527 0.142310 0.209052
0.236242 0.233562 0.294595
0.396756 0.265567 0.361711
0.535694 0.260149 0.406538
0.625681 0.239132 0.425218
0.236179 0.331228 0.438495
0.363978 0.455078 0.475875
0.531568 0.533325 0.521570
0.711573 0.587793 0.571721
0.876617 0.640308 0.622468
0.473320 0.521070 0.741946
0.531576 0.648899 0.704582
0.663612 0.744770 0.702276
0.842055 0.830507 0.731170
1.000000 0.927935 0.787402
0.899755 0.834332 1.000000
0.845838 0.937522 1.000000
0.899691 1.000000 1.000000
1.000000 1.000000 0.981179
1.000000 1.000000 1.000000
0.000000 0.000000 0.000000
0.000000 0.000000 0.000000
0.000000 0.000000 0.000000
0.000000 0.000000 0.000000
0.000000 0.000000 0.000000
0.065026 0.059446 0.100181
0.188116 0.126410 0.235335
0.286853 0.100555 0.324145
0.333862 0.003706 0.362752
0.301769 0.000000 0.347295
0.325519 0.400225 0.481542
0.434234 0.515519 0.552975
0.552587 0.551639 0.604808
0.653203 0.530410 0.633180
0.708707 0.473654 0.634231
0.576014 0.603256 0.862723
0.627725 0.738262 0.843854
0.723065 0.807739 0.832127
0.834659 0.833511 0.823683
0.935132 0.837401 0.814663
0.923316 0.791035 1.000000
0.875393 0.917135 1.000000
0.905091 0.991350 1.000000
0.985034 1.000000 1.000000
1.000000 1.000000 0.984886
0.000000 0.000000 0.000000
0.000000 0.000000 0.000000
0.000000 0.000000 0.000000
0.000000 0.000000 0.000000
0.000000 0.000000 0.000000
0.000000 0.000000 0.000000
0.000000 0.000000 0.000000
0.000000 0.000000 0.019757
0.000000 0.000000 0.065494
0.000000 0.000000 0.029252
0.390457 0.383434 0.312153
0.444689 0.460880 0.430991
0.478406 0.425581 0.502313
0.464236 0.299361 0.522257
0.374801 0.104044 0.486966
0.740655 0.720983 0.852155
0.750423 0.833874 0.865133
0.773668 0.847665 0.857338
0.783015 0.784179 0.824909
0.751090 0.665241 0.763987
1.000000 0.904608 1.000000
1.000000 1.000000 1.000000
0.987989 1.000000 1.000000
0.978226 1.000000 1.000000
0.961180 0.958040 0.956610
