calib/fujify/montage_cubes/eterna_cinema_montage.cube
TITLE "Chromasmith montage fit - Eterna Cinema"
#STD->look, fit from fujify comparison montages (best-effort)
LUT_3D_SIZE 9
0.079050 0.076474 0.070194
0.176950 0.100537 0.080629
0.272518 0.116531 0.087175
0.367063 0.126580 0.090637
0.461892 0.132811 0.091820
0.558311 0.137347 0.091529
0.657629 0.142314 0.090569
0.761153 0.149836 0.089743
0.870189 0.162038 0.089858
0.090976 0.147528 0.083038
0.187116 0.176556 0.096816
0.283956 0.198019 0.107404
0.382803 0.214042 0.115609
0.484965 0.226749 0.122234
0.591749 0.238265 0.128084
0.704462 0.250716 0.133964
0.824411 0.266226 0.140679
0.952903 0.286919 0.149034
0.107644 0.222931 0.094341
0.199367 0.254842 0.108767
0.294821 0.279692 0.120704
0.395313 0.299604 0.130955
0.502151 0.316705 0.140327
0.616641 0.333119 0.149623
0.740091 0.350971 0.159649
0.873808 0.372386 0.171209
1.000000 0.399488 0.185108
0.135264 0.314427 0.116406
0.219913 0.347138 0.128784
0.311323 0.373291 0.139373
0.410803 0.395012 0.148976
0.519658 0.414424 0.158399
0.639197 0.433653 0.168446
0.770726 0.454824 0.179922
0.915554 0.480061 0.193632
1.000000 0.511489 0.210381
0.180046 0.433759 0.161531
0.254963 0.465188 0.169167
0.339672 0.490562 0.175713
0.435481 0.512008 0.181973
0.543697 0.531649 0.188752
0.665627 0.551610 0.196855
0.802578 0.574017 0.207086
0.955859 0.600994 0.220250
1.000000 0.634665 0.237153
0.248199 0.592671 0.242019
0.310726 0.620735 0.242217
0.386076 0.643248 0.242025
0.475557 0.662336 0.242246
0.580476 0.680123 0.243686
0.702139 0.698735 0.247149
0.841855 0.720295 0.253440
1.000000 0.746929 0.263363
1.000000 0.780761 0.277725
0.345932 0.802906 0.370168
0.393412 0.825523 0.360234
0.456746 0.843093 0.350608
0.537241 0.857740 0.342095
0.636205 0.871591 0.335501
0.754944 0.886770 0.331629
0.894767 0.905401 0.331284
1.000000 0.929609 0.335272
1.000000 0.961520 0.344397
0.479455 1.000000 0.558281
0.509230 1.000000 0.535518
0.557890 1.000000 0.513763
0.626742 1.000000 0.493822
0.717093 1.000000 0.476497
0.830251 1.000000 0.462595
0.967523 1.000000 0.452920
1.000000 1.000000 0.448277
1.000000 1.000000 0.449470
0.654978 1.000000 0.818656
0.664390 1.000000 0.780370
0.695718 1.000000 0.743792
0.750270 1.000000 0.709726
0.829351 1.000000 0.678976
0.934270 1.000000 0.652349
1.000000 1.000000 0.630648
1.000000 1.000000 0.614678
1.000000 1.000000 0.605244
0.057062 0.066863 0.124557
0.164746 0.094115 0.137760
0.266240 0.111691 0.145618
0.362851 0.121716 0.148936
0.455886 0.126313 0.148518
0.546653 0.127608 0.145170
0.636459 0.127726 0.139696
0.726611 0.128791 0.132900
0.818417 0.132928 0.125589
0.066528 0.138287 0.145242
0.172013 0.171767 0.163284
0.274339 0.196073 0.176681
0.374812 0.213332 0.186236
0.474741 0.225667 0.192756
0.575432 0.235204 0.197045
0.678193 0.244067 0.199907
0.784331 0.254381 0.202148
0.895153 0.268271 0.204572
0.079605 0.206283 0.155583
0.180233 0.243907 0.175769
0.280733 0.272861 0.192009
0.382412 0.295272 0.205108
0.486576 0.313262 0.215870
0.594534 0.328958 0.225100
0.707593 0.344483 0.233604
0.827059 0.361964 0.242185
0.954240 0.383524 0.251649
0.102503 0.282593 0.167881
0.195617 0.322279 0.187516
0.291634 0.353799 0.203903
0.391860 0.379279 0.217849
0.497603 0.400842 0.230159
0.610169 0.420614 0.241636
0.730868 0.440720 0.253085
0.861004 0.463284 0.265312
1.000000 0.490432 0.279121
0.141432 0.378963 0.194436
0.224374 0.418628 0.210824
0.313249 0.450631 0.224664
0.409365 0.477097 0.236763
0.514029 0.500150 0.247924
0.628547 0.521916 0.258952
0.754227 0.544520 0.270652
0.892377 0.570085 0.283829
1.000000 0.600738 0.299288
0.202600 0.507135 0.247549
0.272713 0.544697 0.257994
0.351790 0.575100 0.266593
0.441138 0.600470 0.274148
0.542064 0.622931 0.281465
0.655876 0.644608 0.289349
0.783881 0.667626 0.298605
0.927386 0.694110 0.310037
1.000000 0.726186 0.324451
0.292217 0.678853 0.339520
0.346843 0.712229 0.341328
0.413464 0.738950 0.341988
0.493386 0.761141 0.342305
0.587918 0.780927 0.343084
0.698366 0.800433 0.345129
0.826038 0.821783 0.349245
0.972241 0.847104 0.356237
1.000000 0.878519 0.366909
0.416493 0.905861 0.482649
0.452975 0.932968 0.473125
0.504481 0.953924 0.463152
0.572321 0.970854 0.453536
0.657800 0.985883 0.445080
0.762227 1.000000 0.438591
0.886909 1.000000 0.434872
1.000000 1.000000 0.434728
1.000000 1.000000 0.438965
0.581637 1.000000 0.689237
0.597316 1.000000 0.665685
0.631052 1.000000 0.642384
0.684151 1.000000 0.620139
0.757921 1.000000 0.599755
0.853668 1.000000 0.582035
0.972701 1.000000 0.567786
1.000000 1.000000 0.557812
1.000000 1.000000 0.552917
0.035332 0.057545 0.166707
0.154030 0.085687 0.180172
0.262678 0.102545 0.186836
0.362584 0.110242 0.187503
0.455055 0.110905 0.182979
0.541399 0.106658 0.174067
0.622922 0.099626 0.161574
0.700931 0.091933 0.146302
0.776735 0.085705 0.129058
0.046123 0.137393 0.205477
0.162182 0.173024 0.225277
0.271222 0.197873 0.238975
0.374551 0.214067 0.247377
0.473476 0.223729 0.251285
0.569304 0.228985 0.251506
0.663342 0.231959 0.248845
0.756898 0.234777 0.244105
0.851279 0.239563 0.238092
0.059394 0.206035 0.225100
0.170157 0.247072 0.248539
0.276932 0.277831 0.266576
0.381026 0.300437 0.280016
0.483747 0.317016 0.289663
0.586401 0.329693 0.296321
0.690297 0.340592 0.300796
0.796741 0.351837 0.303893
0.907041 0.365555 0.306416
0.081355 0.275215 0.237875
0.184164 0.319575 0.262258
0.286016 0.354161 0.281939
0.388217 0.381098 0.297722
0.492077 0.402511 0.310411
0.598901 0.420525 0.320812
0.709996 0.437266 0.329729
0.826671 0.454857 0.337967
0.950233 0.475423 0.346330
0.118215 0.356676 0.256102
0.210412 0.402276 0.278735
0.304683 0.438606 0.297364
0.402335 0.467792 0.312795
0.504675 0.491957 0.325832
0.613011 0.513226 0.337280
0.728649 0.533725 0.347943
0.852897 0.555579 0.358627
0.987063 0.580912 0.370136
0.176184 0.462162 0.292084
0.255112 0.506920 0.310270
0.339144 0.542912 0.325152
0.429589 0.572262 0.337536
0.527752 0.597097 0.348225
0.634942 0.619539 0.358024
0.752465 0.641715 0.367739
0.881629 0.665748 0.378173
1.000000 0.693765 0.390133
0.261470 0.603416 0.358119
0.324472 0.645250 0.369164
0.395608 0.678821 0.377604
0.476187 0.706254 0.384245
0.567516 0.729675 0.389891
0.670902 0.751207 0.395347
0.787653 0.772977 0.401417
0.919075 0.797108 0.408907
1.000000 0.825726 0.418621
0.380285 0.792183 0.466508
0.424702 0.829009 0.467716
0.480284 0.858077 0.467019
0.548341 0.881511 0.465222
0.630178 0.901435 0.463130
0.727103 0.919975 0.461547
0.840422 0.939256 0.461278
0.971445 0.961402 0.463129
1.000000 0.988538 0.467902
0.538836 1.000000 0.629552
0.562010 1.000000 0.618228
0.599382 1.000000 0.605699
0.652258 1.000000 0.592769
0.721946 1.000000 0.580243
0.809752 1.000000 0.568926
0.916983 1.000000 0.559623
1.000000 1.000000 0.553138
1.000000 1.000000 0.550276
0.004379 0.039610 0.185726
0.135321 0.066341 0.196947
0.252353 0.080179 0.199911
0.356783 0.083249 0.195422
0.449920 0.077677 0.184285
0.533069 0.065586 0.167304
0.607538 0.049103 0.145284
0.674634 0.030352 0.119031
0.735666 0.011457 0.089348
0.020281 0.135936 0.252825
0.148144 0.171417 0.271877
0.265128 0.194508 0.283371
0.372542 0.207336 0.288111
0.471692 0.212024 0.286903
0.563886 0.210698 0.280550
0.650430 0.205483 0.269859
0.732633 0.198504 0.255632
0.811801 0.191885 0.238677
0.037532 0.213279 0.291972
0.159658 0.255426 0.316159
0.273937 0.285689 0.333488
0.381676 0.306191 0.344762
0.484183 0.319058 0.350787
0.582763 0.326414 0.352368
0.678726 0.330384 0.350309
0.773378 0.333094 0.345415
0.868025 0.336668 0.338491
0.062341 0.283381 0.315467
0.176073 0.330113 0.342095
0.284990 0.365464 0.362562
0.390397 0.391558 0.377676
0.493602 0.410521 0.388239
0.595912 0.424476 0.395058
0.698635 0.435550 0.398936
0.803077 0.445866 0.400679
0.910547 0.457550 0.401091
0.100918 0.357987 0.335611
0.203599 0.407221 0.361983
0.304495 0.445578 0.382895
0.404912 0.475181 0.399152
0.506158 0.498157 0.411559
0.609540 0.516629 0.420920
0.716366 0.532723 0.428040
0.827942 0.548564 0.433725
0.945575 0.566276 0.438778
0.159472 0.448840 0.364705
0.248445 0.498494 0.388126
0.338662 0.537773 0.406787
0.431432 0.568804 0.421492
0.528061 0.593710 0.433046
0.629858 0.614617 0.442255
0.738128 0.633649 0.449922
0.854180 0.652931 0.456853
0.979321 0.674588 0.463852
0.244213 0.567684 0.415048
0.316819 0.615675 0.432823
0.393701 0.653795 0.446537
0.476166 0.684170 0.456996
0.565521 0.708924 0.465003
0.663074 0.730182 0.471364
0.770132 0.750070 0.476883
0.888002 0.770711 0.482365
1.000000 0.794231 0.488614
0.361351 0.726263 0.498941
0.414932 0.770508 0.508375
0.475821 0.805387 0.514448
0.545323 0.833023 0.517964
0.624747 0.855542 0.519729
0.715399 0.875070 0.520546
0.818586 0.893730 0.521222
0.935617 0.913647 0.522559
1.000000 0.936947 0.525365
0.517094 0.936321 0.628684
0.548994 0.974738 0.627082
0.591231 1.000000 0.622818
0.645113 1.000000 0.616697
0.711947 1.000000 0.609524
0.793041 1.000000 0.602103
0.889701 1.000000 0.595240
1.000000 1.000000 0.589738
1.000000 1.000000 0.586404
0.000000 0.004148 0.170696
0.099141 0.027166 0.177168
0.225786 0.035683 0.173926
0.335970 0.031825 0.161774
0.431000 0.017717 0.141518
0.512184 0.000000 0.113962
0.580829 0.000000 0.079910
0.638242 0.000000 0.040169
0.685730 0.000000 0.000000
0.000000 0.125005 0.276368
0.120420 0.158034 0.292166
0.246577 0.177067 0.298949
0.359305 0.184227 0.297523
0.459909 0.181641 0.288691
0.549698 0.171433 0.273259
0.629978 0.155727 0.252031
0.702058 0.136650 0.225812
0.767243 0.116324 0.195407
0.004540 0.219101 0.345283
0.139259 0.260059 0.367712
0.262271 0.287524 0.381825
0.374885 0.303621 0.388429
0.478406 0.310474 0.388326
0.574142 0.310209 0.382323
0.663400 0.304951 0.371223
0.747488 0.296824 0.355832
0.827713 0.287953 0.336955
0.035982 0.298180 0.389742
0.161868 0.344984 0.416106
0.279078 0.378798 0.434855
0.388919 0.401749 0.446793
0.492699 0.415959 0.452724
0.591724 0.423555 0.453455
0.687303 0.426661 0.449788
0.780743 0.427402 0.442530
0.873350 0.427903 0.432485
0.080061 0.373984 0.422046
0.194456 0.424552 0.449650
0.303205 0.462634 0.470339
0.407617 0.490355 0.484916
0.508998 0.509840 0.494186
0.608656 0.523214 0.498955
0.707898 0.532602 0.500026
0.808031 0.540129 0.498205
0.910362 0.547919 0.494297
0.142986 0.458259 0.454494
0.243232 0.510507 0.480644
0.340864 0.550774 0.500577
0.437188 0.581183 0.515098
0.533513 0.603860 0.525012
0.631145 0.620930 0.531124
0.731392 0.634518 0.534238
0.835561 0.646747 0.535159
0.944960 0.659744 0.534692
0.230967 0.562746 0.499388
0.314407 0.614593 0.521388
0.398263 0.654962 0.537870
0.483842 0.685977 0.549640
0.572453 0.709764 0.557503
0.665402 0.728447 0.562262
0.763997 0.744151 0.564724
0.869545 0.759001 0.565691
0.983352 0.775122 0.565971
0.350213 0.699191 0.569028
0.414188 0.748554 0.584183
0.481611 0.786942 0.594519
0.553789 0.816480 0.600843
0.632028 0.839294 0.603958
0.717636 0.857507 0.604670
0.811921 0.873245 0.603784
0.916190 0.888633 0.602103
1.000000 0.905796 0.600434
0.506933 0.879337 0.675715
0.548787 0.924133 0.681328
0.597119 0.958458 0.682824
0.653237 0.984437 0.681006
0.718447 1.000000 0.676679
0.794057 1.000000 0.670649
0.881374 1.000000 0.663719
0.981706 1.000000 0.656695
1.000000 1.000000 0.650381
0.000000 0.000000 0.110700
0.036011 0.000000 0.109916
0.173498 0.000000 0.097962
0.290665 0.000000 0.075642
0.388819 0.000000 0.043760
0.469267 0.000000 0.003123
0.533316 0.000000 0.000000
0.582274 0.000000 0.000000
0.617448 0.000000 0.000000
0.000000 0.095689 0.265187
0.069531 0.123966 0.275225
0.206091 0.136638 0.274792
0.325362 0.135831 0.264693
0.428650 0.123669 0.245731
0.517263 0.102277 0.218714
0.592508 0.073781 0.184444
0.655693 0.040303 0.143726
0.708124 0.003971 0.097367
0.000000 0.214592 0.374114
0.099480 0.252059 0.392278
0.232455 0.274426 0.400671
0.351172 0.283816 0.400097
0.456937 0.282355 0.391361
0.551057 0.272169 0.375268
0.634841 0.255380 0.352622
0.709594 0.234115 0.324228
0.776626 0.210499 0.290891
0.000000 0.310700 0.449780
0.132068 0.355275 0.473376
0.258800 0.385253 0.487899
0.374305 0.402758 0.494156
0.479889 0.409916 0.492949
0.576860 0.408852 0.485085
0.666524 0.401689 0.471368
0.750189 0.390554 0.452602
0.829162 0.377571 0.429593
0.046166 0.395757 0.504487
0.173503 0.445357 0.530818
0.291336 0.480863 0.548778
0.400971 0.504401 0.559169
0.503717 0.518095 0.562797
0.600879 0.524070 0.560467
0.693767 0.524451 0.552983
0.783686 0.521363 0.541151
0.871944 0.516931 0.525774
0.117247 0.481506 0.550534
0.229996 0.534049 0.576907
0.336271 0.573001 0.595606
0.437379 0.600489 0.607437
0.534629 0.618636 0.613204
0.629326 0.629568 0.613713
0.722779 0.635410 0.609768
0.816294 0.638286 0.602173
0.911179 0.640322 0.591734
0.212253 0.579691 0.600223
0.307755 0.633093 0.623941
0.399815 0.673409 0.640685
0.489739 0.702764 0.651261
0.578834 0.723282 0.656472
0.668409 0.737089 0.657124
0.759770 0.746309 0.654022
0.854224 0.753067 0.647970
0.953078 0.759489 0.639773
0.337392 0.702056 0.665853
0.412991 0.754235 0.684222
0.488178 0.793832 0.696316
0.564259 0.822971 0.702941
0.642544 0.843778 0.704901
0.724338 0.858377 0.703001
0.810949 0.868892 0.698047
0.903684 0.877450 0.690842
1.000000 0.886174 0.682191
0.498875 0.860344 0.759726
0.551912 0.909218 0.770049
0.607568 0.946013 0.774798
0.667150 0.972854 0.774777
0.731966 0.991867 0.770791
0.803321 1.000000 0.763644
0.882525 1.000000 0.754142
0.970884 1.000000 0.743089
1.000000 1.000000 0.731290
0.000000 0.000000 0.000000
0.000000 0.000000 0.000000
0.086012 0.000000 0.000000
0.211391 0.000000 0.000000
0.313897 0.000000 0.000000
0.394838 0.000000 0.000000
0.455521 0.000000 0.000000
0.497254 0.000000 0.000000
0.521343 0.000000 0.000000
0.000000 0.039076 0.208366
0.000000 0.060300 0.210138
0.134191 0.064311 0.199982
0.261234 0.053236 0.178704
0.368435 0.029197 0.147107
0.457101 0.000000 0.105997
0.528540 0.000000 0.056179
0.584060 0.000000 0.000000
0.624966 0.000000 0.000000
0.000000 0.190840 0.367547
0.030843 0.222516 0.378941
0.175010 0.237483 0.379107
0.301059 0.237866 0.368850
0.410297 0.225790 0.348974
0.504031 0.203380 0.320284
0.583569 0.172761 0.283586
0.650218 0.136058 0.239683
0.705285 0.095395 0.189381
0.000000 0.312032 0.484664
0.077195 0.352077 0.502985
0.214680 0.375917 0.510777
0.337077 0.385676 0.508846
0.445694 0.383480 0.497996
0.541838 0.371454 0.479031
0.626817 0.351723 0.452757
0.701938 0.326410 0.419978
0.768507 0.297642 0.381499
0.000000 0.414395 0.572017
0.131263 0.460726 0.594570
0.259408 0.491356 0.607293
0.375496 0.508409 0.610993
0.480835 0.514011 0.606472
0.576732 0.510286 0.594538
0.664494 0.499359 0.575993
0.745428 0.483356 0.551643
0.820842 0.464399 0.522292
0.072776 0.509673 0.641907
0.199257 0.560208 0.665996
0.315404 0.595545 0.680955
0.422526 0.617810 0.687590
0.521929 0.629126 0.686705
0.614921 0.631620 0.679104
0.702809 0.627415 0.665594
0.786899 0.618637 0.646977
0.868501 0.607411 0.624059
0.178592 0.609608 0.706634
0.287387 0.662265 0.729564
0.388879 0.700227 0.744064
0.484376 0.725620 0.750939
0.575186 0.740569 0.750993
0.662615 0.747199 0.745032
0.747971 0.747634 0.733860
0.832561 0.744000 0.718282
0.917692 0.738420 0.699102
0.313410 0.725946 0.778498
0.401861 0.778641 0.797574
0.486041 0.817146 0.808920
0.567256 0.843585 0.813340
0.646815 0.860084 0.811639
0.726023 0.868767 0.804621
0.806190 0.871759 0.793093
0.888621 0.871186 0.777857
0.974624 0.869171 0.759720
0.483440 0.870430 0.869800
0.548890 0.921081 0.882327
0.613099 0.958046 0.887823
0.677375 0.983449 0.887093
0.743025 0.999414 0.880941
0.811356 1.000000 0.870173
0.883675 1.000000 0.855592
0.961290 1.000000 0.838004
1.000000 1.000000 0.818214
0.000000 0.000000 0.000000
0.000000 0.000000 0.000000
0.000000 0.000000 0.000000
0.088667 0.000000 0.000000
0.196755 0.000000 0.000000
0.279419 0.000000 0.000000
0.337965 0.000000 0.000000
0.373701 0.000000 0.000000
0.387934 0.000000 0.000000
0.000000 0.000000 0.094986
0.000000 0.000000 0.085985
0.021398 0.000000 0.063601
0.157442 0.000000 0.028637
0.269785 0.000000 0.000000
0.359734 0.000000 0.000000
0.428597 0.000000 0.000000
0.477680 0.000000 0.000000
0.508291 0.000000 0.000000
0.000000 0.138935 0.314665
0.000000 0.162518 0.316783
0.080458 0.167785 0.306216
0.215068 0.156860 0.283769
0.329008 0.131868 0.250247
0.423586 0.094934 0.206456
0.500107 0.048183 0.153198
0.559880 0.000000 0.091281
0.604211 0.000000 0.021507
0.000000 0.293264 0.483476
0.000000 0.326478 0.494016
0.137236 0.341878 0.492571
0.267755 0.341591 0.479946
0.380635 0.327741 0.456946
0.477183 0.302452 0.424375
0.558705 0.267850 0.383038
0.626510 0.226060 0.333739
0.681904 0.179205 0.277285
0.000000 0.420986 0.613719
0.058256 0.461748 0.629986
0.197942 0.485200 0.634968
0.321713 0.493468 0.629470
0.430874 0.488677 0.614295
0.526735 0.472951 0.590249
0.610601 0.448415 0.558137
0.683780 0.417195 0.518764
0.747579 0.381414 0.472933
0.000095 0.533846 0.717694
0.141537 0.580073 0.736994
0.268786 0.609494 0.745707
0.383150 0.624235 0.744640
0.485936 0.626420 0.734596
0.578451 0.618174 0.716380
0.662003 0.601622 0.690798
0.737899 0.578889 0.658653
0.807446 0.552100 0.620751
0.120506 0.643586 0.807702
0.243822 0.693196 0.827339
0.355976 0.726504 0.837089
0.458276 0.745635 0.837757
0.552028 0.752714 0.830149
0.638541 0.749865 0.815068
0.719121 0.739214 0.793320
0.795076 0.722886 0.765709
0.867713 0.703005 0.733041
0.268788 0.761951 0.896044
0.371320 0.812861 0.913322
0.465722 0.847973 0.921413
0.553300 0.869411 0.921122
0.635362 0.879301 0.913254
0.713215 0.879768 0.898613
0.788166 0.872935 0.878004
0.861522 0.860929 0.852232
0.934591 0.845874 0.822102
0.451150 0.900685 0.995019
0.530242 0.950812 1.000000
0.604234 0.985645 1.000000
0.674433 1.000000 1.000000
0.742146 1.000000 0.996212
0.808681 1.000000 0.979315
0.875345 1.000000 0.957150
0.943445 1.000000 0.930522
1.000000 0.992451 0.900234
0.000000 0.000000 0.000000
0.000000 0.000000 0.000000
0.000000 0.000000 0.000000
0.000000 0.000000 0.000000
0.027915 0.000000 0.000000
0.113531 0.000000 0.000000
0.171169 0.000000 0.000000
0.202138 0.000000 0.000000
0.207745 0.000000 0.000000
0.000000 0.000000 0.000000
0.000000 0.000000 0.000000
0.000000 0.000000 0.000000
0.004508 0.000000 0.000000
0.123222 0.000000 0.000000
0.215683 0.000000 0.000000
0.283198 0.000000 0.000000
0.327075 0.000000 0.000000
0.348620 0.000000 0.000000
0.000000 0.049965 0.204550
0.000000 0.063154 0.194885
0.000000 0.056420 0.171079
0.083720 0.031885 0.133936
0.203592 0.000000 0.084263
0.300241 0.000000 0.022863
0.374975 0.000000 0.000000
0.429101 0.000000 0.000000
0.463927 0.000000 0.000000
0.000000 0.245484 0.435298
0.000000 0.269566 0.435551
0.016992 0.274227 0.422363
0.156862 0.261592 0.396538
0.275233 0.233786 0.358882
0.373413 0.192934 0.310198
0.452708 0.141161 0.251292
0.514427 0.080592 0.182968
0.559875 0.013350 0.106032
0.000000 0.406620 0.618674
0.000000 0.439511 0.626150
0.097461 0.453485 0.620885
0.230143 0.450667 0.603682
0.344356 0.433182 0.575347
0.441409 0.403154 0.536684
0.522608 0.362709 0.488499
0.589261 0.313970 0.431595
0.642675 0.259064 0.366779
0.000000 0.545116 0.766978
0.047356 0.584733 0.778982
0.186936 0.605938 0.778944
0.309772 0.610854 0.767668
0.417170 0.601606 0.745959
0.510438 0.580320 0.714623
0.590883 0.549120 0.674463
0.659813 0.510130 0.626284
0.718534 0.465477 0.570892
0.028515 0.672714 0.892511
0.167582 0.716976 0.906348
0.291627 0.743329 0.908842
0.401959 0.753896 0.900797
0.499884 0.750804 0.883020
0.586710 0.736177 0.856313
0.663743 0.712139 0.821484
0.732293 0.680816 0.779335
0.793664 0.644332 0.730671
0.194047 0.801160 1.000000
0.311890 0.847983 1.000000
0.417743 0.877401 1.000000
0.512913 0.891538 1.000000
0.598707 0.892518 0.998828
0.676433 0.882467 0.974057
0.747398 0.863509 0.941862
0.812909 0.837770 0.903048
0.874273 0.807374 0.858418
0.392527 0.942196 1.000000
0.486490 0.989499 1.000000
0.571493 1.000000 1.000000
0.648844 1.000000 1.000000
0.719850 1.000000 1.000000
0.785819 1.000000 1.000000
0.848057 1.000000 1.000000
0.907872 0.992736 1.000000
0.966571 0.966345 0.966433
