calib/fujify/montage_cubes/eterna_bleach_bypass_montage.cube
TITLE "Chromasmith montage fit - Eterna Bleach Bypass"
#STD->look, fit from fujify comparison montages (best-effort)
LUT_3D_SIZE 9
0.064059 0.063173 0.059279
0.118902 0.076358 0.066127
0.185195 0.085376 0.076122
0.259516 0.092958 0.088782
0.338442 0.101830 0.103625
0.418553 0.114720 0.120168
0.496427 0.134358 0.137930
0.568640 0.163470 0.156426
0.631773 0.204785 0.175176
0.071329 0.098063 0.070932
0.124370 0.119621 0.080153
0.193110 0.138719 0.095864
0.274127 0.158085 0.117584
0.363998 0.180447 0.144829
0.459303 0.208533 0.177117
0.556619 0.245072 0.213966
0.652524 0.292791 0.254893
0.743596 0.354419 0.299417
0.105414 0.156585 0.102071
0.151324 0.182938 0.110342
0.217183 0.208538 0.128447
0.299567 0.236111 0.155903
0.395055 0.268386 0.192227
0.500224 0.308091 0.236938
0.611654 0.357954 0.289552
0.725922 0.420703 0.349588
0.839606 0.499066 0.416562
0.179664 0.254050 0.164732
0.213115 0.281622 0.168731
0.270764 0.310146 0.185907
0.349186 0.342349 0.215777
0.444962 0.380960 0.257858
0.554668 0.428706 0.311669
0.674883 0.488316 0.376726
0.802185 0.562517 0.452547
0.933152 0.654038 0.538650
0.307430 0.405770 0.270952
0.323094 0.430984 0.267357
0.367203 0.458855 0.280281
0.436336 0.492111 0.309242
0.527070 0.533480 0.353758
0.635984 0.585690 0.413345
0.759655 0.651469 0.487523
0.894663 0.733545 0.575807
1.000000 0.834646 0.677715
0.502061 0.627057 0.432768
0.494609 0.646336 0.418256
0.519851 0.669977 0.423606
0.574365 0.700708 0.448336
0.654730 0.741258 0.491963
0.757523 0.794354 0.554005
0.879322 0.862725 0.633980
1.000000 0.949099 0.731405
1.000000 1.000000 0.845797
0.776910 0.933224 0.662217
0.741013 0.942989 0.633465
0.742058 0.958823 0.627919
0.776625 0.983452 0.645095
0.841291 1.000000 0.684511
0.932635 1.000000 0.745686
1.000000 1.000000 0.828135
1.000000 1.000000 0.931378
1.000000 1.000000 1.000000
1.000000 1.000000 0.971336
1.000000 1.000000 0.925022
1.000000 1.000000 0.905256
1.000000 1.000000 0.911556
1.000000 1.000000 0.943439
1.000000 1.000000 1.000000
1.000000 1.000000 1.000000
1.000000 1.000000 1.000000
1.000000 1.000000 1.000000
1.000000 1.000000 1.000000
1.000000 1.000000 1.000000
1.000000 1.000000 1.000000
1.000000 1.000000 1.000000
1.000000 1.000000 1.000000
1.000000 1.000000 1.000000
1.000000 1.000000 1.000000
1.000000 1.000000 1.000000
1.000000 1.000000 1.000000
0.031960 0.033055 0.061364
0.097558 0.054809 0.078737
0.170837 0.068201 0.095770
0.248374 0.075959 0.111977
0.326749 0.080811 0.126879
0.402539 0.085486 0.139991
0.472322 0.092711 0.150831
0.532677 0.105214 0.158917
0.580181 0.125724 0.163767
0.046021 0.080997 0.088566
0.111385 0.113091 0.106368
0.188678 0.138528 0.127172
0.274479 0.160038 0.150494
0.365366 0.180347 0.175853
0.457918 0.202184 0.202765
0.548711 0.228277 0.230748
0.634325 0.261354 0.259321
0.711337 0.304143 0.287999
0.075336 0.135236 0.125980
0.135137 0.174093 0.140889
0.211116 0.207999 0.162141
0.299852 0.239682 0.189255
0.397923 0.271871 0.221748
0.501907 0.307293 0.259138
0.608382 0.348677 0.300942
0.713926 0.398750 0.346678
0.815117 0.460241 0.395863
0.133256 0.211086 0.185643
0.182165 0.253128 0.194335
0.251502 0.291925 0.212714
0.337844 0.330205 0.240297
0.437770 0.370696 0.276602
0.547858 0.416125 0.321147
0.664685 0.469222 0.373449
0.784831 0.532715 0.433025
0.904873 0.609330 0.499394
0.233130 0.323856 0.279592
0.265820 0.365506 0.278745
0.323185 0.405617 0.290927
0.401805 0.446916 0.315657
0.498257 0.492132 0.352452
0.609120 0.543992 0.400829
0.730972 0.605226 0.460306
0.860391 0.678559 0.530401
0.993954 0.766722 0.610630
0.388310 0.488860 0.419864
0.399450 0.526541 0.406154
0.439516 0.564388 0.408818
0.505085 0.605129 0.427372
0.592735 0.651493 0.461333
0.699045 0.706206 0.510220
0.820592 0.771998 0.573550
0.953955 0.851596 0.650840
1.000000 0.947728 0.741609
0.612145 0.721409 0.618495
0.596408 0.751543 0.588601
0.613845 0.783550 0.578423
0.661034 0.820155 0.587478
0.734554 0.864089 0.615284
0.830981 0.918078 0.661358
0.946895 0.984852 0.725218
1.000000 1.000000 0.806382
1.000000 1.000000 0.904366
0.917987 1.000000 0.887522
0.870043 1.000000 0.838121
0.859523 1.000000 0.811779
0.883004 1.000000 0.808013
0.937064 1.000000 0.826341
1.000000 1.000000 0.866280
1.000000 1.000000 0.927347
1.000000 1.000000 1.000000
1.000000 1.000000 1.000000
1.000000 1.000000 1.000000
1.000000 1.000000 1.000000
1.000000 1.000000 1.000000
1.000000 1.000000 1.000000
1.000000 1.000000 1.000000
1.000000 1.000000 1.000000
1.000000 1.000000 1.000000
1.000000 1.000000 1.000000
1.000000 1.000000 1.000000
0.001076 0.000000 0.056646
0.073004 0.020908 0.086215
0.148844 0.035012 0.111954
0.225173 0.039285 0.133378
0.298571 0.036457 0.150006
0.365615 0.029254 0.161356
0.422884 0.020405 0.166944
0.466955 0.012638 0.166289
0.494406 0.008681 0.158908
0.032722 0.070407 0.109534
0.105983 0.109375 0.137587
0.187405 0.137491 0.165152
0.273566 0.157483 0.191747
0.361044 0.172077 0.216887
0.446417 0.184004 0.240092
0.526263 0.195989 0.260879
0.597160 0.210762 0.278765
0.655687 0.231051 0.293268
0.068061 0.135531 0.163361
0.137327 0.183229 0.186575
0.219003 0.221780 0.212644
0.309666 0.253912 0.241086
0.405895 0.282352 0.271416
0.504268 0.309830 0.303154
0.601363 0.339073 0.335817
0.693758 0.372809 0.368921
0.778032 0.413766 0.401986
0.120444 0.204930 0.230163
0.180386 0.257781 0.245216
0.256986 0.303189 0.266466
0.346823 0.343884 0.293432
0.446475 0.382594 0.325630
0.552520 0.422046 0.362578
0.661535 0.464969 0.403794
0.770099 0.514091 0.448794
0.874791 0.572139 0.497098
0.203221 0.293917 0.321977
0.248510 0.348342 0.325546
0.314707 0.397031 0.338655
0.398389 0.442712 0.360823
0.496135 0.488113 0.391566
0.604522 0.535963 0.430401
0.720129 0.588988 0.476847
0.839534 0.649918 0.530422
0.959315 0.721480 0.590641
0.329742 0.417804 0.450840
0.355050 0.470226 0.439602
0.405514 0.518618 0.441248
0.477713 0.565707 0.455295
0.568224 0.614223 0.481260
0.673625 0.666892 0.518660
0.790495 0.726443 0.567015
0.915412 0.795603 0.625840
1.000000 0.877102 0.694653
0.513358 0.591901 0.628789
0.513356 0.638743 0.599422
0.542759 0.683261 0.586282
0.598146 0.728182 0.588885
0.676093 0.776234 0.606749
0.773180 0.830145 0.639393
0.885985 0.892644 0.686332
1.000000 0.966459 0.747085
1.000000 1.000000 0.821170
0.767419 0.831521 0.867861
0.736778 0.869206 0.817042
0.739792 0.906272 0.785793
0.773037 0.945447 0.773630
0.833093 0.989459 0.780072
0.916537 1.000000 0.804635
1.000000 1.000000 0.846837
1.000000 1.000000 0.906196
1.000000 1.000000 0.982229
1.000000 1.000000 1.000000
1.000000 1.000000 1.000000
1.000000 1.000000 1.000000
1.000000 1.000000 1.000000
1.000000 1.000000 1.000000
1.000000 1.000000 1.000000
1.000000 1.000000 1.000000
1.000000 1.000000 1.000000
1.000000 1.000000 1.000000
0.000000 0.000000 0.027755
0.035143 0.000000 0.071189
0.109119 0.000000 0.107303
0.179816 0.000000 0.135613
0.243812 0.000000 0.155637
0.297685 0.000000 0.166894
0.338014 0.000000 0.168899
0.361376 0.000000 0.161172
0.364350 0.000000 0.143228
0.021334 0.051609 0.116466
0.098068 0.093791 0.156439
0.179194 0.120923 0.192435
0.261289 0.135735 0.223970
0.340933 0.140954 0.250562
0.414703 0.139308 0.271729
0.479177 0.133524 0.286988
0.530933 0.126332 0.295857
0.566550 0.120459 0.297853
0.073491 0.142784 0.196842
0.147797 0.195661 0.230031
0.230744 0.235196 0.262586
0.318909 0.264115 0.294023
0.408872 0.285146 0.323861
0.497209 0.301018 0.351615
0.580500 0.314459 0.376805
0.655321 0.328196 0.398948
0.718252 0.344958 0.417561
0.131130 0.220900 0.280919
0.197680 0.280896 0.304002
0.277119 0.329255 0.329794
0.366026 0.368704 0.357811
0.460979 0.401970 0.387570
0.558555 0.431783 0.418591
0.655334 0.460871 0.450389
0.747892 0.491960 0.482483
0.832809 0.527780 0.514390
0.207603 0.301269 0.380735
0.261068 0.364807 0.390389
0.331671 0.418413 0.406095
0.415990 0.464814 0.427369
0.510604 0.506739 0.453729
0.612091 0.546916 0.484692
0.717029 0.588072 0.519776
0.821995 0.632937 0.558499
0.923569 0.684237 0.600377
0.316259 0.399204 0.508326
0.351310 0.462706 0.501229
0.407748 0.517981 0.503526
0.482152 0.567758 0.514735
0.571099 0.614763 0.534372
0.671167 0.661727 0.561955
0.778935 0.711375 0.597003
0.890981 0.766437 0.639031
1.000000 0.829640 0.687559
0.470449 0.530016 0.675729
0.481757 0.589905 0.648559
0.518702 0.643272 0.634125
0.577861 0.692847 0.631945
0.655812 0.741356 0.641537
0.749134 0.791528 0.662418
0.854404 0.846091 0.694106
0.968200 0.907773 0.736118
1.000000 0.979302 0.787972
0.683523 0.709017 0.894982
0.665760 0.761715 0.844415
0.677883 0.809598 0.809927
0.716468 0.855393 0.791037
0.778095 0.901828 0.787261
0.859341 0.951632 0.798117
0.956785 1.000000 0.823123
1.000000 1.000000 0.861796
1.000000 1.000000 0.913654
0.968831 0.951519 1.000000
0.916669 0.993449 1.000000
0.898641 1.000000 1.000000
0.911325 1.000000 1.000000
0.951298 1.000000 0.983581
1.000000 1.000000 0.981090
1.000000 1.000000 0.996091
1.000000 1.000000 1.000000
1.000000 1.000000 1.000000
0.000000 0.000000 0.000000
0.000000 0.000000 0.016289
0.041563 0.000000 0.064447
0.102202 0.000000 0.101312
0.152372 0.000000 0.126401
0.188650 0.000000 0.139233
0.207614 0.000000 0.139325
0.205843 0.000000 0.126194
0.179915 0.000000 0.099357
0.001759 0.009918 0.091991
0.077541 0.051652 0.145553
0.153945 0.074140 0.191648
0.227551 0.080111 0.229793
0.294935 0.072292 0.259506
0.352677 0.053412 0.280303
0.397354 0.026198 0.291704
0.425545 0.000000 0.293224
0.433827 0.000000 0.284383
0.081527 0.142310 0.209052
0.156448 0.196706 0.253886
0.236242 0.233562 0.294595
0.317485 0.255607 0.330698
0.396756 0.265567 0.361711
0.470633 0.266172 0.387151
0.535694 0.260149 0.406538
0.588517 0.250226 0.419388
0.625681 0.239132 0.425218
0.155217 0.244309 0.320541
0.223949 0.307791 0.353324
0.301803 0.355438 0.385325
0.385354 0.389978 0.416063
0.471183 0.414141 0.445053
0.555867 0.430653 0.471815
0.635983 0.442243 0.495865
0.708111 0.451639 0.516721
0.768828 0.461569 0.533901
0.236179 0.331228 0.438495
0.293394 0.400217 0.455905
0.363978 0.455078 0.475875
0.444510 0.498538 0.497925
0.531568 0.533325 0.521570
0.621730 0.562167 0.546330
0.711573 0.587793 0.571721
0.797676 0.612931 0.597261
0.876617 0.640308 0.622468
0.337763 0.418377 0.574951
0.378132 0.489297 0.573664
0.436119 0.547794 0.578282
0.508303 0.596596 0.588321
0.591261 0.638431 0.603299
0.681572 0.676026 0.622734
0.775813 0.712111 0.646144
0.870563 0.749412 0.673045
0.962400 0.790659 0.702956
0.473320 0.521070 0.741946
0.491515 0.590343 0.718640
0.531576 0.648899 0.704582
0.590083 0.699465 0.699288
0.663612 0.744770 0.702276
0.748744 0.787541 0.713064
0.842055 0.830507 0.731170
0.940123 0.876396 0.756110
1.000000 0.927935 0.787402
0.656201 0.654618 0.951516
0.646892 0.718667 0.902869
0.663699 0.773705 0.866812
0.703199 0.822458 0.842863
0.761972 0.867656 0.830539
0.836596 0.912025 0.829357
0.923647 0.958295 0.838836
1.000000 1.000000 0.858492
1.000000 1.000000 0.887844
0.899755 0.834332 1.000000
0.857614 0.889581 1.000000
0.845838 0.937522 1.000000
0.861004 0.980886 1.000000
0.899691 1.000000 1.000000
0.958478 1.000000 0.983649
1.000000 1.000000 0.981179
1.000000 1.000000 0.992229
1.000000 1.000000 1.000000
0.000000 0.000000 0.000000
0.000000 0.000000 0.000000
0.000000 0.000000 0.000000
0.000000 0.000000 0.013104
0.014154 0.000000 0.044928
0.028412 0.000000 0.061004
0.021587 0.000000 0.060851
0.000000 0.000000 0.043985
0.000000 0.000000 0.009925
0.000000 0.000000 0.018739
0.034303 0.000000 0.087559
0.101562 0.000000 0.145422
0.162253 0.000000 0.191846
0.212954 0.000000 0.226348
0.250243 0.000000 0.248446
0.270698 0.000000 0.257656
0.270898 0.000000 0.253498
0.247420 0.000000 0.235487
0.082071 0.119426 0.182622
0.153183 0.171679 0.240769
0.225398 0.202195 0.291302
0.295294 0.213704 0.333738
0.359449 0.208932 0.367596
0.414440 0.190608 0.392392
0.456847 0.161459 0.407644
0.483247 0.124215 0.412870
0.490219 0.081602 0.407586
0.182605 0.260474 0.331659
0.249096 0.323779 0.375810
0.320938 0.367053 0.415691
0.394710 0.393024 0.450817
0.466990 0.404421 0.480707
0.534356 0.403971 0.504879
0.593386 0.394403 0.522850
0.640658 0.378444 0.534138
0.672750 0.358822 0.538259
0.278850 0.369108 0.477888
0.335391 0.439887 0.504721
0.401532 0.492341 0.530625
0.473852 0.529198 0.555119
0.548928 0.553186 0.577720
0.623340 0.567033 0.597945
0.693664 0.573467 0.615313
0.756479 0.575216 0.629339
0.808363 0.575008 0.639543
0.384156 0.460638 0.633345
0.425419 0.535315 0.639537
0.480530 0.593372 0.648143
0.546069 0.637538 0.658682
0.618614 0.670540 0.670671
0.694742 0.695106 0.683627
0.771031 0.713965 0.697068
0.844061 0.729845 0.710511
0.910408 0.745474 0.723474
0.511875 0.550378 0.810067
0.532530 0.625375 0.792295
0.571283 0.685457 0.780281
0.624712 0.733354 0.773543
0.689396 0.771793 0.771596
0.761912 0.803502 0.773961
0.838839 0.831209 0.780152
0.916755 0.857642 0.789690
0.992237 0.885529 0.802089
0.675356 0.653639 1.000000
0.670075 0.725378 0.975033
0.687141 0.783909 0.939076
0.723132 0.831960 0.911737
0.774627 0.872258 0.892534
0.838202 0.907531 0.880983
0.910437 0.940509 0.876604
0.987910 0.973918 0.878912
1.000000 1.000000 0.887426
0.887950 0.785733 1.000000
0.851404 0.850637 1.000000
0.841454 0.904039 1.000000
0.854679 0.948666 1.000000
0.887655 0.987246 1.000000
0.936962 1.000000 1.000000
0.999176 1.000000 0.998458
1.000000 1.000000 0.990216
1.000000 1.000000 0.991522
0.000000 0.000000 0.000000
0.000000 0.000000 0.000000
0.000000 0.000000 0.000000
0.000000 0.000000 0.000000
0.000000 0.000000 0.000000
0.000000 0.000000 0.000000
0.000000 0.000000 0.000000
0.000000 0.000000 0.000000
0.000000 0.000000 0.000000
0.000000 0.000000 0.000000
0.000000 0.000000 0.000000
0.011946 0.000000 0.036387
0.055297 0.000000 0.092758
0.084889 0.000000 0.133719
0.097301 0.000000 0.158785
0.089109 0.000000 0.167475
0.056893 0.000000 0.159306
0.000000 0.000000 0.133796
0.065026 0.059446 0.100181
0.127904 0.105895 0.173310
0.188116 0.126410 0.235335
0.242239 0.123721 0.285774
0.286853 0.100555 0.324145
0.318535 0.059641 0.349966
0.333862 0.003706 0.362752
0.329414 0.000000 0.362023
0.301769 0.000000 0.347295
0.203197 0.254710 0.296902
0.263021 0.314177 0.354091
0.324428 0.349416 0.403519
0.383996 0.363157 0.444704
0.438302 0.358126 0.477163
0.483925 0.337053 0.500414
0.517444 0.302664 0.513975
0.535435 0.257688 0.517362
0.534478 0.204854 0.510095
0.325519 0.400225 0.481542
0.376960 0.469133 0.519468
0.434234 0.515519 0.552975
0.493916 0.542112 0.581583
0.552587 0.551639 0.604808
0.606823 0.546829 0.622167
0.653203 0.530410 0.633180
0.688305 0.505109 0.637362
0.708707 0.473654 0.634231
0.445341 0.511303 0.666137
0.483071 0.586075 0.681476
0.530882 0.640030 0.695741
0.585352 0.675898 0.708449
0.643058 0.696406 0.719117
0.700578 0.704282 0.727262
0.754492 0.702254 0.732403
0.801376 0.693051 0.734057
0.837809 0.679400 0.731742
0.576014 0.603256 0.862723
0.594705 0.680314 0.852154
0.627725 0.738262 0.843854
0.671653 0.779828 0.837339
0.723065 0.807739 0.832127
0.778542 0.824724 0.827736
0.834659 0.833511 0.823683
0.887997 0.836827 0.819487
0.935132 0.837401 0.814663
0.730889 0.691396 1.000000
0.725211 0.767164 1.000000
0.738112 0.825526 1.000000
0.766169 0.869212 0.980289
0.805960 0.900950 0.955876
0.854063 0.923466 0.935625
0.907057 0.939490 0.919056
0.961519 0.951749 0.905686
1.000000 0.962972 0.895032
0.923316 0.791035 1.000000
0.887941 0.861934 1.000000
0.875393 0.917135 1.000000
0.882251 0.959364 1.000000
0.905091 0.991350 1.000000
0.940493 1.000000 1.000000
0.985034 1.000000 1.000000
1.000000 1.000000 1.000000
1.000000 1.000000 0.984886
0.000000 0.000000 0.000000
0.000000 0.000000 0.000000
0.000000 0.000000 0.000000
0.000000 0.000000 0.000000
0.000000 0.000000 0.000000
0.000000 0.000000 0.000000
0.000000 0.000000 0.000000
0.000000 0.000000 0.000000
0.000000 0.000000 0.000000
0.000000 0.000000 0.000000
0.000000 0.000000 0.000000
0.000000 0.000000 0.000000
0.000000 0.000000 0.000000
0.000000 0.000000 0.000000
0.000000 0.000000 0.000000
0.000000 0.000000 0.003789
0.000000 0.000000 0.000000
0.000000 0.000000 0.000000
0.020294 0.000000 0.000000
0.070512 0.000000 0.034137
0.114296 0.000000 0.109324
0.148223 0.000000 0.169436
0.168870 0.000000 0.213989
0.172817 0.000000 0.242502
0.156641 0.000000 0.254493
0.116920 0.000000 0.249477
0.050233 0.000000 0.226974
0.206896 0.212333 0.198900
0.255628 0.264300 0.270795
0.302174 0.287843 0.331440
0.343113 0.285691 0.380352
0.375020 0.260572 0.417049
0.394476 0.215213 0.441048
0.398058 0.152343 0.451868
0.382344 0.074689 0.449025
0.343913 0.000000 0.432037
0.366087 0.409895 0.432087
0.408005 0.473270 0.482774
0.451985 0.509927 0.525554
0.494606 0.522594 0.559944
0.532446 0.513999 0.585462
0.562082 0.486870 0.601625
0.580093 0.443935 0.607951
0.583058 0.387923 0.603958
0.567553 0.321561 0.589162
0.511218 0.555686 0.655956
0.540993 0.626892 0.682112
0.577078 0.673085 0.703704
0.616053 0.696994 0.720250
0.654496 0.701346 0.731266
0.688984 0.688870 0.736270
0.716096 0.662294 0.734781
0.732410 0.624345 0.726314
0.734504 0.577753 0.710389
0.655640 0.665019 0.882542
0.667942 0.740478 0.880846
0.690804 0.792629 0.877928
0.720805 0.824202 0.873306
0.754522 0.837925 0.866498
0.788533 0.836524 0.857021
0.819417 0.822729 0.844392
0.843752 0.799267 0.828130
0.858116 0.768867 0.807752
0.812702 0.753204 1.000000
0.802203 0.829339 1.000000
0.806514 0.883872 1.000000
0.822211 0.919532 1.000000
0.845874 0.939047 1.000000
0.874080 0.945145 0.975913
0.903407 0.940553 0.948824
0.930435 0.928001 0.921443
0.951739 0.910215 0.893290
0.995755 0.835555 1.000000
0.957127 0.908788 1.000000
0.937557 0.962125 1.000000
0.933622 0.998295 1.000000
0.941902 1.000000 1.000000
0.958974 1.000000 1.000000
0.981416 1.000000 1.000000
1.000000 1.000000 1.000000
1.000000 1.000000 0.979039
0.000000 0.000000 0.000000
0.000000 0.000000 0.000000
0.000000 0.000000 0.000000
0.000000 0.000000 0.000000
0.000000 0.000000 0.000000
0.000000 0.000000 0.000000
0.000000 0.000000 0.000000
0.000000 0.000000 0.000000
0.000000 0.000000 0.000000
0.000000 0.000000 0.000000
0.000000 0.000000 0.000000
0.000000 0.000000 0.000000
0.000000 0.000000 0.000000
0.000000 0.000000 0.000000
0.000000 0.000000 0.000000
0.000000 0.000000 0.000000
0.000000 0.000000 0.000000
0.000000 0.000000 0.000000
0.000000 0.000000 0.000000
0.000000 0.000000 0.000000
0.000000 0.000000 0.000000
0.003146 0.000000 0.000000
0.000000 0.000000 0.019757
0.000000 0.000000 0.052632
0.000000 0.000000 0.065494
0.000000 0.000000 0.057862
0.000000 0.000000 0.029252
0.183602 0.118658 0.020282
0.216818 0.159464 0.108552
0.244079 0.167650 0.182082
0.261963 0.145944 0.240391
0.267048 0.097074 0.282994
0.255911 0.023768 0.309411
0.225132 0.000000 0.319158
0.171288 0.000000 0.311753
0.090957 0.000000 0.286714
0.390457 0.383434 0.312153
0.418426 0.437614 0.377270
0.444689 0.460880 0.430991
0.465823 0.455960 0.472833
0.478406 0.425581 0.502313
0.479018 0.372472 0.518948
0.464236 0.299361 0.522257
0.430638 0.208975 0.511757
0.374801 0.104044 0.486966
0.571691 0.579105 0.585432
0.589084 0.643082 0.624074
0.609020 0.677851 0.654663
0.628075 0.686139 0.676715
0.642830 0.670674 0.689748
0.649861 0.634184 0.693280
0.645747 0.579398 0.686829
0.627066 0.509043 0.669911
0.590395 0.425848 0.642044
0.740655 0.720983 0.852155
0.742143 0.791180 0.861000
0.750423 0.833874 0.865133
0.762071 0.851793 0.864073
0.773668 0.847665 0.857338
0.781790 0.824217 0.844443
0.783015 0.784179 0.824909
0.773922 0.730277 0.798251
0.751090 0.665241 0.763987
0.910698 0.824380 1.000000
0.890953 0.897220 1.000000
0.882248 0.944262 1.000000
0.881161 0.968234 1.000000
0.884271 0.971865 1.000000
0.888155 0.957883 0.984475
0.889391 0.929015 0.948534
0.884558 0.887989 0.908813
0.870234 0.837534 0.864830
1.000000 0.904608 1.000000
1.000000 0.976513 1.000000
1.000000 1.000000 1.000000
0.998695 1.000000 1.000000
0.987989 1.000000 1.000000
0.982307 1.000000 1.000000
0.978226 1.000000 1.000000
0.972324 0.997490 1.000000
0.961180 0.958040 0.956610
