calib/fujify/montage_cubes/eterna_bleach_bypass_montage.cube
TITLE "Chromasmith montage fit - Eterna Bleach Bypass"
#STD->look, fit from fujify comparison montages (best-effort)
LUT_3D_SIZE 33
0.064059 0.063173 0.059279
0.076510 0.067009 0.060670
0.089836 0.070457 0.062279
0.103984 0.073559 0.064101
0.118902 0.076358 0.066127
0.134536 0.078896 0.068349
0.150831 0.081217 0.070761
0.167735 0.083363 0.073354
0.185195 0.085376 0.076122
0.203156 0.087300 0.079056
0.221566 0.089176 0.082149
0.240370 0.091048 0.085393
0.259516 0.092958 0.088782
0.278949 0.094948 0.092307
0.298617 0.097062 0.095961
0.318466 0.099342 0.099736
0.338442 0.101830 0.103625
0.358493 0.104569 0.107620
0.378564 0.107602 0.111714
0.398602 0.110972 0.115899
0.418553 0.114720 0.120168
0.438365 0.118891 0.124513
0.457984 0.123525 0.128927
0.477355 0.128667 0.133401
0.496427 0.134358 0.137930
0.515144 0.140641 0.142504
0.533455 0.147559 0.147116
0.551305 0.155155 0.151759
0.568640 0.163470 0.156426
0.585409 0.172548 0.161109
0.601556 0.182432 0.165799
0.617028 0.193163 0.170491
0.631773 0.204785 0.175176
0.064093 0.070518 0.061024
0.076456 0.074921 0.062562
0.089761 0.078962 0.064372
0.103955 0.082685 0.066446
0.118985 0.086131 0.068776
0.134797 0.089343 0.071356
0.151337 0.092365 0.074176
0.168552 0.095237 0.077231
0.186389 0.098005 0.080512
0.204794 0.100709 0.084012
0.223714 0.103392 0.087723
0.243095 0.106097 0.091637
0.262883 0.108867 0.095748
0.283026 0.111745 0.100048
0.303470 0.114772 0.104529
0.324161 0.117992 0.109183
0.345046 0.121447 0.114003
0.366071 0.125180 0.118982
0.387183 0.129234 0.124112
0.408329 0.133650 0.129385
0.429455 0.138472 0.134794
0.450507 0.143743 0.140332
0.471432 0.149504 0.145990
0.492177 0.155799 0.151762
0.512688 0.162671 0.157639
0.532912 0.170161 0.163615
0.552795 0.178312 0.169681
0.572284 0.187168 0.175830
0.591324 0.196770 0.182055
0.609864 0.207161 0.188348
0.627849 0.218385 0.194701
0.645226 0.230483 0.201108
0.661941 0.243498 0.207559
0.065177 0.078621 0.063423
0.077369 0.083536 0.065057
0.090570 0.088115 0.067015
0.104726 0.092402 0.069289
0.119785 0.096439 0.071872
0.135691 0.100270 0.074756
0.152393 0.103936 0.077934
0.169836 0.107480 0.081398
0.187967 0.110945 0.085140
0.206733 0.114373 0.089154
0.226079 0.117808 0.093431
0.245954 0.121291 0.097964
0.266302 0.124866 0.102745
0.287071 0.128574 0.107768
0.308207 0.132459 0.113023
0.329657 0.136564 0.118505
0.351367 0.140930 0.124205
0.373284 0.145601 0.130115
0.395355 0.150618 0.136229
0.417525 0.156026 0.142538
0.439741 0.161866 0.149036
0.461951 0.168181 0.155714
0.484100 0.175013 0.162565
0.506134 0.182406 0.169582
0.528002 0.190401 0.176756
0.549648 0.199042 0.184081
0.571020 0.208371 0.191549
0.592064 0.218431 0.199153
0.612727 0.229264 0.206884
0.632955 0.240913 0.214735
0.652695 0.253421 0.222699
0.671893 0.266830 0.230768
0.690496 0.281182 0.238935
0.067519 0.087723 0.066663
0.079458 0.093093 0.068341
0.092471 0.098155 0.070395
0.106507 0.102950 0.072818
0.121510 0.107523 0.075601
0.137429 0.111915 0.078738
0.154208 0.116170 0.082221
0.171796 0.120330 0.086043
0.190138 0.124436 0.090195
0.209181 0.128534 0.094670
0.228871 0.132663 0.099462
0.249155 0.136869 0.104561
0.269980 0.141192 0.109961
0.291292 0.145675 0.115654
0.313037 0.150362 0.121633
0.335163 0.155295 0.127890
0.357615 0.160517 0.134417
0.380341 0.166069 0.141207
0.403286 0.171995 0.148253
0.426397 0.178338 0.155547
0.449621 0.185140 0.163081
0.472904 0.192443 0.170847
0.496194 0.200290 0.178840
0.519435 0.208725 0.187049
0.542576 0.217788 0.195469
0.565562 0.227524 0.204092
0.588340 0.237975 0.212910
0.610856 0.249183 0.221915
0.633058 0.261191 0.231100
0.654891 0.274042 0.240458
0.676302 0.287778 0.249981
0.697237 0.302442 0.259662
0.717644 0.318076 0.269492
0.071329 0.098063 0.070932
0.082930 0.103832 0.072603
0.095673 0.109320 0.074701
0.109504 0.114569 0.077221
0.124370 0.119621 0.080153
0.140217 0.124519 0.083491
0.156992 0.129307 0.087227
0.174640 0.134026 0.091354
0.193110 0.138719 0.095864
0.212347 0.143428 0.100750
0.232298 0.148198 0.106003
0.252909 0.153069 0.111617
0.274127 0.158085 0.117584
0.295898 0.163288 0.123896
0.318170 0.168721 0.130546
0.340887 0.174426 0.137526
0.363998 0.180447 0.144829
0.387449 0.186825 0.152447
0.411185 0.193604 0.160373
0.435155 0.200826 0.168598
0.459303 0.208533 0.177117
0.483577 0.216769 0.185921
0.507923 0.225576 0.195002
0.532288 0.234996 0.204353
0.556619 0.245072 0.213966
0.580861 0.255847 0.223834
0.604962 0.267364 0.233950
0.628867 0.279664 0.244306
0.652524 0.292791 0.254893
0.675879 0.306788 0.265706
0.698878 0.321696 0.276736
0.721468 0.337559 0.287975
0.743596 0.354419 0.299417
0.076815 0.109880 0.076420
0.087996 0.115993 0.078031
0.100385 0.121851 0.080121
0.113928 0.127496 0.082685
0.128573 0.132972 0.085715
0.144265 0.138321 0.089202
0.160951 0.143585 0.093140
0.178578 0.148807 0.097520
0.197092 0.154031 0.102336
0.216440 0.159297 0.107579
0.236567 0.164650 0.113243
0.257422 0.170131 0.119319
0.278950 0.175784 0.125801
0.301098 0.181650 0.132680
0.323812 0.187773 0.139949
0.347039 0.194196 0.147601
0.370725 0.200960 0.155627
0.394818 0.208108 0.164021
0.419262 0.215684 0.172775
0.444006 0.223729 0.181882
0.468996 0.232286 0.191333
0.494177 0.241398 0.201121
0.519497 0.251108 0.211239
0.544903 0.261458 0.221680
0.570340 0.272491 0.232435
0.595755 0.284250 0.243497
0.621095 0.296776 0.254859
0.646306 0.310113 0.266512
0.671335 0.324303 0.278451
0.696128 0.339389 0.290666
0.720633 0.355414 0.303151
0.744794 0.372420 0.315897
0.768560 0.390450 0.328898
0.084185 0.123413 0.083314
0.094863 0.129814 0.084812
0.106814 0.135986 0.086844
0.119987 0.141972 0.089401
0.134327 0.147816 0.092475
0.149781 0.153559 0.096059
0.166296 0.159244 0.100146
0.183817 0.164914 0.104729
0.202292 0.170612 0.109798
0.221667 0.176379 0.115348
0.241889 0.182259 0.121370
0.262904 0.188295 0.127857
0.284659 0.194529 0.134801
0.307100 0.201003 0.142195
0.330173 0.207760 0.150032
0.353826 0.214843 0.158303
0.378005 0.222294 0.167001
0.402656 0.230157 0.176119
0.427725 0.238473 0.185650
0.453161 0.247286 0.195584
0.478908 0.256637 0.205916
0.504914 0.266570 0.216637
0.531124 0.277128 0.227741
0.557486 0.288352 0.239219
0.583947 0.300285 0.251063
0.610452 0.312971 0.263267
0.636948 0.326451 0.275823
0.663381 0.340769 0.288723
0.689699 0.355966 0.301960
0.715848 0.372086 0.315526
0.741774 0.389172 0.329414
0.767423 0.407265 0.343616
0.792743 0.426409 0.358124
0.093648 0.138901 0.091801
0.103739 0.145534 0.093136
0.115170 0.151965 0.095056
0.127889 0.158236 0.097554
0.141841 0.164392 0.100621
0.156974 0.170473 0.104251
0.173234 0.176523 0.108436
0.190567 0.182585 0.113168
0.208920 0.188701 0.118439
0.228239 0.194914 0.124243
0.248471 0.201266 0.130572
0.269563 0.207799 0.137417
0.291461 0.214558 0.144772
0.314112 0.221584 0.152630
0.337462 0.228919 0.160982
0.361457 0.236607 0.169820
0.386045 0.244690 0.179139
0.411171 0.253211 0.188929
0.436783 0.262212 0.199183
0.462826 0.271736 0.209895
0.489248 0.281826 0.221055
0.515994 0.292524 0.232658
0.543012 0.303873 0.244694
0.570248 0.315915 0.257157
0.597649 0.328693 0.270040
0.625160 0.342250 0.283334
0.652729 0.356628 0.297032
0.680302 0.371871 0.311126
0.707825 0.388020 0.325610
0.735246 0.405118 0.340475
0.762510 0.423208 0.355714
0.789565 0.442333 0.371319
0.816356 0.462534 0.387283
0.105414 0.156585 0.102071
0.114834 0.163393 0.103190
0.125662 0.170026 0.104947
0.137843 0.176527 0.107334
0.151324 0.182938 0.110342
0.166053 0.189302 0.113965
0.181974 0.195662 0.118195
0.199035 0.202060 0.123025
0.217183 0.208538 0.128447
0.236363 0.215140 0.134453
0.256523 0.221907 0.141036
0.277609 0.228884 0.148189
0.299567 0.236111 0.155903
0.322344 0.243633 0.164171
0.345887 0.251491 0.172987
0.370141 0.259728 0.182341
0.395055 0.268386 0.192227
0.420573 0.277509 0.202638
0.446643 0.287140 0.213565
0.473211 0.297319 0.225001
0.500224 0.308091 0.236938
0.527629 0.319498 0.249370
0.555371 0.331583 0.262287
0.583397 0.344387 0.275684
0.611654 0.357954 0.289552
0.640089 0.372327 0.303884
0.668647 0.387547 0.318673
0.697276 0.403659 0.333910
0.725922 0.420703 0.349588
0.754531 0.438723 0.365700
0.783051 0.457762 0.382238
0.811427 0.477862 0.399195
0.839606 0.499066 0.416562
0.119689 0.176702 0.114311
0.128356 0.183630 0.115163
0.138497 0.190410 0.116704
0.150058 0.197084 0.118928
0.162985 0.203696 0.121825
0.177225 0.210286 0.125390
0.192725 0.216899 0.129614
0.209431 0.223577 0.134490
0.227290 0.230362 0.140010
0.246248 0.237297 0.146166
0.266252 0.244424 0.152952
0.287248 0.251787 0.160359
0.309183 0.259428 0.168380
0.332004 0.267389 0.177008
0.355656 0.275714 0.186235
0.380087 0.284444 0.196053
0.405243 0.293622 0.206456
0.431070 0.303292 0.217434
0.457515 0.313495 0.228982
0.484525 0.324274 0.241090
0.512046 0.335673 0.253753
0.540025 0.347733 0.266961
0.568407 0.360497 0.280709
0.597141 0.374008 0.294987
0.626172 0.388308 0.309789
0.655446 0.403440 0.325107
0.684911 0.419447 0.340934
0.714513 0.436371 0.357262
0.744198 0.454255 0.374083
0.773912 0.473142 0.391390
0.803604 0.493073 0.409175
0.833218 0.514093 0.427431
0.862702 0.536243 0.446151
0.136684 0.199492 0.128709
0.144514 0.206485 0.129241
0.153884 0.213356 0.130516
0.164741 0.220147 0.132524
0.177031 0.226903 0.135259
0.190700 0.233664 0.138713
0.205695 0.240474 0.142879
0.221963 0.247376 0.147749
0.239450 0.254411 0.153315
0.258103 0.261624 0.159570
0.277868 0.269055 0.166506
0.298691 0.276749 0.174117
0.320520 0.284747 0.182393
0.343300 0.293092 0.191328
0.366979 0.301827 0.200915
0.391503 0.310995 0.211145
0.416817 0.320637 0.222011
0.442870 0.330797 0.233506
0.469608 0.341517 0.245622
0.496976 0.352841 0.258352
0.524921 0.364810 0.271687
0.553391 0.377467 0.285621
0.582331 0.390855 0.300146
0.611689 0.405016 0.315254
0.641410 0.419993 0.330938
0.671441 0.435829 0.347191
0.701729 0.452566 0.364004
0.732220 0.470247 0.381370
0.762861 0.488915 0.399282
0.793598 0.508612 0.417732
0.824378 0.529381 0.436713
0.855147 0.551264 0.456217
0.885852 0.574304 0.476236
0.156606 0.225195 0.145453
0.163516 0.232196 0.145614
0.172033 0.239102 0.146570
0.182103 0.245955 0.148311
0.193672 0.252798 0.150832
0.206687 0.259675 0.154124
0.221094 0.266626 0.158179
0.236840 0.273696 0.162991
0.253872 0.280926 0.168551
0.272136 0.288360 0.174853
0.291578 0.296040 0.181888
0.312146 0.304008 0.189649
0.333785 0.312308 0.198129
0.356442 0.320981 0.207320
0.380064 0.330071 0.217214
0.404597 0.339619 0.227804
0.429988 0.349670 0.239083
0.456183 0.360265 0.251042
0.483129 0.371446 0.263675
0.510772 0.383258 0.276973
0.539059 0.395741 0.290930
0.567937 0.408939 0.305537
0.597351 0.422895 0.320788
0.627249 0.437651 0.336674
0.657577 0.453249 0.353188
0.688282 0.469733 0.370322
0.719310 0.487145 0.388070
0.750607 0.505527 0.406423
0.782120 0.524923 0.425374
0.813796 0.545374 0.444915
0.845582 0.566924 0.465040
0.877423 0.589615 0.485739
0.909266 0.613489 0.507006
0.179664 0.254050 0.164732
0.185571 0.261003 0.164470
0.193151 0.267887 0.165054
0.202350 0.274746 0.166477
0.213115 0.281622 0.168731
0.225393 0.288557 0.171809
0.239129 0.295595 0.175702
0.254270 0.302777 0.180404
0.270764 0.310146 0.185907
0.288555 0.317745 0.192203
0.307592 0.325617 0.199285
0.327820 0.333804 0.207146
0.349186 0.342349 0.215777
0.371637 0.351295 0.225171
0.395119 0.360683 0.235321
0.419578 0.370558 0.246219
0.444962 0.380960 0.257858
0.471216 0.391934 0.270230
0.498287 0.403521 0.283327
0.526122 0.415764 0.297143
0.554668 0.428706 0.311669
0.583870 0.442390 0.326897
0.613676 0.456858 0.342821
0.644031 0.472152 0.359433
0.674883 0.488316 0.376726
0.706178 0.505392 0.394691
0.737862 0.523422 0.413321
0.769882 0.542450 0.432609
0.802185 0.562517 0.452547
0.834717 0.583667 0.473127
0.867424 0.605942 0.494343
0.900253 0.629385 0.516186
0.933152 0.654038 0.538650
0.206067 0.286295 0.186733
0.210888 0.293145 0.185996
0.217448 0.299953 0.186157
0.225693 0.306761 0.187209
0.235571 0.313613 0.189145
0.247027 0.320552 0.191956
0.260009 0.327619 0.195636
0.274462 0.334857 0.200176
0.290334 0.342310 0.205569
0.307570 0.350019 0.211808
0.326118 0.358027 0.218886
0.345924 0.366377 0.226793
0.366934 0.375111 0.235524
0.389095 0.384273 0.245070
0.412353 0.393904 0.255424
0.436656 0.404048 0.266578
0.461948 0.414747 0.278525
0.488178 0.426043 0.291258
0.515292 0.437980 0.304768
0.543236 0.450599 0.319048
0.571956 0.463944 0.334091
0.601400 0.478058 0.349890
0.631513 0.492981 0.366436
0.662242 0.508759 0.383721
0.693535 0.525432 0.401740
0.725336 0.543044 0.420483
0.757594 0.561637 0.439944
0.790254 0.581254 0.460115
0.823263 0.601937 0.480988
0.856567 0.623730 0.502556
0.890113 0.646674 0.524812
0.923848 0.670813 0.547747
0.957718 0.696188 0.571354
0.236023 0.322171 0.211644
0.239674 0.328861 0.210380
0.245131 0.335536 0.210067
0.252339 0.342239 0.210697
0.261247 0.349011 0.212262
0.271799 0.355897 0.214755
0.283943 0.362938 0.218169
0.297625 0.370176 0.222495
0.312792 0.377656 0.227727
0.329389 0.385419 0.233857
0.347365 0.393507 0.240877
0.366665 0.401965 0.248780
0.387235 0.410833 0.257558
0.409023 0.420155 0.267204
0.431975 0.429973 0.277710
0.456037 0.440331 0.289068
0.481156 0.451270 0.301272
0.507279 0.462833 0.314313
0.534351 0.475063 0.328184
0.562320 0.488003 0.342878
0.591132 0.501695 0.358386
0.620734 0.516182 0.374702
0.651072 0.531506 0.391818
0.682092 0.547710 0.409726
0.713742 0.564836 0.428419
0.745967 0.582928 0.447889
0.778715 0.602028 0.468129
0.811931 0.622179 0.489130
0.845562 0.643422 0.510887
0.879556 0.665802 0.533390
0.913858 0.689359 0.556633
0.948414 0.714138 0.580608
0.983173 0.740180 0.605308
0.269741 0.361916 0.239655
0.272139 0.368391 0.237812
0.276409 0.374877 0.236972
0.282498 0.381418 0.237127
0.290351 0.388055 0.238270
0.299916 0.394832 0.240393
0.311139 0.401791 0.243489
0.323967 0.408974 0.247550
0.338345 0.416425 0.252568
0.354221 0.424185 0.258537
0.371541 0.432299 0.265448
0.390252 0.440807 0.273295
0.410300 0.449753 0.282068
0.431632 0.459179 0.291762
0.454193 0.469129 0.302368
0.477932 0.479644 0.313879
0.502794 0.490768 0.326287
0.528726 0.502542 0.339585
0.555674 0.515010 0.353765
0.583585 0.528214 0.368820
0.612405 0.542197 0.384742
0.642082 0.557001 0.401523
0.672561 0.572670 0.419157
0.703789 0.589245 0.437635
0.735712 0.606769 0.456950
0.768278 0.625285 0.477095
0.801432 0.644836 0.498062
0.835122 0.665464 0.519842
0.869293 0.687212 0.542430
0.903892 0.710122 0.565817
0.938867 0.734237 0.589996
0.974162 0.759600 0.614959
1.000000 0.786253 0.640699
0.307430 0.405770 0.270952
0.308492 0.411973 0.268478
0.311492 0.418215 0.267059
0.316377 0.424538 0.266688
0.323094 0.430984 0.267357
0.331588 0.437596 0.269058
0.341806 0.444417 0.271784
0.353696 0.451489 0.275528
0.367203 0.458855 0.280281
0.382274 0.466558 0.286037
0.398855 0.474639 0.292787
0.416894 0.483143 0.300525
0.436336 0.492111 0.309242
0.457128 0.501586 0.318932
0.479217 0.511611 0.329586
0.502548 0.522228 0.341197
0.527070 0.533480 0.353758
0.552728 0.545410 0.367261
0.579468 0.558059 0.381698
0.607238 0.571472 0.397062
0.635984 0.585690 0.413345
0.665652 0.600756 0.430541
0.696189 0.616713 0.448640
0.727541 0.633603 0.467637
0.759655 0.651469 0.487523
0.792478 0.670354 0.508290
0.825956 0.690299 0.529931
0.860035 0.711349 0.552440
0.894663 0.733545 0.575807
0.929785 0.756930 0.600025
0.965348 0.781547 0.625088
1.000000 0.807438 0.650987
1.000000 0.834646 0.677715
0.349297 0.453972 0.305723
0.348940 0.459848 0.302567
0.350587 0.465790 0.300517
0.354186 0.471838 0.299568
0.359682 0.478037 0.299711
0.367022 0.484429 0.300938
0.376153 0.491056 0.303242
0.387022 0.497961 0.306617
0.399574 0.505186 0.311053
0.413756 0.512775 0.316544
0.429516 0.520769 0.323081
0.446799 0.529212 0.330659
0.465552 0.538146 0.339268
0.485721 0.547614 0.348901
0.507253 0.557658 0.359552
0.530095 0.568321 0.371211
0.554193 0.579646 0.383873
0.579494 0.591675 0.397528
0.605943 0.604450 0.412171
0.633489 0.618016 0.427792
0.662076 0.632413 0.444386
0.691653 0.647685 0.461943
0.722164 0.663874 0.480457
0.753558 0.681023 0.499919
0.785779 0.699175 0.520324
0.818776 0.718372 0.541662
0.852494 0.738657 0.563926
0.886880 0.760073 0.587110
0.921880 0.782661 0.611204
0.957442 0.806465 0.636203
0.993511 0.831528 0.662097
1.000000 0.857892 0.688881
1.000000 0.885599 0.716545
0.395553 0.506761 0.344158
0.393693 0.512254 0.340267
0.393904 0.517839 0.337535
0.396132 0.523558 0.335955
0.400325 0.529454 0.335520
0.406428 0.535569 0.336221
0.414388 0.541946 0.338052
0.424152 0.548628 0.341005
0.435667 0.555657 0.345072
0.448877 0.563076 0.350246
0.463732 0.570927 0.356519
0.480176 0.579254 0.363884
0.498156 0.588098 0.372333
0.517619 0.597503 0.381859
0.538512 0.607510 0.392453
0.560781 0.618163 0.404110
0.584372 0.629505 0.416820
0.609232 0.641577 0.430577
0.635307 0.654423 0.445372
0.662545 0.668084 0.461199
0.690891 0.682605 0.478050
0.720292 0.698027 0.495917
0.750695 0.714393 0.514793
0.782047 0.731746 0.534671
0.814293 0.750127 0.555541
0.847380 0.769581 0.577398
0.881255 0.790149 0.600234
0.915864 0.811874 0.624041
0.951154 0.834799 0.648811
0.987072 0.858967 0.674537
1.000000 0.884419 0.701212
1.000000 0.911199 0.728828
1.000000 0.939350 0.757377
0.446405 0.564376 0.386443
0.442959 0.569431 0.381765
0.441650 0.574603 0.378299
0.442425 0.579937 0.376037
0.445231 0.585474 0.374972
0.450014 0.591257 0.375096
0.456720 0.597328 0.376401
0.465296 0.603731 0.378881
0.475689 0.610508 0.382527
0.487845 0.617701 0.387332
0.501711 0.625353 0.393289
0.517233 0.633507 0.400390
0.534358 0.642206 0.408626
0.553032 0.651491 0.417992
0.573201 0.661406 0.428479
0.594813 0.671993 0.440080
0.617814 0.683296 0.452787
0.642151 0.695355 0.466593
0.667769 0.708215 0.481490
0.694615 0.721918 0.497471
0.722637 0.736506 0.514527
0.751780 0.752022 0.532653
0.781991 0.768509 0.551839
0.813217 0.786008 0.572079
0.845404 0.804564 0.593364
0.878499 0.824219 0.615688
0.912447 0.845014 0.639043
0.947197 0.866993 0.663421
0.982694 0.890199 0.688815
1.000000 0.914674 0.715217
1.000000 0.940460 0.742620
1.000000 0.967601 0.771016
1.000000 0.996138 0.800398
0.502061 0.627057 0.432768
0.496946 0.631617 0.427251
0.494035 0.636322 0.422999
0.493274 0.641214 0.420003
0.494609 0.646336 0.418256
0.497988 0.651730 0.417750
0.503357 0.657440 0.418478
0.510663 0.663508 0.420433
0.519851 0.669977 0.423606
0.530869 0.676888 0.427990
0.543663 0.684285 0.433579
0.558180 0.692211 0.440363
0.574365 0.700708 0.448336
0.592167 0.709818 0.457490
0.611530 0.719585 0.467818
0.632402 0.730051 0.479311
0.654730 0.741258 0.491963
0.678459 0.753249 0.505766
0.703537 0.766067 0.520713
0.729909 0.779755 0.536795
0.757523 0.794354 0.554005
0.786324 0.809909 0.572337
0.816261 0.826460 0.591781
0.847278 0.844052 0.612332
0.879322 0.862725 0.633980
0.912341 0.882525 0.656719
0.946280 0.903492 0.680541
0.981086 0.925669 0.705439
1.000000 0.949099 0.731405
1.000000 0.973825 0.758431
1.000000 0.999890 0.786510
1.000000 1.000000 0.815634
1.000000 1.000000 0.845797
0.562732 0.695043 0.483319
0.555864 0.699053 0.476912
0.551266 0.703233 0.471822
0.548885 0.707628 0.468040
0.548668 0.712279 0.465559
0.550560 0.717229 0.464372
0.554508 0.722522 0.464470
0.560460 0.728199 0.465848
0.568360 0.734303 0.468496
0.578157 0.740877 0.472408
0.589796 0.747964 0.477576
0.603224 0.755605 0.483992
0.618387 0.763845 0.491649
0.635233 0.772724 0.500540
0.653707 0.782286 0.510656
0.673756 0.792575 0.521990
0.695327 0.803631 0.534535
0.718366 0.815498 0.548284
0.742819 0.828218 0.563228
0.768634 0.841835 0.579360
0.795757 0.856390 0.596672
0.824134 0.871926 0.615158
0.853712 0.888487 0.634809
0.884437 0.906114 0.655618
0.916256 0.924850 0.677577
0.949115 0.944738 0.700679
0.982962 0.965821 0.724917
1.000000 0.988140 0.750282
1.000000 1.000000 0.776768
1.000000 1.000000 0.804366
1.000000 1.000000 0.833069
1.000000 1.000000 0.862870
1.000000 1.000000 0.893761
0.628624 0.768574 0.538286
0.619921 0.771976 0.530937
0.613554 0.775577 0.524956
0.609470 0.779418 0.520336
0.607616 0.783543 0.517069
0.607937 0.787993 0.515149
0.610382 0.792812 0.514566
0.614896 0.798043 0.515315
0.621425 0.803727 0.517387
0.629917 0.809908 0.520774
0.640318 0.816627 0.525469
0.652574 0.823929 0.531466
0.666632 0.831855 0.538755
0.682438 0.840447 0.547330
0.699940 0.849750 0.557183
0.719083 0.859804 0.568306
0.739813 0.870653 0.580692
0.762079 0.882340 0.594334
0.785825 0.894907 0.609223
0.810999 0.908397 0.625353
0.837548 0.922852 0.642716
0.865417 0.938315 0.661304
0.894553 0.954828 0.681109
0.924903 0.972435 0.702125
0.956413 0.991177 0.724343
0.989030 1.000000 0.747757
1.000000 1.000000 0.772358
1.000000 1.000000 0.798138
1.000000 1.000000 0.825092
1.000000 1.000000 0.853210
1.000000 1.000000 0.882486
1.000000 1.000000 0.912912
1.000000 1.000000 0.944480
0.699947 0.847888 0.597856
0.689325 0.850628 0.589512
0.681105 0.853592 0.582589
0.675235 0.856824 0.577080
0.671661 0.860366 0.572976
0.670329 0.864261 0.570270
0.671187 0.868551 0.568954
0.674180 0.873279 0.569022
0.679255 0.878487 0.570465
0.686359 0.884218 0.573276
0.695438 0.890515 0.577447
0.706439 0.897421 0.582971
0.719309 0.904977 0.589841
0.733993 0.913227 0.598048
0.750438 0.922214 0.607586
0.768591 0.931979 0.618446
0.788399 0.942565 0.630621
0.809807 0.954016 0.644105
0.832764 0.966374 0.658888
0.857214 0.979680 0.674963
0.883104 0.993979 0.692324
0.910382 1.000000 0.710962
0.938993 1.000000 0.730871
0.968885 1.000000 0.752041
1.000000 1.000000 0.774466
1.000000 1.000000 0.798139
1.000000 1.000000 0.823052
1.000000 1.000000 0.849196
1.000000 1.000000 0.876566
1.000000 1.000000 0.905153
1.000000 1.000000 0.934949
1.000000 1.000000 0.965947
1.000000 1.000000 0.998140
0.776910 0.933224 0.662217
0.764285 0.935246 0.652827
0.754130 0.937519 0.644910
0.746390 0.940086 0.638459
0.741013 0.942989 0.633465
0.737944 0.946272 0.629922
0.737132 0.949977 0.627822
0.738521 0.954146 0.627156
0.742058 0.958823 0.627919
0.747691 0.964049 0.630101
0.755366 0.969867 0.633697
0.765028 0.976321 0.638697
0.776625 0.983452 0.645095
0.790104 0.991303 0.652883
0.805410 0.999918 0.662053
0.822490 1.000000 0.672599
0.841291 1.000000 0.684511
0.861760 1.000000 0.697784
0.883842 1.000000 0.712409
0.907485 1.000000 0.728379
0.932635 1.000000 0.745686
0.959238 1.000000 0.764322
0.987241 1.000000 0.784281
1.000000 1.000000 0.805555
1.000000 1.000000 0.828135
1.000000 1.000000 0.852015
1.000000 1.000000 0.877187
1.000000 1.000000 0.903644
1.000000 1.000000 0.931378
1.000000 1.000000 0.960381
1.000000 1.000000 0.990645
1.000000 1.000000 1.000000
1.000000 1.000000 1.000000
0.859720 1.000000 0.731558
0.845010 1.000000 0.721070
0.832835 1.000000 0.712107
0.823143 1.000000 0.704662
0.815879 1.000000 0.698727
0.810991 1.000000 0.694294
0.808425 1.000000 0.691357
0.808126 1.000000 0.689907
0.810043 1.000000 0.689937
0.814122 1.000000 0.691439
0.820308 1.000000 0.694407
0.828549 1.000000 0.698831
0.838791 1.000000 0.704705
0.850980 1.000000 0.712022
0.865064 1.000000 0.720773
0.880988 1.000000 0.730952
0.898700 1.000000 0.742550
0.918145 1.000000 0.755560
0.939270 1.000000 0.769975
0.962023 1.000000 0.785787
0.986348 1.000000 0.802988
1.000000 1.000000 0.821571
1.000000 1.000000 0.841529
1.000000 1.000000 0.862853
1.000000 1.000000 0.885537
1.000000 1.000000 0.909573
1.000000 1.000000 0.934953
1.000000 1.000000 0.961669
1.000000 1.000000 0.989715
1.000000 1.000000 1.000000
1.000000 1.000000 1.000000
1.000000 1.000000 1.000000
1.000000 1.000000 1.000000
0.948587 1.000000 0.806066
0.931708 1.000000 0.794428
0.917431 1.000000 0.784367
0.905703 1.000000 0.775876
0.896469 1.000000 0.768948
0.889678 1.000000 0.763575
0.885274 1.000000 0.759748
0.883206 1.000000 0.757462
0.883419 1.000000 0.756707
0.885859 1.000000 0.757477
0.890474 1.000000 0.759765
0.897210 1.000000 0.763562
0.906014 1.000000 0.768860
0.916831 1.000000 0.775654
0.929609 1.000000 0.783934
0.944294 1.000000 0.793694
0.960832 1.000000 0.804925
0.979171 1.000000 0.817621
0.999256 1.000000 0.831774
1.000000 1.000000 0.847376
1.000000 1.000000 0.864420
1.000000 1.000000 0.882898
1.000000 1.000000 0.902802
1.000000 1.000000 0.924126
1.000000 1.000000 0.946861
1.000000 1.000000 0.971000
