calib/fujify/montage_cubes/pro_neg_std_montage.cube
TITLE "Chromasmith montage fit - Pro Neg Std"
#STD->look, fit from fujify comparison montages (best-effort)
LUT_3D_SIZE 33
0.056492 0.054238 0.050264
0.075466 0.053562 0.046526
0.095965 0.053958 0.044305
0.117878 0.055334 0.043509
0.141095 0.057600 0.044044
0.165508 0.060665 0.045818
0.191007 0.064438 0.048739
0.217483 0.068829 0.052714
0.244825 0.073746 0.057651
0.272924 0.079099 0.063457
0.301670 0.084798 0.070039
0.330955 0.090750 0.077305
0.360669 0.096865 0.085163
0.390701 0.103053 0.093520
0.420942 0.109223 0.102283
0.451284 0.115284 0.111360
0.481616 0.121144 0.120658
0.511828 0.126714 0.130085
0.541812 0.131902 0.139548
0.571457 0.136618 0.148954
0.600654 0.140771 0.158212
0.629294 0.144270 0.167229
0.657267 0.147023 0.175911
0.684463 0.148941 0.184167
0.710773 0.149933 0.191904
0.736087 0.149907 0.199030
0.760296 0.148774 0.205451
0.783291 0.146441 0.211076
0.804960 0.142819 0.215812
0.825196 0.137815 0.219566
0.843889 0.131341 0.222246
0.860928 0.123304 0.223759
0.876205 0.113615 0.224012
0.071502 0.087069 0.065445
0.089963 0.086236 0.061004
0.109984 0.086484 0.058124
0.131453 0.087724 0.056710
0.154262 0.089865 0.056672
0.178301 0.092815 0.057916
0.203460 0.096484 0.060350
0.229630 0.100781 0.063881
0.256701 0.105615 0.068417
0.284564 0.110896 0.073865
0.313109 0.116532 0.080133
0.342227 0.122433 0.087128
0.371807 0.128508 0.094758
0.401741 0.134666 0.102930
0.431919 0.140817 0.111551
0.462232 0.146869 0.120529
0.492569 0.152732 0.129772
0.522822 0.158315 0.139187
0.552880 0.163526 0.148681
0.582634 0.168276 0.158162
0.611975 0.172474 0.167538
0.640793 0.176028 0.176715
0.668978 0.178848 0.185601
0.696422 0.180842 0.194104
0.723014 0.181921 0.202132
0.748644 0.181994 0.209590
0.773204 0.180969 0.216389
0.796584 0.178755 0.222433
0.818673 0.175263 0.227632
0.839364 0.170400 0.231892
0.858545 0.164077 0.235121
0.876108 0.156203 0.237227
0.891943 0.146685 0.238116
0.085141 0.118223 0.078146
0.102950 0.117104 0.072894
0.122352 0.117079 0.069245
0.143238 0.118055 0.067107
0.165498 0.119942 0.066387
0.189022 0.122650 0.066993
0.213701 0.126088 0.068831
0.239425 0.130164 0.071810
0.266085 0.134788 0.075837
0.293571 0.139869 0.080819
0.321774 0.145316 0.086665
0.350584 0.151039 0.093280
0.379892 0.156947 0.100574
0.409588 0.162948 0.108452
0.439562 0.168952 0.116824
0.469705 0.174868 0.125596
0.499907 0.180606 0.134675
0.530059 0.186074 0.143969
0.560051 0.191182 0.153386
0.589775 0.195839 0.162833
0.619119 0.199954 0.172218
0.647974 0.203436 0.181448
0.676232 0.206195 0.190430
0.703782 0.208139 0.199072
0.730515 0.209179 0.207281
0.756322 0.209222 0.214965
0.781092 0.208178 0.222031
0.804717 0.205957 0.228388
0.827086 0.202467 0.233941
0.848090 0.197618 0.238599
0.867620 0.191319 0.242269
0.885566 0.183479 0.244859
0.901818 0.174007 0.246276
0.098109 0.148444 0.089159
0.115125 0.146914 0.082987
0.133768 0.146487 0.078462
0.153929 0.147072 0.075491
0.175499 0.148580 0.073980
0.198368 0.150918 0.073839
0.222427 0.153997 0.074974
0.247565 0.157725 0.077293
0.273673 0.162011 0.080702
0.300643 0.166765 0.085111
0.328363 0.171897 0.090425
0.356725 0.177314 0.096553
0.385620 0.182926 0.103402
0.414937 0.188643 0.110879
0.444566 0.194374 0.118892
0.474399 0.200027 0.127349
0.504327 0.205513 0.136157
0.534238 0.210739 0.145223
0.564024 0.215616 0.154454
0.593575 0.220053 0.163759
0.622782 0.223958 0.173045
0.651536 0.227241 0.182219
0.679725 0.229812 0.191188
0.707242 0.231578 0.199861
0.733976 0.232450 0.208144
0.759818 0.232337 0.215945
0.784658 0.231148 0.223171
0.808387 0.228791 0.229731
0.830896 0.225177 0.235531
0.852074 0.220214 0.240479
0.871812 0.213812 0.244482
0.890000 0.205879 0.247448
0.906530 0.196326 0.249284
0.111102 0.178479 0.099274
0.127184 0.176410 0.092074
0.144928 0.175454 0.086564
0.164225 0.175522 0.082651
0.184965 0.176522 0.080243
0.207038 0.178364 0.079247
0.230336 0.180956 0.079570
0.254748 0.184209 0.081120
0.280164 0.188031 0.083804
0.306476 0.192331 0.087530
0.333574 0.197019 0.092205
0.361348 0.202003 0.097737
0.389688 0.207194 0.104033
0.418486 0.212499 0.111001
0.447631 0.217829 0.118548
0.477014 0.223092 0.126582
0.506525 0.228198 0.135009
0.536056 0.233056 0.143738
0.565495 0.237575 0.152676
0.594734 0.241664 0.161731
0.623664 0.245232 0.170809
0.652174 0.248189 0.179819
0.680155 0.250444 0.188668
0.707498 0.251905 0.197262
0.734093 0.252483 0.205511
0.759830 0.252086 0.213321
0.784600 0.250624 0.220599
0.808293 0.248005 0.227254
0.830800 0.244139 0.233192
0.852011 0.238935 0.238321
0.871817 0.232302 0.242549
0.890108 0.224150 0.245783
0.906774 0.214387 0.247930
0.124817 0.209075 0.109282
0.139825 0.206339 0.100946
0.156530 0.204727 0.094344
0.174822 0.204150 0.089381
0.194591 0.204515 0.085966
0.215729 0.205733 0.084006
0.238125 0.207713 0.083409
0.261670 0.210363 0.084082
0.286254 0.213593 0.085933
0.311769 0.217311 0.088868
0.338103 0.221429 0.092796
0.365148 0.225853 0.097624
0.392795 0.230494 0.103259
0.420933 0.235261 0.109609
0.449453 0.240063 0.116582
0.478245 0.244809 0.124084
0.507200 0.249408 0.132023
0.536209 0.253769 0.140307
0.565162 0.257803 0.148843
0.593949 0.261417 0.157539
0.622460 0.264521 0.166302
0.650587 0.267025 0.175040
0.678219 0.268837 0.183659
0.705248 0.269866 0.192068
0.731563 0.270022 0.200174
0.757055 0.269214 0.207884
0.781614 0.267352 0.215106
0.805131 0.264343 0.221748
0.827496 0.260098 0.227716
0.848600 0.254526 0.232919
0.868334 0.247536 0.237263
0.886587 0.239037 0.240656
0.903249 0.228938 0.243006
0.139952 0.240977 0.119974
0.153746 0.237447 0.110394
0.169271 0.235052 0.102591
0.186417 0.233702 0.096470
0.205076 0.233306 0.091941
0.225138 0.233773 0.088909
0.246492 0.235012 0.087284
0.269030 0.236932 0.086972
0.292642 0.239443 0.087880
0.317218 0.242453 0.089917
0.342649 0.245872 0.092989
0.368825 0.249610 0.097005
0.395637 0.253574 0.101871
0.422974 0.257675 0.107495
0.450729 0.261821 0.113784
0.478791 0.265923 0.120647
0.507050 0.269888 0.127990
0.535396 0.273626 0.135720
0.563722 0.277047 0.143747
0.591916 0.280059 0.151976
0.619869 0.282572 0.160315
0.647472 0.284495 0.168672
0.674615 0.285737 0.176954
0.701189 0.286207 0.185069
0.727084 0.285814 0.192924
0.752190 0.284468 0.200426
0.776398 0.282078 0.207484
0.799599 0.278553 0.214004
0.821682 0.273802 0.219894
0.842539 0.267734 0.225061
0.862059 0.260259 0.229414
0.880133 0.251285 0.232859
0.896652 0.240723 0.235303
0.157204 0.274930 0.132142
0.169643 0.270479 0.121210
0.183848 0.267175 0.112097
0.199709 0.264925 0.104710
0.217117 0.263640 0.098958
0.235962 0.263228 0.094747
0.256134 0.263599 0.091985
0.277524 0.264663 0.090579
0.300023 0.266327 0.090437
0.323521 0.268502 0.091467
0.347908 0.271096 0.093575
0.373074 0.274019 0.096670
0.398911 0.277179 0.100659
0.425309 0.280487 0.105449
0.452157 0.283851 0.110947
0.479348 0.287180 0.117062
0.506770 0.290384 0.123700
0.534315 0.293372 0.130769
0.561872 0.296053 0.138177
0.589333 0.298336 0.145831
0.616588 0.300130 0.153638
0.643527 0.301345 0.161506
0.670040 0.301890 0.169343
0.696019 0.301673 0.177055
0.721353 0.300605 0.184551
0.745933 0.298593 0.191738
0.769650 0.295548 0.198522
0.792394 0.291379 0.204813
0.814055 0.285995 0.210517
0.834523 0.279304 0.215541
0.853690 0.271217 0.219793
0.871446 0.261642 0.223181
0.887681 0.250489 0.225612
0.177272 0.311682 0.146577
0.188216 0.306183 0.134184
0.200960 0.301840 0.123653
0.215395 0.298564 0.114892
0.231411 0.296263 0.107808
0.248899 0.294845 0.102309
0.267749 0.294222 0.098302
0.287851 0.294301 0.095695
0.309096 0.294991 0.094395
0.331375 0.296203 0.094309
0.354578 0.297845 0.095346
0.378594 0.299826 0.097412
0.403316 0.302056 0.100415
0.428633 0.304443 0.104262
0.454435 0.306897 0.108861
0.480614 0.309328 0.114120
0.507059 0.311643 0.119945
0.533661 0.313754 0.126245
0.560311 0.315567 0.132926
0.586898 0.316994 0.139896
0.613314 0.317942 0.147063
0.639448 0.318322 0.154335
0.665192 0.318042 0.161617
0.690435 0.317011 0.168819
0.715068 0.315140 0.175848
0.738982 0.312336 0.182610
0.762067 0.308509 0.189014
0.784213 0.303569 0.194966
0.805311 0.297424 0.200375
0.825252 0.289983 0.205148
0.843925 0.281157 0.209192
0.861221 0.270853 0.212415
0.877031 0.258982 0.214724
0.200851 0.351977 0.164069
0.210160 0.345303 0.150107
0.221303 0.339796 0.138051
0.234171 0.335365 0.127807
0.248656 0.331920 0.119284
0.264646 0.329371 0.112389
0.282033 0.327625 0.107029
0.300707 0.326592 0.103112
0.320559 0.326182 0.100545
0.341478 0.326303 0.099236
0.363356 0.326866 0.099092
0.386083 0.327778 0.100021
0.409549 0.328949 0.101930
0.433644 0.330289 0.104726
0.458260 0.331707 0.108318
0.483287 0.333111 0.112612
0.508614 0.334411 0.117516
0.534133 0.335516 0.122938
0.559734 0.336335 0.128784
0.585308 0.336778 0.134963
0.610744 0.336753 0.141382
0.635934 0.336171 0.147948
0.660767 0.334939 0.154568
0.685134 0.332967 0.161151
0.708926 0.330165 0.167604
0.732033 0.326442 0.173834
0.754346 0.321706 0.179748
0.775755 0.315867 0.185255
0.796150 0.308834 0.190261
0.815421 0.300516 0.194674
0.833461 0.290823 0.198402
0.850157 0.279664 0.201351
0.865402 0.266947 0.203430
0.228640 0.396563 0.185411
0.236173 0.388586 0.169771
0.245575 0.381787 0.156081
0.256736 0.376075 0.144246
0.269548 0.371359 0.134175
0.283901 0.367549 0.125776
0.299685 0.364554 0.118954
0.316790 0.362283 0.113619
0.335107 0.360645 0.109677
0.354527 0.359549 0.107037
0.374940 0.358904 0.105604
0.396236 0.358620 0.105288
0.418306 0.358606 0.105994
0.441040 0.358771 0.107632
0.464329 0.359025 0.110108
0.488063 0.359275 0.113329
0.512133 0.359432 0.117204
0.536429 0.359405 0.121640
0.560841 0.359103 0.126543
0.585260 0.358435 0.131822
0.609576 0.357310 0.137384
0.633681 0.355638 0.143137
0.657463 0.353327 0.148987
0.680814 0.350287 0.154843
0.703625 0.346427 0.160612
0.725785 0.341657 0.166201
0.747185 0.335885 0.171518
0.767715 0.329020 0.176470
0.787267 0.320972 0.180965
0.805730 0.311650 0.184910
0.822994 0.300963 0.188213
0.838951 0.288821 0.190781
0.853491 0.275131 0.192521
0.261336 0.446184 0.211392
0.266952 0.436777 0.193967
0.274472 0.428559 0.178534
0.283787 0.421439 0.165000
0.294786 0.415325 0.153274
0.307361 0.410128 0.143261
0.321401 0.405756 0.134870
0.336797 0.402119 0.128009
0.353440 0.399125 0.122584
0.371220 0.396685 0.118503
0.390027 0.394706 0.115674
0.409753 0.393099 0.114004
0.430286 0.391773 0.113400
0.451519 0.390636 0.113771
0.473340 0.389597 0.115023
0.495641 0.388567 0.117063
0.518313 0.387454 0.119800
0.541245 0.386168 0.123141
0.564328 0.384617 0.126994
0.587452 0.382710 0.131265
0.610508 0.380358 0.135862
0.633387 0.377469 0.140693
0.655978 0.373952 0.145665
0.678173 0.369717 0.150685
0.699861 0.364672 0.155662
0.720934 0.358727 0.160502
0.741281 0.351791 0.165113
0.760793 0.343774 0.169403
0.779360 0.334584 0.173278
0.796874 0.324130 0.176647
0.813224 0.312322 0.179417
0.828300 0.299069 0.181495
0.841994 0.284280 0.182789
0.299636 0.501587 0.242804
0.303196 0.490623 0.223485
0.308694 0.480859 0.206202
0.316021 0.472203 0.190861
0.325067 0.464564 0.177370
0.335723 0.457852 0.165637
0.347880 0.451977 0.155568
0.361426 0.446846 0.147072
0.376254 0.442370 0.140056
0.392254 0.438458 0.134427
0.409315 0.435018 0.130093
0.427329 0.431961 0.126961
0.446186 0.429194 0.124939
0.465776 0.426628 0.123934
0.485990 0.424171 0.123853
0.506718 0.421733 0.124605
0.527851 0.419222 0.126096
0.549278 0.416549 0.128234
0.570892 0.413622 0.130927
0.592581 0.410351 0.134082
0.614237 0.406644 0.137606
0.635750 0.402410 0.141407
0.657009 0.397560 0.145392
0.677907 0.392002 0.149469
0.698333 0.385645 0.153545
0.718178 0.378399 0.157528
0.737331 0.370172 0.161325
0.755685 0.360874 0.164844
0.773128 0.350415 0.167992
0.789552 0.338702 0.170677
0.804846 0.325646 0.172805
0.818902 0.311156 0.174285
0.831610 0.295140 0.175024
0.344238 0.563518 0.280438
0.345601 0.550870 0.259118
0.348936 0.539432 0.239876
0.354136 0.529113 0.222619
0.361088 0.519822 0.207256
0.369686 0.511468 0.193693
0.379817 0.503962 0.181839
0.391374 0.497211 0.171600
0.404247 0.491125 0.162884
0.418326 0.485614 0.155599
0.433501 0.480586 0.149651
0.449663 0.475950 0.144949
0.466703 0.471616 0.141400
0.484510 0.467494 0.138912
0.502976 0.463491 0.137391
0.521991 0.459518 0.136745
0.541444 0.455483 0.136882
0.561228 0.451296 0.137709
0.581231 0.446865 0.139134
0.601345 0.442101 0.141064
0.621460 0.436912 0.143407
0.641466 0.431208 0.146070
0.661254 0.424897 0.148960
0.680714 0.417889 0.151985
0.699738 0.410093 0.155053
0.718214 0.401418 0.158071
0.736034 0.391773 0.160946
0.753088 0.381068 0.163585
0.769267 0.369211 0.165898
0.784460 0.356113 0.167789
0.798559 0.341681 0.169168
0.811454 0.325826 0.169942
0.823035 0.308456 0.170018
0.395839 0.632723 0.325086
0.394865 0.618263 0.301656
0.395897 0.605024 0.280346
0.398828 0.592915 0.261066
0.403547 0.581844 0.243722
0.409945 0.571722 0.228222
0.417912 0.562457 0.214473
0.427339 0.553959 0.202383
0.438116 0.546136 0.191860
0.450134 0.538898 0.182810
0.463282 0.532155 0.175141
0.477453 0.525814 0.168760
0.492535 0.519786 0.163576
0.508419 0.513979 0.159496
0.524996 0.508304 0.156426
0.542157 0.502668 0.154275
0.559791 0.496981 0.152950
0.577790 0.491153 0.152358
0.596043 0.485093 0.152407
0.614441 0.478709 0.153004
0.632874 0.471910 0.154057
0.651234 0.464607 0.155473
0.669409 0.456709 0.157160
0.687292 0.448123 0.159026
0.704772 0.438761 0.160977
0.721740 0.428530 0.162920
0.738086 0.417340 0.164765
0.753700 0.405100 0.166417
0.768474 0.391720 0.167786
0.782297 0.377108 0.168776
0.795060 0.361174 0.169298
0.806653 0.343826 0.169257
0.816967 0.324975 0.168562
0.455137 0.709948 0.377538
0.451684 0.693549 0.351889
0.450274 0.678382 0.328405
0.450796 0.664355 0.306993
0.453141 0.651378 0.287560
0.457199 0.639360 0.270014
0.462861 0.628209 0.254263
0.470018 0.617836 0.240214
0.478559 0.608149 0.227774
0.488375 0.599058 0.216851
0.499356 0.590471 0.207352
0.511394 0.582298 0.199185
0.524378 0.574449 0.192258
0.538199 0.566831 0.186477
0.552748 0.559355 0.181750
0.567914 0.551930 0.177985
0.583588 0.544464 0.175090
0.599662 0.536868 0.172970
0.616024 0.529049 0.171535
0.632566 0.520918 0.170691
0.649178 0.512384 0.170347
0.665750 0.503355 0.170408
0.682173 0.493741 0.170784
0.698338 0.483451 0.171381
0.714134 0.472395 0.172107
0.729453 0.460481 0.172869
0.744184 0.447619 0.173575
0.758219 0.433717 0.174132
0.771447 0.418685 0.174447
0.783759 0.402433 0.174429
0.795046 0.384869 0.173985
0.805197 0.365902 0.173021
0.814104 0.345443 0.171446
0.522828 0.795938 0.438586
0.516758 0.777474 0.410610
0.512764 0.760251 0.384842
0.510737 0.744180 0.361190
0.510567 0.729168 0.339560
0.512145 0.715127 0.319860
0.515362 0.701964 0.301998
0.520107 0.689588 0.285882
0.526272 0.677910 0.271417
0.533746 0.666838 0.258513
0.542421 0.656281 0.247077
0.552185 0.646149 0.237015
0.562931 0.636350 0.228236
0.574549 0.626795 0.220647
0.586928 0.617391 0.214155
0.599959 0.608049 0.208668
0.613534 0.598677 0.204093
0.627541 0.589185 0.200339
0.641872 0.579482 0.197311
0.656417 0.569476 0.194918
0.671067 0.559078 0.193067
0.685712 0.548197 0.191666
0.700242 0.536741 0.190622
0.714549 0.524619 0.189842
0.728521 0.511742 0.189235
0.742050 0.498017 0.188707
0.755027 0.483355 0.188166
0.767341 0.467664 0.187519
0.778883 0.450854 0.186674
0.789544 0.432834 0.185538
0.799214 0.413513 0.184020
0.807783 0.392800 0.182025
0.815143 0.370605 0.179462
0.599611 0.891440 0.509020
0.590782 0.870783 0.478610
0.584064 0.851377 0.450450
0.579348 0.833134 0.424449
0.576523 0.815962 0.400514
0.575481 0.799769 0.378552
0.576112 0.784466 0.358471
0.578306 0.769962 0.340179
0.581954 0.756165 0.323582
0.586946 0.742984 0.308588
0.593172 0.730330 0.295106
0.600524 0.718111 0.283041
0.608891 0.706237 0.272302
0.618164 0.694616 0.262796
0.628234 0.683158 0.254431
0.638990 0.671771 0.247114
0.650324 0.660366 0.240752
0.662125 0.648851 0.235253
0.674285 0.637136 0.230525
0.686693 0.625129 0.226474
0.699241 0.612740 0.223009
0.711818 0.599878 0.220037
0.724315 0.586453 0.217465
0.736622 0.572372 0.215201
0.748630 0.557547 0.213152
0.760230 0.541885 0.211225
0.771311 0.525296 0.209329
0.781765 0.507689 0.207370
0.791481 0.488973 0.205257
0.800350 0.469058 0.202895
0.808263 0.447852 0.200194
0.815109 0.425266 0.197060
0.820780 0.401207 0.193402
0.686183 0.997200 0.589632
0.674455 0.974222 0.556678
0.664873 0.952507 0.526019
0.657326 0.931964 0.497561
0.651707 0.912504 0.471212
0.647904 0.894033 0.446880
0.645808 0.876463 0.424472
0.645310 0.859702 0.403896
0.646301 0.843659 0.385058
0.648670 0.828244 0.367867
0.652309 0.813365 0.352230
0.657107 0.798932 0.338054
0.662955 0.784855 0.325247
0.669744 0.771041 0.313716
0.677363 0.757401 0.303369
0.685704 0.743843 0.294114
0.694657 0.730277 0.285857
0.704112 0.716612 0.278506
0.713960 0.702758 0.271968
0.724091 0.688622 0.266152
0.734396 0.674115 0.260965
0.744764 0.659146 0.256313
0.755087 0.643623 0.252105
0.765256 0.627457 0.248248
0.775159 0.610556 0.244649
0.784689 0.592829 0.241216
0.793734 0.574186 0.237856
0.802187 0.554535 0.234477
0.809936 0.533787 0.230986
0.816873 0.511850 0.227291
0.822889 0.488633 0.223299
0.827872 0.464045 0.218918
0.831715 0.437996 0.214055
0.783241 1.000000 0.681213
0.768474 1.000000 0.645608
0.755886 1.000000 0.612340
0.745370 1.000000 0.581317
0.736814 1.000000 0.552447
0.730110 0.998665 0.525636
0.725148 0.978700 0.500793
0.721819 0.959556 0.477824
0.720012 0.941140 0.456637
0.719618 0.923362 0.437140
0.720528 0.906131 0.419240
0.722632 0.889358 0.402845
0.725821 0.872949 0.387862
0.729985 0.856816 0.374198
0.735014 0.840866 0.361761
0.740799 0.825010 0.350459
0.747230 0.809157 0.340198
0.754199 0.793214 0.330887
0.761594 0.777093 0.322433
0.769308 0.760702 0.314742
0.777229 0.743949 0.307724
0.785249 0.726745 0.301285
0.793258 0.708999 0.295332
0.801147 0.690619 0.289774
0.808805 0.671515 0.284517
0.816124 0.651597 0.279469
0.822994 0.630772 0.274538
0.829304 0.608951 0.269630
0.834947 0.586042 0.264654
0.839812 0.561956 0.259517
0.843789 0.536600 0.254126
0.846770 0.509884 0.248389
0.848644 0.481718 0.242214
0.891482 1.000000 0.784554
0.873535 1.000000 0.746189
0.857803 1.000000 0.710205
0.844176 1.000000 0.676509
0.832544 1.000000 0.645008
0.822799 1.000000 0.615611
0.814830 1.000000 0.588224
0.808528 1.000000 0.562754
0.803783 1.000000 0.539110
0.800486 1.000000 0.517199
0.798527 1.000000 0.496929
0.797796 0.990133 0.478206
0.798185 0.971267 0.460938
0.799584 0.952686 0.445033
0.801882 0.934301 0.430398
0.804971 0.916019 0.416940
0.808741 0.897750 0.404568
0.813082 0.879403 0.393188
0.817885 0.860888 0.382708
0.823040 0.842113 0.373036
0.828438 0.822989 0.364079
0.833969 0.803423 0.355743
0.839524 0.783325 0.347938
0.844992 0.762605 0.340570
0.850265 0.741171 0.333547
0.855233 0.718933 0.326776
0.859787 0.695800 0.320165
0.863816 0.671681 0.313621
0.867211 0.646485 0.307051
0.869863 0.620122 0.300364
0.871662 0.592500 0.293466
0.872499 0.563529 0.286265
0.872264 0.533118 0.278669
1.000000 1.000000 0.900445
0.990337 1.000000 0.859213
0.971320 1.000000 0.820404
0.954442 1.000000 0.783927
0.939594 1.000000 0.749688
0.926666 1.000000 0.717595
0.915550 1.000000 0.687556
0.906135 1.000000 0.659478
0.898312 1.000000 0.633269
0.891971 1.000000 0.608835
0.887003 1.000000 0.586086
0.883298 1.000000 0.564927
0.880746 1.000000 0.545266
0.879239 1.000000 0.527011
0.878667 1.000000 0.510070
0.878919 1.000000 0.494349
0.879887 0.996803 0.479757
0.881460 0.975925 0.466200
0.883530 0.954889 0.453587
0.885987 0.933604 0.441824
0.888721 0.911979 0.430819
0.891623 0.889924 0.420480
0.894582 0.867348 0.410714
0.897491 0.844160 0.401429
0.900238 0.820269 0.392531
0.902714 0.795585 0.383929
0.904811 0.770016 0.375529
0.906418 0.743471 0.367240
0.907425 0.715861 0.358969
0.907724 0.687094 0.350623
0.907205 0.657079 0.342110
0.905757 0.625725 0.333337
0.903273 0.592942 0.324211
1.000000 1.000000 1.000000
1.000000 1.000000 0.985471
1.000000 1.000000 0.943729
1.000000 1.000000 0.904362
1.000000 1.000000 0.867277
1.000000 1.000000 0.832381
1.000000 1.000000 0.799581
1.000000 1.000000 0.768787
1.000000 1.000000 0.739903
0.994771 1.000000 0.712840
0.986653 1.000000 0.687502
0.979833 1.000000 0.663799
0.974201 1.000000 0.641637
0.969648 1.000000 0.620925
0.966064 1.000000 0.601569
0.963339 1.000000 0.583477
0.961365 1.000000 0.566556
0.960030 1.000000 0.550715
0.959227 1.000000 0.535859
0.958845 1.000000 0.521898
0.958775 1.000000 0.508738
0.958906 0.986995 0.496286
0.959131 0.961814 0.484451
0.959338 0.936031 0.473140
0.959419 0.909555 0.462259
0.959264 0.882297 0.451717
0.958764 0.854165 0.441422
0.957808 0.825068 0.431279
0.956288 0.794916 0.421198
0.954093 0.763618 0.411085
0.951114 0.731082 0.400849
0.947243 0.697219 0.390395
0.942368 0.661937 0.379633
1.000000 1.000000 1.000000
1.000000 1.000000 1.000000
1.000000 1.000000 1.000000
1.000000 1.000000 1.000000
1.000000 1.000000 0.998566
1.000000 1.000000 0.960758
1.000000 1.000000 0.925091
1.000000 1.000000 0.891471
1.000000 1.000000 0.859805
1.000000 1.000000 0.830003
1.000000 1.000000 0.801970
1.000000 1.000000 0.775614
1.000000 1.000000 0.750843
1.000000 1.000000 0.727565
1.000000 1.000000 0.705686
1.000000 1.000000 0.685114
1.000000 1.000000 0.665757
1.000000 1.000000 0.647522
1.000000 1.000000 0.630317
1.000000 1.000000 0.614048
1.000000 1.000000 0.598625
1.000000 1.000000 0.583953
1.000000 1.000000 0.569940
1.000000 1.000000 0.556494
1.000000 1.000000 0.543523
1.000000 0.979816 0.530933
1.000000 0.948994 0.518633
1.000000 0.917218 0.506529
1.000000 0.884397 0.494530
1.000000 0.850440 0.482542
1.000000 0.815257 0.470474
0.997652 0.778756 0.458231
0.990247 0.740848 0.445723
1.000000 1.000000 1.000000
1.000000 1.000000 1.000000
1.000000 1.000000 1.000000
1.000000 1.000000 1.000000
1.000000 1.000000 1.000000
1.000000 1.000000 1.000000
1.000000 1.000000 1.000000
1.000000 1.000000 1.000000
1.000000 1.000000 0.993766
1.000000 1.000000 0.961116
1.000000 1.000000 0.930279
1.000000 1.000000 0.901163
1.000000 1.000000 0.873675
1.000000 1.000000 0.847722
1.000000 1.000000 0.823212
1.000000 1.000000 0.800052
1.000000 1.000000 0.778151
1.000000 1.000000 0.757414
1.000000 1.000000 0.737750
1.000000 1.000000 0.719067
1.000000 1.000000 0.701271
1.000000 1.000000 0.684270
1.000000 1.000000 0.667972
1.000000 1.000000 0.652284
1.000000 1.000000 0.637113
1.000000 1.000000 0.622368
1.000000 1.000000 0.607955
1.000000 1.000000 0.593781
1.000000 0.985048 0.579756
1.000000 0.948306 0.565785
1.000000 0.910348 0.551776
1.000000 0.871083 0.537637
1.000000 0.830421 0.523275
1.000000 1.000000 1.000000
1.000000 1.000000 1.000000
1.000000 1.000000 1.000000
1.000000 1.000000 1.000000
1.000000 1.000000 1.000000
1.000000 1.000000 1.000000
1.000000 1.000000 1.000000
1.000000 1.000000 1.000000
1.000000 1.000000 1.000000
1.000000 1.000000 1.000000
1.000000 1.000000 1.000000
1.000000 1.000000 1.000000
1.000000 1.000000 1.000000
1.000000 1.000000 0.982188
1.000000 1.000000 0.954938
1.000000 1.000000 0.929083
1.000000 1.000000 0.904528
1.000000 1.000000 0.881182
1.000000 1.000000 0.858951
1.000000 1.000000 0.837744
1.000000 1.000000 0.817468
1.000000 1.000000 0.798030
1.000000 1.000000 0.779338
1.000000 1.000000 0.761300
1.000000 1.000000 0.743822
1.000000 1.000000 0.726812
1.000000 1.000000 0.710178
1.000000 1.000000 0.693827
1.000000 1.000000 0.677666
1.000000 1.000000 0.661603
1.000000 1.000000 0.645546
1.000000 0.974946 0.629402
1.000000 0.931403 0.613079
1.000000 1.000000 1.000000
1.000000 1.000000 1.000000
1.000000 1.000000 1.000000
1.000000 1.000000 1.000000
1.000000 1.000000 1.000000
1.000000 1.000000 1.000000
1.000000 1.000000 1.000000
1.000000 1.000000 1.000000
1.000000 1.000000 1.000000
1.000000 1.000000 1.000000
1.000000 1.000000 1.000000
1.000000 1.000000 1.000000
1.000000 1.000000 1.000000
1.000000 1.000000 1.000000
1.000000 1.000000 1.000000
1.000000 1.000000 1.000000
1.000000 1.000000 1.000000
1.000000 1.000000 1.000000
1.000000 1.000000 0.994710
1.000000 1.000000 0.970872
1.000000 1.000000 0.948007
1.000000 1.000000 0.926024
1.000000 1.000000 0.904830
1.000000 1.000000 0.884333
1.000000 1.000000 0.864439
1.000000 1.000000 0.845057
