calib/fujify/montage_cubes/pro_neg_hi_montage.cube
TITLE "Chromasmith montage fit - Pro Neg Hi"
#STD->look, fit from fujify comparison montages (best-effort)
LUT_3D_SIZE 5
0.003277 0.004114 0.010977
0.237217 0.046279 0.020263
0.476444 0.067137 0.054593
0.710454 0.089723 0.123661
0.928743 0.137069 0.237161
0.012601 0.179653 0.015411
0.272643 0.256583 0.001423
0.539696 0.310313 0.043813
0.803256 0.363875 0.152276
1.000000 0.440303 0.336506
0.042517 0.416432 0.090274
0.308630 0.495817 0.000000
0.583477 0.550107 0.000000
0.856554 0.602334 0.083244
1.000000 0.675534 0.282177
0.086221 0.678083 0.418681
0.338373 0.727612 0.190068
0.600982 0.750151 0.080503
0.863545 0.768734 0.099679
1.000000 0.806394 0.257291
0.136910 0.928237 1.000000
0.355068 0.915600 0.763784
0.585408 0.874078 0.494203
0.817426 0.826706 0.384697
1.000000 0.796516 0.444963
0.020752 0.062329 0.110627
0.247470 0.101872 0.130568
0.471300 0.100441 0.114775
0.681737 0.081069 0.072944
0.868279 0.066790 0.014768
0.000000 0.158145 0.193862
0.245663 0.248406 0.230920
0.499293 0.295799 0.263579
0.741255 0.323356 0.301534
0.961044 0.354111 0.354479
0.000000 0.333706 0.230563
0.256234 0.442375 0.228712
0.519633 0.506280 0.253797
0.773087 0.548456 0.315513
1.000000 0.591935 0.423553
0.021525 0.552645 0.403844
0.272379 0.647411 0.307059
0.525514 0.695518 0.268545
0.770429 0.720002 0.297996
0.996619 0.743894 0.405107
0.068459 0.778594 0.896822
0.287294 0.827146 0.649077
0.510135 0.827145 0.490938
0.726479 0.801626 0.432098
0.925821 0.773620 0.482254
0.000000 0.108920 0.062225
0.220139 0.140407 0.077727
0.430872 0.111252 0.000000
0.620036 0.044488 0.000000
0.777130 0.000000 0.000000
0.000000 0.156825 0.297090
0.222352 0.254982 0.370101
0.464860 0.290603 0.377936
0.687523 0.286721 0.330290
0.879840 0.266369 0.236859
0.000000 0.302981 0.368458
0.248762 0.435498 0.442951
0.503012 0.503585 0.483603
0.739143 0.530273 0.500110
0.946650 0.538597 0.502165
0.040707 0.511020 0.459442
0.292562 0.645587 0.479392
0.538525 0.713828 0.496837
0.768091 0.738777 0.521470
0.970757 0.743467 0.562986
0.125140 0.744574 0.753160
0.346951 0.848880 0.662541
0.564594 0.884966 0.600752
0.767564 0.875865 0.577486
0.945358 0.844610 0.602438
0.000000 0.079056 0.000000
0.060298 0.097052 0.000000
0.260233 0.034738 0.000000
0.430425 0.000000 0.000000
0.560371 0.000000 0.000000
0.000000 0.110861 0.301860
0.107786 0.211480 0.395730
0.341471 0.229895 0.363649
0.547136 0.189139 0.215310
0.714279 0.112244 0.000000
0.000000 0.259423 0.480723
0.191288 0.410355 0.616467
0.438690 0.477188 0.657594
0.659798 0.482955 0.613799
0.844106 0.450690 0.494776
0.048842 0.488375 0.562240
0.303999 0.657309 0.683833
0.545088 0.740249 0.742143
0.761606 0.760229 0.746865
0.943048 0.740282 0.707695
0.212028 0.761347 0.729527
0.439116 0.915972 0.780942
0.653860 0.982710 0.800410
0.845756 0.984592 0.797624
1.000000 0.944653 0.782281
0.000000 0.000000 0.000000
0.000000 0.000000 0.000000
0.000000 0.000000 0.000000
0.017978 0.000000 0.000000
0.123075 0.000000 0.000000
0.000000 0.000000 0.184936
0.000000 0.053069 0.284573
0.034200 0.048843 0.197482
0.225167 0.000000 0.000000
0.369437 0.000000 0.000000
0.000000 0.138203 0.544124
0.000000 0.302115 0.726027
0.231741 0.362259 0.752536
0.440125 0.341670 0.633346
0.603534 0.263380 0.378152
0.000000 0.419878 0.689003
0.211762 0.617745 0.897145
0.450277 0.709949 0.981228
0.656046 0.719526 0.950948
0.818564 0.669507 0.815997
0.234196 0.764080 0.802688
0.468861 0.963591 0.981044
0.683006 1.000000 1.000000
0.866128 1.000000 1.000000
1.000000 1.000000 0.998546
