calib/fujify/montage_cubes/pro_neg_std_montage.cube
TITLE "Chromasmith montage fit - Pro Neg Std"
#STD->look, fit from fujify comparison montages (best-effort)
LUT_3D_SIZE 5
0.056492 0.054238 0.050264
0.244825 0.073746 0.057651
0.481616 0.121144 0.120658
0.710773 0.149933 0.191904
0.876205 0.113615 0.224012
0.177272 0.311682 0.146577
0.309096 0.294991 0.094395
0.507059 0.311643 0.119945
0.715068 0.315140 0.175848
0.877031 0.258982 0.214724
0.522828 0.795938 0.438586
0.526272 0.677910 0.271417
0.613534 0.598677 0.204093
0.728521 0.511742 0.189235
0.815143 0.370605 0.179462
1.000000 1.000000 1.000000
1.000000 1.000000 0.993766
1.000000 1.000000 0.778151
1.000000 1.000000 0.637113
1.000000 0.830421 0.523275
1.000000 1.000000 1.000000
1.000000 1.000000 1.000000
1.000000 1.000000 1.000000
1.000000 1.000000 1.000000
1.000000 1.000000 1.000000
0.038352 0.057293 0.138365
0.071206 0.000000 0.000000
0.148471 0.000000 0.000000
0.214055 0.000000 0.000000
0.211866 0.000000 0.000000
0.164834 0.339562 0.366542
0.291680 0.297619 0.283442
0.480617 0.299666 0.274487
0.675553 0.299203 0.292297
0.820395 0.249732 0.289495
0.108812 0.426539 0.320697
0.257777 0.427505 0.250408
0.486513 0.477912 0.276377
0.738927 0.531264 0.351225
0.958928 0.541061 0.427571
0.227354 0.700161 0.405878
0.326566 0.678896 0.292983
0.523227 0.712526 0.298459
0.761247 0.754553 0.374926
0.984533 0.758478 0.475005
0.877530 1.000000 1.000000
0.855114 1.000000 0.816213
0.947828 1.000000 0.745779
1.000000 1.000000 0.768448
1.000000 1.000000 0.836842
0.000000 0.000000 0.000000
0.000000 0.000000 0.000000
0.000000 0.000000 0.000000
0.000000 0.000000 0.000000
0.000000 0.000000 0.000000
0.342871 0.555425 0.660620
0.269126 0.294926 0.376703
0.253424 0.089063 0.163344
0.239674 0.000000 0.000000
0.171783 0.000000 0.000000
0.224918 0.586186 0.671922
0.323792 0.512842 0.528614
0.498390 0.499587 0.477978
0.692618 0.499921 0.472633
0.850386 0.467349 0.465202
0.000000 0.381488 0.344531
0.073870 0.430159 0.286416
0.366894 0.544372 0.343085
0.697228 0.677628 0.467158
1.000000 0.783430 0.611256
0.000000 0.323267 0.083495
0.000000 0.428814 0.055155
0.216004 0.605356 0.163711
0.610571 0.806395 0.361785
1.000000 0.985432 0.601996
0.000000 0.000000 0.000000
0.000000 0.000000 0.000000
0.000000 0.000000 0.000000
0.000000 0.000000 0.000000
0.000000 0.000000 0.000000
0.521748 0.790869 0.818593
0.051798 0.118511 0.163962
0.000000 0.000000 0.000000
0.000000 0.000000 0.000000
0.000000 0.000000 0.000000
0.681513 1.000000 1.000000
0.534683 0.765522 0.895819
0.459529 0.495299 0.598680
0.399959 0.249314 0.343245
0.299881 0.000000 0.082137
0.201283 0.764524 0.937082
0.305699 0.689828 0.763849
0.499471 0.691321 0.701812
0.726507 0.722503 0.703594
0.930714 0.736877 0.721813
0.000000 0.146942 0.188758
0.000000 0.273368 0.173098
0.112739 0.481436 0.290747
0.554507 0.724647 0.494327
0.991127 0.956502 0.736458
0.000000 0.000000 0.000000
0.000000 0.000000 0.000000
0.000000 0.000000 0.000000
0.000000 0.000000 0.000000
0.000000 0.000000 0.000000
0.511829 0.877496 0.630247
0.000000 0.000000 0.000000
0.000000 0.000000 0.000000
0.000000 0.000000 0.000000
0.000000 0.000000 0.000000
1.000000 1.000000 1.000000
0.700815 1.000000 1.000000
0.180296 0.296651 0.428267
0.000000 0.000000 0.000000
0.000000 0.000000 0.000000
1.000000 1.000000 1.000000
0.832417 1.000000 1.000000
0.731325 0.984971 1.000000
0.659449 0.720776 0.874018
0.560697 0.450420 0.596461
0.058464 0.844990 1.000000
0.201937 0.798992 0.959826
0.448398 0.845281 0.916670
0.741755 0.937361 0.955858
1.000000 1.000000 1.000000
