calib/fujify/montage_cubes/pro_neg_hi_montage.cube
TITLE "Chromasmith montage fit - Pro Neg Hi"
#STD->look, fit from fujify comparison montages (best-effort)
LUT_3D_SIZE 33
0.003277 0.004114 0.010977
0.031872 0.011337 0.011099
0.060692 0.017913 0.011481
0.089718 0.023885 0.012140
0.118930 0.029300 0.013096
0.148306 0.034201 0.014367
0.177826 0.038635 0.015973
0.207470 0.042646 0.017932
0.237217 0.046279 0.020263
0.267047 0.049579 0.022986
0.296939 0.052591 0.026119
0.326872 0.055360 0.029682
0.356826 0.057932 0.033692
0.386781 0.060350 0.038170
0.416716 0.062661 0.043133
0.446611 0.064908 0.048601
0.476444 0.067137 0.054593
0.506196 0.069394 0.061128
0.535846 0.071722 0.068225
0.565374 0.074167 0.075902
0.594758 0.076775 0.084179
0.623979 0.079589 0.093074
0.653015 0.082655 0.102607
0.681847 0.086018 0.112796
0.710454 0.089723 0.123661
0.738816 0.093815 0.135220
0.766911 0.098339 0.147492
0.794719 0.103339 0.160496
0.822220 0.108862 0.174251
0.849394 0.114951 0.188776
0.876219 0.121652 0.204090
0.902676 0.129010 0.220212
0.928743 0.137069 0.237161
0.003084 0.021465 0.013938
0.032211 0.029465 0.013866
0.061568 0.036813 0.014114
0.091134 0.043555 0.014700
0.120889 0.049736 0.015645
0.150812 0.055400 0.016966
0.180882 0.060592 0.018683
0.211079 0.065358 0.020814
0.241382 0.069742 0.023380
0.271772 0.073789 0.026397
0.302227 0.077545 0.029886
0.332727 0.081055 0.033866
0.363251 0.084362 0.038354
0.393780 0.087513 0.043371
0.424292 0.090553 0.048935
0.454766 0.093525 0.055066
0.485183 0.096476 0.061781
0.515522 0.099450 0.069100
0.545762 0.102493 0.077042
0.575883 0.105649 0.085626
0.605864 0.108963 0.094871
0.635685 0.112480 0.104796
0.665326 0.116245 0.115419
0.694765 0.120304 0.126760
0.723982 0.124701 0.138837
0.752957 0.129481 0.151670
0.781670 0.134689 0.165277
0.810099 0.140371 0.179677
0.838224 0.146570 0.194890
0.866025 0.153333 0.210934
0.893481 0.160703 0.227828
0.920571 0.168727 0.245591
0.947276 0.177449 0.264242
0.003306 0.040269 0.015497
0.032927 0.048983 0.015120
0.062781 0.057042 0.015125
0.092848 0.064490 0.015529
0.123106 0.071374 0.016353
0.153536 0.077737 0.017615
0.184117 0.083624 0.019334
0.214828 0.089082 0.021528
0.245649 0.094154 0.024217
0.276560 0.098886 0.027420
0.307539 0.103322 0.031156
0.338566 0.107509 0.035443
0.369622 0.111490 0.040300
0.400684 0.115310 0.045747
0.431734 0.119015 0.051803
0.462749 0.122650 0.058486
0.493711 0.126259 0.065815
0.524597 0.129888 0.073809
0.555388 0.133582 0.082487
0.586064 0.137385 0.091868
0.616603 0.141342 0.101972
0.646985 0.145500 0.112816
0.677190 0.149901 0.124420
0.707197 0.154593 0.136803
0.736986 0.159618 0.149983
0.766536 0.165023 0.163981
0.795826 0.170853 0.178813
0.824836 0.177152 0.194501
0.853546 0.183966 0.211061
0.881935 0.191339 0.228515
0.909983 0.199316 0.246879
0.937668 0.207943 0.266174
0.964971 0.217264 0.286418
0.003929 0.060457 0.016010
0.034005 0.069821 0.015219
0.064317 0.078527 0.014871
0.094845 0.086619 0.014985
0.125568 0.094142 0.015578
0.156467 0.101141 0.016671
0.187519 0.107661 0.018282
0.218705 0.113747 0.020430
0.250005 0.119444 0.023134
0.281397 0.124798 0.026413
0.312861 0.129852 0.030285
0.344377 0.134652 0.034771
0.375924 0.139243 0.039888
0.407482 0.143670 0.045656
0.439030 0.147977 0.052093
0.470547 0.152211 0.059219
0.502014 0.156416 0.067052
0.533409 0.160636 0.075612
0.564712 0.164918 0.084917
0.595903 0.169305 0.094986
0.626961 0.173843 0.105838
0.657865 0.178577 0.117493
0.688595 0.183552 0.129968
0.719131 0.188813 0.143284
0.749452 0.194404 0.157458
0.779537 0.200371 0.172511
0.809367 0.206759 0.188460
0.838919 0.213613 0.205324
0.868175 0.220977 0.223124
0.897113 0.228898 0.241877
0.925713 0.237418 0.261603
0.953954 0.246585 0.282320
0.981816 0.256442 0.304047
0.004940 0.081956 0.015835
0.035432 0.091908 0.014521
0.066163 0.101198 0.013712
0.097113 0.109871 0.013424
0.128262 0.117970 0.013678
0.159590 0.125542 0.014493
0.191075 0.132631 0.015886
0.222697 0.139283 0.017878
0.254435 0.145542 0.020488
0.286270 0.151453 0.023733
0.318180 0.157062 0.027633
0.350145 0.162412 0.032207
0.382145 0.167550 0.037475
0.414159 0.172521 0.043454
0.446166 0.177368 0.050163
0.478146 0.182138 0.057623
0.510079 0.186875 0.065851
0.541944 0.191624 0.074867
0.573720 0.196430 0.084689
0.605387 0.201338 0.095336
0.636924 0.206394 0.106828
0.668311 0.211642 0.119184
0.699528 0.217126 0.132421
0.730554 0.222893 0.146560
0.761368 0.228987 0.161619
0.791949 0.235453 0.177617
0.822278 0.242337 0.194573
0.852334 0.249682 0.212506
0.882096 0.257534 0.231435
0.911544 0.265938 0.251378
0.940657 0.274940 0.272356
0.969415 0.284583 0.294385
0.997797 0.294913 0.317487
0.006326 0.104696 0.015330
0.037194 0.115174 0.013384
0.068305 0.124984 0.012003
0.099639 0.134174 0.011205
0.131175 0.142787 0.011010
0.162892 0.150869 0.011437
0.194770 0.158464 0.012504
0.226789 0.165618 0.014231
0.258928 0.172376 0.016636
0.291166 0.178782 0.019738
0.323483 0.184882 0.023556
0.355858 0.190720 0.028110
0.388271 0.196342 0.033418
0.420702 0.201792 0.039499
0.453129 0.207116 0.046372
0.485533 0.212359 0.054055
0.517893 0.217565 0.062569
0.550188 0.222779 0.071931
0.582398 0.228047 0.082161
0.614502 0.233414 0.093278
0.646480 0.238924 0.105300
0.678311 0.244622 0.118247
0.709975 0.250554 0.132137
0.741451 0.256764 0.146990
0.772719 0.263297 0.162824
0.803758 0.270199 0.179658
0.834548 0.277514 0.197511
0.865067 0.285288 0.216403
0.895297 0.293565 0.236352
0.925216 0.302390 0.257376
0.954803 0.311809 0.279496
0.984038 0.321866 0.302729
1.000000 0.332606 0.327095
0.008074 0.128607 0.014852
0.039279 0.139545 0.012164
0.070731 0.149814 0.010102
0.102409 0.159458 0.008685
0.134292 0.168521 0.007932
0.166360 0.177050 0.007862
0.198593 0.185088 0.008493
0.230969 0.192681 0.009844
0.263469 0.199874 0.011936
0.296071 0.206713 0.014786
0.328756 0.213241 0.018413
0.361502 0.219503 0.022837
0.394290 0.225546 0.028076
0.427098 0.231414 0.034149
0.459907 0.237151 0.041075
0.492695 0.242803 0.048874
0.525443 0.248415 0.057563
0.558129 0.254032 0.067163
0.590734 0.259699 0.077691
0.623236 0.265460 0.089168
0.655615 0.271361 0.101611
0.687851 0.277447 0.115040
0.719923 0.283762 0.129473
0.751810 0.290352 0.144930
0.783493 0.297262 0.161430
0.814950 0.304537 0.178991
0.846161 0.312221 0.197632
0.877106 0.320360 0.217373
0.907764 0.328999 0.238232
0.938114 0.338182 0.260228
0.968136 0.347955 0.283380
0.997810 0.358362 0.307708
1.000000 0.369449 0.333229
0.010170 0.153616 0.014760
0.041674 0.164953 0.011221
0.073427 0.175616 0.008369
0.105410 0.185651 0.006222
0.137602 0.195102 0.004801
0.169981 0.204014 0.004124
0.202529 0.212432 0.004210
0.235224 0.220402 0.005077
0.268045 0.227967 0.006746
0.300973 0.235174 0.009234
0.333986 0.242067 0.012561
0.367064 0.248692 0.016745
0.400187 0.255092 0.021806
0.433334 0.261314 0.027762
0.466485 0.267401 0.034632
0.499619 0.273400 0.042436
0.532715 0.279355 0.051192
0.565753 0.285311 0.060920
0.598713 0.291313 0.071637
0.631574 0.297406 0.083364
0.664316 0.303635 0.096118
0.696917 0.310045 0.109920
0.729358 0.316681 0.124787
0.761618 0.323589 0.140739
0.793676 0.330812 0.157795
0.825512 0.338396 0.175973
0.857106 0.346386 0.195293
0.888437 0.354827 0.215774
0.919484 0.363764 0.237433
0.950226 0.373242 0.260292
0.980644 0.383306 0.284368
1.000000 0.394001 0.309680
1.000000 0.405372 0.336247
0.012601 0.179653 0.015411
0.044364 0.191326 0.010910
0.076380 0.202321 0.007159
0.108629 0.212683 0.004174
0.141089 0.222458 0.001976
0.173742 0.231691 0.000582
0.206565 0.240426 0.000013
0.239539 0.248708 0.000287
0.272643 0.256583 0.001423
0.305857 0.264096 0.003440
0.339160 0.271291 0.006357
0.372531 0.278214 0.010192
0.405950 0.284908 0.014965
0.439397 0.291421 0.020695
0.472850 0.297796 0.027400
0.506290 0.304078 0.035100
0.539696 0.310313 0.043813
0.573048 0.316545 0.053559
0.606324 0.322819 0.064356
0.639504 0.329181 0.076223
0.672569 0.335675 0.089180
0.705497 0.342346 0.103244
0.738268 0.349240 0.118436
0.770861 0.356401 0.134774
0.803256 0.363875 0.152276
0.835432 0.371705 0.170962
0.867369 0.379938 0.190852
0.899046 0.388618 0.211962
0.930443 0.397791 0.234314
0.961539 0.407501 0.257925
0.992314 0.417792 0.282815
1.000000 0.428712 0.309002
1.000000 0.440303 0.336506
0.015354 0.206648 0.017162
0.047337 0.218592 0.011591
0.079576 0.229855 0.006830
0.112052 0.240483 0.002898
0.144743 0.250519 0.000000
0.177628 0.260009 0.000000
0.210689 0.268997 0.000000
0.243903 0.277530 0.000000
0.277251 0.285651 0.000000
0.310711 0.293406 0.000000
0.344264 0.300840 0.000159
0.377889 0.307998 0.003536
0.411565 0.314925 0.007912
0.445272 0.321665 0.013306
0.478989 0.328264 0.019737
0.512697 0.334766 0.027223
0.546373 0.341218 0.035784
0.579998 0.347663 0.045439
0.613552 0.354146 0.056206
0.647013 0.360714 0.068104
0.680362 0.367410 0.081153
0.713577 0.374279 0.095372
0.746638 0.381368 0.110778
0.779525 0.388719 0.127392
0.812218 0.396380 0.145232
0.844695 0.404394 0.164317
0.876936 0.412807 0.184666
0.908920 0.421663 0.206297
0.940628 0.431007 0.229231
0.972039 0.440886 0.253486
1.000000 0.451342 0.279080
1.000000 0.462423 0.306033
1.000000 0.474171 0.334363
0.018415 0.234528 0.020371
0.050579 0.246681 0.013621
0.083003 0.258150 0.007741
0.115666 0.268979 0.002751
0.148548 0.279213 0.000000
0.181628 0.288897 0.000000
0.214886 0.298076 0.000000
0.248301 0.306796 0.000000
0.281853 0.315100 0.000000
0.315522 0.323035 0.000000
0.349286 0.330645 0.000000
0.383125 0.337974 0.000000
0.417019 0.345069 0.001004
0.450947 0.351974 0.005953
0.484889 0.358734 0.011999
0.518825 0.365394 0.019163
0.552732 0.371999 0.027462
0.586592 0.378594 0.036916
0.620384 0.385224 0.047544
0.654087 0.391933 0.059365
0.687680 0.398768 0.072397
0.721144 0.405773 0.086659
0.754457 0.412992 0.102171
0.787599 0.420472 0.118952
0.820549 0.428256 0.137019
0.853288 0.436391 0.156393
0.885794 0.444920 0.177093
0.918047 0.453889 0.199136
0.950027 0.463343 0.222542
0.981712 0.473326 0.247331
1.000000 0.483885 0.273520
1.000000 0.495063 0.301129
1.000000 0.506906 0.330177
0.021772 0.263222 0.025396
0.054078 0.275522 0.017356
0.086646 0.287133 0.010249
0.119458 0.298100 0.004092
0.152491 0.308469 0.000000
0.185727 0.318285 0.000000
0.219143 0.327591 0.000000
0.252721 0.336435 0.000000
0.286438 0.344859 0.000000
0.320275 0.352910 0.000000
0.354211 0.360633 0.000000
0.388226 0.368071 0.000000
0.422299 0.375271 0.000000
0.456409 0.382278 0.000000
0.490537 0.389136 0.004546
0.524661 0.395890 0.011277
0.558761 0.402585 0.019205
0.592817 0.409267 0.028349
0.626807 0.415980 0.038728
0.660712 0.422769 0.050361
0.694511 0.429679 0.063267
0.728184 0.436756 0.077465
0.761709 0.444044 0.092973
0.795067 0.451588 0.109810
0.828237 0.459433 0.127997
0.861198 0.467625 0.147550
0.893930 0.476207 0.168490
0.926413 0.485226 0.190836
0.958625 0.494726 0.214606
0.990547 0.504752 0.239818
1.000000 0.515349 0.266494
1.000000 0.526562 0.294650
1.000000 0.538437 0.324306
0.025410 0.292661 0.032594
0.057819 0.305043 0.023156
0.090493 0.316733 0.014711
0.123414 0.327776 0.007279
0.156561 0.338217 0.000877
0.189912 0.348100 0.000000
0.223448 0.357472 0.000000
0.257148 0.366375 0.000000
0.290992 0.374857 0.000000
0.324958 0.382961 0.000000
0.359028 0.390733 0.000000
0.393179 0.398218 0.000000
0.427391 0.405460 0.000000
0.461645 0.412505 0.000000
0.495918 0.419397 0.000000
0.530192 0.426183 0.003923
0.564446 0.432905 0.011370
0.598658 0.439611 0.020095
0.632808 0.446343 0.030116
0.666876 0.453149 0.041452
0.700842 0.460072 0.054122
0.734685 0.467157 0.068145
0.768383 0.474450 0.083540
0.801918 0.481996 0.100326
0.835268 0.489839 0.118521
0.868412 0.498025 0.138145
0.901331 0.506598 0.159217
0.934004 0.515603 0.181755
0.966410 0.525086 0.205778
0.998528 0.535091 0.231306
1.000000 0.545664 0.258358
1.000000 0.556849 0.286951
1.000000 0.568692 0.317106
0.029317 0.322772 0.042323
0.061789 0.335174 0.031377
0.094531 0.346880 0.021486
0.127522 0.357936 0.012668
0.160742 0.368385 0.004942
0.194170 0.378273 0.000000
0.227787 0.387646 0.000000
0.261570 0.396547 0.000000
0.295501 0.405023 0.000000
0.329558 0.413117 0.000000
0.363721 0.420875 0.000000
0.397969 0.428343 0.000000
0.432282 0.435564 0.000000
0.466640 0.442584 0.000000
0.501021 0.449449 0.000000
0.535405 0.456202 0.000000
0.569773 0.462889 0.004316
0.604102 0.469554 0.012512
0.638373 0.476244 0.022066
0.672566 0.483003 0.032995
0.706659 0.489875 0.045320
0.740632 0.496906 0.059059
0.774465 0.504142 0.074231
0.808137 0.511625 0.090855
0.841628 0.519403 0.108950
0.874917 0.527520 0.128535
0.907984 0.536020 0.149629
0.940807 0.544949 0.172250
0.973367 0.554352 0.196418
1.000000 0.564273 0.222152
1.000000 0.574758 0.249470
1.000000 0.585852 0.278391
1.000000 0.597600 0.308935
0.033480 0.353485 0.054941
0.065976 0.365844 0.042378
0.098745 0.377503 0.030930
0.131767 0.388508 0.020617
0.165022 0.398902 0.011457
0.198488 0.408733 0.003470
0.232146 0.418043 0.000000
0.265974 0.426879 0.000000
0.299953 0.435285 0.000000
0.334061 0.443307 0.000000
0.368279 0.450988 0.000000
0.402585 0.458375 0.000000
0.436959 0.465513 0.000000
0.471382 0.472445 0.000000
0.505831 0.479218 0.000000
0.540287 0.485876 0.000000
0.574729 0.492464 0.000000
0.609137 0.499027 0.005958
0.643490 0.505611 0.014934
0.677767 0.512259 0.025348
0.711948 0.519018 0.037218
0.746013 0.525932 0.050564
0.779942 0.533046 0.065404
0.813712 0.540405 0.081757
0.847305 0.548054 0.099642
0.880699 0.556039 0.119078
0.913874 0.564403 0.140084
0.946809 0.573193 0.162680
0.979485 0.582452 0.186883
1.000000 0.592226 0.212712
1.000000 0.602561 0.240188
1.000000 0.613501 0.269328
1.000000 0.625090 0.300152
0.037884 0.384729 0.070805
0.070365 0.396981 0.056515
0.103123 0.408530 0.043402
0.136138 0.419421 0.031484
0.169387 0.429698 0.020781
0.202852 0.439407 0.011312
0.236512 0.448593 0.003095
0.270346 0.457300 0.000000
0.304333 0.465574 0.000000
0.338454 0.473459 0.000000
0.372687 0.481001 0.000000
0.407012 0.488245 0.000000
0.441409 0.495235 0.000000
0.475857 0.502016 0.000000
0.510335 0.508634 0.000000
0.544824 0.515134 0.000000
0.579301 0.521560 0.000000
0.613748 0.527958 0.000789
0.648144 0.534372 0.009079
0.682467 0.540848 0.018868
0.716698 0.547430 0.030174
0.750815 0.554163 0.043017
0.784799 0.561093 0.057415
0.818629 0.568264 0.073388
0.852284 0.575722 0.090954
0.885745 0.583511 0.110132
0.918989 0.591676 0.130942
0.951997 0.600263 0.153401
0.984749 0.609316 0.177530
1.000000 0.618881 0.203346
1.000000 0.629001 0.230870
1.000000 0.639723 0.260119
1.000000 0.651092 0.291113
0.042517 0.416432 0.090274
0.074945 0.428515 0.074147
0.107652 0.439891 0.059259
0.140619 0.450604 0.045628
0.173825 0.460701 0.033272
0.207250 0.470226 0.022211
0.240873 0.479223 0.012464
0.274673 0.487739 0.004049
0.308630 0.495817 0.000000
0.342723 0.503503 0.000000
0.376933 0.510842 0.000000
0.411238 0.517879 0.000000
0.445618 0.524659 0.000000
0.480052 0.531227 0.000000
0.514521 0.537627 0.000000
0.549002 0.543905 0.000000
0.583477 0.550107 0.000000
0.617923 0.556275 0.000000
0.652322 0.562457 0.004859
0.686652 0.568696 0.013913
0.720893 0.575039 0.024546
0.755024 0.581528 0.036776
0.789025 0.588211 0.050623
0.822875 0.595131 0.066106
0.856554 0.602334 0.083244
0.890041 0.609865 0.102054
0.923316 0.617768 0.122557
0.956358 0.626089 0.144772
0.989146 0.634873 0.168717
1.000000 0.644164 0.194411
1.000000 0.654008 0.221873
1.000000 0.664450 0.251122
1.000000 0.675534 0.282177
0.047366 0.448524 0.113704
0.079700 0.460374 0.095632
0.112318 0.471514 0.078859
0.145199 0.481987 0.063404
0.178322 0.491840 0.049286
0.211667 0.501117 0.036525
0.245214 0.509864 0.025138
0.278941 0.518124 0.015145
0.312829 0.525944 0.006564
0.346856 0.533368 0.000000
0.381003 0.540441 0.000000
0.415249 0.547208 0.000000
0.449573 0.553715 0.000000
0.483954 0.560005 0.000000
0.518374 0.566125 0.000000
0.552809 0.572119 0.000000
0.587241 0.578032 0.000000
0.621649 0.583909 0.000000
0.656012 0.589795 0.002630
0.690309 0.595735 0.010840
0.724521 0.601774 0.020690
0.758627 0.607957 0.032199
0.792605 0.614329 0.045386
0.826436 0.620936 0.060269
0.860100 0.627821 0.076869
0.893575 0.635030 0.095203
0.926841 0.642608 0.115290
0.959877 0.650600 0.137150
0.992664 0.659051 0.160802
1.000000 0.668006 0.186264
1.000000 0.677510 0.213555
1.000000 0.687608 0.242694
1.000000 0.698345 0.273701
0.052416 0.480934 0.141453
0.084619 0.492488 0.121326
0.117108 0.503328 0.102559
0.149863 0.513498 0.085172
0.182864 0.523044 0.069182
0.216091 0.532011 0.054610
0.249522 0.540443 0.041474
0.283137 0.548386 0.029793
0.316917 0.555884 0.019586
0.350839 0.562982 0.010872
0.384884 0.569726 0.003670
0.419031 0.576161 0.000000
0.453260 0.582331 0.000000
0.487550 0.588281 0.000000
0.521881 0.594057 0.000000
0.556232 0.599703 0.000000
0.590582 0.605265 0.000000
0.624911 0.610787 0.000000
0.659200 0.616314 0.002751
0.693426 0.621892 0.010008
0.727569 0.627565 0.018966
0.761610 0.633378 0.029643
0.795527 0.639377 0.042060
0.829300 0.645606 0.056235
0.862909 0.652111 0.072187
0.896332 0.658935 0.089934
0.929550 0.666125 0.109497
0.962542 0.673725 0.130893
0.995288 0.681780 0.154142
1.000000 0.690336 0.179262
1.000000 0.699437 0.206273
1.000000 0.709128 0.235194
1.000000 0.719454 0.266043
0.057656 0.513590 0.173879
0.089687 0.524785 0.151587
0.122008 0.535263 0.130717
0.154599 0.545067 0.111288
0.187439 0.554243 0.093318
0.220508 0.562836 0.076826
0.253785 0.570890 0.061831
0.287249 0.578452 0.048353
0.320881 0.585565 0.036410
0.354659 0.592275 0.026021
0.388563 0.598627 0.017205
0.422572 0.604666 0.009981
0.456667 0.610436 0.004368
0.490826 0.615983 0.000385
0.525029 0.621352 0.000000
0.559256 0.626587 0.000000
0.593486 0.631735 0.000000
0.627698 0.636839 0.001130
0.661872 0.641944 0.005580
0.695987 0.647096 0.011773
0.730024 0.652340 0.019729
0.763960 0.657721 0.029467
0.797777 0.663283 0.041004
0.831453 0.669072 0.054361
0.864968 0.675132 0.069556
0.898301 0.681509 0.086608
0.931432 0.688247 0.105536
0.964340 0.695393 0.126358
0.997005 0.702989 0.149095
1.000000 0.711082 0.173765
1.000000 0.719717 0.200386
1.000000 0.728938 0.228978
1.000000 0.738790 0.259559
0.063071 0.546421 0.211340
0.094892 0.557195 0.186774
0.127006 0.567246 0.163691
0.159393 0.576621 0.142110
0.192033 0.585364 0.122050
0.224905 0.593520 0.103529
0.257988 0.601134 0.086566
0.291262 0.608252 0.071181
0.324707 0.614917 0.057393
0.358302 0.621176 0.045219
0.392026 0.627072 0.034680
0.425859 0.632652 0.025795
0.459780 0.637960 0.018581
0.493769 0.643040 0.013058
0.527806 0.647939 0.009245
0.561869 0.652701 0.007162
0.595939 0.657370 0.006826
0.629994 0.661993 0.008256
0.664015 0.666614 0.011473
0.697981 0.671278 0.016494
0.731871 0.676029 0.023339
0.765665 0.680914 0.032026
0.799342 0.685976 0.042575
0.832881 0.691261 0.055004
0.866263 0.696815 0.069333
0.899467 0.702681 0.085580
0.932471 0.708905 0.103764
0.965257 0.715532 0.123904
0.997802 0.722606 0.146019
1.000000 0.730174 0.170128
1.000000 0.738279 0.196250
1.000000 0.746967 0.224404
1.000000 0.756283 0.254609
0.068648 0.579358 0.254193
0.100220 0.589646 0.227244
0.132088 0.599209 0.201839
0.164232 0.608091 0.177997
0.196633 0.616338 0.155736
0.229268 0.623994 0.135077
0.262119 0.631104 0.116037
0.295164 0.637715 0.098636
0.328383 0.643869 0.082892
0.361755 0.649613 0.068825
0.395260 0.654991 0.056454
0.428877 0.660048 0.045796
0.462586 0.664830 0.036872
0.496366 0.669381 0.029701
0.530197 0.673747 0.024300
0.564058 0.677972 0.020690
0.597928 0.682101 0.018889
0.631788 0.686179 0.018915
0.665617 0.690252 0.020789
0.699394 0.694364 0.024528
0.733098 0.698560 0.030153
0.766710 0.702886 0.037681
0.800208 0.707385 0.047131
0.833572 0.712104 0.058524
0.866782 0.717087 0.071876
0.899817 0.722379 0.087209
0.932656 0.728026 0.104539
0.965280 0.734071 0.123887
0.997667 0.740561 0.145271
1.000000 0.747540 0.168711
1.000000 0.755053 0.194224
1.000000 0.763145 0.221831
1.000000 0.771861 0.251550
0.074375 0.612327 0.302795
0.105657 0.622067 0.273354
0.137240 0.631078 0.245517
0.169103 0.639405 0.219305
0.201225 0.647092 0.194735
0.233585 0.654185 0.171828
0.266164 0.660729 0.150601
0.298941 0.666769 0.131074
0.331894 0.672349 0.113266
0.365005 0.677515 0.097196
0.398251 0.682312 0.082882
0.431614 0.686784 0.070344
0.465071 0.690977 0.059601
0.498603 0.694936 0.050671
0.532189 0.698705 0.043573
0.565808 0.702330 0.038327
0.599441 0.705855 0.034951
0.633066 0.709326 0.033464
0.666663 0.712788 0.033885
0.700212 0.716285 0.036233
0.733692 0.719863 0.040528
0.767082 0.723566 0.046787
0.800362 0.727440 0.055030
0.833512 0.731529 0.065276
0.866511 0.735879 0.077543
0.899338 0.740534 0.091852
0.931973 0.745539 0.108219
0.964395 0.750941 0.126666
0.996584 0.756782 0.147210
1.000000 0.763109 0.169870
1.000000 0.769966 0.194665
1.000000 0.777399 0.221615
1.000000 0.785452 0.250738
0.080237 0.645259 0.357506
0.111192 0.654388 0.325462
0.142450 0.662784 0.295084
0.173992 0.670492 0.266392
0.205796 0.677557 0.239404
0.237842 0.684024 0.214139
0.270110 0.689938 0.190616
0.302579 0.695344 0.168854
0.335229 0.700287 0.148872
0.368038 0.704812 0.130690
0.400988 0.708964 0.114325
0.434056 0.712788 0.099796
0.467222 0.716329 0.087124
0.500467 0.719632 0.076326
0.533769 0.722742 0.067422
0.567108 0.725704 0.060430
0.600463 0.728562 0.055370
0.633815 0.731363 0.052260
0.667141 0.734150 0.051119
0.700423 0.736969 0.051967
0.733639 0.739865 0.054821
0.766769 0.742883 0.059702
0.799792 0.746068 0.066629
0.832688 0.749465 0.075619
0.865436 0.753118 0.086692
0.898016 0.757073 0.099866
0.930408 0.761375 0.115162
0.962590 0.766068 0.132597
0.994542 0.771199 0.152191
1.000000 0.776811 0.173963
1.000000 0.782950 0.197931
1.000000 0.789660 0.224115
1.000000 0.796987 0.252533
0.086221 0.678083 0.418681
0.116809 0.686537 0.383926
0.147704 0.694255 0.350897
0.178886 0.701281 0.319616
0.210333 0.707661 0.290100
0.242026 0.713438 0.262368
0.273944 0.718659 0.236440
0.306066 0.723369 0.212333
0.338373 0.727612 0.190068
0.370842 0.731433 0.169663
0.403455 0.734877 0.151138
0.436190 0.737990 0.134510
0.469027 0.740816 0.119799
0.501945 0.743400 0.107024
0.534924 0.745787 0.096203
0.567943 0.748022 0.087357
0.600982 0.750151 0.080503
0.634020 0.752218 0.075660
0.667037 0.754268 0.072848
0.700013 0.756346 0.072086
0.732926 0.758498 0.073392
0.765756 0.760767 0.076785
0.798483 0.763200 0.082285
0.831086 0.765840 0.089910
0.863545 0.768734 0.099679
0.895839 0.771926 0.111611
0.927948 0.775461 0.125725
0.959851 0.779384 0.142040
0.991527 0.783740 0.160575
1.000000 0.788574 0.181348
1.000000 0.793931 0.204380
1.000000 0.799856 0.229688
1.000000 0.806394 0.257291
0.092315 0.710727 0.486679
0.122497 0.718443 0.449103
0.152989 0.725420 0.413315
0.183772 0.731701 0.379334
0.214823 0.737332 0.347181
0.246124 0.742358 0.316873
0.277652 0.746823 0.288429
0.309389 0.750772 0.261869
0.341313 0.754252 0.237212
0.373403 0.757306 0.214475
0.405640 0.759979 0.193679
0.438003 0.762317 0.174842
0.470471 0.764365 0.157983
0.503023 0.766167 0.143121
0.535640 0.767769 0.130276
0.568300 0.769215 0.119465
0.600984 0.770550 0.110708
0.633670 0.771821 0.104024
0.666338 0.773070 0.099431
0.698968 0.774344 0.096949
0.731539 0.775688 0.096597
0.764031 0.777146 0.098393
0.796423 0.778763 0.102357
0.828694 0.780585 0.108507
0.860824 0.782656 0.116863
0.892793 0.785021 0.127442
0.924580 0.787726 0.140265
0.956164 0.790816 0.155350
0.987526 0.794334 0.172717
1.000000 0.798327 0.192383
1.000000 0.802839 0.214368
1.000000 0.807916 0.238691
1.000000 0.813602 0.265371
0.098505 0.743120 0.561858
0.128241 0.750036 0.521351
0.158292 0.756208 0.482694
0.188636 0.761681 0.445905
0.219252 0.766500 0.411005
0.250121 0.770711 0.378011
0.281222 0.774357 0.346943
0.312533 0.777483 0.317820
0.344036 0.780136 0.290660
0.375708 0.782360 0.265483
0.407530 0.784200 0.242307
0.439481 0.785700 0.221151
0.471541 0.786906 0.202035
0.503689 0.787863 0.184977
0.535904 0.788616 0.169997
0.568166 0.789210 0.157112
0.600455 0.789690 0.146343
0.632750 0.790100 0.137707
0.665031 0.790486 0.131225
0.697276 0.790893 0.126914
0.729466 0.791365 0.124794
0.761580 0.791949 0.124884
0.793597 0.792688 0.127202
0.825498 0.793627 0.131768
0.857260 0.794813 0.138601
0.888865 0.796289 0.147719
