calib/fujify/montage_cubes/pro_neg_std_montage.cube
TITLE "Chromasmith montage fit - Pro Neg Std"
#STD->look, fit from fujify comparison montages (best-effort)
LUT_3D_SIZE 9
0.056492 0.054238 0.050264
0.141095 0.057600 0.044044
0.244825 0.073746 0.057651
0.360669 0.096865 0.085163
0.481616 0.121144 0.120658
0.600654 0.140771 0.158212
0.710773 0.149933 0.191904
0.804960 0.142819 0.215812
0.876205 0.113615 0.224012
0.111102 0.178479 0.099274
0.184965 0.176522 0.080243
0.280164 0.188031 0.083804
0.389688 0.207194 0.104033
0.506525 0.228198 0.135009
0.623664 0.245232 0.170809
0.734093 0.252483 0.205511
0.830800 0.244139 0.233192
0.906774 0.214387 0.247930
0.177272 0.311682 0.146577
0.231411 0.296263 0.107808
0.309096 0.294991 0.094395
0.403316 0.302056 0.100415
0.507059 0.311643 0.119945
0.613314 0.317942 0.147063
0.715068 0.315140 0.175848
0.805311 0.297424 0.200375
0.877031 0.258982 0.214724
0.299636 0.501587 0.242804
0.325067 0.464564 0.177370
0.376254 0.442370 0.140056
0.446186 0.429194 0.124939
0.527851 0.419222 0.126096
0.614237 0.406644 0.137606
0.698333 0.385645 0.153545
0.773128 0.350415 0.167992
0.831610 0.295140 0.175024
0.522828 0.795938 0.438586
0.510567 0.729168 0.339560
0.526272 0.677910 0.271417
0.562931 0.636350 0.228236
0.613534 0.598677 0.204093
0.671067 0.559078 0.193067
0.728521 0.511742 0.189235
0.778883 0.450854 0.186674
0.815143 0.370605 0.179462
0.891482 1.000000 0.784554
0.832544 1.000000 0.645008
0.803783 1.000000 0.539110
0.798185 0.971267 0.460938
0.808741 0.897750 0.404568
0.828438 0.822989 0.364079
0.850265 0.741171 0.333547
0.867211 0.646485 0.307051
0.872264 0.533118 0.278669
1.000000 1.000000 1.000000
1.000000 1.000000 1.000000
1.000000 1.000000 0.993766
1.000000 1.000000 0.873675
1.000000 1.000000 0.778151
1.000000 1.000000 0.701271
1.000000 1.000000 0.637113
1.000000 0.985048 0.579756
1.000000 0.830421 0.523275
1.000000 1.000000 1.000000
1.000000 1.000000 1.000000
1.000000 1.000000 1.000000
1.000000 1.000000 1.000000
1.000000 1.000000 1.000000
1.000000 1.000000 1.000000
1.000000 1.000000 1.000000
1.000000 1.000000 1.000000
1.000000 1.000000 0.963912
1.000000 1.000000 1.000000
1.000000 1.000000 1.000000
1.000000 1.000000 1.000000
1.000000 1.000000 1.000000
1.000000 1.000000 1.000000
1.000000 1.000000 1.000000
1.000000 1.000000 1.000000
1.000000 1.000000 1.000000
1.000000 1.000000 1.000000
0.054217 0.064376 0.121287
0.112429 0.036779 0.086231
0.189261 0.023298 0.070553
0.277703 0.018119 0.068332
0.370741 0.015432 0.073645
0.461365 0.009424 0.080570
0.542563 0.000000 0.083184
0.607324 0.000000 0.075565
0.648637 0.000000 0.051791
0.114479 0.199888 0.207933
0.180763 0.185003 0.176041
0.267878 0.184915 0.166291
0.368812 0.193812 0.172762
0.476553 0.205881 0.189532
0.584090 0.215310 0.210677
0.684411 0.216288 0.230275
0.770504 0.203001 0.242405
0.835359 0.169637 0.241143
0.135391 0.291599 0.234157
0.200764 0.281283 0.198502
0.289178 0.286445 0.187753
0.393620 0.301274 0.195989
0.507079 0.319958 0.217288
0.622544 0.336683 0.245726
0.733004 0.345637 0.275382
0.831445 0.341009 0.300332
0.910858 0.316986 0.314656
0.161588 0.387250 0.250590
0.217066 0.373360 0.204245
0.297793 0.375631 0.185570
0.396760 0.388250 0.188644
0.506953 0.405405 0.207544
0.621363 0.421283 0.236348
0.732976 0.430073 0.269134
0.834782 0.425961 0.299979
0.919769 0.403136 0.322961
0.237702 0.534583 0.307864
0.274300 0.508978 0.243901
0.338358 0.500215 0.210373
0.422865 0.502481 0.201357
0.520809 0.509965 0.210932
0.625178 0.516854 0.233175
0.728961 0.517336 0.262164
0.825147 0.505598 0.291976
0.906724 0.475829 0.316688
0.408368 0.781340 0.456609
0.417102 0.735877 0.368101
0.455506 0.707937 0.312792
0.516569 0.691709 0.284760
0.593278 0.681380 0.278083
0.678624 0.671137 0.286837
0.765593 0.655169 0.305102
0.847175 0.627663 0.326953
0.916358 0.582807 0.346470
0.718219 1.000000 0.747455
0.690105 1.000000 0.627475
0.693871 1.000000 0.543459
0.722505 1.000000 0.489483
0.768997 0.967391 0.459626
0.826334 0.931875 0.447966
0.887505 0.891314 0.448579
0.945498 0.839898 0.455543
0.993303 0.771813 0.462936
1.000000 1.000000 1.000000
1.000000 1.000000 1.000000
1.000000 1.000000 0.953005
1.000000 1.000000 0.866158
1.000000 1.000000 0.806195
1.000000 1.000000 0.767191
1.000000 1.000000 0.743226
1.000000 1.000000 0.728375
1.000000 1.000000 0.716718
1.000000 1.000000 1.000000
1.000000 1.000000 1.000000
1.000000 1.000000 1.000000
1.000000 1.000000 1.000000
1.000000 1.000000 1.000000
1.000000 1.000000 1.000000
1.000000 1.000000 1.000000
1.000000 1.000000 1.000000
1.000000 1.000000 1.000000
0.038352 0.057293 0.138365
0.045722 0.000000 0.053235
0.071206 0.000000 0.000000
0.107793 0.000000 0.000000
0.148471 0.000000 0.000000
0.186229 0.000000 0.000000
0.214055 0.000000 0.000000
0.224938 0.000000 0.000000
0.211866 0.000000 0.000000
0.146723 0.246710 0.312022
0.180978 0.194734 0.246031
0.235557 0.158886 0.201734
0.303449 0.133353 0.173210
0.377642 0.112324 0.154535
0.451125 0.089986 0.139788
0.516886 0.060527 0.123046
0.567914 0.018134 0.098387
0.597197 0.000000 0.059887
0.164834 0.339562 0.366542
0.216990 0.310186 0.312763
0.291680 0.297619 0.283442
0.381893 0.296050 0.272657
0.480617 0.299666 0.274487
0.580840 0.302654 0.283007
0.675553 0.299203 0.292297
0.757741 0.283500 0.296434
0.820395 0.249732 0.289495
0.137319 0.383591 0.352557
0.198392 0.368672 0.304062
0.284209 0.371245 0.282790
0.387758 0.385496 0.282818
0.502029 0.405614 0.298224
0.620010 0.425787 0.323085
0.734688 0.440201 0.351480
0.839054 0.443045 0.377485
0.926094 0.428507 0.395179
0.108812 0.426539 0.320697
0.169817 0.417936 0.270559
0.257777 0.427505 0.250408
0.365679 0.449435 0.254322
0.486513 0.477912 0.276377
0.613266 0.507126 0.310652
0.738927 0.531264 0.351225
0.856485 0.544513 0.392172
0.958928 0.541061 0.427571
0.123946 0.516149 0.321594
0.175900 0.505718 0.262886
0.257018 0.514141 0.236929
0.360289 0.535607 0.237801
0.478701 0.564302 0.259579
0.605242 0.594415 0.296340
0.732902 0.620134 0.342163
0.854669 0.635645 0.391125
0.963530 0.635137 0.437303
0.227354 0.700161 0.405878
0.261273 0.679761 0.331673
0.326566 0.678896 0.292983
0.416221 0.691755 0.283886
0.523227 0.712526 0.298459
0.640573 0.735396 0.330779
0.761247 0.754553 0.374926
0.878238 0.764184 0.424975
0.984533 0.758478 0.475005
0.463671 1.000000 0.624180
0.470570 0.987807 0.527551
0.511053 0.969512 0.469201
0.578109 0.965622 0.443207
0.664725 0.970325 0.443648
0.763891 0.977810 0.464601
0.868595 0.982263 0.500144
0.971826 0.977872 0.544353
1.000000 0.958825 0.591307
0.877530 1.000000 1.000000
0.848425 1.000000 0.901150
0.855114 1.000000 0.816213
0.890586 1.000000 0.766397
0.947828 1.000000 0.745779
1.000000 1.000000 0.748436
1.000000 1.000000 0.768448
1.000000 1.000000 0.799890
1.000000 1.000000 0.836842
0.000000 0.011939 0.075220
0.000000 0.000000 0.000000
0.000000 0.000000 0.000000
0.000000 0.000000 0.000000
0.000000 0.000000 0.000000
0.000000 0.000000 0.000000
0.000000 0.000000 0.000000
0.000000 0.000000 0.000000
0.000000 0.000000 0.000000
0.184130 0.297894 0.385264
0.161903 0.184664 0.263936
0.159495 0.088893 0.163855
0.169893 0.004769 0.079098
0.186087 0.000000 0.003743
0.201065 0.000000 0.000000
0.207815 0.000000 0.000000
0.199325 0.000000 0.000000
0.168585 0.000000 0.000000
0.241895 0.434521 0.517455
0.256382 0.361921 0.424315
0.292897 0.307463 0.355184
0.344429 0.265332 0.304141
0.403966 0.229717 0.265264
0.464497 0.194806 0.232630
0.519011 0.154786 0.200317
0.560495 0.103845 0.162402
0.581938 0.036171 0.112964
0.203125 0.469561 0.522427
0.245341 0.429450 0.450545
0.311795 0.408161 0.405438
0.395477 0.399882 0.381183
0.489373 0.398800 0.371857
0.586473 0.399104 0.371538
0.679766 0.394980 0.374305
0.762239 0.380617 0.374234
0.826882 0.350202 0.365403
0.112452 0.450757 0.450809
0.173413 0.434992 0.393259
0.260823 0.438731 0.365248
0.367669 0.456161 0.360853
0.486941 0.481470 0.374151
0.611627 0.508845 0.399221
0.734714 0.532476 0.430140
0.849193 0.546548 0.460985
0.948050 0.545251 0.485835
0.014510 0.425851 0.353232
0.085233 0.426290 0.303088
0.184613 0.446913 0.285245
0.305641 0.481910 0.293783
0.441304 0.525468 0.322779
0.584590 0.571773 0.366310
0.728489 0.615015 0.418454
0.865988 0.649381 0.473289
0.990077 0.669058 0.524892
0.000000 0.442586 0.280328
0.025433 0.451085 0.230661
0.127800 0.480452 0.216061
0.254025 0.524873 0.230605
0.397094 0.578536 0.268370
0.549998 0.635630 0.323435
0.705723 0.690341 0.389878
0.857259 0.736857 0.461774
0.997594 0.769367 0.533204
0.000000 0.548703 0.282728
0.038647 0.557121 0.226611
0.135017 0.587088 0.208326
0.257454 0.632791 0.221948
0.398947 0.688418 0.261557
0.552483 0.748156 0.321229
0.711051 0.806194 0.395042
0.867639 0.856719 0.477074
1.000000 0.893919 0.561402
0.123407 0.791944 0.411062
0.169508 0.792139 0.341569
0.250897 0.814563 0.312671
0.360563 0.853406 0.318445
0.491494 0.902854 0.352969
0.636678 0.957095 0.410320
0.789105 1.000000 0.484577
0.941762 1.000000 0.569817
1.000000 1.000000 0.660117
0.000000 0.000000 0.000000
0.000000 0.000000 0.000000
0.000000 0.000000 0.000000
0.000000 0.000000 0.000000
0.000000 0.000000 0.000000
0.000000 0.000000 0.000000
0.000000 0.000000 0.000000
0.000000 0.000000 0.000000
0.000000 0.000000 0.000000
0.202995 0.332391 0.401381
0.099835 0.133744 0.203481
0.015988 0.000000 0.026378
0.000000 0.000000 0.000000
0.000000 0.000000 0.000000
0.000000 0.000000 0.000000
0.000000 0.000000 0.000000
0.000000 0.000000 0.000000
0.000000 0.000000 0.000000
0.342871 0.555425 0.660620
0.295237 0.415440 0.506880
0.269126 0.294926 0.376703
0.257525 0.188071 0.264165
0.253424 0.089063 0.163344
0.249811 0.000000 0.068318
0.239674 0.000000 0.000000
0.216002 0.000000 0.000000
0.171783 0.000000 0.000000
0.335301 0.624109 0.733923
0.334209 0.534643 0.617417
0.356849 0.465330 0.527238
0.396211 0.410357 0.457462
0.445281 0.363913 0.402167
0.497050 0.320185 0.355432
0.544505 0.273360 0.311333
0.580634 0.217627 0.263948
0.598427 0.147173 0.207354
0.224918 0.586186 0.671922
0.261384 0.539097 0.585723
0.323792 0.512842 0.528614
0.405131 0.501609 0.494674
0.498390 0.499587 0.477978
0.596556 0.500961 0.472605
0.692618 0.499921 0.472633
0.779566 0.490655 0.472140
0.850386 0.467349 0.465202
0.056357 0.489399 0.525247
0.121396 0.476543 0.462428
0.214588 0.485204 0.431463
0.328921 0.509569 0.426430
0.457383 0.543825 0.441407
0.592962 0.582161 0.470470
0.728648 0.618764 0.507698
0.857429 0.647821 0.547168
0.972293 0.663520 0.582959
0.000000 0.381488 0.344531
0.000000 0.394725 0.298164
0.073870 0.430159 0.286416
0.212212 0.481979 0.303363
0.366894 0.544372 0.343085
0.530903 0.611526 0.399657
0.697228 0.677628 0.467158
0.858858 0.736867 0.539665
1.000000 0.783430 0.611256
0.000000 0.310197 0.180403
0.000000 0.341383 0.143562
0.000000 0.395448 0.144103
0.099640 0.466581 0.176104
0.271556 0.548968 0.233642
0.455011 0.636798 0.310796
0.642991 0.724258 0.401643
0.828486 0.805536 0.500260
1.000000 0.874820 0.600725
0.000000 0.323267 0.083495
0.000000 0.364260 0.049252
0.000000 0.428814 0.055155
0.035836 0.511117 0.095282
0.216004 0.605356 0.163711
0.409919 0.705720 0.254520
0.610571 0.806395 0.361785
0.810947 0.901570 0.479585
1.000000 0.985432 0.601996
0.000000 0.000000 0.000000
0.000000 0.000000 0.000000
0.000000 0.000000 0.000000
0.000000 0.000000 0.000000
0.000000 0.000000 0.000000
0.000000 0.000000 0.000000
0.000000 0.000000 0.000000
0.000000 0.000000 0.000000
0.000000 0.000000 0.000000
0.179614 0.329150 0.334098
0.000000 0.020924 0.038387
0.000000 0.000000 0.000000
0.000000 0.000000 0.000000
0.000000 0.000000 0.000000
0.000000 0.000000 0.000000
0.000000 0.000000 0.000000
0.000000 0.000000 0.000000
0.000000 0.000000 0.000000
0.444056 0.681224 0.769758
0.309850 0.449690 0.534183
0.196661 0.238958 0.321721
0.097476 0.043216 0.126451
0.005285 0.000000 0.000000
0.000000 0.000000 0.000000
0.000000 0.000000 0.000000
0.000000 0.000000 0.000000
0.000000 0.000000 0.000000
0.510143 0.826186 0.960768
0.441291 0.663202 0.778401
0.395666 0.521701 0.621912
0.366256 0.395872 0.485379
0.346049 0.279902 0.362878
0.328034 0.167979 0.248488
0.305199 0.054291 0.136286
0.270534 0.000000 0.020350
0.217026 0.000000 0.000000
0.422507 0.811777 0.957759
0.410026 0.709200 0.821674
0.422981 0.628789 0.714230
0.454361 0.564731 0.629507
0.497154 0.511213 0.561580
0.544349 0.462424 0.504528
0.588935 0.412551 0.452428
0.623899 0.355782 0.399357
0.642231 0.286304 0.339395
0.225782 0.685740 0.811362
0.260687 0.635429 0.714631
0.323238 0.607964 0.649306
0.406424 0.597534 0.609465
0.503233 0.598326 0.589185
0.606655 0.604528 0.582543
0.709676 0.610329 0.583618
0.805287 0.609914 0.586487
0.886474 0.597473 0.585227
0.000000 0.495818 0.572208
0.037908 0.489628 0.507904
0.141072 0.506968 0.477771
0.267080 0.542024 0.475885
0.408921 0.588983 0.496324
0.559584 0.642035 0.533166
0.712057 0.695366 0.580489
0.859330 0.743164 0.632369
0.994389 0.779617 0.682885
0.000000 0.289751 0.290928
0.000000 0.319542 0.252124
0.000000 0.373543 0.250255
0.080961 0.445943 0.279397
0.258850 0.530927 0.333629
0.447771 0.622686 0.407027
0.640712 0.715405 0.493670
0.830662 0.803273 0.587635
1.000000 0.880477 0.683000
0.000000 0.115282 0.018152
0.000000 0.172911 0.000000
0.000000 0.255432 0.017390
0.000000 0.357033 0.070633
0.097654 0.471900 0.151730
0.315848 0.594223 0.254758
0.540273 0.718188 0.373794
0.763916 0.837984 0.502916
0.979767 0.947797 0.636202
0.000000 0.000000 0.000000
0.000000 0.000000 0.000000
0.000000 0.000000 0.000000
0.000000 0.000000 0.000000
0.000000 0.000000 0.000000
0.000000 0.000000 0.000000
0.000000 0.000000 0.000000
0.000000 0.000000 0.000000
0.000000 0.000000 0.000000
0.090283 0.267122 0.157137
0.000000 0.000000 0.000000
0.000000 0.000000 0.000000
0.000000 0.000000 0.000000
0.000000 0.000000 0.000000
0.000000 0.000000 0.000000
0.000000 0.000000 0.000000
0.000000 0.000000 0.000000
0.000000 0.000000 0.000000
0.521748 0.790869 0.818593
0.276518 0.443623 0.479945
0.051798 0.118511 0.163962
0.000000 0.000000 0.000000
0.000000 0.000000 0.000000
0.000000 0.000000 0.000000
0.000000 0.000000 0.000000
0.000000 0.000000 0.000000
0.000000 0.000000 0.000000
0.703947 1.000000 1.000000
0.542884 0.794076 0.907220
0.404541 0.556225 0.663185
0.281908 0.335377 0.438656
0.167972 0.125719 0.227712
0.055722 0.000000 0.024430
0.000000 0.000000 0.000000
0.000000 0.000000 0.000000
0.000000 0.000000 0.000000
0.681513 1.000000 1.000000
0.595633 0.924252 1.000000
0.534683 0.765522 0.895819
0.491653 0.624475 0.739075
0.459529 0.495299 0.598680
0.431302 0.372183 0.468711
0.399959 0.249314 0.343245
0.358489 0.120880 0.216362
0.299881 0.000000 0.082137
0.499081 0.993826 1.000000
0.479399 0.881895 1.000000
0.486858 0.794142 0.912497
0.514446 0.724754 0.816610
0.555151 0.667919 0.739836
0.601963 0.617825 0.676253
0.647868 0.568660 0.619937
0.685857 0.514611 0.564967
0.708917 0.449867 0.505420
0.201283 0.764524 0.937082
0.238816 0.714747 0.833605
0.305699 0.689828 0.763849
0.394922 0.683957 0.721892
0.499471 0.691321 0.701812
0.612337 0.706107 0.697687
0.726507 0.722503 0.703594
0.834970 0.734697 0.713610
0.930714 0.736877 0.721813
0.000000 0.466315 0.588025
0.000000 0.470549 0.526022
0.035840 0.500323 0.500505
0.177713 0.549826 0.505552
0.337123 0.613245 0.535239
0.507059 0.684769 0.583645
0.680509 0.758584 0.644847
0.850462 0.828879 0.712922
1.000000 0.889842 0.781949
0.000000 0.146942 0.188758
0.000000 0.197043 0.161303
0.000000 0.273368 0.173098
0.000000 0.370103 0.218220
0.112739 0.481436 0.290747
0.330761 0.601554 0.384757
0.554507 0.724647 0.494327
0.776966 0.844900 0.613535
0.991127 0.956502 0.736458
0.000000 0.000000 0.000000
0.000000 0.000000 0.000000
0.000000 0.000000 0.000000
0.000000 0.000000 0.000000
0.000000 0.000000 0.000000
0.000000 0.000000 0.000000
0.000000 0.000000 0.000000
0.000000 0.000000 0.000000
0.000000 0.000000 0.000000
0.000000 0.125256 0.000000
0.000000 0.000000 0.000000
0.000000 0.000000 0.000000
0.000000 0.000000 0.000000
0.000000 0.000000 0.000000
0.000000 0.000000 0.000000
0.000000 0.000000 0.000000
0.000000 0.000000 0.000000
0.000000 0.000000 0.000000
0.552240 0.863310 0.780849
0.171535 0.376189 0.317890
0.000000 0.000000 0.000000
0.000000 0.000000 0.000000
0.000000 0.000000 0.000000
0.000000 0.000000 0.000000
0.000000 0.000000 0.000000
0.000000 0.000000 0.000000
0.000000 0.000000 0.000000
0.893008 1.000000 1.000000
0.615282 0.906215 0.977597
0.359771 0.547852 0.624778
0.119462 0.207821 0.291017
0.000000 0.000000 0.000000
0.000000 0.000000 0.000000
0.000000 0.000000 0.000000
0.000000 0.000000 0.000000
0.000000 0.000000 0.000000
0.978233 1.000000 1.000000
0.794502 1.000000 1.000000
0.635196 0.901990 1.000000
0.493303 0.659791 0.797103
0.361812 0.430795 0.563001
0.233710 0.209189 0.338878
0.101987 0.000000 0.118810
0.000000 0.000000 0.000000
0.000000 0.000000 0.000000
0.852549 1.000000 1.000000
0.753829 1.000000 1.000000
0.681745 1.000000 1.000000
0.629283 0.870180 1.000000
0.589432 0.731555 0.867084
0.555182 0.601002 0.725321
0.519520 0.472709 0.590378
0.475435 0.340863 0.456331
0.415916 0.199651 0.317260
0.560589 1.000000 1.000000
0.537897 1.000000 1.000000
0.544049 0.957690 1.000000
0.572034 0.886729 1.000000
0.614841 0.830333 0.933272
0.665457 0.782691 0.866942
0.716872 0.737990 0.810196
0.762074 0.690417 0.757111
0.794052 0.634162 0.701765
0.146988 0.818840 1.000000
0.191338 0.773353 0.938979
0.266743 0.754737 0.868577
0.366191 0.757181 0.828290
0.482671 0.774872 0.812196
0.609170 0.801998 0.814372
0.738678 0.832746 0.828895
0.864182 0.861306 0.849844
0.978673 0.881863 0.871296
0.000000 0.397194 0.569034
0.000000 0.415606 0.513117
0.000000 0.461571 0.496002
0.056387 0.529277 0.511766
0.237555 0.612913 0.554486
0.430953 0.706665 0.618241
0.629570 0.804721 0.697107
0.826393 0.901269 0.785163
1.000000 0.990497 0.876486
0.000000 0.000000 0.000000
0.000000 0.000000 0.000000
0.000000 0.000000 0.000000
0.000000 0.000000 0.000000
0.000000 0.000000 0.000000
0.000000 0.000000 0.000000
0.000000 0.000000 0.000000
0.000000 0.000000 0.000000
0.000000 0.000000 0.000000
0.000000 0.000000 0.000000
0.000000 0.000000 0.000000
0.000000 0.000000 0.000000
0.000000 0.000000 0.000000
0.000000 0.000000 0.000000
0.000000 0.000000 0.000000
0.000000 0.000000 0.000000
0.000000 0.000000 0.000000
0.000000 0.000000 0.000000
0.511829 0.877496 0.630247
0.000000 0.226338 0.021741
0.000000 0.000000 0.000000
0.000000 0.000000 0.000000
0.000000 0.000000 0.000000
0.000000 0.000000 0.000000
0.000000 0.000000 0.000000
0.000000 0.000000 0.000000
0.000000 0.000000 0.000000
1.000000 1.000000 1.000000
0.634781 0.978571 0.963255
0.237649 0.475531 0.480414
0.000000 0.000000 0.016184
0.000000 0.000000 0.000000
0.000000 0.000000 0.000000
0.000000 0.000000 0.000000
0.000000 0.000000 0.000000
0.000000 0.000000 0.000000
1.000000 1.000000 1.000000
0.982929 1.000000 1.000000
0.700815 1.000000 1.000000
0.435608 0.649630 0.777312
0.180296 0.296651 0.428267
0.000000 0.000000 0.088752
0.000000 0.000000 0.000000
0.000000 0.000000 0.000000
0.000000 0.000000 0.000000
1.000000 1.000000 1.000000
1.000000 1.000000 1.000000
0.884192 1.000000 1.000000
0.727229 1.000000 1.000000
0.582372 0.768184 0.944652
0.442608 0.533009 0.703472
0.300927 0.301424 0.468663
0.150317 0.067617 0.234304
0.000000 0.000000 0.000000
1.000000 1.000000 1.000000
0.911447 1.000000 1.000000
0.832417 1.000000 1.000000
0.774713 1.000000 1.000000
0.731325 0.984971 1.000000
0.695241 0.850738 1.000000
0.659449 0.720776 0.874018
0.616938 0.589274 0.736594
0.560697 0.450420 0.596461
0.602599 1.000000 1.000000
0.581086 1.000000 1.000000
0.590120 1.000000 1.000000
0.622692 1.000000 1.000000
0.671789 0.994757 1.000000
0.730400 0.953322 1.000000
0.791514 0.916841 1.000000
0.848119 0.879502 0.972124
0.893203 0.835491 0.924764
0.058464 0.844990 1.000000
0.113821 0.807549 1.000000
0.201937 0.798992 0.959826
0.315800 0.813507 0.924994
0.448398 0.845281 0.916670
0.592720 0.888503 0.928932
0.741755 0.937361 0.955858
0.888491 0.986041 0.991525
1.000000 1.000000 1.000000
