calib/fujify/montage_cubes/pro_neg_hi_montage.cube
TITLE "Chromasmith montage fit - Pro Neg Hi"
#STD->look, fit from fujify comparison montages (best-effort)
LUT_3D_SIZE 9
0.003277 0.004114 0.010977
0.118930 0.029300 0.013096
0.237217 0.046279 0.020263
0.356826 0.057932 0.033692
0.476444 0.067137 0.054593
0.594758 0.076775 0.084179
0.710454 0.089723 0.123661
0.822220 0.108862 0.174251
0.928743 0.137069 0.237161
0.004940 0.081956 0.015835
0.128262 0.117970 0.013678
0.254435 0.145542 0.020488
0.382145 0.167550 0.037475
0.510079 0.186875 0.065851
0.636924 0.206394 0.106828
0.761368 0.228987 0.161619
0.882096 0.257534 0.231435
0.997797 0.294913 0.317487
0.012601 0.179653 0.015411
0.141089 0.222458 0.001976
0.272643 0.256583 0.001423
0.405950 0.284908 0.014965
0.539696 0.310313 0.043813
0.672569 0.335675 0.089180
0.803256 0.363875 0.152276
0.930443 0.397791 0.234314
1.000000 0.440303 0.336506
0.025410 0.292661 0.032594
0.156561 0.338217 0.000877
0.290992 0.374857 0.000000
0.427391 0.405460 0.000000
0.564446 0.432905 0.011370
0.700842 0.460072 0.054122
0.835268 0.489839 0.118521
0.966410 0.525086 0.205778
1.000000 0.568692 0.317106
0.042517 0.416432 0.090274
0.173825 0.460701 0.033272
0.308630 0.495817 0.000000
0.445618 0.524659 0.000000
0.583477 0.550107 0.000000
0.720893 0.575039 0.024546
0.856554 0.602334 0.083244
0.989146 0.634873 0.168717
1.000000 0.675534 0.282177
0.063071 0.546421 0.211340
0.192033 0.585364 0.122050
0.324707 0.614917 0.057393
0.459780 0.637960 0.018581
0.595939 0.657370 0.006826
0.731871 0.676029 0.023339
0.866263 0.696815 0.069333
0.997802 0.722606 0.146019
1.000000 0.756283 0.254609
0.086221 0.678083 0.418681
0.210333 0.707661 0.290100
0.338373 0.727612 0.190068
0.469027 0.740816 0.119799
0.600982 0.750151 0.080503
0.732926 0.758498 0.073392
0.863545 0.768734 0.099679
0.991527 0.783740 0.160575
1.000000 0.806394 0.257291
0.111118 0.806870 0.735188
0.227876 0.823044 0.560312
0.348777 0.829355 0.417902
0.472507 0.828681 0.309172
0.597755 0.823902 0.235332
0.723207 0.817898 0.197594
0.847549 0.813546 0.197170
0.969470 0.813727 0.235273
1.000000 0.821320 0.313113
0.136910 0.928237 1.000000
0.243810 0.926969 0.955574
0.355068 0.915600 0.763784
0.469372 0.897010 0.609590
0.585408 0.874078 0.494203
0.701864 0.849684 0.418834
0.817426 0.826706 0.384697
0.930781 0.808023 0.393003
1.000000 0.796516 0.444963
0.011067 0.030623 0.077856
0.125282 0.056721 0.087380
0.241109 0.072156 0.094357
0.357236 0.079805 0.099996
0.472350 0.082549 0.105512
0.585138 0.083266 0.112115
0.694286 0.084835 0.121017
0.798482 0.090136 0.133430
0.896414 0.102048 0.150565
0.000000 0.085389 0.105173
0.121742 0.124311 0.115471
0.245701 0.152331 0.127137
0.370176 0.172331 0.141384
0.493853 0.187187 0.159424
0.615419 0.199780 0.182467
0.733561 0.212988 0.211727
0.846967 0.229692 0.248414
0.954323 0.252769 0.293741
0.000000 0.162324 0.112587
0.123174 0.210030 0.116655
0.252762 0.246599 0.126009
0.383080 0.274908 0.141860
0.512815 0.297839 0.165420
0.640656 0.318269 0.197901
0.765289 0.339078 0.240515
0.885400 0.363145 0.294474
0.999677 0.393349 0.360989
0.000000 0.256882 0.122988
0.128728 0.309334 0.113823
0.261439 0.350411 0.113861
0.395097 0.382993 0.124313
0.528388 0.409959 0.146390
0.659999 0.434187 0.181306
0.788617 0.458557 0.230272
0.912930 0.485949 0.294499
1.000000 0.519241 0.375199
0.006695 0.364517 0.159265
0.137552 0.417676 0.129864
0.270883 0.459223 0.113583
0.405377 0.492038 0.111632
0.539719 0.519000 0.125224
0.672596 0.542988 0.155571
0.802697 0.566881 0.203885
0.928707 0.593559 0.271377
1.000000 0.625900 0.359259
0.020038 0.480684 0.244308
0.148796 0.530511 0.187668
0.280244 0.568489 0.148064
0.413069 0.597498 0.126708
0.545958 0.620418 0.124811
0.677599 0.640126 0.143586
0.806677 0.659503 0.184245
0.931881 0.681428 0.247998
1.000000 0.708779 0.336059
0.037456 0.600836 0.401006
0.161610 0.643291 0.310123
0.288670 0.673662 0.240194
0.417323 0.694827 0.192429
0.546256 0.709665 0.168040
0.674155 0.721055 0.168240
0.799707 0.731877 0.194240
0.921600 0.745010 0.247253
1.000000 0.763333 0.328489
0.058096 0.720426 0.652249
0.175144 0.751473 0.520120
0.295312 0.770197 0.412862
0.417289 0.779478 0.331685
0.539760 0.782196 0.277801
0.661414 0.781230 0.252423
0.780937 0.779458 0.256762
0.897016 0.779760 0.292029
1.000000 0.785015 0.359437
0.081110 0.834911 1.000000
0.188546 0.850508 0.840548
0.299319 0.853547 0.688957
0.412115 0.846907 0.567365
0.525622 0.833465 0.476983
0.638526 0.816103 0.419023
0.749515 0.797699 0.394697
0.857276 0.781132 0.405217
0.960495 0.769280 0.451794
0.020752 0.062329 0.110627
0.133816 0.088662 0.125670
0.247470 0.101872 0.130568
0.360403 0.104839 0.126532
0.471300 0.100441 0.114775
0.578849 0.091558 0.096509
0.681737 0.081069 0.072944
0.778652 0.071854 0.045293
0.868279 0.066790 0.014768
0.001334 0.097996 0.169506
0.122561 0.139146 0.190372
0.244594 0.166937 0.205009
0.366121 0.184247 0.214629
0.485828 0.193956 0.220445
0.602403 0.198944 0.223668
0.714531 0.202088 0.225510
0.820902 0.206269 0.227183
0.920201 0.214365 0.229898
0.000000 0.158145 0.193862
0.117755 0.210074 0.213547
0.245663 0.248406 0.230920
0.373280 0.276021 0.247193
0.499293 0.295799 0.263579
0.622389 0.310617 0.281289
0.741255 0.323356 0.301534
0.854577 0.336894 0.325527
0.961044 0.354111 0.354479
0.000000 0.238231 0.206585
0.118547 0.296899 0.218085
0.249826 0.341734 0.231191
0.381030 0.375615 0.247114
0.510845 0.401422 0.267066
0.637958 0.422033 0.292259
0.761056 0.440327 0.323905
0.878827 0.459184 0.363215
0.989958 0.481483 0.411401
0.000000 0.333706 0.230563
0.124087 0.395076 0.226876
0.256234 0.442375 0.228712
0.388520 0.478483 0.237281
0.519633 0.506280 0.253797
0.648259 0.528645 0.279470
0.773087 0.548456 0.315513
0.892802 0.568593 0.363136
1.000000 0.591935 0.423553
0.004684 0.440027 0.288686
0.133525 0.500058 0.262809
0.264035 0.545782 0.246371
0.394899 0.580079 0.240584
0.524806 0.605828 0.246660
0.652442 0.625907 0.265810
0.776494 0.643196 0.299246
0.895650 0.660574 0.348181
1.000000 0.680921 0.413825
0.021525 0.552645 0.403844
0.146010 0.607300 0.348774
0.272379 0.647411 0.307059
0.399318 0.675857 0.279912
0.525514 0.695518 0.268545
0.649656 0.709274 0.274169
0.770429 0.720002 0.297996
0.886521 0.730582 0.341238
0.996619 0.743894 0.405107
0.043067 0.667016 0.598926
0.160691 0.712255 0.507659
0.280415 0.742714 0.433665
0.400925 0.761271 0.378155
0.520908 0.770806 0.342341
0.639051 0.774198 0.327435
0.754041 0.774327 0.334650
0.864565 0.774071 0.365196
0.969311 0.776309 0.420286
0.068459 0.778594 0.896822
0.176719 0.810378 0.762355
0.287294 0.827146 0.649077
0.398870 0.831775 0.558201
0.510135 0.827145 0.490938
0.619776 0.816136 0.448500
0.726479 0.801626 0.432098
0.828932 0.786494 0.442946
0.925821 0.773620 0.482254
0.020466 0.091130 0.106385
0.132666 0.117017 0.125060
0.244436 0.127324 0.125993
0.354461 0.124928 0.110395
0.461429 0.112710 0.079479
0.564027 0.093548 0.034457
0.660943 0.070322 0.000000
0.750862 0.045910 0.000000
0.832473 0.023192 0.000000
0.000000 0.111674 0.205930
0.118853 0.154373 0.235476
0.239248 0.181254 0.251197
0.358114 0.195196 0.254305
0.474139 0.199079 0.246011
0.586009 0.195781 0.227527
0.692412 0.188182 0.200064
0.792035 0.179160 0.164836
0.883564 0.171596 0.123053
0.000000 0.159013 0.256331
0.112965 0.214485 0.289746
0.239482 0.253902 0.313252
0.364685 0.280143 0.328061
0.487263 0.296088 0.335386
0.605902 0.304616 0.336437
0.719288 0.308605 0.332427
0.826110 0.310935 0.324568
0.925053 0.314486 0.314071
0.000000 0.228603 0.280479
0.114153 0.292808 0.310758
0.244288 0.340722 0.335046
0.373325 0.375223 0.354554
0.499951 0.399191 0.370494
0.622854 0.415505 0.384077
0.740720 0.427044 0.396517
0.852237 0.436688 0.409023
0.956091 0.447314 0.422809
0.000000 0.315895 0.301262
0.121567 0.384796 0.321403
0.252815 0.437168 0.339469
0.383181 0.475891 0.356673
0.511352 0.503843 0.374225
0.636015 0.523905 0.393337
0.755857 0.538955 0.415222
0.869565 0.551872 0.441092
0.975826 0.565536 0.472157
0.005143 0.416346 0.341569
0.134355 0.485902 0.344569
0.264213 0.538694 0.349411
0.393404 0.577599 0.357306
0.520616 0.605497 0.369467
0.644536 0.625268 0.387106
0.763849 0.639790 0.411434
0.877244 0.651942 0.443663
0.983408 0.664604 0.485004
0.026564 0.525408 0.424291
0.151667 0.591582 0.403146
0.277631 0.640754 0.387760
0.403144 0.675802 0.379345
0.526893 0.699608 0.379112
0.647565 0.715048 0.388273
0.763846 0.725003 0.408040
0.874424 0.732352 0.439626
0.977986 0.739973 0.484240
0.054164 0.638536 0.572317
0.172653 0.697288 0.520024
0.292219 0.738801 0.477407
0.411550 0.765955 0.445677
0.529331 0.781628 0.426047
0.644251 0.788700 0.419728
0.754996 0.790049 0.427931
0.860254 0.788556 0.451870
0.958711 0.787098 0.492755
0.087091 0.751183 0.808535
0.196462 0.798475 0.718091
0.307126 0.828291 0.641240
0.417770 0.843511 0.579193
0.527081 0.847013 0.533162
0.633745 0.841677 0.504359
0.736450 0.830382 0.493996
0.833883 0.816007 0.503285
0.924731 0.801431 0.533436
0.000000 0.108920 0.062225
0.109968 0.133683 0.082646
0.220139 0.140407 0.077727
0.327545 0.131970 0.048681
0.430872 0.111252 0.000000
0.528806 0.081131 0.000000
0.620036 0.044488 0.000000
0.703249 0.004200 0.000000
0.777130 0.000000 0.000000
0.000000 0.118318 0.211540
0.098752 0.161887 0.247881
0.217796 0.187179 0.262799
0.334290 0.197074 0.257507
0.446920 0.194451 0.233216
0.554374 0.182189 0.191138
0.655338 0.163166 0.132485
0.748500 0.140264 0.058469
0.832547 0.116359 0.000000
0.000000 0.156825 0.297090
0.096940 0.215160 0.342348
0.222352 0.254982 0.370101
0.345430 0.279170 0.381559
0.464860 0.290603 0.377936
0.579329 0.292160 0.360442
0.687523 0.286721 0.330290
0.788131 0.277164 0.288692
0.879840 0.266369 0.236859
0.000000 0.219894 0.341767
0.103680 0.288958 0.388938
0.232958 0.339271 0.422521
0.360116 0.373713 0.443727
0.483841 0.395163 0.453768
0.602821 0.406501 0.453856
0.715742 0.410605 0.445202
0.821292 0.410355 0.429019
0.918157 0.408630 0.406517
0.000000 0.302981 0.368458
0.118124 0.378733 0.410540
0.248762 0.435498 0.442951
0.377495 0.476156 0.466901
0.503012 0.503585 0.483603
0.623999 0.520664 0.494269
0.739143 0.530273 0.500110
0.847131 0.535291 0.502338
0.946650 0.538597 0.502165
0.009548 0.401538 0.400053
0.139419 0.479940 0.430043
0.268913 0.539119 0.454278
0.396719 0.581953 0.473969
0.521524 0.611322 0.490329
0.642014 0.630104 0.504570
0.756876 0.641179 0.517902
0.864798 0.647427 0.531539
0.964467 0.651725 0.546691
0.040707 0.511020 0.459442
0.166715 0.588034 0.470337
0.292562 0.645587 0.479392
0.416937 0.686559 0.487822
0.538525 0.713828 0.496837
0.656014 0.730275 0.507649
0.768091 0.738777 0.521470
0.873443 0.742215 0.539512
0.970757 0.743467 0.562986
0.079521 0.626881 0.569515
0.199162 0.698467 0.554310
0.318859 0.750356 0.541184
0.437297 0.785427 0.531348
0.553165 0.806558 0.526014
0.665150 0.816630 0.526395
0.771937 0.818521 0.533701
0.872216 0.815110 0.549145
0.964671 0.809277 0.573939
0.125140 0.744574 0.753160
0.235910 0.806694 0.704853
0.346951 0.848880 0.662541
0.456950 0.874011 0.627437
0.564594 0.884966 0.600752
0.668570 0.884624 0.583698
0.767564 0.875865 0.577486
0.860264 0.861567 0.583329
0.945358 0.844610 0.602438
0.000000 0.107597 0.000000
0.053854 0.130556 0.000000
0.162715 0.133018 0.000000
0.267789 0.117860 0.000000
0.367761 0.087962 0.000000
0.461320 0.046204 0.000000
0.547152 0.000000 0.000000
0.623945 0.000000 0.000000
0.690384 0.000000 0.000000
0.000000 0.109825 0.183431
0.050393 0.153584 0.224680
0.168374 0.176608 0.236909
0.282782 0.181776 0.221331
0.392305 0.171968 0.179157
0.495630 0.150062 0.111598
0.591443 0.118938 0.019868
0.678432 0.081474 0.000000
0.755284 0.040551 0.000000
0.000000 0.143475 0.313235
0.057813 0.203995 0.368449
0.182409 0.243543 0.398562
0.303648 0.264998 0.404783
0.420218 0.271240 0.388325
0.530804 0.265148 0.350400
0.634095 0.249600 0.292220
0.728777 0.227476 0.214996
0.813537 0.201656 0.119940
0.000000 0.204002 0.387543
0.075263 0.277243 0.449721
0.203971 0.329276 0.490712
0.329537 0.362980 0.511730
0.450648 0.381233 0.513985
0.565993 0.386915 0.498691
0.674257 0.382906 0.467057
0.774127 0.372083 0.420297
0.864292 0.357327 0.359622
0.000000 0.286858 0.429246
0.101893 0.368783 0.491383
0.232208 0.429262 0.536251
0.359597 0.471175 0.565062
0.482747 0.497401 0.579028
0.600345 0.510819 0.579360
0.711079 0.514308 0.567270
0.813634 0.510748 0.543970
0.906699 0.503017 0.510673
0.006035 0.387498 0.461233
0.136851 0.474067 0.516327
0.266270 0.538954 0.558068
0.392978 0.585038 0.587669
0.515663 0.615198 0.606341
0.633011 0.632313 0.615297
0.743710 0.639262 0.615748
0.846446 0.638925 0.608905
0.939907 0.634180 0.595982
0.052088 0.501377 0.506394
0.179289 0.588551 0.547440
0.305307 0.653807 0.579051
0.428830 0.700022 0.602439
0.548545 0.730077 0.618815
0.663140 0.746850 0.629391
0.771300 0.753221 0.635380
0.871713 0.752068 0.637991
0.963066 0.746271 0.638439
0.107274 0.623947 0.587617
0.228354 0.707688 0.607613
0.348468 0.769273 0.622091
0.466303 0.811582 0.632263
0.580544 0.837493 0.639339
0.689880 0.849885 0.644533
0.792998 0.851638 0.649055
0.888584 0.845632 0.654118
0.975326 0.834744 0.660933
0.170741 0.750663 0.727792
0.283198 0.826932 0.719735
0.394903 0.880809 0.710077
0.504545 0.915171 0.700029
0.610809 0.932900 0.690803
0.712383 0.936873 0.683610
0.807954 0.929969 0.679664
0.896210 0.915069 0.680174
0.975836 0.895052 0.686354
0.000000 0.079056 0.000000
0.000000 0.099532 0.000000
0.060298 0.097052 0.000000
0.163327 0.074494 0.000000
0.260233 0.034738 0.000000
0.349703 0.000000 0.000000
0.430425 0.000000 0.000000
0.501085 0.000000 0.000000
0.560371 0.000000 0.000000
0.000000 0.078091 0.118700
0.000000 0.121361 0.162970
0.079115 0.141437 0.170624
0.191726 0.141199 0.142873
0.298429 0.123526 0.080928
0.397912 0.091297 0.000000
0.488862 0.047392 0.000000
0.569965 0.000000 0.000000
0.639910 0.000000 0.000000
0.000000 0.110861 0.301860
0.000000 0.172886 0.365145
0.107786 0.211480 0.395730
0.227474 0.229524 0.394827
0.341471 0.229895 0.363649
0.448462 0.215474 0.303406
0.547136 0.189139 0.215310
0.636180 0.153769 0.100574
0.714279 0.112244 0.000000
0.000000 0.172821 0.414905
0.017035 0.249561 0.490201
0.145460 0.302635 0.536715
0.269722 0.334921 0.555658
0.388508 0.349298 0.548241
0.500504 0.348645 0.515677
0.604399 0.335842 0.459177
0.698877 0.313767 0.379954
0.782628 0.285300 0.279218
0.000000 0.259423 0.480723
0.061008 0.346841 0.561028
0.191288 0.410355 0.616467
0.317619 0.452845 0.648252
0.438690 0.477188 0.657594
0.553187 0.486265 0.645706
0.659798 0.482955 0.613799
0.757208 0.470137 0.563085
0.844106 0.450690 0.494776
0.000000 0.366123 0.522205
0.114787 0.460180 0.600516
0.244417 0.530095 0.657877
0.370315 0.578749 0.695500
0.491167 0.609021 0.714599
0.605661 0.623789 0.716383
0.712484 0.625933 0.702065
0.810322 0.618332 0.672858
0.897863 0.603865 0.629972
0.048842 0.488375 0.562240
0.177522 0.585030 0.631553
0.303999 0.657309 0.683833
0.426958 0.708089 0.720292
0.545088 0.740249 0.742143
0.657075 0.756670 0.750597
0.761606 0.760229 0.746865
0.857368 0.753807 0.732161
0.943048 0.740282 0.707695
0.125555 0.621631 0.623718
0.248363 0.716848 0.677029
0.369182 0.787450 0.717225
0.486699 0.836317 0.745517
0.599602 0.866327 0.763117
0.706578 0.880361 0.771237
0.806313 0.881297 0.771089
0.897495 0.872015 0.763884
0.978810 0.855393 0.750835
0.212028 0.761347 0.729527
0.326458 0.851085 0.759834
0.439116 0.915972 0.780942
0.548687 0.958888 0.794063
0.653860 0.982710 0.800410
0.753320 0.990318 0.801193
0.845756 0.984592 0.797624
0.929853 0.968411 0.790917
1.000000 0.944653 0.782281
0.000000 0.015193 0.000000
0.000000 0.032507 0.000000
0.000000 0.024406 0.000000
0.002294 0.000000 0.000000
0.096421 0.000000 0.000000
0.182090 0.000000 0.000000
0.257989 0.000000 0.000000
0.322804 0.000000 0.000000
0.375223 0.000000 0.000000
0.000000 0.015012 0.014442
0.000000 0.057113 0.059847
0.000000 0.073563 0.061038
0.049254 0.067239 0.019227
0.153425 0.041023 0.000000
0.249354 0.000000 0.000000
0.335728 0.000000 0.000000
0.411234 0.000000 0.000000
0.474558 0.000000 0.000000
0.000000 0.050878 0.260062
0.000000 0.113729 0.329530
0.000000 0.150690 0.358702
0.105042 0.164642 0.348789
0.216753 0.158464 0.301003
0.320438 0.135034 0.216555
0.414782 0.097232 0.096658
0.498475 0.047937 0.000000
0.570201 0.000000 0.000000
0.000000 0.118248 0.420946
0.000000 0.197808 0.507475
0.045562 0.251243 0.557624
0.168807 0.281431 0.572605
0.285554 0.291253 0.553630
0.394490 0.283586 0.501910
0.494302 0.261310 0.418658
0.583676 0.227304 0.305085
0.661301 0.184447 0.162402
0.000000 0.212573 0.519984
0.000000 0.304805 0.616570
0.114136 0.370674 0.680694
0.239698 0.413060 0.713566
0.358977 0.434842 0.716399
0.470660 0.438899 0.690403
0.573435 0.428110 0.636793
0.665988 0.405355 0.556778
0.747007 0.373512 0.451571
0.000000 0.329309 0.580065
0.061361 0.430173 0.679706
0.191489 0.504438 0.750800
0.316864 0.554983 0.794560
0.436171 0.584687 0.812197
0.548099 0.596429 0.804924
0.651332 0.593089 0.773951
0.744560 0.577545 0.720491
0.826468 0.552677 0.645756
0.019102 0.463910 0.624078
0.149550 0.569368 0.719770
0.276772 0.647989 0.790832
0.399456 0.702654 0.838477
0.516287 0.736241 0.863915
0.625954 0.751630 0.868360
0.727143 0.751699 0.853023
0.818541 0.739327 0.819115
0.898836 0.717395 0.767849
0.122500 0.611829 0.674914
0.247322 0.717841 0.759653
0.369134 0.796781 0.823680
0.486622 0.851527 0.868206
0.598474 0.884958 0.894443
0.703376 0.899954 0.903603
0.800016 0.899394 0.896898
0.887081 0.886157 0.875539
0.963258 0.863121 0.840738
0.237135 0.768520 0.755460
0.353827 0.871049 0.822244
0.467723 0.946268 0.872233
0.577512 0.997056 0.906637
0.681880 1.000000 0.926669
0.779515 1.000000 0.933541
0.869102 1.000000 0.928464
0.949329 1.000000 0.912651
1.000000 0.985310 0.887313
0.000000 0.000000 0.000000
0.000000 0.000000 0.000000
0.000000 0.000000 0.000000
0.000000 0.000000 0.000000
0.000000 0.000000 0.000000
0.000000 0.000000 0.000000
0.017978 0.000000 0.000000
0.077236 0.000000 0.000000
0.123075 0.000000 0.000000
0.000000 0.000000 0.000000
0.000000 0.000000 0.000000
0.000000 0.000000 0.000000
0.000000 0.000000 0.000000
0.000000 0.000000 0.000000
0.038091 0.000000 0.000000
0.120176 0.000000 0.000000
0.190372 0.000000 0.000000
0.247364 0.000000 0.000000
0.000000 0.000000 0.184936
0.000000 0.018420 0.258701
0.000000 0.053069 0.284573
0.000000 0.062250 0.263763
0.034200 0.048843 0.197482
0.134864 0.015725 0.086944
0.225167 0.000000 0.000000
0.303796 0.000000 0.000000
0.369437 0.000000 0.000000
0.000000 0.032178 0.402763
0.000000 0.113879 0.498638
0.000000 0.166996 0.550536
0.014925 0.194408 0.559669
0.129921 0.198994 0.527249
0.236083 0.183633 0.454487
0.332100 0.151205 0.342595
0.416658 0.104589 0.192785
0.488444 0.046663 0.006270
0.000000 0.138203 0.544124
0.000000 0.234570 0.655105
0.000000 0.302115 0.726027
0.113966 0.343718 0.758099
0.231741 0.362259 0.752536
0.340898 0.360617 0.710547
0.440125 0.341670 0.633346
0.528108 0.308298 0.522144
0.603534 0.263380 0.378152
0.000000 0.268952 0.631908
0.000000 0.375945 0.750992
0.095621 0.453880 0.833933
0.220760 0.505636 0.881943
0.338810 0.534093 0.896232
0.448458 0.542130 0.878014
0.548390 0.532625 0.828500
0.637295 0.508459 0.748902
0.713858 0.472510 0.640431
0.000000 0.419878 0.689003
0.083506 0.533459 0.809187
0.211762 0.617745 0.897145
0.334456 0.675615 0.954088
0.450277 0.709949 0.981228
0.557912 0.723626 0.979778
0.656046 0.719526 0.950948
0.743368 0.700526 0.895950
0.818564 0.669507 0.815997
0.086243 0.586436 0.738300
0.213367 0.702566 0.852581
0.336458 0.789164 0.938552
0.454205 0.849109 0.997426
0.565293 0.885282 1.000000
0.668410 0.900561 1.000000
0.762242 0.897825 1.000000
0.845477 0.879953 0.986178
0.916803 0.849825 0.927739
0.234196 0.764080 0.802688
0.353437 0.878720 0.904062
0.468861 0.963591 0.981044
0.579154 1.000000 1.000000
0.683006 1.000000 1.000000
0.779101 1.000000 1.000000
0.866128 1.000000 1.000000
0.942772 1.000000 1.000000
1.000000 1.000000 0.998546
