calib/fujify/montage_cubes/provia_montage.cube
TITLE "Chromasmith montage fit - Provia"
#STD->look, fit from fujify comparison montages (best-effort)
LUT_3D_SIZE 5
0.049030 0.044293 0.042539
0.271414 0.050198 0.018046
0.553856 0.094324 0.064722
0.818258 0.125567 0.135387
0.986524 0.092827 0.182857
0.107352 0.307375 0.111833
0.299874 0.285359 0.028496
0.544617 0.302880 0.041973
0.763485 0.308835 0.105081
0.878383 0.252123 0.170638
0.319023 0.801941 0.366219
0.453611 0.684430 0.164806
0.632584 0.607772 0.085850
0.777847 0.520864 0.082169
0.811304 0.372606 0.106581
1.000000 1.000000 1.000000
1.000000 1.000000 0.850707
1.000000 1.000000 0.620086
1.000000 1.000000 0.490382
1.000000 0.839893 0.414416
1.000000 1.000000 1.000000
1.000000 1.000000 1.000000
1.000000 1.000000 1.000000
1.000000 1.000000 1.000000
1.000000 1.000000 1.000000
0.029212 0.053656 0.153422
0.088040 0.000000 0.000000
0.226653 0.000000 0.000000
0.366954 0.000000 0.000000
0.430847 0.000000 0.000000
0.116276 0.345458 0.390207
0.282023 0.288864 0.273011
0.519720 0.286138 0.241906
0.751270 0.286178 0.249708
0.898577 0.237881 0.249238
0.000000 0.438014 0.319638
0.181245 0.431157 0.214569
0.489955 0.479483 0.221232
0.784682 0.531891 0.292447
0.987331 0.537279 0.381032
0.000000 0.716942 0.365448
0.108343 0.692246 0.213271
0.459994 0.724051 0.198471
0.789827 0.761254 0.273866
1.000000 0.752752 0.392274
0.067876 1.000000 0.951366
0.385954 1.000000 0.692849
0.752474 1.000000 0.597353
1.000000 1.000000 0.617694
1.000000 1.000000 0.706693
0.000000 0.000000 0.000000
0.000000 0.000000 0.000000
0.000000 0.000000 0.000000
0.000000 0.000000 0.000000
0.000000 0.000000 0.000000
0.319275 0.562349 0.700981
0.252023 0.278035 0.383662
0.276448 0.061920 0.141709
0.314454 0.000000 0.000000
0.287946 0.000000 0.000000
0.115886 0.605449 0.720438
0.264265 0.516102 0.545446
0.496486 0.496271 0.471464
0.734452 0.494851 0.451310
0.900068 0.460743 0.437803
0.000000 0.404192 0.363828
0.000000 0.442238 0.271930
0.296290 0.551116 0.306685
0.706145 0.679722 0.420913
1.000000 0.776956 0.567431
0.000000 0.344195 0.054880
0.000000 0.442060 0.000000
0.000000 0.612072 0.071105
0.552169 0.803130 0.260481
1.000000 0.964131 0.507791
0.000000 0.000000 0.000000
0.000000 0.000000 0.000000
0.000000 0.000000 0.000000
0.000000 0.000000 0.000000
0.000000 0.000000 0.000000
0.512631 0.778217 0.813298
0.006154 0.073040 0.129589
0.000000 0.000000 0.000000
0.000000 0.000000 0.000000
0.000000 0.000000 0.000000
0.653017 1.000000 1.000000
0.498954 0.759435 0.926580
0.448460 0.478302 0.605687
0.423441 0.229913 0.327899
0.345798 0.000000 0.046035
0.009274 0.795524 0.993708
0.179552 0.703170 0.795824
0.445565 0.695977 0.713871
0.729217 0.722845 0.700666
0.952409 0.732671 0.709028
0.000000 0.177167 0.204874
0.000000 0.289862 0.161054
0.000000 0.489035 0.258807
0.489286 0.723585 0.450952
0.985242 0.942410 0.690308
0.000000 0.000000 0.000000
0.000000 0.000000 0.000000
0.000000 0.000000 0.000000
0.000000 0.000000 0.000000
0.000000 0.000000 0.000000
0.492626 0.813228 0.496299
0.000000 0.000000 0.000000
0.000000 0.000000 0.000000
0.000000 0.000000 0.000000
0.000000 0.000000 0.000000
1.000000 1.000000 1.000000
0.681592 0.981321 1.000000
0.142160 0.245746 0.393043
0.000000 0.000000 0.000000
0.000000 0.000000 0.000000
0.991851 1.000000 1.000000
0.790245 1.000000 1.000000
0.704102 0.978803 1.000000
0.655324 0.710790 0.882266
0.565816 0.440065 0.586208
0.000000 0.886940 1.000000
0.000000 0.821323 0.984621
0.328370 0.856515 0.929602
0.696974 0.941415 0.958251
1.000000 1.000000 1.000000
