calib/fujify/montage_cubes/provia_montage.cube
TITLE "Chromasmith montage fit - Provia"
#STD->look, fit from fujify comparison montages (best-effort)
LUT_3D_SIZE 33
0.049030 0.044293 0.042539
0.070874 0.041195 0.033973
0.094725 0.039392 0.027163
0.120429 0.038785 0.022019
0.147834 0.039275 0.018447
0.176787 0.040760 0.016356
0.207137 0.043143 0.015654
0.238730 0.046322 0.016248
0.271414 0.050198 0.018046
0.305037 0.054672 0.020956
0.339445 0.059643 0.024886
0.374486 0.065011 0.029744
0.410009 0.070677 0.035437
0.445859 0.076542 0.041873
0.481886 0.082504 0.048961
0.517935 0.088465 0.056608
0.553856 0.094324 0.064722
0.589494 0.099982 0.073211
0.624698 0.105338 0.081983
0.659315 0.110294 0.090945
0.693193 0.114750 0.100005
0.726178 0.118604 0.109071
0.758119 0.121759 0.118052
0.788863 0.124113 0.126854
0.818258 0.125567 0.135387
0.846150 0.126022 0.143556
0.872388 0.125377 0.151272
0.896818 0.123532 0.158440
0.919289 0.120389 0.164970
0.939648 0.115846 0.170769
0.957741 0.109805 0.175744
0.973418 0.102165 0.179804
0.986524 0.092827 0.182857
0.058961 0.077700 0.055561
0.080585 0.074618 0.046305
0.104199 0.072834 0.038856
0.129651 0.072249 0.033122
0.156789 0.072763 0.029011
0.185460 0.074276 0.026431
0.215512 0.076688 0.025289
0.246792 0.079899 0.025493
0.279148 0.083810 0.026952
0.312427 0.088321 0.029573
0.346476 0.093331 0.033264
0.381144 0.098742 0.037933
0.416277 0.104453 0.043487
0.451722 0.110365 0.049835
0.487329 0.116377 0.056884
0.522943 0.122391 0.064543
0.558412 0.128305 0.072718
0.593585 0.134021 0.081318
0.628308 0.139438 0.090251
0.662428 0.144457 0.099425
0.695794 0.148978 0.108747
0.728252 0.152900 0.118126
0.759651 0.156125 0.127468
0.789837 0.158553 0.136683
0.818658 0.160083 0.145677
0.845962 0.160616 0.154359
0.871596 0.160052 0.162637
0.895407 0.158291 0.170418
0.917244 0.155234 0.177610
0.936953 0.150780 0.184121
0.954382 0.144830 0.189859
0.969378 0.137284 0.194732
0.981789 0.128042 0.198648
0.066878 0.109451 0.065683
0.088225 0.106253 0.055621
0.111548 0.104357 0.047417
0.136694 0.103662 0.040977
0.163510 0.104068 0.036211
0.191844 0.105476 0.033025
0.221544 0.107785 0.031328
0.252456 0.110897 0.031028
0.284429 0.114711 0.032032
0.317309 0.119127 0.034248
0.350945 0.124045 0.037584
0.385183 0.129366 0.041948
0.419872 0.134990 0.047248
0.454858 0.140818 0.053391
0.489989 0.146748 0.060286
0.525113 0.152682 0.067840
0.560077 0.158520 0.075961
0.594729 0.164161 0.084558
0.628915 0.169507 0.093537
0.662484 0.174457 0.102806
0.695283 0.178911 0.112275
0.727160 0.182770 0.121849
0.757961 0.185934 0.131438
0.787534 0.188302 0.140949
0.815728 0.189776 0.150290
0.842388 0.190256 0.159368
0.867364 0.189640 0.168092
0.890501 0.187831 0.176370
0.911649 0.184728 0.184109
0.930653 0.180231 0.191217
0.947362 0.174240 0.197602
0.961623 0.166656 0.203172
0.973284 0.157378 0.207835
0.073410 0.140300 0.073730
0.094426 0.136855 0.062748
0.117403 0.134714 0.053672
0.142187 0.133777 0.046412
0.168627 0.133943 0.040874
0.196569 0.135114 0.036968
0.225861 0.137189 0.034600
0.256351 0.140069 0.033679
0.287886 0.143653 0.034113
0.320313 0.147843 0.035808
0.353480 0.152537 0.038674
0.387234 0.157637 0.042618
0.421424 0.163042 0.047547
0.455896 0.168652 0.053370
0.490497 0.174369 0.059995
0.525076 0.180092 0.067329
0.559480 0.185721 0.075280
0.593556 0.191156 0.083757
0.627151 0.196298 0.092666
0.660114 0.201047 0.101916
0.692291 0.205303 0.111415
0.723531 0.208966 0.121070
0.753680 0.211936 0.130789
0.782586 0.214114 0.140481
0.810096 0.215400 0.150052
0.836059 0.215694 0.159412
0.860321 0.214896 0.168467
0.882730 0.212906 0.177125
0.903133 0.209625 0.185296
0.921378 0.204952 0.192885
0.937313 0.198788 0.199801
0.950784 0.191034 0.205953
0.961639 0.181589 0.211247
0.079187 0.171000 0.080532
0.099818 0.167176 0.068513
0.122394 0.164658 0.058450
0.146762 0.163347 0.050253
0.172770 0.163142 0.043829
0.200265 0.163944 0.039086
0.229095 0.165652 0.035932
0.259107 0.168168 0.034275
0.290149 0.171391 0.034022
0.322068 0.175222 0.035081
0.354712 0.179560 0.037361
0.387928 0.184306 0.040768
0.421563 0.189360 0.045212
0.455466 0.194623 0.050599
0.489483 0.199993 0.056838
0.523462 0.205373 0.063837
0.557250 0.210661 0.071502
0.590696 0.215758 0.079743
0.623646 0.220565 0.088467
0.655947 0.224981 0.097582
0.687448 0.228906 0.106995
0.717996 0.232241 0.116615
0.747438 0.234886 0.126349
0.775622 0.236741 0.136106
0.802395 0.237707 0.145792
0.827604 0.237683 0.155317
0.851098 0.236570 0.164587
0.872723 0.234268 0.173511
0.892328 0.230677 0.181997
0.909759 0.225697 0.189952
0.924864 0.219229 0.197284
0.937490 0.211172 0.203901
0.947486 0.201428 0.209711
0.084840 0.202304 0.086916
0.105030 0.197969 0.073744
0.127150 0.194943 0.062579
0.151047 0.193125 0.053329
0.176569 0.192417 0.045903
0.203562 0.192718 0.040208
0.231875 0.193928 0.036152
0.261355 0.195948 0.033642
0.291850 0.198678 0.032587
0.323206 0.202018 0.032895
0.355272 0.205868 0.034473
0.387894 0.210128 0.037228
0.420921 0.214699 0.041070
0.454199 0.219481 0.045906
0.487577 0.224374 0.051644
0.520901 0.229278 0.058191
0.554019 0.234094 0.065455
0.586779 0.238721 0.073345
0.619029 0.243060 0.081767
0.650614 0.247011 0.090631
0.681384 0.250474 0.099843
0.711185 0.253349 0.109312
0.739865 0.255537 0.118946
0.767272 0.256938 0.128652
0.793253 0.257451 0.138338
0.817655 0.256978 0.147912
0.840325 0.255418 0.157282
0.861112 0.252671 0.166355
0.879863 0.248638 0.175041
0.896425 0.243219 0.183245
0.910646 0.236314 0.190877
0.922373 0.227823 0.197844
0.931453 0.217647 0.204054
0.090998 0.234966 0.093709
0.110693 0.229988 0.079268
0.132303 0.226321 0.066885
0.155674 0.223865 0.056468
0.180654 0.222521 0.047923
0.207091 0.222189 0.041160
0.234832 0.222769 0.036086
0.263725 0.224161 0.032609
0.293617 0.226266 0.030636
0.324356 0.228983 0.030076
0.355788 0.232213 0.030837
0.387762 0.235856 0.032825
0.420125 0.239812 0.035950
0.452725 0.243982 0.040118
0.485408 0.248265 0.045239
0.518023 0.252562 0.051218
0.550417 0.256773 0.057966
0.582437 0.260798 0.065389
0.613930 0.264537 0.073394
0.644745 0.267891 0.081891
0.674729 0.270760 0.090787
0.703729 0.273043 0.099990
0.731592 0.274642 0.109407
0.758167 0.275456 0.118946
0.783300 0.275385 0.128516
0.806840 0.274330 0.138024
0.828632 0.272191 0.147377
0.848526 0.268868 0.156485
0.866369 0.264261 0.165254
0.882007 0.258271 0.173593
0.895288 0.250797 0.181409
0.906061 0.241741 0.188610
0.914172 0.231001 0.195105
0.098292 0.269739 0.101738
0.117437 0.263985 0.085914
0.138481 0.259546 0.072197
0.161272 0.256320 0.060496
0.185656 0.254208 0.050718
0.211482 0.253111 0.042771
0.238596 0.252929 0.036564
0.266847 0.253561 0.032003
0.296082 0.254909 0.028997
0.326148 0.256871 0.027454
0.356893 0.259349 0.027281
0.388163 0.262243 0.028386
0.419808 0.265452 0.030678
0.451674 0.268877 0.034063
0.483608 0.272418 0.038451
0.515459 0.275976 0.043748
0.547073 0.279450 0.049863
0.578297 0.282741 0.056703
0.608981 0.285749 0.064176
0.638970 0.288374 0.072191
0.668113 0.290516 0.080654
0.696257 0.292076 0.089474
0.723249 0.292953 0.098559
0.748937 0.293049 0.107817
0.773168 0.292262 0.117154
0.795790 0.290494 0.126480
0.816650 0.287644 0.135702
0.835596 0.283612 0.144728
0.852475 0.278300 0.153465
0.867134 0.271606 0.161823
0.879422 0.263432 0.169707
0.889185 0.253677 0.177027
0.896272 0.242242 0.183690
0.107352 0.307375 0.111833
0.125892 0.300714 0.094508
0.146316 0.295370 0.079342
0.168471 0.291242 0.066241
0.192204 0.288231 0.055114
0.217364 0.286237 0.045868
0.243797 0.285161 0.038411
0.271351 0.284901 0.032651
0.299874 0.285359 0.028496
0.329212 0.286435 0.025854
0.359214 0.288029 0.024632
0.389727 0.290041 0.024739
0.420599 0.292372 0.026082
0.451676 0.294920 0.028569
0.482806 0.297588 0.032108
0.513838 0.300274 0.036606
0.544617 0.302880 0.041973
0.574992 0.305305 0.048115
0.604811 0.307449 0.054940
0.633920 0.309213 0.062356
0.662167 0.310497 0.070272
0.689399 0.311201 0.078594
0.715465 0.311225 0.087231
0.740211 0.310470 0.096091
0.763485 0.308835 0.105081
0.785135 0.306221 0.114109
0.805008 0.302528 0.123083
0.822951 0.297657 0.131912
0.838812 0.291506 0.140502
0.852438 0.283978 0.148762
0.863677 0.274971 0.156599
0.872376 0.264386 0.163922
0.878383 0.252123 0.170638
0.118808 0.348629 0.124819
0.136688 0.340929 0.105879
0.156437 0.334548 0.089148
0.177902 0.329386 0.074532
0.200929 0.325343 0.061939
0.225368 0.322321 0.051278
0.251065 0.320217 0.042457
0.277867 0.318934 0.035382
0.305623 0.318371 0.029962
0.334180 0.318429 0.026105
0.363384 0.319006 0.023719
0.393084 0.320005 0.022711
0.423128 0.321324 0.022990
0.453361 0.322865 0.024462
0.483633 0.324527 0.027037
0.513790 0.326210 0.030622
0.543680 0.327815 0.035124
0.573151 0.329242 0.040452
0.602049 0.330391 0.046513
0.630223 0.331162 0.053216
0.657520 0.331455 0.060468
0.683786 0.331172 0.068176
0.708871 0.330211 0.076250
0.732621 0.328473 0.084596
0.754883 0.325858 0.093122
0.775506 0.322266 0.101737
0.794336 0.317599 0.110349
0.811222 0.311755 0.118864
0.826009 0.304635 0.127191
0.838547 0.296139 0.135238
0.848683 0.286167 0.142913
0.856263 0.274620 0.150123
0.861136 0.261398 0.156776
0.133290 0.394252 0.141525
0.150456 0.385381 0.120854
0.169475 0.377831 0.102442
0.190194 0.371503 0.086195
0.212462 0.366298 0.072022
0.236124 0.362114 0.059830
0.261030 0.358852 0.049528
0.287026 0.356414 0.041023
0.313960 0.354697 0.034223
0.341680 0.353604 0.029035
0.370032 0.353034 0.025369
0.398864 0.352887 0.023131
0.428025 0.353064 0.022229
0.457360 0.353464 0.022572
0.486718 0.353988 0.024067
0.515947 0.354536 0.026621
0.544893 0.355008 0.030144
0.573404 0.355305 0.034542
0.601327 0.355327 0.039724
0.628511 0.354973 0.045597
0.654802 0.354144 0.052069
0.680049 0.352741 0.059049
0.704097 0.350662 0.066443
0.726796 0.347810 0.074160
0.747992 0.344083 0.082107
0.767532 0.339382 0.090193
0.785265 0.333607 0.098326
0.801038 0.326659 0.106412
0.814698 0.318437 0.114361
0.826093 0.308842 0.122079
0.835070 0.297774 0.129475
0.841477 0.285133 0.136457
0.845160 0.270819 0.142932
0.151429 0.444998 0.162778
0.167825 0.434824 0.140261
0.186059 0.425974 0.120052
0.205979 0.418348 0.102058
0.227431 0.411847 0.086189
0.250263 0.406370 0.072351
0.274323 0.401819 0.060452
0.299458 0.398092 0.050401
0.325515 0.395091 0.042104
0.352343 0.392715 0.035471
0.379788 0.390865 0.030409
0.407698 0.389440 0.026825
0.435920 0.388342 0.024627
0.464303 0.387470 0.023724
0.492692 0.386724 0.024024
0.520937 0.386005 0.025433
0.548884 0.385213 0.027860
0.576381 0.384248 0.031213
0.603275 0.383010 0.035399
0.629414 0.381399 0.040327
0.654645 0.379316 0.045905
0.678816 0.376661 0.052039
0.701773 0.373334 0.058638
0.723366 0.369235 0.065610
0.743440 0.364264 0.072863
0.761844 0.358322 0.080305
0.778425 0.351308 0.087842
0.793031 0.343123 0.095384
0.805508 0.333668 0.102838
0.815705 0.322842 0.110112
0.823469 0.310545 0.117114
0.828647 0.296678 0.123751
0.831087 0.281141 0.129932
0.173854 0.501621 0.189406
0.189426 0.490012 0.164926
0.206821 0.479729 0.142805
0.225885 0.470674 0.122949
0.246467 0.462745 0.105268
0.268414 0.455844 0.089668
0.291573 0.449870 0.076057
0.315792 0.444723 0.064344
0.340918 0.440305 0.054436
0.366799 0.436514 0.046241
0.393282 0.433252 0.039667
0.420214 0.430419 0.034621
0.447444 0.427913 0.031012
0.474819 0.425637 0.028748
0.502186 0.423490 0.027736
0.529392 0.421372 0.027884
0.556285 0.419183 0.029100
0.582713 0.416824 0.031292
0.608522 0.414194 0.034367
0.633561 0.411195 0.038234
0.657677 0.407726 0.042801
0.680718 0.403687 0.047975
0.702530 0.398978 0.053663
0.722961 0.393500 0.059775
0.741860 0.387154 0.066217
0.759072 0.379838 0.072898
0.774446 0.371454 0.079726
0.787830 0.361901 0.086608
0.799070 0.351079 0.093452
0.808014 0.338890 0.100165
0.814510 0.325233 0.106657
0.818404 0.310008 0.112835
0.819546 0.293115 0.118606
0.201196 0.564874 0.222236
0.215889 0.551698 0.195679
0.232389 0.539850 0.171529
0.250544 0.529233 0.149696
0.270201 0.519745 0.130086
0.291207 0.511286 0.112609
0.313411 0.503758 0.097170
0.336659 0.497060 0.083680
0.360798 0.491093 0.072044
0.385678 0.485756 0.062172
0.411144 0.480950 0.053970
0.437045 0.476574 0.047348
0.463227 0.472530 0.042212
0.489539 0.468718 0.038470
0.515828 0.465037 0.036031
0.541941 0.461388 0.034802
0.567725 0.457670 0.034691
0.593029 0.453785 0.035607
0.617699 0.449632 0.037455
0.641584 0.445112 0.040146
0.664530 0.440125 0.043586
0.686385 0.434570 0.047683
0.706997 0.428348 0.052346
0.726213 0.421360 0.057481
0.743880 0.413505 0.062997
0.759846 0.404684 0.068802
0.773959 0.394797 0.074804
0.786065 0.383744 0.080910
0.796013 0.371425 0.087028
0.803649 0.357741 0.093066
0.808822 0.342591 0.098932
0.811379 0.325876 0.104534
0.811166 0.307496 0.109780
0.234085 0.635509 0.262097
0.247844 0.620634 0.233346
0.263395 0.607090 0.207052
0.280585 0.594778 0.183125
0.299262 0.583599 0.161472
0.319273 0.573452 0.142001
0.340466 0.564237 0.124620
0.362688 0.555856 0.109235
0.385787 0.548207 0.095757
0.409610 0.541192 0.084091
0.434005 0.534710 0.074147
0.458819 0.528661 0.065831
0.483899 0.522946 0.059053
0.509093 0.517466 0.053718
0.534249 0.512119 0.049737
0.559214 0.506807 0.047015
0.583835 0.501429 0.045462
0.607960 0.495886 0.044985
0.631436 0.490078 0.045491
0.654111 0.483905 0.046889
0.675833 0.477267 0.049087
0.696448 0.470064 0.051992
0.715805 0.462198 0.055513
0.733750 0.453567 0.059556
0.750131 0.444072 0.064031
0.764796 0.433614 0.068844
0.777592 0.422092 0.073904
0.788367 0.409406 0.079118
0.796967 0.395458 0.084395
0.803242 0.380146 0.089642
0.807037 0.363372 0.094767
0.808200 0.345035 0.099677
0.806580 0.325036 0.104282
0.273150 0.714280 0.309815
0.285921 0.697574 0.278754
0.300468 0.682202 0.250202
0.316638 0.668064 0.224066
0.334281 0.655061 0.200253
0.353242 0.643093 0.178673
0.373370 0.632061 0.159232
0.394512 0.621864 0.141839
0.416515 0.612402 0.126402
0.439227 0.603576 0.112827
0.462495 0.595286 0.101024
0.486167 0.587432 0.090900
0.510090 0.579915 0.082363
0.534112 0.572634 0.075320
0.558080 0.565489 0.069680
0.581842 0.558382 0.065350
0.605244 0.551212 0.062239
0.628136 0.543879 0.060254
0.650363 0.536283 0.059302
0.671774 0.528325 0.059292
0.692216 0.519905 0.060132
0.711537 0.510923 0.061730
0.729583 0.501280 0.063993
0.746203 0.490874 0.066829
0.761243 0.479608 0.070145
0.774552 0.467380 0.073851
0.785977 0.454091 0.077854
0.795365 0.439641 0.082061
0.802564 0.423931 0.086380
0.807421 0.406861 0.090720
0.809783 0.388330 0.094988
0.809499 0.368239 0.099092
0.806415 0.346488 0.102940
0.319023 0.801941 0.366219
0.330750 0.783271 0.332733
0.344238 0.765938 0.301805
0.359335 0.749843 0.273344
0.375888 0.734885 0.247257
0.393744 0.720964 0.223452
0.412752 0.707981 0.201836
0.432758 0.695836 0.182319
0.453611 0.684430 0.164806
0.475156 0.673661 0.149208
0.497243 0.663431 0.135430
0.519719 0.653640 0.123382
0.542430 0.644188 0.112970
0.565225 0.634975 0.104103
0.587950 0.625901 0.096689
0.610454 0.616866 0.090636
0.632584 0.607772 0.085850
0.654187 0.598517 0.082241
0.675111 0.589002 0.079716
0.695203 0.579127 0.078183
0.714310 0.568793 0.077549
0.732281 0.557900 0.077723
0.748962 0.546347 0.078612
0.764202 0.534035 0.080125
0.777847 0.520864 0.082169
0.789745 0.506735 0.084652
0.799744 0.491548 0.087481
0.807690 0.475202 0.090565
0.813432 0.457598 0.093812
0.816817 0.438636 0.097129
0.817692 0.418217 0.100424
0.815905 0.396240 0.103605
0.811304 0.372606 0.106581
0.372333 0.899243 0.432135
0.382962 0.878478 0.396108
0.395336 0.859053 0.362690
0.409304 0.840868 0.331788
0.424712 0.823822 0.303310
0.441409 0.807817 0.277165
0.459242 0.792752 0.253259
0.478058 0.778528 0.231501
0.497705 0.765044 0.211799
0.518030 0.752201 0.194060
0.538881 0.739899 0.178192
0.560105 0.728039 0.164104
0.581549 0.716520 0.151702
0.603062 0.705242 0.140896
0.624490 0.694107 0.131592
0.645682 0.683013 0.123698
0.666483 0.671862 0.117124
0.686743 0.660553 0.111775
0.706308 0.648987 0.107560
0.725026 0.637064 0.104388
0.742745 0.624684 0.102165
0.759311 0.611746 0.100800
0.774573 0.598153 0.100200
0.788377 0.583802 0.100274
0.800572 0.568596 0.100929
0.811004 0.552433 0.102073
0.819522 0.535215 0.103613
0.825972 0.516841 0.105459
0.830203 0.497212 0.107517
0.832061 0.476227 0.109696
0.831394 0.453787 0.111902
0.828049 0.429792 0.114045
0.821875 0.404143 0.116032
0.433711 1.000000 0.508392
0.443186 0.983949 0.469709
0.454392 0.962300 0.433684
0.467176 0.941892 0.400226
0.481385 0.922628 0.369242
0.496868 0.904406 0.340640
0.513471 0.887126 0.314328
0.531042 0.870690 0.290214
0.549428 0.854998 0.268206
0.568478 0.839948 0.248211
0.588038 0.825443 0.230137
0.607955 0.811381 0.213893
0.628078 0.797663 0.199386
0.648254 0.784190 0.186524
0.668330 0.770861 0.175215
0.688154 0.757576 0.165366
0.707573 0.744236 0.156886
0.726435 0.730742 0.149682
0.744587 0.716992 0.143663
0.761876 0.702888 0.138735
0.778150 0.688330 0.134807
0.793258 0.673217 0.131787
0.807045 0.657450 0.129583
0.819359 0.640929 0.128102
0.830049 0.623555 0.127252
0.838961 0.605227 0.126942
0.845942 0.585846 0.127078
0.850842 0.565312 0.127569
0.853505 0.543525 0.128323
0.853782 0.520385 0.129248
0.851518 0.495793 0.130250
0.846561 0.469649 0.131239
0.838759 0.441852 0.132122
0.503786 1.000000 0.595817
0.512053 1.000000 0.554361
0.522035 1.000000 0.515614
0.533581 1.000000 0.479484
0.546536 1.000000 0.445878
0.560749 1.000000 0.414704
0.576068 0.991857 0.385871
0.592339 0.973078 0.359285
0.609411 0.955044 0.334855
0.627129 0.937656 0.312489
0.645344 0.920815 0.292094
0.663900 0.904420 0.273579
0.682647 0.888371 0.256850
0.701431 0.872570 0.241817
0.720100 0.856915 0.228387
0.738502 0.841308 0.216467
0.756483 0.825647 0.205966
0.773892 0.809835 0.196791
0.790575 0.793770 0.188851
0.806381 0.777353 0.182052
0.821157 0.760485 0.176304
0.834750 0.743064 0.171514
0.847008 0.724993 0.167589
0.857778 0.706170 0.164437
0.866907 0.686495 0.161967
0.874244 0.665870 0.160087
0.879635 0.644195 0.158703
0.882928 0.621368 0.157724
0.883971 0.597292 0.157058
0.882610 0.571865 0.156613
0.878695 0.544988 0.156296
0.872071 0.516562 0.156015
0.862586 0.486486 0.155679
0.583189 1.000000 0.695237
0.590193 1.000000 0.650894
0.598897 1.000000 0.609309
0.609149 1.000000 0.570391
0.620796 1.000000 0.534048
0.633685 1.000000 0.500186
0.647664 1.000000 0.468715
0.662581 1.000000 0.439542
0.678282 1.000000 0.412575
0.694616 1.000000 0.387721
0.711429 1.000000 0.364889
0.728570 1.000000 0.343987
0.745885 0.989397 0.324922
0.763223 0.971136 0.307601
0.780430 0.953023 0.291934
0.797355 0.934961 0.277828
0.813844 0.916848 0.265190
0.829745 0.898586 0.253929
0.844905 0.880074 0.243952
0.859173 0.861213 0.235167
0.872395 0.841902 0.227483
0.884419 0.822042 0.220806
0.895092 0.801533 0.215045
0.904263 0.780276 0.210108
0.911777 0.758170 0.205902
0.917484 0.735115 0.202335
0.921229 0.711013 0.199316
0.922862 0.685763 0.196751
0.922228 0.659264 0.194550
0.919177 0.631419 0.192619
0.913554 0.602126 0.190866
0.905208 0.571285 0.189200
0.893987 0.538798 0.187528
0.672549 1.000000 0.807481
0.678236 1.000000 0.760134
0.685607 1.000000 0.715596
0.694511 1.000000 0.673774
0.704794 1.000000 0.634577
0.716304 1.000000 0.597913
0.728889 1.000000 0.563689
0.742396 1.000000 0.531812
0.756673 1.000000 0.502192
0.771566 1.000000 0.474736
0.786924 1.000000 0.449351
0.802594 1.000000 0.425946
0.818424 1.000000 0.404428
0.834260 1.000000 0.384705
0.849950 1.000000 0.366685
0.865343 1.000000 0.350277
0.880285 1.000000 0.335387
0.894623 0.997748 0.321923
0.908206 0.976657 0.309794
0.920880 0.955219 0.298907
0.932494 0.933334 0.289171
0.942894 0.910903 0.280492
0.951929 0.887825 0.272780
0.959444 0.864001 0.265940
0.965289 0.839331 0.259883
0.969311 0.813716 0.254515
0.971356 0.787055 0.249744
0.971273 0.759248 0.245478
0.968909 0.730197 0.241625
0.964111 0.699800 0.238093
0.956727 0.667958 0.234789
0.946604 0.634572 0.231622
0.933590 0.599542 0.228499
0.772498 1.000000 0.933376
0.776812 1.000000 0.882910
0.782795 1.000000 0.835302
0.790296 1.000000 0.790461
0.799161 1.000000 0.748296
0.809237 1.000000 0.708712
0.820373 1.000000 0.671619
0.832416 1.000000 0.636924
0.845213 1.000000 0.604535
0.858611 1.000000 0.574360
0.872459 1.000000 0.546307
0.886603 1.000000 0.520283
0.900892 1.000000 0.496197
0.915172 1.000000 0.473956
0.929291 1.000000 0.453468
0.943097 1.000000 0.434641
0.956437 1.000000 0.417383
0.969158 1.000000 0.401602
0.981108 1.000000 0.387205
0.992134 1.000000 0.374100
1.000000 1.000000 0.362196
1.000000 1.000000 0.351400
1.000000 0.984621 0.341620
1.000000 0.958099 0.332763
1.000000 0.930734 0.324738
1.000000 0.902425 0.317453
1.000000 0.873073 0.310815
1.000000 0.842578 0.304732
1.000000 0.810841 0.299112
1.000000 0.777762 0.293863
1.000000 0.743240 0.288892
0.996889 0.707176 0.284109
0.982028 0.669470 0.279419
0.883665 1.000000 1.000000
0.886552 1.000000 1.000000
0.891092 1.000000 0.969255
0.897135 1.000000 0.921280
0.904526 1.000000 0.876029
0.913114 1.000000 0.833411
0.922746 1.000000 0.793334
0.933270 1.000000 0.755704
0.944532 1.000000 0.720431
0.956381 1.000000 0.687422
0.968664 1.000000 0.656584
0.981228 1.000000 0.627826
0.993921 1.000000 0.601056
1.000000 1.000000 0.576181
1.000000 1.000000 0.553109
1.000000 1.000000 0.531749
1.000000 1.000000 0.512007
1.000000 1.000000 0.493792
1.000000 1.000000 0.477011
1.000000 1.000000 0.461574
1.000000 1.000000 0.447386
1.000000 1.000000 0.434356
1.000000 1.000000 0.422393
1.000000 1.000000 0.411403
1.000000 1.000000 0.401296
1.000000 1.000000 0.391977
1.000000 0.969821 0.383356
1.000000 0.936506 0.375340
1.000000 0.901951 0.367838
1.000000 0.866057 0.360756
1.000000 0.828723 0.354003
1.000000 0.789849 0.347487
1.000000 0.749336 0.341115
1.000000 1.000000 1.000000
1.000000 1.000000 1.000000
1.000000 1.000000 1.000000
1.000000 1.000000 1.000000
1.000000 1.000000 1.000000
1.000000 1.000000 0.972838
1.000000 1.000000 0.929660
1.000000 1.000000 0.888980
1.000000 1.000000 0.850707
1.000000 1.000000 0.814748
1.000000 1.000000 0.781010
1.000000 1.000000 0.749403
1.000000 1.000000 0.719833
1.000000 1.000000 0.692208
1.000000 1.000000 0.666437
1.000000 1.000000 0.642427
1.000000 1.000000 0.620086
1.000000 1.000000 0.599321
1.000000 1.000000 0.580042
1.000000 1.000000 0.562155
1.000000 1.000000 0.545568
1.000000 1.000000 0.530190
1.000000 1.000000 0.515927
1.000000 1.000000 0.502689
1.000000 1.000000 0.490382
1.000000 1.000000 0.478915
1.000000 1.000000 0.468196
1.000000 1.000000 0.458132
1.000000 1.000000 0.448631
1.000000 0.965439 0.439601
1.000000 0.925161 0.430950
1.000000 0.883345 0.422585
1.000000 0.839893 0.414416
1.000000 1.000000 1.000000
1.000000 1.000000 1.000000
1.000000 1.000000 1.000000
1.000000 1.000000 1.000000
1.000000 1.000000 1.000000
1.000000 1.000000 1.000000
1.000000 1.000000 1.000000
1.000000 1.000000 1.000000
1.000000 1.000000 0.996192
1.000000 1.000000 0.957167
1.000000 1.000000 0.920414
1.000000 1.000000 0.885841
1.000000 1.000000 0.853355
1.000000 1.000000 0.822865
1.000000 1.000000 0.794279
1.000000 1.000000 0.767503
1.000000 1.000000 0.742447
1.000000 1.000000 0.719018
1.000000 1.000000 0.697123
1.000000 1.000000 0.676672
1.000000 1.000000 0.657570
1.000000 1.000000 0.639727
1.000000 1.000000 0.623050
1.000000 1.000000 0.607447
1.000000 1.000000 0.592826
1.000000 1.000000 0.579095
1.000000 1.000000 0.566161
1.000000 1.000000 0.553933
1.000000 1.000000 0.542318
1.000000 1.000000 0.531224
1.000000 1.000000 0.520559
1.000000 0.988417 0.510231
1.000000 0.941894 0.500147
1.000000 1.000000 1.000000
1.000000 1.000000 1.000000
1.000000 1.000000 1.000000
1.000000 1.000000 1.000000
1.000000 1.000000 1.000000
1.000000 1.000000 1.000000
1.000000 1.000000 1.000000
1.000000 1.000000 1.000000
1.000000 1.000000 1.000000
1.000000 1.000000 1.000000
1.000000 1.000000 1.000000
1.000000 1.000000 1.000000
1.000000 1.000000 1.000000
1.000000 1.000000 0.968979
1.000000 1.000000 0.937462
1.000000 1.000000 0.907806
1.000000 1.000000 0.879919
1.000000 1.000000 0.853709
1.000000 1.000000 0.829084
1.000000 1.000000 0.805951
1.000000 1.000000 0.784220
1.000000 1.000000 0.763796
1.000000 1.000000 0.744589
1.000000 1.000000 0.726506
1.000000 1.000000 0.709455
1.000000 1.000000 0.693344
