calib/fujify/montage_cubes/provia_montage.cube
TITLE "Chromasmith montage fit - Provia"
#STD->look, fit from fujify comparison montages (best-effort)
LUT_3D_SIZE 9
0.049030 0.044293 0.042539
0.147834 0.039275 0.018447
0.271414 0.050198 0.018046
0.410009 0.070677 0.035437
0.553856 0.094324 0.064722
0.693193 0.114750 0.100005
0.818258 0.125567 0.135387
0.919289 0.120389 0.164970
0.986524 0.092827 0.182857
0.079187 0.171000 0.080532
0.172770 0.163142 0.043829
0.290149 0.171391 0.034022
0.421563 0.189360 0.045212
0.557250 0.210661 0.071502
0.687448 0.228906 0.106995
0.802395 0.237707 0.145792
0.892328 0.230677 0.181997
0.947486 0.201428 0.209711
0.107352 0.307375 0.111833
0.192204 0.288231 0.055114
0.299874 0.285359 0.028496
0.420599 0.292372 0.026082
0.544617 0.302880 0.041973
0.662167 0.310497 0.070272
0.763485 0.308835 0.105081
0.838812 0.291506 0.140502
0.878383 0.252123 0.170638
0.173854 0.501621 0.189406
0.246467 0.462745 0.105268
0.340918 0.440305 0.054436
0.447444 0.427913 0.031012
0.556285 0.419183 0.029100
0.657677 0.407726 0.042801
0.741860 0.387154 0.066217
0.799070 0.351079 0.093452
0.819546 0.293115 0.118606
0.319023 0.801941 0.366219
0.375888 0.734885 0.247257
0.453611 0.684430 0.164806
0.542430 0.644188 0.112970
0.632584 0.607772 0.085850
0.714310 0.568793 0.077549
0.777847 0.520864 0.082169
0.813432 0.457598 0.093812
0.811304 0.372606 0.106581
0.583189 1.000000 0.695237
0.620796 1.000000 0.534048
0.678282 1.000000 0.412575
0.745885 0.989397 0.324922
0.813844 0.916848 0.265190
0.872395 0.841902 0.227483
0.911777 0.758170 0.205902
0.922228 0.659264 0.194550
0.893987 0.538798 0.187528
1.000000 1.000000 1.000000
1.000000 1.000000 1.000000
1.000000 1.000000 0.850707
1.000000 1.000000 0.719833
1.000000 1.000000 0.620086
1.000000 1.000000 0.545568
1.000000 1.000000 0.490382
1.000000 1.000000 0.448631
1.000000 0.839893 0.414416
1.000000 1.000000 1.000000
1.000000 1.000000 1.000000
1.000000 1.000000 1.000000
1.000000 1.000000 1.000000
1.000000 1.000000 1.000000
1.000000 1.000000 1.000000
1.000000 1.000000 0.988577
1.000000 1.000000 0.909022
1.000000 1.000000 0.840209
1.000000 1.000000 1.000000
1.000000 1.000000 1.000000
1.000000 1.000000 1.000000
1.000000 1.000000 1.000000
1.000000 1.000000 1.000000
1.000000 1.000000 1.000000
1.000000 1.000000 1.000000
1.000000 1.000000 1.000000
1.000000 1.000000 1.000000
0.048071 0.059453 0.131374
0.117642 0.020658 0.077329
0.214455 0.000000 0.045634
0.328749 0.000000 0.030391
0.450761 0.000000 0.025702
0.570728 0.000000 0.025669
0.678890 0.000000 0.024396
0.765485 0.000000 0.015983
0.820749 0.000000 0.000000
0.088695 0.198226 0.216082
0.170143 0.174745 0.165701
0.277853 0.169164 0.140875
0.402064 0.175093 0.135706
0.533013 0.186145 0.144297
0.660940 0.195933 0.160750
0.776081 0.198068 0.179167
0.868675 0.186164 0.193651
0.928959 0.153832 0.198304
0.074822 0.292826 0.232541
0.164637 0.276213 0.178419
0.279735 0.277664 0.153058
0.410354 0.290790 0.150560
0.546733 0.309204 0.165027
0.679109 0.326518 0.190561
0.797720 0.336344 0.221265
0.892805 0.332295 0.251241
0.954601 0.307983 0.274592
0.046781 0.391456 0.233717
0.141454 0.373265 0.168451
0.260431 0.373301 0.135151
0.393950 0.385178 0.127919
0.532249 0.402506 0.140858
0.665566 0.418900 0.168069
0.784139 0.427970 0.203656
0.878205 0.423329 0.241720
0.938003 0.398590 0.276364
0.044902 0.542318 0.272577
0.140925 0.514101 0.188763
0.260272 0.504276 0.140120
0.393182 0.506456 0.120750
0.529892 0.514253 0.124756
0.660640 0.521279 0.146241
0.775665 0.521147 0.179306
0.865204 0.507467 0.218055
0.919496 0.473854 0.256588
0.109515 0.793614 0.402088
0.203378 0.746924 0.292320
0.319587 0.718792 0.220930
0.448378 0.702829 0.182019
0.579990 0.692647 0.169689
0.704661 0.681859 0.178042
0.812630 0.664077 0.201182
0.894133 0.632912 0.233210
0.939409 0.581979 0.268229
0.280949 1.000000 0.675215
0.369144 1.000000 0.532091
0.478705 1.000000 0.430549
0.599869 1.000000 0.364691
0.722874 0.985890 0.328621
0.837959 0.948841 0.316440
0.935362 0.904962 0.322250
1.000000 0.847866 0.340154
1.000000 0.771165 0.364254
0.599535 1.000000 1.000000
0.678552 1.000000 0.961039
0.777956 1.000000 0.821942
0.887983 1.000000 0.721735
0.998873 1.000000 0.654520
1.000000 1.000000 0.614399
1.000000 1.000000 0.595476
1.000000 1.000000 0.591851
1.000000 1.000000 0.597629
1.000000 1.000000 1.000000
1.000000 1.000000 1.000000
1.000000 1.000000 1.000000
1.000000 1.000000 1.000000
1.000000 1.000000 1.000000
1.000000 1.000000 1.000000
1.000000 1.000000 1.000000
1.000000 1.000000 1.000000
1.000000 1.000000 1.000000
0.029212 0.053656 0.153422
0.043772 0.000000 0.048640
0.088040 0.000000 0.000000
0.152254 0.000000 0.000000
0.226653 0.000000 0.000000
0.301473 0.000000 0.000000
0.366954 0.000000 0.000000
0.413333 0.000000 0.000000
0.430847 0.000000 0.000000
0.126245 0.248564 0.336716
0.169779 0.185318 0.251874
0.242042 0.141762 0.191246
0.333271 0.111509 0.148935
0.433705 0.088170 0.119044
0.533582 0.065358 0.095674
0.623140 0.036685 0.072928
0.692616 0.000000 0.044908
0.732249 0.000000 0.005717
0.116276 0.345458 0.390207
0.185275 0.307234 0.317899
0.282023 0.288864 0.273011
0.396759 0.283962 0.249646
0.519720 0.286138 0.241906
0.641144 0.289006 0.243892
0.751270 0.286178 0.249708
0.840335 0.271265 0.253456
0.898577 0.237881 0.249238
0.039634 0.392541 0.366858
0.130589 0.370892 0.299682
0.248314 0.369262 0.263130
0.383048 0.381263 0.251307
0.525027 0.400509 0.258313
0.664490 0.420610 0.278252
0.791674 0.435179 0.305226
0.896819 0.437829 0.333337
0.970161 0.422172 0.356687
0.000000 0.438014 0.319638
0.046052 0.424494 0.250188
0.181245 0.431157 0.214569
0.332467 0.451616 0.206883
0.489955 0.479483 0.221232
0.643947 0.508371 0.251720
0.784682 0.531891 0.292447
0.902397 0.543656 0.337517
0.987331 0.537279 0.381032
0.000000 0.530081 0.301513
0.000000 0.516242 0.222385
0.121145 0.522751 0.180294
0.285346 0.543220 0.169341
0.454834 0.571263 0.183629
0.619847 0.600490 0.217261
0.770623 0.624515 0.264338
0.897400 0.636949 0.318964
0.990416 0.631405 0.375239
0.000000 0.716942 0.365448
0.000000 0.694338 0.269239
0.108343 0.692246 0.213271
0.282014 0.704280 0.191648
0.459994 0.724051 0.198471
0.632518 0.745171 0.227843
0.789827 0.761254 0.273866
0.922156 0.765910 0.330642
1.000000 0.752752 0.392274
0.000000 1.000000 0.564410
0.016626 1.000000 0.443715
0.183169 0.987846 0.366468
0.362802 0.982996 0.326770
0.545764 0.986049 0.318723
0.722291 0.990616 0.336431
0.882623 0.990309 0.373996
1.000000 0.978740 0.425519
1.000000 0.949522 0.485103
0.067876 1.000000 0.951366
0.215979 1.000000 0.798781
0.385954 1.000000 0.692849
0.568040 1.000000 0.627672
0.752474 1.000000 0.597353
0.929496 1.000000 0.595993
1.000000 1.000000 0.617694
1.000000 1.000000 0.656560
1.000000 1.000000 0.706693
0.000000 0.004423 0.079825
0.000000 0.000000 0.000000
0.000000 0.000000 0.000000
0.000000 0.000000 0.000000
0.000000 0.000000 0.000000
0.000000 0.000000 0.000000
0.000000 0.000000 0.000000
0.000000 0.000000 0.000000
0.000000 0.000000 0.000000
0.166372 0.299535 0.413579
0.146214 0.172381 0.273492
0.157251 0.066708 0.156279
0.189721 0.000000 0.056043
0.233861 0.000000 0.000000
0.279911 0.000000 0.000000
0.318107 0.000000 0.000000
0.338687 0.000000 0.000000
0.331891 0.000000 0.000000
0.206248 0.442792 0.555972
0.228653 0.358814 0.444695
0.281274 0.296481 0.359498
0.354348 0.249407 0.294483
0.438113 0.211203 0.243752
0.522808 0.175483 0.201408
0.598670 0.135857 0.161553
0.655937 0.085938 0.118289
0.684847 0.019339 0.065718
0.126947 0.482397 0.559972
0.188407 0.433147 0.470101
0.279102 0.405708 0.409515
0.389271 0.393692 0.372317
0.509152 0.390711 0.352608
0.628983 0.390378 0.344492
0.739002 0.386303 0.342069
0.829446 0.372101 0.339444
0.890555 0.341383 0.330718
0.000000 0.466551 0.478544
0.065803 0.443584 0.402675
0.191064 0.442592 0.359297
0.334820 0.457187 0.342511
0.487308 0.480982 0.346420
0.638766 0.507588 0.365127
0.779433 0.530619 0.392734
0.899546 0.543686 0.423343
0.989343 0.540402 0.451056
0.000000 0.443457 0.364655
0.000000 0.438325 0.295384
0.057491 0.455333 0.261809
0.231324 0.488093 0.258031
0.412909 0.530217 0.278155
0.592486 0.575317 0.316281
0.760292 0.617006 0.366513
0.906564 0.648896 0.422952
1.000000 0.664599 0.479701
0.000000 0.461317 0.271271
0.000000 0.465574 0.201194
0.000000 0.492135 0.170017
0.119112 0.534613 0.171845
0.326287 0.586619 0.200778
0.530473 0.641766 0.250920
0.721909 0.693666 0.316372
0.890832 0.735932 0.391238
1.000000 0.762175 0.469619
0.000000 0.568334 0.251359
0.000000 0.573533 0.173071
0.000000 0.601200 0.136889
0.038516 0.644949 0.136917
0.267771 0.698390 0.167256
0.493057 0.755137 0.222010
0.704614 0.808802 0.295279
0.892679 0.852997 0.381166
1.000000 0.881334 0.473775
0.000000 0.812708 0.357884
0.000000 0.810402 0.263981
0.000000 0.830729 0.215391
0.029863 0.867302 0.206215
0.277689 0.913733 0.230556
0.520568 0.963633 0.282516
0.748737 1.000000 0.356198
0.952434 1.000000 0.445704
1.000000 1.000000 0.545136
0.000000 0.000000 0.000000
0.000000 0.000000 0.000000
0.000000 0.000000 0.000000
0.000000 0.000000 0.000000
0.000000 0.000000 0.000000
0.000000 0.000000 0.000000
0.000000 0.000000 0.000000
0.000000 0.000000 0.000000
0.000000 0.000000 0.000000
0.183610 0.328660 0.417811
0.073983 0.113455 0.201697
0.000000 0.000000 0.007116
0.000000 0.000000 0.000000
0.000000 0.000000 0.000000
0.000000 0.000000 0.000000
0.000000 0.000000 0.000000
0.000000 0.000000 0.000000
0.000000 0.000000 0.000000
0.319275 0.562349 0.700981
0.269308 0.408474 0.529952
0.252023 0.278035 0.383662
0.257657 0.164647 0.256213
0.276448 0.061920 0.141709
0.298635 0.000000 0.034251
0.314454 0.000000 0.000000
0.314146 0.000000 0.000000
0.287946 0.000000 0.000000
0.283257 0.638545 0.784201
0.289442 0.537552 0.650853
0.327329 0.460161 0.545450
0.387156 0.399985 0.462093
0.459161 0.350635 0.394886
0.533582 0.305723 0.337931
0.600656 0.258863 0.285329
0.650623 0.203665 0.231184
0.673719 0.133743 0.169598
0.115886 0.605449 0.720438
0.174715 0.548892 0.617367
0.264265 0.516102 0.545446
0.374776 0.500691 0.498777
0.496486 0.496271 0.471464
0.619632 0.496453 0.457607
0.734452 0.494851 0.451310
0.831185 0.485077 0.446674
0.900068 0.460743 0.437803
0.000000 0.511264 0.562658
0.000000 0.490697 0.482460
0.103161 0.494061 0.436617
0.260847 0.514968 0.419233
0.428753 0.547030 0.424408
0.597115 0.583860 0.446246
0.756172 0.619071 0.478849
0.896162 0.646273 0.516319
1.000000 0.659080 0.552759
0.000000 0.404192 0.363828
0.000000 0.411167 0.299098
0.000000 0.442238 0.271930
0.085698 0.491017 0.276425
0.296290 0.551116 0.306685
0.506360 0.616146 0.356814
0.706145 0.679722 0.420913
0.885883 0.735454 0.493084
1.000000 0.776956 0.567431
0.000000 0.332435 0.176913
0.000000 0.358506 0.120248
0.000000 0.408837 0.104350
0.000000 0.477041 0.123320
0.139429 0.556729 0.171262
0.387697 0.641514 0.242277
0.624701 0.725008 0.330468
0.840679 0.800823 0.429937
1.000000 0.862572 0.534786
0.000000 0.344195 0.054880
0.000000 0.380915 0.000000
0.000000 0.442060 0.000000
0.000000 0.521242 0.012886
0.000000 0.612072 0.071105
0.281455 0.708164 0.155602
0.552169 0.803130 0.260481
0.800878 0.890582 0.379843
1.000000 0.964131 0.507791
0.000000 0.000000 0.000000
0.000000 0.000000 0.000000
0.000000 0.000000 0.000000
0.000000 0.000000 0.000000
0.000000 0.000000 0.000000
0.000000 0.000000 0.000000
0.000000 0.000000 0.000000
0.000000 0.000000 0.000000
0.000000 0.000000 0.000000
0.152496 0.313460 0.320557
0.000000 0.000000 0.007632
0.000000 0.000000 0.000000
0.000000 0.000000 0.000000
0.000000 0.000000 0.000000
0.000000 0.000000 0.000000
0.000000 0.000000 0.000000
0.000000 0.000000 0.000000
0.000000 0.000000 0.000000
0.429890 0.681650 0.796375
0.281774 0.433735 0.544810
0.168804 0.211048 0.316644
0.081220 0.007202 0.105980
0.009259 0.000000 0.000000
0.000000 0.000000 0.000000
0.000000 0.000000 0.000000
0.000000 0.000000 0.000000
0.000000 0.000000 0.000000
0.483097 0.838506 1.000000
0.408230 0.661627 0.813080
0.367531 0.510142 0.642075
0.351238 0.377662 0.491778
0.349589 0.257800 0.356289
0.352821 0.144168 0.229712
0.351174 0.030378 0.106148
0.334884 0.000000 0.000000
0.294189 0.000000 0.000000
0.352447 0.832229 1.000000
0.347321 0.717941 0.865406
0.375383 0.629210 0.744159
0.426872 0.559649 0.646825
0.492025 0.502870 0.567505
0.561081 0.452486 0.500302
0.624277 0.402109 0.439317
0.671851 0.345351 0.378654
0.694041 0.275824 0.312415
0.078270 0.711023 0.866664
0.139375 0.650877 0.754756
0.232690 0.616454 0.675863
0.348452 0.601365 0.624087
0.476898 0.599223 0.593531
0.608268 0.603641 0.578298
0.732799 0.608230 0.572489
0.840728 0.606602 0.570207
0.922294 0.592370 0.565554
0.000000 0.523087 0.614259
0.000000 0.508638 0.534095
0.000000 0.520076 0.490151
0.156307 0.551013 0.476531
0.344538 0.595061 0.487335
0.534713 0.645833 0.516668
0.717069 0.696941 0.558630
0.881845 0.741997 0.607324
1.000000 0.774614 0.656853
0.000000 0.316626 0.312214
0.000000 0.339427 0.256390
0.000000 0.388279 0.239992
0.000000 0.456794 0.257122
0.135273 0.538586 0.301883
0.380744 0.627266 0.368377
0.617417 0.716446 0.450706
0.835530 0.799739 0.542973
1.000000 0.870757 0.639280
0.000000 0.139841 0.013496
0.000000 0.191444 0.000000
0.000000 0.269264 0.000000
0.000000 0.366911 0.018827
0.000000 0.478000 0.090141
0.186693 0.596140 0.186392
0.474174 0.714946 0.301685
0.742115 0.828029 0.430120
0.980755 0.929002 0.565801
0.000000 0.000000 0.000000
0.000000 0.000000 0.000000
0.000000 0.000000 0.000000
0.000000 0.000000 0.000000
0.000000 0.000000 0.000000
0.000000 0.000000 0.000000
0.000000 0.000000 0.000000
0.000000 0.000000 0.000000
0.000000 0.000000 0.000000
0.047565 0.231456 0.092959
0.000000 0.000000 0.000000
0.000000 0.000000 0.000000
0.000000 0.000000 0.000000
0.000000 0.000000 0.000000
0.000000 0.000000 0.000000
0.000000 0.000000 0.000000
0.000000 0.000000 0.000000
0.000000 0.000000 0.000000
0.512631 0.778217 0.813298
0.240586 0.412118 0.460414
0.006154 0.073040 0.129589
0.000000 0.000000 0.000000
0.000000 0.000000 0.000000
0.000000 0.000000 0.000000
0.000000 0.000000 0.000000
0.000000 0.000000 0.000000
0.000000 0.000000 0.000000
0.701005 1.000000 1.000000
0.519307 0.782894 0.927924
0.374244 0.533171 0.670536
0.256052 0.304245 0.432514
0.154971 0.089728 0.207961
0.061237 0.000000 0.000000
0.000000 0.000000 0.000000
0.000000 0.000000 0.000000
0.000000 0.000000 0.000000
0.653017 1.000000 1.000000
0.558158 0.928249 1.000000
0.498954 0.759435 0.926580
0.465642 0.611582 0.757796
0.448460 0.478302 0.605687
0.437647 0.353209 0.464353
0.423441 0.229913 0.327899
0.396078 0.102029 0.190425
0.345798 0.000000 0.046035
0.408996 1.000000 1.000000
0.397467 0.896387 1.000000
0.420613 0.800034 0.950687
0.468672 0.724807 0.843738
0.531882 0.664318 0.756668
0.600481 0.612180 0.683580
0.664707 0.562004 0.618576
0.714797 0.507403 0.555758
0.740991 0.441990 0.489229
0.009274 0.795524 0.993708
0.077565 0.735508 0.877326
0.179552 0.703170 0.795824
0.305473 0.692122 0.743305
0.445565 0.695977 0.713871
0.590067 0.708347 0.701624
0.729217 0.722845 0.700666
0.853251 0.733082 0.705100
0.952409 0.732671 0.709028
0.000000 0.498428 0.628406
0.000000 0.493815 0.552639
0.000000 0.517045 0.514958
0.016374 0.561730 0.509465
0.229840 0.621482 0.530262
0.446736 0.689914 0.571451
0.657300 0.760638 0.627136
0.851770 0.827266 0.691418
1.000000 0.883410 0.758399
0.000000 0.177167 0.204874
0.000000 0.219510 0.162319
0.000000 0.289862 0.161054
0.000000 0.381832 0.195182
0.000000 0.489035 0.258807
0.210816 0.605082 0.346029
0.489286 0.723585 0.450952
0.750682 0.838157 0.567678
0.985242 0.942410 0.690308
0.000000 0.000000 0.000000
0.000000 0.000000 0.000000
0.000000 0.000000 0.000000
0.000000 0.000000 0.000000
0.000000 0.000000 0.000000
0.000000 0.000000 0.000000
0.000000 0.000000 0.000000
0.000000 0.000000 0.000000
0.000000 0.000000 0.000000
0.000000 0.060169 0.000000
0.000000 0.000000 0.000000
0.000000 0.000000 0.000000
0.000000 0.000000 0.000000
0.000000 0.000000 0.000000
0.000000 0.000000 0.000000
0.000000 0.000000 0.000000
0.000000 0.000000 0.000000
0.000000 0.000000 0.000000
0.542031 0.829569 0.722891
0.120280 0.321145 0.247906
0.000000 0.000000 0.000000
0.000000 0.000000 0.000000
0.000000 0.000000 0.000000
0.000000 0.000000 0.000000
0.000000 0.000000 0.000000
0.000000 0.000000 0.000000
0.000000 0.000000 0.000000
0.911514 1.000000 1.000000
0.597208 0.878873 0.966529
0.322002 0.506770 0.601973
0.076134 0.157255 0.255444
0.000000 0.000000 0.000000
0.000000 0.000000 0.000000
0.000000 0.000000 0.000000
0.000000 0.000000 0.000000
0.000000 0.000000 0.000000
0.992130 1.000000 1.000000
0.781761 1.000000 1.000000
0.609512 0.884298 1.000000
0.465621 0.634010 0.802834
0.340327 0.400087 0.557152
0.223867 0.176141 0.320905
0.106479 0.000000 0.088197
0.000000 0.000000 0.000000
0.000000 0.000000 0.000000
0.824209 1.000000 1.000000
0.714267 1.000000 1.000000
0.641466 1.000000 1.000000
0.596044 0.862813 1.000000
0.568239 0.719834 0.884960
0.548289 0.586997 0.733234
0.526432 0.457915 0.588252
0.492905 0.326199 0.444115
0.437948 0.185461 0.294927
0.448081 1.000000 1.000000
0.435057 1.000000 1.000000
0.458195 0.969040 1.000000
0.507733 0.891865 1.000000
0.573908 0.831384 0.957434
0.646959 0.781210 0.882825
0.717123 0.734954 0.818164
0.774639 0.686229 0.757555
0.809744 0.628647 0.695099
0.000000 0.855361 1.000000
0.000000 0.799192 0.980138
0.100029 0.772657 0.900391
0.241017 0.769368 0.851491
0.397664 0.782939 0.827541
0.560206 0.806980 0.822643
0.718883 0.835104 0.830900
0.863931 0.860924 0.846414
0.985590 0.878051 0.863287
0.000000 0.433693 0.600159
0.000000 0.442634 0.533152
0.000000 0.481374 0.506096
0.000000 0.543526 0.513094
0.079835 0.622700 0.548246
0.328361 0.712510 0.605657
0.572041 0.806568 0.679427
0.801114 0.898485 0.763659
1.000000 0.981875 0.852457
0.000000 0.000000 0.000000
0.000000 0.000000 0.000000
0.000000 0.000000 0.000000
0.000000 0.000000 0.000000
0.000000 0.000000 0.000000
0.000000 0.000000 0.000000
0.000000 0.000000 0.000000
0.000000 0.000000 0.000000
0.000000 0.000000 0.000000
0.000000 0.000000 0.000000
0.000000 0.000000 0.000000
0.000000 0.000000 0.000000
0.000000 0.000000 0.000000
0.000000 0.000000 0.000000
0.000000 0.000000 0.000000
0.000000 0.000000 0.000000
0.000000 0.000000 0.000000
0.000000 0.000000 0.000000
0.492626 0.813228 0.496299
0.000000 0.138336 0.000000
0.000000 0.000000 0.000000
0.000000 0.000000 0.000000
0.000000 0.000000 0.000000
0.000000 0.000000 0.000000
0.000000 0.000000 0.000000
0.000000 0.000000 0.000000
0.000000 0.000000 0.000000
1.000000 1.000000 1.000000
0.616468 0.927085 0.900036
0.185341 0.408459 0.407531
0.000000 0.000000 0.000000
0.000000 0.000000 0.000000
0.000000 0.000000 0.000000
0.000000 0.000000 0.000000
0.000000 0.000000 0.000000
0.000000 0.000000 0.000000
1.000000 1.000000 1.000000
0.992664 1.000000 1.000000
0.681592 0.981321 1.000000
0.401345 0.604455 0.753081
0.142160 0.245746 0.393043
0.000000 0.000000 0.041100
0.000000 0.000000 0.000000
0.000000 0.000000 0.000000
0.000000 0.000000 0.000000
1.000000 1.000000 1.000000
1.000000 1.000000 1.000000
0.869784 1.000000 1.000000
0.705103 0.992905 1.000000
0.560505 0.743294 0.949551
0.426227 0.505616 0.698404
0.292509 0.273483 0.452660
0.149588 0.040508 0.206422
0.000000 0.000000 0.000000
0.991851 1.000000 1.000000
0.871734 1.000000 1.000000
0.790245 1.000000 1.000000
0.737622 1.000000 1.000000
0.704102 0.978803 1.000000
0.679923 0.841941 1.000000
0.655324 0.710790 0.882266
0.620542 0.578960 0.735831
0.565816 0.440065 0.586208
0.464876 1.000000 1.000000
0.455267 1.000000 1.000000
0.483306 1.000000 1.000000
0.539231 1.000000 1.000000
0.613280 1.000000 1.000000
0.695691 0.955984 1.000000
0.776702 0.917366 1.000000
0.846551 0.878235 0.979104
0.895476 0.832203 0.925085
0.000000 0.886940 1.000000
0.000000 0.838337 1.000000
0.000000 0.821323 0.984621
0.150261 0.829512 0.943704
0.328370 0.856515 0.929602
0.513862 0.895946 0.936416
0.696974 0.941415 0.958251
0.867945 0.986536 0.989207
1.000000 1.000000 1.000000
