calib/fujify/montage_cubes/reala_ace_montage.cube
TITLE "Chromasmith montage fit - Reala Ace"
#STD->look, fit from fujify comparison montages (best-effort)
LUT_3D_SIZE 9
0.059343 0.055846 0.055035
0.171249 0.055959 0.035611
0.291982 0.062158 0.032681
0.416160 0.073018 0.043165
0.538403 0.087115 0.063985
0.653327 0.103023 0.092062
0.755552 0.119317 0.124316
0.839695 0.134573 0.157668
0.900374 0.147365 0.189038
0.095655 0.182661 0.079754
0.196727 0.182470 0.049759
0.309237 0.189204 0.041454
0.427803 0.201440 0.051759
0.547044 0.217752 0.077595
0.661577 0.236715 0.115882
0.766021 0.256904 0.163541
0.854994 0.276894 0.217494
0.923115 0.295261 0.274661
0.143146 0.311475 0.105668
0.223139 0.299865 0.052333
0.317181 0.296020 0.025881
0.419890 0.298516 0.023235
0.525884 0.305927 0.041315
0.629781 0.316830 0.077041
0.726200 0.329799 0.127334
0.809759 0.343410 0.189117
0.875075 0.356236 0.259308
0.259862 0.505858 0.201747
0.308531 0.471713 0.112299
0.373860 0.446173 0.054929
0.450466 0.427814 0.026560
0.532969 0.415212 0.024112
0.615986 0.406940 0.044506
0.694134 0.401574 0.084662
0.762034 0.397688 0.141502
0.814301 0.393860 0.211947
0.503848 0.829378 0.436958
0.510949 0.761584 0.298625
0.537319 0.703234 0.197566
0.577579 0.652906 0.130703
0.626345 0.609173 0.094956
0.678235 0.570611 0.087245
0.727869 0.535795 0.104493
0.769864 0.503300 0.143619
0.798838 0.471700 0.201545
0.933150 1.000000 0.880267
0.888437 1.000000 0.680278
0.865605 1.000000 0.522759
0.859272 1.000000 0.404630
0.864056 0.951381 0.322812
0.874576 0.871414 0.274226
0.885450 0.796032 0.255793
0.891296 0.723812 0.264434
0.886731 0.653327 0.297070
1.000000 1.000000 1.000000
1.000000 1.000000 1.000000
1.000000 1.000000 1.000000
1.000000 1.000000 0.917309
1.000000 1.000000 0.776649
1.000000 1.000000 0.674416
1.000000 1.000000 0.607531
1.000000 1.000000 0.572915
1.000000 1.000000 0.567489
1.000000 1.000000 1.000000
1.000000 1.000000 1.000000
1.000000 1.000000 1.000000
1.000000 1.000000 1.000000
1.000000 1.000000 1.000000
1.000000 1.000000 1.000000
1.000000 1.000000 1.000000
1.000000 1.000000 1.000000
1.000000 1.000000 1.000000
1.000000 1.000000 1.000000
1.000000 1.000000 1.000000
1.000000 1.000000 1.000000
1.000000 1.000000 1.000000
1.000000 1.000000 1.000000
1.000000 1.000000 1.000000
1.000000 1.000000 1.000000
1.000000 1.000000 1.000000
1.000000 1.000000 1.000000
0.015593 0.031895 0.128604
0.106534 0.002483 0.080345
0.204309 0.000000 0.044194
0.303536 0.000000 0.017072
0.398832 0.000000 0.000000
0.484816 0.000000 0.000000
0.556107 0.000000 0.000000
0.607322 0.000000 0.000000
0.633079 0.000000 0.000000
0.069079 0.184691 0.206166
0.171613 0.175567 0.167230
0.283590 0.172437 0.145599
0.399631 0.173878 0.138192
0.514351 0.178463 0.141931
0.622371 0.184768 0.153736
0.718307 0.191368 0.170528
0.796779 0.196838 0.189228
0.852403 0.199754 0.206757
0.069300 0.275192 0.211482
0.173180 0.275241 0.169100
0.289116 0.282125 0.149217
0.411725 0.294418 0.148753
0.535625 0.310696 0.164630
0.655435 0.329533 0.193768
0.765772 0.349506 0.233089
0.861255 0.369188 0.279513
0.936502 0.387155 0.329960
0.074300 0.366969 0.213523
0.169283 0.365075 0.154921
0.278932 0.370857 0.124014
0.397865 0.382888 0.117722
0.520699 0.399743 0.132966
0.642054 0.419998 0.166666
0.756548 0.442228 0.215744
0.858797 0.465007 0.277120
0.943422 0.486912 0.347715
0.142126 0.523589 0.281253
0.217966 0.508639 0.193662
0.311083 0.502203 0.138960
0.416095 0.502856 0.114068
0.527619 0.509174 0.115906
0.640275 0.519732 0.141397
0.748679 0.533104 0.187460
0.847451 0.547865 0.251016
0.931207 0.562592 0.328987
0.330823 0.808623 0.483642
0.377276 0.769500 0.354289
0.443616 0.739732 0.263020
0.524462 0.717893 0.206757
0.614431 0.702558 0.182419
0.708141 0.692303 0.186928
0.800212 0.685703 0.217205
0.885260 0.681332 0.270170
0.957905 0.677765 0.342745
0.698436 1.000000 0.889656
0.705257 1.000000 0.705770
0.734575 1.000000 0.565163
0.781010 1.000000 0.464756
0.839179 1.000000 0.401471
0.903700 1.000000 0.372227
0.969192 0.963594 0.373946
1.000000 0.928975 0.403549
1.000000 0.896000 0.457957
1.000000 1.000000 1.000000
1.000000 1.000000 1.000000
1.000000 1.000000 1.000000
1.000000 1.000000 0.957035
1.000000 1.000000 0.842030
1.000000 1.000000 0.766262
1.000000 1.000000 0.726652
1.000000 1.000000 0.720121
1.000000 1.000000 0.743589
1.000000 1.000000 1.000000
1.000000 1.000000 1.000000
1.000000 1.000000 1.000000
1.000000 1.000000 1.000000
1.000000 1.000000 1.000000
1.000000 1.000000 1.000000
1.000000 1.000000 1.000000
1.000000 1.000000 1.000000
1.000000 1.000000 1.000000
0.000000 0.000000 0.128979
0.000000 0.000000 0.029170
0.038583 0.000000 0.000000
0.082595 0.000000 0.000000
0.120682 0.000000 0.000000
0.147463 0.000000 0.000000
0.157556 0.000000 0.000000
0.145580 0.000000 0.000000
0.106152 0.000000 0.000000
0.076297 0.211998 0.320314
0.150029 0.167837 0.249724
0.231211 0.128740 0.192052
0.314462 0.093282 0.144220
0.394400 0.060037 0.103148
0.465642 0.027581 0.065757
0.522808 0.000000 0.028968
0.560514 0.000000 0.000000
0.573380 0.000000 0.000000
0.080567 0.314284 0.365964
0.178072 0.299889 0.311821
0.285639 0.291397 0.275791
0.397885 0.287384 0.254796
0.509428 0.286424 0.245757
0.614887 0.287093 0.245593
0.708879 0.287965 0.251227
0.786023 0.287616 0.259579
0.840938 0.284621 0.267569
0.025172 0.353551 0.334895
0.136206 0.357807 0.284428
0.259912 0.368805 0.257269
0.390908 0.385122 0.250340
0.523812 0.405332 0.260561
0.653242 0.428011 0.284854
0.773816 0.451733 0.320139
0.880153 0.475074 0.363337
0.966871 0.496608 0.411369
0.000000 0.393369 0.296076
0.082476 0.405160 0.236513
0.212076 0.424534 0.205454
0.351577 0.450066 0.199819
0.495596 0.480331 0.216530
0.638753 0.513904 0.252507
0.775665 0.549361 0.304671
0.900950 0.585276 0.369944
1.000000 0.620225 0.445246
0.000000 0.497307 0.318475
0.074926 0.505518 0.237044
0.200176 0.522152 0.189312
0.337937 0.545784 0.172200
0.482827 0.574989 0.182629
0.629466 0.608342 0.217519
0.772470 0.644419 0.273792
0.906458 0.681794 0.348368
1.000000 0.719042 0.438168
0.081454 0.728934 0.471058
0.171604 0.722450 0.354988
0.282258 0.725229 0.277812
0.408034 0.735846 0.236451
0.543551 0.752876 0.227826
0.683426 0.774894 0.248858
0.822277 0.800475 0.296467
0.954723 0.828194 0.367575
1.000000 0.856627 0.459102
0.367856 1.000000 0.822793
0.430554 1.000000 0.659312
0.516368 1.000000 0.539921
0.619914 1.000000 0.461540
0.735812 1.000000 0.421090
0.858678 1.000000 0.415491
0.983132 1.000000 0.441666
1.000000 1.000000 0.496534
1.000000 1.000000 0.577016
0.884820 1.000000 1.000000
0.909823 1.000000 1.000000
0.960551 1.000000 1.000000
1.000000 1.000000 0.916433
1.000000 1.000000 0.831387
1.000000 1.000000 0.786387
1.000000 1.000000 0.778355
1.000000 1.000000 0.804211
1.000000 1.000000 0.860878
0.000000 0.000000 0.015589
0.000000 0.000000 0.000000
0.000000 0.000000 0.000000
0.000000 0.000000 0.000000
0.000000 0.000000 0.000000
0.000000 0.000000 0.000000
0.000000 0.000000 0.000000
0.000000 0.000000 0.000000
0.000000 0.000000 0.000000
0.089418 0.235506 0.381628
0.104086 0.130206 0.256669
0.124210 0.029038 0.140244
0.144408 0.000000 0.029272
0.159299 0.000000 0.000000
0.163502 0.000000 0.000000
0.151633 0.000000 0.000000
0.118311 0.000000 0.000000
0.058155 0.000000 0.000000
0.149058 0.399675 0.528541
0.209925 0.344732 0.439923
0.278859 0.294762 0.365034
0.350479 0.248339 0.300794
0.419402 0.204038 0.244124
0.480247 0.160434 0.191945
0.527631 0.116103 0.141178
0.556173 0.069619 0.088743
0.560492 0.019558 0.031562
0.084588 0.436531 0.525294
0.181410 0.420831 0.460247
0.288910 0.410944 0.414122
0.401705 0.405443 0.383842
0.514415 0.402905 0.366328
0.621658 0.401903 0.358499
0.718050 0.401014 0.357277
0.798212 0.398812 0.359584
0.856760 0.393873 0.362338
0.000000 0.409645 0.440856
0.076586 0.422073 0.386607
0.212406 0.441153 0.356476
0.356133 0.465459 0.347385
0.502385 0.493568 0.356254
0.645780 0.524054 0.380004
0.780936 0.555492 0.415556
0.902471 0.586457 0.459832
1.000000 0.615525 0.509751
0.000000 0.382584 0.344195
0.000000 0.412025 0.287972
0.107394 0.448958 0.261063
0.271808 0.491957 0.260389
0.441356 0.539598 0.282870
0.610659 0.590456 0.325428
0.774333 0.643106 0.384982
0.926998 0.696123 0.458455
1.000000 0.748083 0.542767
0.000000 0.418919 0.304276
0.000000 0.454258 0.233309
0.031920 0.497928 0.196850
0.206774 0.548505 0.191822
0.389375 0.604563 0.215144
0.574340 0.664678 0.263737
0.756288 0.727426 0.334522
0.929837 0.791380 0.424421
1.000000 0.855116 0.530354
0.000000 0.582219 0.390069
0.000000 0.612340 0.291586
0.044028 0.651632 0.232806
0.219079 0.698672 0.210651
0.404487 0.752032 0.222042
0.594870 0.810290 0.263899
0.784847 0.872019 0.333144
0.969035 0.935795 0.426698
1.000000 1.000000 0.541480
0.000000 0.936051 0.670541
0.055112 0.949840 0.531769
0.201764 0.973640 0.437897
0.366767 1.000000 0.385844
0.544737 1.000000 0.372533
0.730293 1.000000 0.394883
0.918053 1.000000 0.449816
1.000000 1.000000 0.534252
1.000000 1.000000 0.645112
0.000000 0.000000 0.000000
0.000000 0.000000 0.000000
0.000000 0.000000 0.000000
0.000000 0.000000 0.000000
0.000000 0.000000 0.000000
0.000000 0.000000 0.000000
0.000000 0.000000 0.000000
0.000000 0.000000 0.000000
0.000000 0.000000 0.000000
0.080553 0.226142 0.349537
0.005892 0.033599 0.147495
0.000000 0.000000 0.000000
0.000000 0.000000 0.000000
0.000000 0.000000 0.000000
0.000000 0.000000 0.000000
0.000000 0.000000 0.000000
0.000000 0.000000 0.000000
0.000000 0.000000 0.000000
0.246883 0.502291 0.658643
0.240848 0.380697 0.512837
0.240887 0.263145 0.376374
0.241617 0.148208 0.246175
0.237657 0.034463 0.119161
0.223625 0.000000 0.000000
0.194138 0.000000 0.000000
0.143815 0.000000 0.000000
0.067274 0.000000 0.000000
0.224659 0.586833 0.744148
0.277005 0.525075 0.641807
0.338035 0.468198 0.554003
0.402368 0.414776 0.477658
0.464621 0.363386 0.409694
0.519412 0.312601 0.347030
0.561360 0.260997 0.286588
0.585082 0.207149 0.225288
0.585197 0.149632 0.160052
0.071926 0.543340 0.675022
0.172408 0.530302 0.603373
0.284185 0.522984 0.551457
0.401875 0.519963 0.516195
0.520096 0.519812 0.494508
0.633466 0.521107 0.483318
0.736603 0.522422 0.479544
0.824125 0.522334 0.480108
0.890651 0.519416 0.481930
0.000000 0.435379 0.520230
0.000000 0.459946 0.466502
0.137381 0.491074 0.437702
0.298184 0.527337 0.430752
0.462128 0.567311 0.442572
0.623831 0.609570 0.470083
0.777913 0.652690 0.510206
0.918991 0.695246 0.559861
1.000000 0.735813 0.615970
0.000000 0.326520 0.348741
0.000000 0.377577 0.300163
0.000000 0.436035 0.281708
0.149340 0.500468 0.290297
0.348762 0.569451 0.322852
0.548555 0.641561 0.376293
0.743336 0.715370 0.447541
0.927724 0.789456 0.533516
1.000000 0.862392 0.631141
0.000000 0.280332 0.229523
0.000000 0.346764 0.173322
0.000000 0.421437 0.152440
0.013389 0.502925 0.163797
0.238045 0.589803 0.204316
0.465681 0.680647 0.270915
0.690918 0.774031 0.360517
0.908371 0.868530 0.470041
1.000000 0.962721 0.596410
0.000000 0.360384 0.231541
0.000000 0.431076 0.154947
0.000000 0.510849 0.118866
0.000000 0.598276 0.120221
0.188021 0.691934 0.155931
0.433257 0.790398 0.222917
0.678703 0.892241 0.318101
0.918977 0.996040 0.438403
1.000000 1.000000 0.580744
0.000000 0.000000 0.000000
0.000000 0.000000 0.000000
0.000000 0.000000 0.000000
0.000000 0.000000 0.000000
0.000000 0.000000 0.000000
0.000000 0.000000 0.000000
0.000000 0.000000 0.000000
0.000000 0.000000 0.000000
0.000000 0.000000 0.000000
0.021811 0.154831 0.183468
0.000000 0.000000 0.000000
0.000000 0.000000 0.000000
0.000000 0.000000 0.000000
0.000000 0.000000 0.000000
0.000000 0.000000 0.000000
0.000000 0.000000 0.000000
0.000000 0.000000 0.000000
0.000000 0.000000 0.000000
0.346151 0.593057 0.715698
0.242952 0.378709 0.489990
0.143833 0.167471 0.269239
0.043410 0.000000 0.050367
0.000000 0.000000 0.000000
0.000000 0.000000 0.000000
0.000000 0.000000 0.000000
0.000000 0.000000 0.000000
0.000000 0.000000 0.000000
0.417493 0.775383 0.950887
0.395101 0.641463 0.788537
0.379399 0.511493 0.636340
0.365005 0.384047 0.491217
0.346537 0.257700 0.350088
0.318614 0.131028 0.209875
0.275854 0.002606 0.067499
0.212874 0.000000 0.000000
0.124293 0.000000 0.000000
0.293881 0.765380 0.958002
0.342051 0.700773 0.846239
0.399522 0.640955 0.749824
0.460911 0.584501 0.665678
0.520838 0.529987 0.590722
0.573920 0.475987 0.521876
0.614775 0.421077 0.456062
0.638022 0.363831 0.390201
0.638278 0.302825 0.321212
0.033361 0.626617 0.806011
0.141848 0.620207 0.732063
0.262247 0.619426 0.678659
0.389175 0.622849 0.642718
0.517251 0.629052 0.621163
0.641093 0.636610 0.610913
0.755319 0.644096 0.608890
0.854547 0.650088 0.612015
0.933395 0.653158 0.617208
0.000000 0.422661 0.563882
0.000000 0.463334 0.514978
0.025619 0.510475 0.491812
0.207841 0.562661 0.491306
0.393822 0.618466 0.510380
0.578178 0.676466 0.545954
0.755530 0.735234 0.594951
0.920495 0.793347 0.654290
1.000000 0.849380 0.720893
0.000000 0.217083 0.300582
0.000000 0.293723 0.263950
0.000000 0.377672 0.258252
0.000000 0.467505 0.280408
0.208596 0.561798 0.327339
0.443223 0.659124 0.395967
0.673455 0.758059 0.483211
0.893911 0.857179 0.585993
1.000000 0.955058 0.701234
0.000000 0.073452 0.085078
0.000000 0.174944 0.047947
0.000000 0.284586 0.046944
0.000000 0.400951 0.078992
0.019619 0.522615 0.141009
0.294271 0.648154 0.229918
0.567139 0.776141 0.342638
0.832842 0.905153 0.476092
1.000000 1.000000 0.627200
0.000000 0.000000 0.000000
0.000000 0.000000 0.000000
0.000000 0.000000 0.000000
0.000000 0.000000 0.000000
0.000000 0.000000 0.000000
0.000000 0.000000 0.000000
0.000000 0.000000 0.000000
0.000000 0.000000 0.000000
0.000000 0.000000 0.000000
0.000000 0.000000 0.000000
0.000000 0.000000 0.000000
0.000000 0.000000 0.000000
0.000000 0.000000 0.000000
0.000000 0.000000 0.000000
0.000000 0.000000 0.000000
0.000000 0.000000 0.000000
0.000000 0.000000 0.000000
0.000000 0.000000 0.000000
0.418974 0.642899 0.659136
0.188347 0.309693 0.330811
0.000000 0.000000 0.003059
0.000000 0.000000 0.000000
0.000000 0.000000 0.000000
0.000000 0.000000 0.000000
0.000000 0.000000 0.000000
0.000000 0.000000 0.000000
0.000000 0.000000 0.000000
0.635201 0.973107 1.000000
0.507808 0.740921 0.859866
0.385110 0.511754 0.620562
0.261727 0.284180 0.383946
0.132276 0.056774 0.146940
0.000000 0.000000 0.000000
0.000000 0.000000 0.000000
0.000000 0.000000 0.000000
0.000000 0.000000 0.000000
0.592031 1.000000 1.000000
0.557625 0.904411 1.000000
0.530527 0.765988 0.911006
0.505353 0.629999 0.755262
0.476722 0.495018 0.604323
0.439253 0.359620 0.455109
0.387563 0.222381 0.304541
0.316270 0.081875 0.149540
0.219993 0.000000 0.000000
0.347508 0.927222 1.000000
0.395845 0.863732 1.000000
0.454101 0.804939 0.943361
0.516892 0.749419 0.855717
0.578836 0.695748 0.778072
0.634553 0.642500 0.707348
0.678660 0.588249 0.640466
0.705775 0.531572 0.574345
0.710516 0.471044 0.505908
0.000000 0.678268 0.909126
0.080513 0.682453 0.837183
0.213878 0.692175 0.786593
0.354388 0.706010 0.754277
0.496663 0.722533 0.737156
0.635321 0.740319 0.732151
0.764980 0.757943 0.736182
0.880258 0.773980 0.746170
0.975773 0.787006 0.759037
0.000000 0.363398 0.562675
0.000000 0.424142 0.522898
0.000000 0.491264 0.509670
0.075889 0.563339 0.519911
0.288249 0.638941 0.550542
0.499604 0.716647 0.598483
0.704569 0.795030 0.660657
0.897765 0.872667 0.733983
1.000000 0.948131 0.815382
0.000000 0.046181 0.190579
0.000000 0.152370 0.170198
0.000000 0.265777 0.181559
0.000000 0.384976 0.221586
0.011639 0.508543 0.287197
0.285445 0.635053 0.375314
0.555473 0.763081 0.482858
0.816341 0.891202 0.606749
1.000000 1.000000 0.743910
0.000000 0.000000 0.000000
0.000000 0.000000 0.000000
0.000000 0.000000 0.000000
0.000000 0.000000 0.000000
0.000000 0.000000 0.000000
0.000000 0.000000 0.000000
0.000000 0.000000 0.000000
0.000000 0.000000 0.000000
0.000000 0.000000 0.000000
0.000000 0.000000 0.000000
0.000000 0.000000 0.000000
0.000000 0.000000 0.000000
0.000000 0.000000 0.000000
0.000000 0.000000 0.000000
0.000000 0.000000 0.000000
0.000000 0.000000 0.000000
0.000000 0.000000 0.000000
0.000000 0.000000 0.000000
0.437459 0.622741 0.448385
0.049142 0.144574 0.000000
0.000000 0.000000 0.000000
0.000000 0.000000 0.000000
0.000000 0.000000 0.000000
0.000000 0.000000 0.000000
0.000000 0.000000 0.000000
0.000000 0.000000 0.000000
0.000000 0.000000 0.000000
0.849894 1.000000 1.000000
0.587235 0.794374 0.815223
0.327279 0.439906 0.466098
0.064643 0.086101 0.115276
0.000000 0.000000 0.000000
0.000000 0.000000 0.000000
0.000000 0.000000 0.000000
0.000000 0.000000 0.000000
0.000000 0.000000 0.000000
0.938485 1.000000 1.000000
0.791241 1.000000 1.000000
0.649310 0.869011 0.994433
0.507309 0.627383 0.744377
0.359858 0.385831 0.494740
0.201574 0.142932 0.242444
0.027076 0.000000 0.000000
0.000000 0.000000 0.000000
0.000000 0.000000 0.000000
0.761279 1.000000 1.000000
0.719204 1.000000 1.000000
0.685053 1.000000 1.000000
0.653443 0.877973 1.000000
0.618994 0.738323 0.872729
0.576322 0.598166 0.718816
0.520047 0.456075 0.564360
0.444786 0.310626 0.406281
0.345157 0.160395 0.241500
0.376321 1.000000 1.000000
0.429170 1.000000 1.000000
0.492554 0.952058 1.000000
0.561091 0.901439 1.000000
0.629398 0.852576 0.962610
0.692094 0.804046 0.894311
0.743796 0.754422 0.830662
0.779124 0.702280 0.768587
0.792695 0.646195 0.705004
0.000000 0.690202 0.975231
0.000000 0.708946 0.909596
0.129860 0.733138 0.866124
0.288297 0.761351 0.841736
0.449116 0.792160 0.833352
0.606934 0.824141 0.837894
0.756370 0.855869 0.852282
0.892042 0.885919 0.873438
1.000000 0.912865 0.898282
0.000000 0.249497 0.507474
0.000000 0.334279 0.481128
0.000000 0.425347 0.482140
0.000000 0.521277 0.507432
0.136193 0.620643 0.553923
0.378889 0.722021 0.618534
0.615813 0.823986 0.698188
0.841584 0.925112 0.789803
1.000000 1.000000 0.890302
0.000000 0.000000 0.000000
0.000000 0.000000 0.000000
0.000000 0.000000 0.000000
0.000000 0.000000 0.000000
0.000000 0.000000 0.000000
0.000000 0.000000 0.000000
0.000000 0.000000 0.000000
0.000000 0.000000 0.000000
0.000000 0.000000 0.000000
0.000000 0.000000 0.000000
0.000000 0.000000 0.000000
0.000000 0.000000 0.000000
0.000000 0.000000 0.000000
0.000000 0.000000 0.000000
0.000000 0.000000 0.000000
0.000000 0.000000 0.000000
0.000000 0.000000 0.000000
0.000000 0.000000 0.000000
0.373719 0.503510 0.042874
0.000000 0.000000 0.000000
0.000000 0.000000 0.000000
0.000000 0.000000 0.000000
0.000000 0.000000 0.000000
0.000000 0.000000 0.000000
0.000000 0.000000 0.000000
0.000000 0.000000 0.000000
0.000000 0.000000 0.000000
1.000000 1.000000 1.000000
0.605494 0.772747 0.614036
0.178015 0.266875 0.132376
0.000000 0.000000 0.000000
0.000000 0.000000 0.000000
0.000000 0.000000 0.000000
0.000000 0.000000 0.000000
0.000000 0.000000 0.000000
0.000000 0.000000 0.000000
1.000000 1.000000 1.000000
1.000000 1.000000 1.000000
0.727980 0.920948 0.959534
0.438890 0.547577 0.592452
0.142356 0.173352 0.221404
0.000000 0.000000 0.000000
0.000000 0.000000 0.000000
0.000000 0.000000 0.000000
0.000000 0.000000 0.000000
1.000000 1.000000 1.000000
1.000000 1.000000 1.000000
0.927213 1.000000 1.000000
0.770940 0.979434 1.000000
0.609833 0.727703 0.864561
0.438511 0.474533 0.604746
0.251590 0.218498 0.340003
0.043690 0.000000 0.067251
0.000000 0.000000 0.000000
0.916019 1.000000 1.000000
0.870619 1.000000 1.000000
0.833760 1.000000 1.000000
0.800059 1.000000 1.000000
0.764135 0.979522 1.000000
0.720605 0.838571 0.991863
0.664089 0.695596 0.837822
0.589203 0.549171 0.680967
0.490567 0.397872 0.518221
0.371103 1.000000 1.000000
0.432808 1.000000 1.000000
0.505665 1.000000 1.000000
0.584291 1.000000 1.000000
0.663305 0.992378 1.000000
0.737324 0.952532 1.000000
0.800967 0.911500 1.000000
0.848852 0.867860 0.963789
0.875596 0.820184 0.909363
0.000000 0.654324 0.995192
0.000000 0.691595 0.940168
0.000975 0.734222 0.908116
0.181683 0.780779 0.895959
0.365390 0.829841 0.900616
0.546713 0.879983 0.919008
0.720270 0.929781 0.948057
0.880680 0.977809 0.984683
1.000000 1.000000 1.000000
