calib/fujify/montage_cubes/reala_ace_montage.cube
TITLE "Chromasmith montage fit - Reala Ace"
#STD->look, fit from fujify comparison montages (best-effort)
LUT_3D_SIZE 33
0.059343 0.055846 0.055035
0.086198 0.055226 0.048465
0.113856 0.055052 0.043069
0.142234 0.055304 0.038801
0.171249 0.055959 0.035611
0.200814 0.056994 0.033453
0.230848 0.058387 0.032277
0.261265 0.060116 0.032036
0.291982 0.062158 0.032681
0.322913 0.064492 0.034165
0.353977 0.067095 0.036439
0.385087 0.069944 0.039455
0.416160 0.073018 0.043165
0.447113 0.076295 0.047522
0.477860 0.079751 0.052476
0.508318 0.083365 0.057980
0.538403 0.087115 0.063985
0.568030 0.090978 0.070444
0.597116 0.094932 0.077309
0.625577 0.098954 0.084531
0.653327 0.103023 0.092062
0.680284 0.107116 0.099854
0.706363 0.111211 0.107859
0.731481 0.115285 0.116029
0.755552 0.119317 0.124316
0.778493 0.123284 0.132671
0.800220 0.127164 0.141047
0.820648 0.130934 0.149395
0.839695 0.134573 0.157668
0.857274 0.138057 0.165816
0.873303 0.141366 0.173793
0.887698 0.144475 0.181550
0.900374 0.147365 0.189038
0.070547 0.090839 0.064874
0.096904 0.090440 0.057821
0.124105 0.090502 0.052023
0.152067 0.091002 0.047434
0.180705 0.091918 0.044005
0.209936 0.093227 0.041688
0.239675 0.094907 0.040435
0.269839 0.096937 0.040198
0.300343 0.099293 0.040928
0.331103 0.101953 0.042579
0.362035 0.104896 0.045100
0.393055 0.108099 0.048445
0.424079 0.111539 0.052565
0.455022 0.115195 0.057413
0.485802 0.119043 0.062939
0.516333 0.123063 0.069096
0.546531 0.127231 0.075837
0.576313 0.131526 0.083111
0.605594 0.135925 0.090873
0.634291 0.140405 0.099073
0.662318 0.144945 0.107663
0.689593 0.149522 0.116595
0.716031 0.154114 0.125822
0.741547 0.158699 0.135295
0.766058 0.163255 0.144965
0.789480 0.167759 0.154786
0.811729 0.172188 0.164708
0.832720 0.176521 0.174684
0.852369 0.180736 0.184665
0.870593 0.184810 0.194604
0.887307 0.188721 0.204451
0.902427 0.192446 0.214160
0.915869 0.195964 0.223682
0.079730 0.122977 0.071555
0.105428 0.122626 0.063819
0.132011 0.122749 0.057420
0.159396 0.123324 0.052311
0.187499 0.124327 0.048443
0.216234 0.125737 0.045768
0.245519 0.127531 0.044238
0.275270 0.129687 0.043805
0.305401 0.132183 0.044421
0.335829 0.134997 0.046038
0.366470 0.138106 0.048608
0.397239 0.141488 0.052082
0.428054 0.145120 0.056413
0.458829 0.148982 0.061551
0.489480 0.153049 0.067450
0.519924 0.157301 0.074062
0.550076 0.161714 0.081337
0.579852 0.166267 0.089228
0.609169 0.170937 0.097686
0.637941 0.175701 0.106665
0.666086 0.180539 0.116115
0.693518 0.185427 0.125988
0.720154 0.190343 0.136237
0.745910 0.195264 0.146813
0.770701 0.200170 0.157668
0.794443 0.205037 0.168754
0.817053 0.209842 0.180023
0.838447 0.214565 0.191427
0.858539 0.219182 0.202917
0.877247 0.223672 0.214446
0.894486 0.228011 0.225965
0.910171 0.232178 0.237426
0.924220 0.236151 0.248782
0.087797 0.153253 0.076156
0.112676 0.152777 0.067537
0.138482 0.152788 0.060338
0.165130 0.153263 0.054508
0.192537 0.154180 0.050002
0.220618 0.155516 0.046769
0.249288 0.157251 0.044763
0.278465 0.159360 0.043935
0.308063 0.161822 0.044238
0.337999 0.164616 0.045622
0.368189 0.167717 0.048040
0.398548 0.171105 0.051443
0.428993 0.174756 0.055785
0.459439 0.178650 0.061015
0.489802 0.182762 0.067088
0.519999 0.187072 0.073953
0.549945 0.191556 0.081564
0.579555 0.196193 0.089871
0.608747 0.200961 0.098828
0.637435 0.205836 0.108385
0.665536 0.210798 0.118495
0.692966 0.215822 0.129110
0.719640 0.220888 0.140181
0.745475 0.225973 0.151661
0.770386 0.231055 0.163501
0.794289 0.236111 0.175653
0.817101 0.241119 0.188069
0.838736 0.246058 0.200701
0.859112 0.250904 0.213501
0.878144 0.255635 0.226420
0.895747 0.260229 0.239411
0.911838 0.264665 0.252426
0.926332 0.268919 0.265416
0.095655 0.182661 0.079754
0.119556 0.181886 0.070053
0.144425 0.181610 0.061853
0.170176 0.181812 0.055104
0.196727 0.182470 0.049759
0.223992 0.183560 0.045770
0.251888 0.185060 0.043088
0.280331 0.186949 0.041666
0.309237 0.189204 0.041454
0.338521 0.191803 0.042406
0.368099 0.194723 0.044473
0.397888 0.197943 0.047607
0.427803 0.201440 0.051759
0.457760 0.205191 0.056882
0.487675 0.209175 0.062928
0.517464 0.213370 0.069848
0.547044 0.217752 0.077595
0.576328 0.222300 0.086119
0.605235 0.226991 0.095374
0.633679 0.231803 0.105311
0.661577 0.236715 0.115882
0.688844 0.241703 0.127038
0.715397 0.246745 0.138732
0.741150 0.251819 0.150916
0.766021 0.256904 0.163541
0.789925 0.261976 0.176560
0.812778 0.267013 0.189923
0.834496 0.271993 0.203584
0.854994 0.276894 0.217494
0.874190 0.281694 0.231605
0.891998 0.286369 0.245868
0.908334 0.290899 0.260236
0.923115 0.295261 0.274661
0.104213 0.212194 0.083426
0.126975 0.210946 0.072445
0.150746 0.210211 0.063044
0.175440 0.209966 0.055177
0.200975 0.210190 0.048794
0.227265 0.210859 0.043848
0.254226 0.211953 0.040291
0.281776 0.213448 0.038074
0.309828 0.215322 0.037150
0.338300 0.217552 0.037470
0.367107 0.220118 0.038986
0.396165 0.222996 0.041650
0.425390 0.226164 0.045414
0.454699 0.229600 0.050230
0.484006 0.233282 0.056050
0.513228 0.237187 0.062825
0.542280 0.241293 0.070508
0.571079 0.245578 0.079050
0.599541 0.250020 0.088404
0.627581 0.254595 0.098520
0.655115 0.259283 0.109352
0.682059 0.264061 0.120851
0.708330 0.268906 0.132968
0.733843 0.273796 0.145656
0.758513 0.278709 0.158867
0.782258 0.283623 0.172553
0.804992 0.288516 0.186665
0.826632 0.293364 0.201155
0.847093 0.298147 0.215975
0.866292 0.302841 0.231077
0.884145 0.307424 0.246413
0.900566 0.311875 0.261935
0.915473 0.316170 0.277595
0.114376 0.242845 0.088251
0.135840 0.240951 0.075789
0.158353 0.239582 0.064988
0.181830 0.238717 0.055802
0.206188 0.238333 0.048183
0.231343 0.238409 0.042081
0.257210 0.238921 0.037448
0.283705 0.239848 0.034238
0.310745 0.241168 0.032401
0.338244 0.242857 0.031889
0.366120 0.244894 0.032655
0.394287 0.247257 0.034650
0.422663 0.249923 0.037826
0.451162 0.252870 0.042136
0.479701 0.256076 0.047530
0.508195 0.259518 0.053961
0.536561 0.263174 0.061380
0.564714 0.267022 0.069741
0.592571 0.271040 0.078993
0.620046 0.275206 0.089090
0.647057 0.279496 0.099983
0.673519 0.283890 0.111625
0.699347 0.288364 0.123966
0.724459 0.292896 0.136959
0.748769 0.297465 0.150556
0.772194 0.302047 0.164709
0.794650 0.306621 0.179370
0.816051 0.311164 0.194489
0.836316 0.315655 0.210020
0.855358 0.320070 0.225915
0.873095 0.324387 0.242124
0.889442 0.328585 0.258601
0.904315 0.332640 0.275296
0.127051 0.275608 0.095306
0.147057 0.272893 0.081163
0.168152 0.270717 0.068764
0.190252 0.269058 0.058060
0.213274 0.267894 0.049003
0.237133 0.267202 0.041545
0.261745 0.266960 0.035639
0.287027 0.267145 0.031235
0.312893 0.267736 0.028285
0.339261 0.268710 0.026743
0.366045 0.270045 0.026559
0.393161 0.271719 0.027685
0.420527 0.273709 0.030074
0.448057 0.275993 0.033677
0.475667 0.278549 0.038446
0.503274 0.281355 0.044333
0.530793 0.284388 0.051290
0.558140 0.287626 0.059269
0.585232 0.291047 0.068221
0.611983 0.294628 0.078099
0.638310 0.298348 0.088854
0.664129 0.302183 0.100438
0.689356 0.306113 0.112804
0.713906 0.310114 0.125903
0.737696 0.314164 0.139686
0.760641 0.318241 0.154107
0.782658 0.322323 0.169116
0.803662 0.326387 0.184666
0.823569 0.330411 0.200708
0.842295 0.334373 0.217195
0.859756 0.338251 0.234078
0.875868 0.342022 0.251310
0.890546 0.345665 0.268841
0.143146 0.311475 0.105668
0.161533 0.307767 0.089646
0.181050 0.304610 0.075448
0.201614 0.301984 0.063026
0.223139 0.299865 0.052333
0.245543 0.298231 0.043320
0.268740 0.297060 0.035939
0.292648 0.296331 0.030142
0.317181 0.296020 0.025881
0.342256 0.296105 0.023108
0.367788 0.296564 0.021775
0.393694 0.297375 0.021833
0.419890 0.298516 0.023235
0.446290 0.299963 0.025932
0.472812 0.301696 0.029876
0.499372 0.303692 0.035020
0.525884 0.305927 0.041315
0.552265 0.308382 0.048712
0.578431 0.311032 0.057164
0.604298 0.313855 0.066623
0.629781 0.316830 0.077041
0.654797 0.319935 0.088369
0.679262 0.323146 0.100559
0.703091 0.326441 0.113564
0.726200 0.329799 0.127334
0.748506 0.333198 0.141823
0.769924 0.336614 0.156982
0.790369 0.340025 0.172762
0.809759 0.343410 0.189117
0.828008 0.346745 0.205996
0.845034 0.350010 0.223354
0.860751 0.353181 0.241140
0.875075 0.356236 0.259308
0.163568 0.351441 0.120416
0.180176 0.346565 0.102314
0.197955 0.342254 0.086118
0.216821 0.338486 0.071779
0.236690 0.335238 0.059250
0.257478 0.332490 0.048482
0.279101 0.330217 0.039428
0.301474 0.328399 0.032038
0.324514 0.327012 0.026266
0.348137 0.326034 0.022063
0.372257 0.325444 0.019381
0.396793 0.325219 0.018171
0.421658 0.325336 0.018386
0.446769 0.325774 0.019978
0.472043 0.326510 0.022898
0.497394 0.327521 0.027099
0.522740 0.328786 0.032531
0.547995 0.330283 0.039148
0.573075 0.331988 0.046901
0.597898 0.333881 0.055741
0.622377 0.335938 0.065622
0.646431 0.338137 0.076494
0.669973 0.340456 0.088309
0.692921 0.342873 0.101020
0.715189 0.345365 0.114579
0.736695 0.347910 0.128936
0.757354 0.350487 0.144045
0.777081 0.353072 0.159856
0.795794 0.355643 0.176322
0.813407 0.358179 0.193396
0.829836 0.360656 0.211027
0.844998 0.363054 0.229170
0.858808 0.365348 0.247774
0.189223 0.396498 0.140627
0.203892 0.390280 0.120246
0.219773 0.384641 0.101851
0.236782 0.379558 0.085396
0.254835 0.375009 0.070831
0.273847 0.370971 0.058109
0.293735 0.367423 0.047182
0.314414 0.364342 0.038000
0.335801 0.361706 0.030517
0.357810 0.359492 0.024685
0.380360 0.357679 0.020454
0.403364 0.356244 0.017777
0.426739 0.355164 0.016606
0.450401 0.354418 0.016893
0.474266 0.353983 0.018589
0.498250 0.353837 0.021647
0.522268 0.353958 0.026018
0.546237 0.354323 0.031655
0.570072 0.354911 0.038508
0.593690 0.355698 0.046531
0.617006 0.356663 0.055675
0.639936 0.357783 0.065891
0.662396 0.359037 0.077132
0.684302 0.360401 0.089350
0.705570 0.361854 0.102496
0.726116 0.363373 0.116523
0.745856 0.364936 0.131382
0.764705 0.366521 0.147025
0.782580 0.368106 0.163404
0.799396 0.369667 0.180471
0.815070 0.371184 0.198177
0.829516 0.372634 0.216476
0.842652 0.373994 0.235318
0.221019 0.447639 0.167378
0.233589 0.439907 0.144518
0.247412 0.432766 0.123726
0.262403 0.426194 0.104955
0.278479 0.420169 0.088155
0.295556 0.414669 0.073279
0.313549 0.409672 0.060279
0.332374 0.405155 0.049106
0.351947 0.401095 0.039713
0.372184 0.397472 0.032051
0.393001 0.394262 0.026072
0.414314 0.391443 0.021728
0.436039 0.388992 0.018972
0.458092 0.386889 0.017754
0.480388 0.385110 0.018027
0.502844 0.383633 0.019742
0.525375 0.382435 0.022853
0.547898 0.381495 0.027309
0.570328 0.380791 0.033064
0.592581 0.380300 0.040070
0.614573 0.379999 0.048277
0.636220 0.379867 0.057638
0.657437 0.379881 0.068105
0.678142 0.380019 0.079630
0.698249 0.380259 0.092165
0.717675 0.380578 0.105661
0.736336 0.380954 0.120071
0.754147 0.381366 0.135346
0.771024 0.381790 0.151438
0.786883 0.382204 0.168299
0.801641 0.382586 0.185881
0.815213 0.382915 0.204136
0.827514 0.383166 0.223016
0.259862 0.505858 0.201747
0.270173 0.496437 0.176209
0.281778 0.487621 0.152821
0.294592 0.479387 0.131533
0.308531 0.471713 0.112299
0.323512 0.464577 0.095069
0.339449 0.457956 0.079797
0.356260 0.451829 0.066433
0.373860 0.446173 0.054929
0.392164 0.440966 0.045239
0.411090 0.436185 0.037312
0.430552 0.431809 0.031102
0.450466 0.427814 0.026560
0.470749 0.424180 0.023639
0.491317 0.420883 0.022289
0.512085 0.417901 0.022463
0.532969 0.415212 0.024112
0.553885 0.412793 0.027190
0.574749 0.410623 0.031646
0.595477 0.408679 0.037435
0.615986 0.406940 0.044506
0.636189 0.405381 0.052813
0.656005 0.403982 0.062306
0.675348 0.402721 0.072939
0.694134 0.401574 0.084662
0.712280 0.400519 0.097429
0.729702 0.399535 0.111189
0.746314 0.398599 0.125897
0.762034 0.397688 0.141502
0.776776 0.396782 0.157958
0.790458 0.395856 0.175217
0.802994 0.394889 0.193229
0.814301 0.393860 0.211947
0.306660 0.572148 0.244812
0.314552 0.560865 0.216397
0.323778 0.550200 0.190211
0.334254 0.540130 0.166208
0.345897 0.530633 0.144340
0.358622 0.521687 0.124557
0.372344 0.513270 0.106813
0.386980 0.505359 0.091058
0.402447 0.497933 0.077246
0.418658 0.490968 0.065327
0.435532 0.484443 0.055253
0.452983 0.478336 0.046977
0.470927 0.472624 0.040450
0.489280 0.467284 0.035625
0.507959 0.462295 0.032453
0.526879 0.457635 0.030885
0.545956 0.453280 0.030875
0.565105 0.449210 0.032373
0.584244 0.445400 0.035332
0.603287 0.441831 0.039704
0.622151 0.438478 0.045440
0.640752 0.435320 0.052492
0.659005 0.432334 0.060813
0.676826 0.429499 0.070354
0.694132 0.426791 0.081066
0.710838 0.424189 0.092903
0.726860 0.421671 0.105816
0.742114 0.419214 0.119756
0.756515 0.416796 0.134675
0.769981 0.414394 0.150526
0.782427 0.411987 0.167261
0.793768 0.409552 0.184831
0.803920 0.407066 0.203187
0.362319 0.647503 0.297650
0.367631 0.634184 0.266158
0.374319 0.621495 0.236976
0.382298 0.609416 0.210059
0.391484 0.597922 0.185356
0.401792 0.586993 0.162821
0.413140 0.576606 0.142405
0.425442 0.566738 0.124061
0.438614 0.557367 0.107739
0.452573 0.548472 0.093392
0.467234 0.540029 0.080972
0.482514 0.532017 0.070430
0.498328 0.524413 0.061719
0.514591 0.517195 0.054790
0.531221 0.510341 0.049596
0.548133 0.503828 0.046088
0.565243 0.497635 0.044218
0.582466 0.491738 0.043938
0.599719 0.486116 0.045199
0.616917 0.480746 0.047955
0.633977 0.475607 0.052156
0.650814 0.470675 0.057755
0.667345 0.465929 0.064703
0.683484 0.461347 0.072952
0.699149 0.456905 0.082454
0.714255 0.452582 0.093162
0.728717 0.448356 0.105027
0.742452 0.444204 0.118000
0.755377 0.440104 0.132034
0.767405 0.436034 0.147081
0.778454 0.431972 0.163092
0.788440 0.427894 0.180020
0.797278 0.423780 0.197816
0.427746 0.732915 0.361340
0.430319 0.717386 0.326570
0.434309 0.702501 0.294193
0.439630 0.688238 0.264161
0.446199 0.674575 0.236425
0.453931 0.661488 0.210938
0.462743 0.648957 0.187651
0.472551 0.636958 0.166517
0.483269 0.625470 0.147486
0.494815 0.614470 0.130512
0.507105 0.603936 0.115546
0.520053 0.593845 0.102539
0.533576 0.584176 0.091444
0.547590 0.574906 0.082213
0.562011 0.566013 0.074797
0.576754 0.557474 0.069148
0.591737 0.549268 0.065219
0.606873 0.541371 0.062961
0.622080 0.533763 0.062326
0.637274 0.526420 0.063265
0.652369 0.519320 0.065732
0.667283 0.512441 0.069677
0.681931 0.505761 0.075053
0.696229 0.499258 0.081811
0.710092 0.492909 0.089904
0.723438 0.486691 0.099283
0.736181 0.480583 0.109900
0.748238 0.474563 0.121707
0.759524 0.468608 0.134656
0.769955 0.462696 0.148699
0.779448 0.456804 0.163787
0.787918 0.450911 0.179873
0.795282 0.444993 0.196909
0.503848 0.829378 0.436958
0.503522 0.811466 0.398712
0.504653 0.794211 0.362939
0.507157 0.777591 0.329593
0.510949 0.761584 0.298625
0.515945 0.746166 0.269986
0.522061 0.731317 0.243629
0.529214 0.717014 0.219505
0.537319 0.703234 0.197566
0.546292 0.689956 0.177765
0.556049 0.677157 0.160053
0.566506 0.664814 0.144381
0.577579 0.652906 0.130703
0.589183 0.641410 0.118969
0.601235 0.630304 0.109132
0.613650 0.619566 0.101144
0.626345 0.609173 0.094956
0.639235 0.599103 0.090520
0.652236 0.589335 0.087788
0.665264 0.579845 0.086713
0.678235 0.570611 0.087245
0.691066 0.561611 0.089338
0.703671 0.552824 0.092942
0.715967 0.544226 0.098010
0.727869 0.535795 0.104493
0.739294 0.527509 0.112344
0.750158 0.519346 0.121514
0.760376 0.511284 0.131955
0.769864 0.503300 0.143619
0.778539 0.495371 0.156458
0.786315 0.487477 0.170425
0.793110 0.479594 0.185469
0.798838 0.471700 0.201545
0.591533 0.937886 0.525582
0.588148 0.917416 0.483660
0.586260 0.897618 0.444293
0.585785 0.878467 0.407433
0.586640 0.859942 0.373032
0.588740 0.842020 0.341042
0.592002 0.824680 0.311415
0.596340 0.807898 0.284102
0.601671 0.791653 0.259056
0.607911 0.775923 0.236228
0.614975 0.760685 0.215570
0.622781 0.745916 0.197035
0.631242 0.731596 0.180573
0.640277 0.717700 0.166138
0.649799 0.704208 0.153680
0.659726 0.691097 0.143152
0.669974 0.678344 0.134506
0.680457 0.665927 0.127693
0.691092 0.653825 0.122665
0.701795 0.642014 0.119375
0.712482 0.630472 0.117774
0.723069 0.619178 0.117814
0.733471 0.608109 0.119447
0.743605 0.597243 0.122624
0.753386 0.586557 0.127299
0.762731 0.576029 0.133422
0.771555 0.565637 0.140945
0.779774 0.555359 0.149821
0.787304 0.545172 0.160001
0.794062 0.535055 0.171437
0.799962 0.524984 0.184081
0.804921 0.514938 0.197886
0.808854 0.504894 0.212802
0.691707 1.000000 0.628290
0.685102 1.000000 0.582492
0.680036 1.000000 0.539331
0.676423 0.991859 0.498758
0.674181 0.970643 0.460725
0.673225 0.950043 0.425184
0.673470 0.930037 0.392087
0.674834 0.910604 0.361386
0.677231 0.891720 0.333032
0.680578 0.873364 0.306979
0.684790 0.855514 0.283176
0.689784 0.838146 0.261577
0.695475 0.821239 0.242133
0.701779 0.804770 0.224796
0.708612 0.788718 0.209518
0.715891 0.773060 0.196251
0.723531 0.757773 0.184947
0.731447 0.742836 0.175557
0.739556 0.728226 0.168034
0.747774 0.713920 0.162329
0.756017 0.699898 0.158395
0.764200 0.686136 0.156183
0.772239 0.672612 0.155645
0.780051 0.659303 0.156733
0.787551 0.646189 0.159399
0.794655 0.633245 0.163595
0.801280 0.620451 0.169272
0.807340 0.607783 0.176383
0.812752 0.595220 0.184879
0.817432 0.582739 0.194713
0.821295 0.570318 0.205835
0.824259 0.557935 0.218199
0.826237 0.545567 0.231756
0.805277 1.000000 0.746159
0.795293 1.000000 0.696286
0.786887 1.000000 0.649131
0.779977 1.000000 0.604646
0.774478 1.000000 0.562781
0.770305 1.000000 0.523490
0.767375 1.000000 0.486724
0.765603 1.000000 0.452435
0.764906 1.000000 0.420574
0.765200 0.983273 0.391095
0.766400 0.962637 0.363948
0.768422 0.942496 0.339085
0.771182 0.922829 0.316459
0.774596 0.903613 0.296021
0.778581 0.884827 0.277723
0.783051 0.866448 0.261518
0.787922 0.848454 0.247356
0.793112 0.830823 0.235190
0.798535 0.813531 0.224972
0.804108 0.796558 0.216654
0.809746 0.779881 0.210187
0.815365 0.763477 0.205523
0.820882 0.747324 0.202615
0.826211 0.731400 0.201413
0.831270 0.715683 0.201871
0.835974 0.700150 0.203940
0.840238 0.684779 0.207572
0.843979 0.669548 0.212718
0.847113 0.654435 0.219331
0.849556 0.639418 0.227362
0.851223 0.624473 0.236764
0.852030 0.609579 0.247488
0.851894 0.594714 0.259486
0.933150 1.000000 0.880267
0.919626 1.000000 0.826120
0.907722 1.000000 0.774772
0.897354 1.000000 0.726174
0.888437 1.000000 0.680278
0.880888 1.000000 0.637037
0.874622 1.000000 0.596402
0.869556 1.000000 0.558326
0.865605 1.000000 0.522759
0.862685 1.000000 0.489654
0.860712 1.000000 0.458963
0.859602 1.000000 0.430638
0.859272 1.000000 0.404630
0.859636 1.000000 0.380891
0.860611 0.993529 0.359374
0.862112 0.972256 0.340031
0.864056 0.951381 0.322812
0.866359 0.930881 0.307670
0.868936 0.910735 0.294557
0.871703 0.890920 0.283425
0.874576 0.871414 0.274226
0.877472 0.852194 0.266911
0.880305 0.833239 0.261433
0.882993 0.814526 0.257743
0.885450 0.796032 0.255793
0.887593 0.777737 0.255536
0.889338 0.759616 0.256922
0.890600 0.741649 0.259904
0.891296 0.723812 0.264434
0.891341 0.706084 0.270464
0.890651 0.688442 0.277945
0.889143 0.670864 0.286830
0.886731 0.653327 0.297070
1.000000 1.000000 1.000000
1.000000 1.000000 0.973071
1.000000 1.000000 0.917330
1.000000 1.000000 0.864420
1.000000 1.000000 0.814294
1.000000 1.000000 0.766903
0.996119 1.000000 0.722200
0.987597 1.000000 0.680136
0.980232 1.000000 0.640663
0.973939 1.000000 0.603734
0.968634 1.000000 0.569299
0.964232 1.000000 0.537311
0.960651 1.000000 0.507722
0.957804 1.000000 0.480484
0.955610 1.000000 0.455548
0.953983 1.000000 0.432867
0.952839 1.000000 0.412391
0.952094 1.000000 0.394074
0.951665 1.000000 0.377867
0.951467 0.997999 0.363722
0.951416 0.975491 0.351591
0.951427 0.953282 0.341426
0.951418 0.931351 0.333178
0.951303 0.909675 0.326800
0.950999 0.888231 0.322243
0.950421 0.866999 0.319459
0.949486 0.845955 0.318401
0.948109 0.825077 0.319019
0.946206 0.804343 0.321267
0.943694 0.783730 0.325095
0.940487 0.763217 0.330456
0.936503 0.742781 0.337302
0.931656 0.722400 0.345584
1.000000 1.000000 1.000000
1.000000 1.000000 1.000000
1.000000 1.000000 1.000000
1.000000 1.000000 1.000000
1.000000 1.000000 0.965905
1.000000 1.000000 0.914166
1.000000 1.000000 0.865195
1.000000 1.000000 0.818944
1.000000 1.000000 0.775366
1.000000 1.000000 0.734412
1.000000 1.000000 0.696034
1.000000 1.000000 0.660185
1.000000 1.000000 0.626815
1.000000 1.000000 0.595877
1.000000 1.000000 0.567322
1.000000 1.000000 0.541104
1.000000 1.000000 0.517172
1.000000 1.000000 0.495480
1.000000 1.000000 0.475980
1.000000 1.000000 0.458622
1.000000 1.000000 0.443359
1.000000 1.000000 0.430144
1.000000 1.000000 0.418927
1.000000 1.000000 0.409661
1.000000 0.993273 0.402297
1.000000 0.968930 0.396788
1.000000 0.944789 0.393085
1.000000 0.920827 0.391141
1.000000 0.897021 0.390906
1.000000 0.873351 0.392334
1.000000 0.849793 0.395375
0.995018 0.826326 0.399982
0.987576 0.802926 0.406107
1.000000 1.000000 1.000000
1.000000 1.000000 1.000000
1.000000 1.000000 1.000000
1.000000 1.000000 1.000000
1.000000 1.000000 1.000000
1.000000 1.000000 1.000000
1.000000 1.000000 1.000000
1.000000 1.000000 0.975827
1.000000 1.000000 0.927944
1.000000 1.000000 0.882766
1.000000 1.000000 0.840246
1.000000 1.000000 0.800334
1.000000 1.000000 0.762984
1.000000 1.000000 0.728147
1.000000 1.000000 0.695775
1.000000 1.000000 0.665819
1.000000 1.000000 0.638232
1.000000 1.000000 0.612966
1.000000 1.000000 0.589972
1.000000 1.000000 0.569202
1.000000 1.000000 0.550608
1.000000 1.000000 0.534143
1.000000 1.000000 0.519757
1.000000 1.000000 0.507404
1.000000 1.000000 0.497034
1.000000 1.000000 0.488600
1.000000 1.000000 0.482053
1.000000 1.000000 0.477346
1.000000 1.000000 0.474430
1.000000 0.975939 0.473257
1.000000 0.949163 0.473779
1.000000 0.922490 0.475948
1.000000 0.895898 0.479716
1.000000 1.000000 1.000000
1.000000 1.000000 1.000000
1.000000 1.000000 1.000000
1.000000 1.000000 1.000000
1.000000 1.000000 1.000000
1.000000 1.000000 1.000000
1.000000 1.000000 1.000000
1.000000 1.000000 1.000000
1.000000 1.000000 1.000000
1.000000 1.000000 1.000000
1.000000 1.000000 1.000000
1.000000 1.000000 0.958839
1.000000 1.000000 0.917309
1.000000 1.000000 0.878373
1.000000 1.000000 0.841983
1.000000 1.000000 0.808091
1.000000 1.000000 0.776649
1.000000 1.000000 0.747608
1.000000 1.000000 0.720921
1.000000 1.000000 0.696540
1.000000 1.000000 0.674416
1.000000 1.000000 0.654501
1.000000 1.000000 0.636747
1.000000 1.000000 0.621107
1.000000 1.000000 0.607531
1.000000 1.000000 0.595972
1.000000 1.000000 0.586382
1.000000 1.000000 0.578712
1.000000 1.000000 0.572915
1.000000 1.000000 0.568943
1.000000 1.000000 0.566746
1.000000 1.000000 0.566278
1.000000 1.000000 0.567489
1.000000 1.000000 1.000000
1.000000 1.000000 1.000000
1.000000 1.000000 1.000000
1.000000 1.000000 1.000000
1.000000 1.000000 1.000000
1.000000 1.000000 1.000000
1.000000 1.000000 1.000000
1.000000 1.000000 1.000000
1.000000 1.000000 1.000000
1.000000 1.000000 1.000000
1.000000 1.000000 1.000000
1.000000 1.000000 1.000000
1.000000 1.000000 1.000000
1.000000 1.000000 1.000000
1.000000 1.000000 1.000000
1.000000 1.000000 0.968996
1.000000 1.000000 0.933499
1.000000 1.000000 0.900485
1.000000 1.000000 0.869906
1.000000 1.000000 0.841713
1.000000 1.000000 0.815859
1.000000 1.000000 0.792296
1.000000 1.000000 0.770974
1.000000 1.000000 0.751847
1.000000 1.000000 0.734866
1.000000 1.000000 0.719983
1.000000 1.000000 0.707150
1.000000 1.000000 0.696318
1.000000 1.000000 0.687440
1.000000 1.000000 0.680468
1.000000 1.000000 0.675353
1.000000 1.000000 0.672048
1.000000 1.000000 0.670503
1.000000 1.000000 1.000000
1.000000 1.000000 1.000000
1.000000 1.000000 1.000000
1.000000 1.000000 1.000000
1.000000 1.000000 1.000000
1.000000 1.000000 1.000000
1.000000 1.000000 1.000000
1.000000 1.000000 1.000000
1.000000 1.000000 1.000000
1.000000 1.000000 1.000000
1.000000 1.000000 1.000000
1.000000 1.000000 1.000000
1.000000 1.000000 1.000000
1.000000 1.000000 1.000000
1.000000 1.000000 1.000000
1.000000 1.000000 1.000000
1.000000 1.000000 1.000000
1.000000 1.000000 1.000000
1.000000 1.000000 1.000000
1.000000 1.000000 1.000000
1.000000 1.000000 0.976016
1.000000 1.000000 0.948604
1.000000 1.000000 0.923516
1.000000 1.000000 0.900702
1.000000 1.000000 0.880116
1.000000 1.000000 0.861709
