calib/fujify/montage_cubes/reala_ace_montage.cube
TITLE "Chromasmith montage fit - Reala Ace"
#STD->look, fit from fujify comparison montages (best-effort)
LUT_3D_SIZE 5
0.059343 0.055846 0.055035
0.291982 0.062158 0.032681
0.538403 0.087115 0.063985
0.755552 0.119317 0.124316
0.900374 0.147365 0.189038
0.143146 0.311475 0.105668
0.317181 0.296020 0.025881
0.525884 0.305927 0.041315
0.726200 0.329799 0.127334
0.875075 0.356236 0.259308
0.503848 0.829378 0.436958
0.537319 0.703234 0.197566
0.626345 0.609173 0.094956
0.727869 0.535795 0.104493
0.798838 0.471700 0.201545
1.000000 1.000000 1.000000
1.000000 1.000000 1.000000
1.000000 1.000000 0.776649
1.000000 1.000000 0.607531
1.000000 1.000000 0.567489
1.000000 1.000000 1.000000
1.000000 1.000000 1.000000
1.000000 1.000000 1.000000
1.000000 1.000000 1.000000
1.000000 1.000000 1.000000
0.000000 0.000000 0.128979
0.038583 0.000000 0.000000
0.120682 0.000000 0.000000
0.157556 0.000000 0.000000
0.106152 0.000000 0.000000
0.080567 0.314284 0.365964
0.285639 0.291397 0.275791
0.509428 0.286424 0.245757
0.708879 0.287965 0.251227
0.840938 0.284621 0.267569
0.000000 0.393369 0.296076
0.212076 0.424534 0.205454
0.495596 0.480331 0.216530
0.775665 0.549361 0.304671
1.000000 0.620225 0.445246
0.081454 0.728934 0.471058
0.282258 0.725229 0.277812
0.543551 0.752876 0.227826
0.822277 0.800475 0.296467
1.000000 0.856627 0.459102
0.884820 1.000000 1.000000
0.960551 1.000000 1.000000
1.000000 1.000000 0.831387
1.000000 1.000000 0.778355
1.000000 1.000000 0.860878
0.000000 0.000000 0.000000
0.000000 0.000000 0.000000
0.000000 0.000000 0.000000
0.000000 0.000000 0.000000
0.000000 0.000000 0.000000
0.246883 0.502291 0.658643
0.240887 0.263145 0.376374
0.237657 0.034463 0.119161
0.194138 0.000000 0.000000
0.067274 0.000000 0.000000
0.071926 0.543340 0.675022
0.284185 0.522984 0.551457
0.520096 0.519812 0.494508
0.736603 0.522422 0.479544
0.890651 0.519416 0.481930
0.000000 0.326520 0.348741
0.000000 0.436035 0.281708
0.348762 0.569451 0.322852
0.743336 0.715370 0.447541
1.000000 0.862392 0.631141
0.000000 0.360384 0.231541
0.000000 0.510849 0.118866
0.188021 0.691934 0.155931
0.678703 0.892241 0.318101
1.000000 1.000000 0.580744
0.000000 0.000000 0.000000
0.000000 0.000000 0.000000
0.000000 0.000000 0.000000
0.000000 0.000000 0.000000
0.000000 0.000000 0.000000
0.418974 0.642899 0.659136
0.000000 0.000000 0.003059
0.000000 0.000000 0.000000
0.000000 0.000000 0.000000
0.000000 0.000000 0.000000
0.592031 1.000000 1.000000
0.530527 0.765988 0.911006
0.476722 0.495018 0.604323
0.387563 0.222381 0.304541
0.219993 0.000000 0.000000
0.000000 0.678268 0.909126
0.213878 0.692175 0.786593
0.496663 0.722533 0.737156
0.764980 0.757943 0.736182
0.975773 0.787006 0.759037
0.000000 0.046181 0.190579
0.000000 0.265777 0.181559
0.011639 0.508543 0.287197
0.555473 0.763081 0.482858
1.000000 1.000000 0.743910
0.000000 0.000000 0.000000
0.000000 0.000000 0.000000
0.000000 0.000000 0.000000
0.000000 0.000000 0.000000
0.000000 0.000000 0.000000
0.373719 0.503510 0.042874
0.000000 0.000000 0.000000
0.000000 0.000000 0.000000
0.000000 0.000000 0.000000
0.000000 0.000000 0.000000
1.000000 1.000000 1.000000
0.727980 0.920948 0.959534
0.142356 0.173352 0.221404
0.000000 0.000000 0.000000
0.000000 0.000000 0.000000
0.916019 1.000000 1.000000
0.833760 1.000000 1.000000
0.764135 0.979522 1.000000
0.664089 0.695596 0.837822
0.490567 0.397872 0.518221
0.000000 0.654324 0.995192
0.000975 0.734222 0.908116
0.365390 0.829841 0.900616
0.720270 0.929781 0.948057
1.000000 1.000000 1.000000
