Fujify Luts and XMP/astia.cube
#Generated with Fujify color engine
#Website: https://fujify.me
#LUMIXPHOTOSTYLE STD
LUT_3D_SIZE 33
0.023529 0.027451 0.035294
0.042769 0.027451 0.031373
0.058334 0.031373 0.031373
0.085172 0.034926 0.031373
0.115196 0.035294 0.031373
0.146569 0.039216 0.031373
0.187745 0.043137 0.028186
0.227084 0.047059 0.027451
0.262745 0.050000 0.024510
0.308211 0.054902 0.023529
0.342892 0.058824 0.023529
0.378922 0.061397 0.020956
0.417647 0.065196 0.019608
0.448530 0.066667 0.019608
0.481617 0.068873 0.021323
0.514216 0.070588 0.023529
0.549019 0.072549 0.023529
0.585662 0.074510 0.027451
0.618628 0.076716 0.029167
0.651103 0.074510 0.036887
0.682843 0.075980 0.040686
0.711274 0.075858 0.052328
0.740932 0.074510 0.060049
0.769118 0.074510 0.075613
0.799019 0.078431 0.087255
0.826103 0.075368 0.106740
0.853921 0.074510 0.119118
0.880882 0.077818 0.135784
0.907843 0.077941 0.162255
0.938726 0.070588 0.190073
0.965441 0.070588 0.224264
0.984559 0.066544 0.251715
0.992157 0.062745 0.286275
0.027328 0.038971 0.035294
0.042769 0.042888 0.031496
0.065572 0.042892 0.031610
0.085283 0.050367 0.031373
0.119486 0.050735 0.031373
0.150490 0.054657 0.031373
0.195389 0.058678 0.027474
0.230882 0.065468 0.024483
0.269608 0.069240 0.023560
0.310853 0.073074 0.023529
0.348047 0.076876 0.022342
0.382843 0.079492 0.019608
0.420021 0.082108 0.019608
0.452401 0.085980 0.019608
0.483333 0.087761 0.017946
0.518252 0.091912 0.019608
0.554902 0.093750 0.021630
0.587745 0.095588 0.023652
0.622480 0.095535 0.027505
0.654975 0.097671 0.033039
0.684390 0.097671 0.039262
0.715116 0.097671 0.045913
0.744768 0.100283 0.060088
0.771848 0.101559 0.072794
0.798927 0.098652 0.088236
0.826007 0.101498 0.103677
0.853799 0.100858 0.119041
0.884785 0.101574 0.138603
0.915088 0.101578 0.165977
0.942524 0.097560 0.193260
0.965564 0.093988 0.224149
0.988239 0.093505 0.255392
0.992157 0.089706 0.286275
0.027206 0.054412 0.035294
0.042884 0.058334 0.035057
0.065702 0.058334 0.034819
0.089093 0.065809 0.031373
0.123284 0.069608 0.031373
0.154412 0.073200 0.028232
0.193336 0.077696 0.027451
0.238358 0.081809 0.023529
0.273468 0.088480 0.023529
0.312132 0.092280 0.019784
0.354243 0.096078 0.019608
0.389254 0.099878 0.017195
0.421569 0.103768 0.015778
0.454634 0.107575 0.015832
0.490962 0.109176 0.015686
0.522059 0.112990 0.015816
0.558578 0.116789 0.017770
0.591667 0.116912 0.019853
0.626226 0.120726 0.023636
0.658846 0.120834 0.029190
0.688082 0.124510 0.036765
0.717608 0.124670 0.044569
0.744929 0.125904 0.057353
0.775682 0.125613 0.071760
0.802757 0.125735 0.088236
0.829833 0.127627 0.102872
0.857598 0.128631 0.116820
0.885011 0.128638 0.139300
0.915226 0.131862 0.162745
0.942647 0.124877 0.193283
0.969362 0.124510 0.217371
0.988120 0.120581 0.255392
0.996078 0.116667 0.282598
0.023897 0.073407 0.035294
0.046335 0.077328 0.035183
0.066276 0.081250 0.031373
0.092682 0.088725 0.031373
0.127083 0.092525 0.028263
0.158333 0.096323 0.028064
0.200246 0.100858 0.023828
0.241337 0.104779 0.022752
0.280638 0.108701 0.019608
0.317157 0.116176 0.016054
0.354656 0.120351 0.015801
0.393873 0.124261 0.015686
0.425353 0.128171 0.012133
0.456373 0.134191 0.011914
0.494363 0.134436 0.012133
0.525980 0.138235 0.013798
0.560601 0.141666 0.013909
0.595393 0.142107 0.015858
0.628026 0.145757 0.019769
0.659682 0.149142 0.023678
0.690457 0.149020 0.029289
0.721450 0.152819 0.040690
0.748522 0.156503 0.052321
0.775594 0.156495 0.067873
0.802665 0.155484 0.081648
0.829737 0.158456 0.099835
0.857774 0.159313 0.115563
0.888668 0.159313 0.138783
0.918796 0.159313 0.161856
0.946534 0.155392 0.193294
0.972694 0.152060 0.220711
0.988358 0.151470 0.254680
0.996078 0.147549 0.282721
0.023529 0.096569 0.035294
0.042785 0.100016 0.031848
0.066422 0.104381 0.031373
0.096247 0.111887 0.028263
0.130392 0.115686 0.027941
0.165563 0.122380 0.024555
0.204902 0.126716 0.023529
0.242770 0.131112 0.019608
0.284804 0.134926 0.016054
0.323622 0.141207 0.015686
0.358732 0.145987 0.013327
0.393260 0.150980 0.012087
0.428922 0.154902 0.011765
0.460585 0.158823 0.011765
0.495312 0.162745 0.008333
0.529672 0.166666 0.010156
0.562745 0.169117 0.010049
0.599249 0.170818 0.013603
0.631893 0.174725 0.015900
0.661566 0.180025 0.017570
0.691851 0.183333 0.025490
0.721369 0.182522 0.034391
0.748928 0.186427 0.046078
0.775996 0.188741 0.058701
0.803064 0.190074 0.077083
0.830882 0.192877 0.093903
0.858241 0.193382 0.112408
0.888803 0.193505 0.138603
0.918750 0.193627 0.161887
0.946967 0.189384 0.190104
0.973039 0.182598 0.220833
0.988358 0.182353 0.248713
0.996078 0.174510 0.286765
0.020221 0.119731 0.031986
0.039461 0.126961 0.031373
0.062622 0.130882 0.028064
0.096568 0.134804 0.027508
0.130346 0.139874 0.024142
0.166597 0.147086 0.023012
0.209092 0.156862 0.016919
0.246825 0.161397 0.015686
0.285294 0.165196 0.012378
0.327206 0.168995 0.011937
0.363342 0.175490 0.011765
0.398530 0.180515 0.008456
0.431480 0.184314 0.008073
0.464330 0.188113 0.007843
0.495711 0.191912 0.007843
0.533536 0.195998 0.006085
0.565012 0.199816 0.007843
0.603106 0.203554 0.008456
0.632184 0.207253 0.009904
0.665196 0.209314 0.013971
0.694225 0.213235 0.021078
0.721902 0.216946 0.026838
0.750000 0.220887 0.040824
0.779339 0.223457 0.053799
0.807231 0.224847 0.073529
0.834670 0.227585 0.089940
0.861650 0.227689 0.112010
0.892130 0.227696 0.135688
0.920021 0.224510 0.161795
0.947124 0.224077 0.186650
0.973039 0.220833 0.219807
0.988358 0.219646 0.245040
0.996078 0.209314 0.285662
0.016421 0.153922 0.028186
0.034949 0.161765 0.027451
0.058579 0.165686 0.024264
0.092280 0.169608 0.023598
0.126961 0.177451 0.020343
0.166299 0.180875 0.016919
0.212469 0.189216 0.013098
0.250613 0.193137 0.011926
0.289216 0.197856 0.011765
0.327818 0.204902 0.007843
0.366682 0.207828 0.007843
0.401356 0.212745 0.005752
0.433333 0.217862 0.004657
0.467402 0.223774 0.003922
0.499019 0.228018 0.003922
0.533479 0.231962 0.003922
0.566667 0.238235 0.003922
0.603041 0.241299 0.006151
0.636106 0.245098 0.007843
0.665633 0.248897 0.009873
0.695803 0.252696 0.013695
0.723522 0.253309 0.021691
0.753186 0.257614 0.031633
0.780676 0.263519 0.047710
0.807660 0.266115 0.063848
0.834643 0.266215 0.085501
0.864354 0.266912 0.110677
0.892647 0.266299 0.134673
0.920251 0.263235 0.158824
0.950123 0.262623 0.186152
0.973039 0.258869 0.215977
0.988358 0.258234 0.241177
0.996078 0.248039 0.278431
0.011765 0.187868 0.023529
0.027206 0.192497 0.020561
0.051049 0.199196 0.020657
0.084517 0.203964 0.019688
0.123039 0.207843 0.016544
0.166153 0.215430 0.013235
0.211152 0.219363 0.011926
0.254347 0.226226 0.008701
0.293137 0.230668 0.007843
0.329538 0.234681 0.005641
0.364583 0.240587 0.004780
0.401593 0.245906 0.004217
0.434191 0.249678 0.003922
0.469956 0.253799 0.002103
0.501218 0.259697 0.003922
0.535259 0.263427 0.003922
0.567525 0.270221 0.003922
0.605461 0.272706 0.003922
0.637860 0.279780 0.004780
0.666950 0.283579 0.006024
0.696078 0.285463 0.009850
0.724655 0.288113 0.017034
0.753654 0.291322 0.026838
0.780883 0.296810 0.042283
0.808487 0.298315 0.059344
0.837868 0.298342 0.084444
0.864254 0.298369 0.105025
0.895711 0.297917 0.131863
0.920358 0.297289 0.155652
0.950123 0.294527 0.182433
0.972235 0.294363 0.209015
0.988358 0.293627 0.237500
0.996078 0.290686 0.267525
0.007843 0.219608 0.020588
0.019394 0.226257 0.019608
0.042402 0.231066 0.015931
0.076685 0.237592 0.013113
0.117770 0.242525 0.013113
0.163970 0.243965 0.011765
0.211029 0.253983 0.008578
0.253554 0.255668 0.007843
0.292157 0.263236 0.004167
0.332721 0.265962 0.003922
0.366728 0.270588 0.003922
0.403370 0.276164 0.003922
0.436887 0.282598 0.000981
0.469884 0.288205 0.000398
0.500858 0.292402 0.000000
0.536765 0.297763 0.000000
0.570588 0.300000 0.000981
0.606832 0.307445 0.002359
0.637807 0.309803 0.003922
0.666973 0.315319 0.003922
0.696691 0.319118 0.008211
0.726624 0.322273 0.013756
0.753615 0.322794 0.025061
0.781587 0.329411 0.035386
0.811029 0.329411 0.057353
0.838082 0.332476 0.077298
0.864706 0.332598 0.101225
0.896416 0.329718 0.128156
0.923407 0.329657 0.151471
0.952788 0.329320 0.180423
0.973223 0.328370 0.205638
0.988358 0.325552 0.232874
0.996078 0.321568 0.266667
0.003922 0.254412 0.015686
0.012711 0.260942 0.012990
0.034559 0.265862 0.012868
0.068750 0.267176 0.011868
0.113741 0.272917 0.011765
0.159486 0.277941 0.007843
0.211274 0.284681 0.007843
0.253432 0.289706 0.005025
0.292861 0.296446 0.003922
0.330637 0.300678 0.003922
0.367525 0.305392 0.001103
0.399632 0.309313 0.001103
0.436841 0.313235 0.000000
0.468138 0.318302 0.000000
0.502459 0.325138 0.000000
0.534000 0.331005 0.000000
0.570588 0.334804 0.000000
0.606767 0.340169 0.000000
0.638718 0.342892 0.003922
0.668669 0.345056 0.003922
0.696768 0.350000 0.006082
0.728431 0.353799 0.012144
0.756962 0.353676 0.018895
0.784011 0.360294 0.033096
0.811060 0.361121 0.047181
0.838725 0.363358 0.070343
0.866582 0.364009 0.093712
0.897499 0.363285 0.121029
0.927451 0.360784 0.146706
0.953045 0.360559 0.173755
0.976961 0.360294 0.203048
0.992280 0.356372 0.229132
0.996078 0.352451 0.262745
0.001226 0.287990 0.012990
0.011558 0.290365 0.011803
0.030638 0.295665 0.011765
0.064829 0.300980 0.009069
0.106863 0.307598 0.009069
0.155461 0.312745 0.007843
0.204657 0.319362 0.005147
0.247059 0.324510 0.003922
0.292831 0.327757 0.003922
0.330515 0.331595 0.001226
0.368107 0.335049 0.000383
0.399755 0.340617 0.000000
0.436029 0.345251 0.000000
0.467042 0.351961 0.000000
0.502405 0.355882 0.000000
0.535256 0.360455 0.000000
0.571201 0.365686 0.000000
0.606702 0.368053 0.000000
0.638772 0.373775 0.001180
0.669117 0.376586 0.003922
0.698989 0.380882 0.004381
0.728730 0.381985 0.009191
0.756158 0.387255 0.016069
0.784046 0.390073 0.026080
0.811764 0.391850 0.038787
0.841422 0.392992 0.058701
0.869378 0.395098 0.083364
0.900298 0.396339 0.111627
0.929810 0.394026 0.142800
0.956855 0.394730 0.169845
0.977130 0.394853 0.198453
0.992280 0.391054 0.229167
0.996078 0.388480 0.261520
0.000000 0.316177 0.011765
0.007720 0.322591 0.007885
0.026716 0.327941 0.009191
0.056986 0.335658 0.007843
0.101593 0.339384 0.005591
0.144118 0.346323 0.006304
0.201111 0.350735 0.003922
0.247181 0.354534 0.003922
0.286642 0.358333 0.001348
0.330392 0.362132 0.000000
0.363725 0.365931 0.000000
0.399878 0.369731 0.000000
0.432368 0.374372 0.000000
0.465564 0.378129 0.000000
0.501593 0.384191 0.000000
0.533984 0.388113 0.000000
0.571262 0.393995 0.000000
0.606637 0.396446 0.000000
0.638236 0.402451 0.000000
0.668072 0.407966 0.001593
0.698192 0.408686 0.003922
0.728650 0.411642 0.007843
0.756112 0.417333 0.012186
0.784080 0.418861 0.019240
0.814338 0.422396 0.030760
0.842647 0.422917 0.050686
0.870703 0.424885 0.072051
0.901627 0.425578 0.102240
0.931051 0.425490 0.135294
0.957966 0.423522 0.165935
0.980798 0.421975 0.194646
0.992280 0.419481 0.227983
0.996078 0.418137 0.262745
0.000000 0.347059 0.009314
0.007720 0.354749 0.007843
0.022794 0.358671 0.007843
0.051731 0.365931 0.007843
0.090196 0.370098 0.006556
0.140211 0.377206 0.003922
0.198529 0.381617 0.003922
0.245389 0.385417 0.003922
0.286765 0.389216 0.000000
0.327129 0.393015 0.000000
0.362255 0.396814 0.000000
0.398530 0.400613 0.000000
0.431495 0.404412 0.000000
0.465089 0.408211 0.000000
0.500398 0.413726 0.000000
0.535125 0.417647 0.000000
0.571323 0.423530 0.000000
0.606571 0.427329 0.000000
0.638236 0.431618 0.000000
0.669117 0.434926 0.000000
0.699081 0.438725 0.002390
0.728569 0.442142 0.004427
0.756066 0.445864 0.008303
0.784804 0.449433 0.014338
0.815319 0.450000 0.026961
0.843796 0.452941 0.041023
0.870803 0.454136 0.063236
0.901731 0.453171 0.096339
0.933517 0.453125 0.131066
0.957966 0.450720 0.162025
0.980882 0.449112 0.194669
0.992280 0.449020 0.228018
0.996078 0.445098 0.265196
0.000000 0.377941 0.007843
0.003799 0.383284 0.007843
0.019118 0.389315 0.007843
0.043260 0.394703 0.006399
0.085126 0.396615 0.003922
0.138480 0.401471 0.003922
0.196584 0.406687 0.003922
0.243853 0.410558 0.000000
0.286887 0.414430 0.000000
0.326019 0.419976 0.000000
0.362132 0.423775 0.000000
0.397729 0.427574 0.000000
0.430867 0.431373 0.000000
0.465162 0.435171 0.000000
0.501348 0.440687 0.000000
0.535060 0.446592 0.000000
0.572181 0.451287 0.000000
0.608100 0.457219 0.000000
0.640242 0.461313 0.000000
0.670500 0.464863 0.000000
0.700000 0.467142 0.000000
0.729036 0.471258 0.002394
0.757843 0.474877 0.005147
0.785949 0.477084 0.010539
0.813542 0.481097 0.021569
0.842299 0.481147 0.035191
0.869309 0.481932 0.057407
0.901834 0.480515 0.090434
0.933410 0.482138 0.123729
0.960076 0.483456 0.158334
0.980882 0.483578 0.191498
0.992280 0.479829 0.225758
0.996078 0.479902 0.264338
0.000000 0.406618 0.005637
0.003799 0.408280 0.006181
0.016804 0.412745 0.005990
0.043221 0.418382 0.003922
0.082843 0.424510 0.003922
0.136129 0.428431 0.003922
0.193137 0.434069 0.000735
0.240196 0.436650 0.000000
0.286458 0.440625 0.000000
0.322794 0.448652 0.000000
0.362010 0.452451 0.000000
0.398530 0.456250 0.000000
0.432506 0.460049 0.000000
0.467241 0.467647 0.000000
0.501225 0.471568 0.000000
0.537883 0.477574 0.000000
0.575613 0.481373 0.000000
0.609329 0.487255 0.000000
0.640227 0.490686 0.000000
0.671124 0.492770 0.000000
0.700000 0.496171 0.000000
0.729167 0.500368 0.000590
0.758486 0.501961 0.003922
0.784804 0.506862 0.008946
0.813051 0.508701 0.017095
0.840066 0.509436 0.030883
0.869286 0.511106 0.051394
0.902282 0.514093 0.084390
0.931587 0.512285 0.118106
0.960126 0.512546 0.154572
0.980882 0.510815 0.187714
0.992280 0.510784 0.225873
0.996078 0.506862 0.266667
0.000000 0.429779 0.003922
0.003799 0.433701 0.003922
0.015196 0.439706 0.003922
0.039583 0.447354 0.003922
0.078033 0.451471 0.003922
0.131127 0.457230 0.003922
0.193014 0.461152 0.000000
0.240073 0.465529 0.000000
0.285233 0.471078 0.000000
0.322917 0.477819 0.000000
0.363151 0.481618 0.000000
0.400368 0.485417 0.000000
0.434635 0.489997 0.000000
0.468138 0.494608 0.000000
0.503171 0.502573 0.000000
0.537875 0.506372 0.000000
0.577389 0.511213 0.000000
0.611275 0.516054 0.000000
0.641123 0.518941 0.000000
0.671948 0.523150 0.000000
0.701149 0.525368 0.000000
0.728883 0.527328 0.000000
0.755836 0.533172 0.003922
0.784287 0.534409 0.006863
0.811764 0.536183 0.015104
0.840162 0.536519 0.027539
0.869263 0.541276 0.047572
0.902367 0.539622 0.080963
0.932981 0.541897 0.113863
0.959999 0.539778 0.150440
0.980882 0.539713 0.187492
0.992280 0.537803 0.226160
0.996078 0.539829 0.266667
0.000000 0.460784 0.003922
0.003799 0.464645 0.003922
0.015196 0.472304 0.003922
0.037745 0.476287 0.003922
0.077451 0.482108 0.003922
0.127083 0.487929 0.002267
0.189338 0.491789 0.000000
0.237990 0.496079 0.000000
0.283824 0.500000 0.000000
0.322488 0.507291 0.000000
0.363112 0.513848 0.000000
0.399816 0.518260 0.000000
0.433333 0.522794 0.000000
0.468505 0.527451 0.000000
0.503186 0.533578 0.000000
0.537745 0.535417 0.000000
0.574510 0.543137 0.000000
0.610233 0.544975 0.000000
0.641054 0.550122 0.000000
0.670282 0.552573 0.000000
0.700000 0.554412 0.000000
0.728248 0.560110 0.000000
0.755270 0.562132 0.002574
0.782843 0.563297 0.005025
0.811274 0.563725 0.012745
0.840257 0.568199 0.025245
0.869608 0.568260 0.043750
0.904106 0.568934 0.075306
0.935049 0.570833 0.112009
0.961887 0.570772 0.148713
0.982721 0.570588 0.187500
0.992280 0.572488 0.226103
0.996078 0.570588 0.264706
0.000000 0.489706 0.003922
0.003799 0.495523 0.003922
0.013243 0.501111 0.002198
0.035857 0.506912 0.002256
0.075720 0.512515 0.002084
0.126961 0.516544 0.000000
0.184972 0.522036 0.000000
0.235907 0.527083 0.000000
0.281955 0.531464 0.000000
0.322059 0.538086 0.000000
0.359153 0.543382 0.000000
0.396691 0.547181 0.000000
0.431250 0.552451 0.000000
0.467391 0.558701 0.000000
0.501103 0.560662 0.000000
0.537875 0.566299 0.000000
0.574510 0.572181 0.000000
0.609321 0.574012 0.000000
0.639407 0.578868 0.000000
0.669117 0.580748 0.000000
0.698070 0.584605 0.000000
0.726961 0.587745 0.000000
0.755354 0.590403 0.001226
0.782897 0.590931 0.005025
0.811244 0.592188 0.012745
0.840755 0.595186 0.021726
0.869608 0.598016 0.041422
0.904699 0.597959 0.073652
0.935033 0.599510 0.108548
0.961887 0.601398 0.146936
0.982836 0.601463 0.183686
0.992280 0.601528 0.224264
0.996078 0.601593 0.268505
0.000000 0.518872 0.000000
0.003799 0.522672 0.000000
0.013128 0.528187 0.000000
0.035746 0.533984 0.000000
0.073774 0.539491 0.000000
0.123261 0.545366 0.000000
0.181051 0.550245 0.000000
0.233586 0.554167 0.000000
0.280208 0.559375 0.000000
0.318260 0.566062 0.000000
0.357062 0.569807 0.000000
0.392892 0.574364 0.000000
0.429963 0.580147 0.000000
0.464537 0.583946 0.000000
0.502191 0.589461 0.000000
0.534995 0.594294 0.000000
0.574510 0.595343 0.000000
0.608264 0.600996 0.000000
0.638236 0.602941 0.000000
0.667203 0.607759 0.000000
0.697457 0.609712 0.000000
0.725077 0.613580 0.000000
0.755438 0.615395 0.001226
0.782950 0.618145 0.005025
0.811764 0.620282 0.011029
0.840824 0.621691 0.021324
0.871722 0.621569 0.040028
0.906273 0.626203 0.072771
0.937224 0.628186 0.110049
0.965602 0.628309 0.145335
0.984666 0.628646 0.187607
0.994416 0.628607 0.226386
0.996078 0.626471 0.270588
0.000000 0.545956 0.000000
0.003799 0.549755 0.000000
0.013013 0.555147 0.000000
0.032598 0.561274 0.000000
0.069072 0.566468 0.000000
0.116050 0.572679 0.000000
0.177574 0.577329 0.000000
0.230147 0.582495 0.000000
0.278217 0.588113 0.000000
0.318382 0.591912 0.000000
0.355154 0.596937 0.000000
0.393260 0.603431 0.000000
0.429994 0.607231 0.000000
0.464216 0.608701 0.000000
0.499219 0.614828 0.000000
0.537845 0.619374 0.000000
0.571752 0.622427 0.000000
0.608444 0.626226 0.000000
0.637217 0.628309 0.000000
0.666579 0.633824 0.000000
0.695205 0.636152 0.000000
0.725115 0.638546 0.000000
0.753922 0.640571 0.001226
0.783004 0.643995 0.004577
0.811764 0.644975 0.008823
0.840545 0.646098 0.020466
0.871500 0.651103 0.039093
0.906120 0.651475 0.067517
0.936979 0.652038 0.102466
0.963699 0.652206 0.142865
0.984559 0.653577 0.183257
0.993823 0.653504 0.225758
0.996078 0.651839 0.272917
0.000000 0.573039 0.000000
0.003799 0.576838 0.000000
0.011428 0.582016 0.000000
0.032721 0.588128 0.000000
0.066667 0.592647 0.000000
0.114338 0.596569 0.000000
0.174234 0.603676 0.000000
0.227696 0.607476 0.000000
0.274387 0.611642 0.000000
0.316697 0.616177 0.000000
0.356342 0.622794 0.000000
0.391146 0.626593 0.000000
0.426103 0.632782 0.000000
0.461765 0.634191 0.000000
0.499203 0.638634 0.000000
0.534605 0.645711 0.000000
0.571814 0.645588 0.000000
0.605361 0.652160 0.000000
0.636213 0.653186 0.000000
0.663327 0.657858 0.000000
0.693689 0.661397 0.000000
0.724648 0.664583 0.000000
0.753156 0.665472 0.000000
0.782644 0.669317 0.003922
0.809559 0.671079 0.008456
0.840411 0.674142 0.017402
0.871262 0.674540 0.035233
0.908333 0.675613 0.065579
0.937929 0.676777 0.100796
0.965809 0.678922 0.141912
0.984804 0.678922 0.180484
0.994654 0.678922 0.224387
0.996078 0.675000 0.275980
0.000000 0.597549 0.000000
0.002493 0.603841 0.000000
0.011275 0.607805 0.000000
0.029048 0.611887 0.000000
0.062868 0.615809 0.000000
0.110872 0.624789 0.000000
0.170458 0.627573 0.000000
0.223652 0.630932 0.000000
0.272825 0.636428 0.000000
0.313825 0.642157 0.000000
0.352926 0.646377 0.000000
0.391107 0.651988 0.000000
0.428064 0.654519 0.000000
0.464698 0.657901 0.000000
0.499019 0.665074 0.000000
0.533908 0.667421 0.000000
0.569240 0.672672 0.000000
0.604637 0.676555 0.000000
0.635440 0.678554 0.000000
0.663603 0.684069 0.000000
0.693765 0.683946 0.000000
0.723039 0.688630 0.000000
0.751769 0.692088 0.000000
0.780883 0.694240 0.002072
0.811764 0.694577 0.008486
0.840637 0.698162 0.017402
0.873529 0.698897 0.033579
0.908333 0.698775 0.064059
0.938894 0.702083 0.099157
0.965809 0.703672 0.139220
0.984804 0.705921 0.184360
0.996078 0.705882 0.232112
0.996078 0.702083 0.283701
0.000000 0.623285 0.000000
0.000000 0.627206 0.000000
0.010126 0.631128 0.000000
0.029044 0.636160 0.000000
0.059559 0.642402 0.000000
0.107176 0.648897 0.000000
0.168367 0.650736 0.000000
0.221714 0.655614 0.000000
0.269056 0.661520 0.000000
0.312669 0.665663 0.000000
0.352589 0.669960 0.000000
0.389759 0.672917 0.000000
0.427482 0.678952 0.000000
0.461895 0.684436 0.000000
0.499357 0.686030 0.000000
0.533249 0.692034 0.000000
0.569975 0.695833 0.000000
0.601425 0.698369 0.000000
0.633778 0.703431 0.000000
0.662002 0.707460 0.000000
0.692157 0.709559 0.000000
0.723039 0.713902 0.000000
0.752696 0.714706 0.000000
0.782522 0.718505 0.001103
0.812684 0.718382 0.008517
0.842057 0.721324 0.015587
0.873529 0.722059 0.033073
0.908333 0.725245 0.063971
0.941574 0.728830 0.099265
0.965809 0.729167 0.138128
0.984804 0.728921 0.187178
0.996078 0.727857 0.238564
0.996078 0.725245 0.288726
0.000000 0.646446 0.000000
0.000000 0.651436 0.000000
0.007598 0.657966 0.000000
0.025348 0.661765 0.000000
0.058226 0.665702 0.000000
0.103309 0.669976 0.000000
0.163273 0.677084 0.000000
0.215322 0.680262 0.000000
0.266697 0.683272 0.000000
0.309314 0.688481 0.000000
0.350858 0.692624 0.000000
0.387489 0.697427 0.000000
0.425766 0.700934 0.000000
0.460823 0.705925 0.000000
0.497166 0.711397 0.000000
0.531005 0.715713 0.000000
0.566667 0.720404 0.000000
0.600831 0.723380 0.000000
0.632246 0.729281 0.000000
0.660784 0.730392 0.000000
0.690411 0.734191 0.000000
0.722070 0.737990 0.000000
0.751639 0.738626 0.000000
0.782468 0.741667 0.001103
0.812040 0.744485 0.004902
0.842889 0.747549 0.013481
0.875820 0.748407 0.030553
0.909704 0.751716 0.059337
0.940181 0.752329 0.098376
0.967073 0.752329 0.141931
0.984804 0.752084 0.191299
0.996078 0.748407 0.247951
0.996078 0.749510 0.298039
0.000000 0.669608 0.000000
0.000000 0.673407 0.000000
0.007598 0.677206 0.000000
0.022702 0.681372 0.000000
0.054535 0.689093 0.000000
0.097978 0.695466 0.000000
0.159007 0.699448 0.000000
0.209681 0.701746 0.000000
0.262745 0.707843 0.000000
0.307383 0.712469 0.000000
0.350429 0.715441 0.000000
0.387684 0.719577 0.000000
0.423652 0.726961 0.000000
0.460478 0.731158 0.000000
0.495466 0.735845 0.000000
0.529902 0.739737 0.000000
0.566177 0.743137 0.000000
0.600613 0.749878 0.000000
0.630392 0.753677 0.000000
0.660080 0.754718 0.000000
0.690441 0.759804 0.000000
0.722059 0.764062 0.000000
0.751593 0.766728 0.000000
0.781863 0.767923 0.001103
0.814216 0.768628 0.004902
0.845711 0.771783 0.015778
0.874877 0.771752 0.030392
0.909773 0.776103 0.063695
0.941789 0.775980 0.104535
0.968566 0.775858 0.148376
0.987561 0.775490 0.201532
0.996078 0.771691 0.256618
0.996078 0.776471 0.309804
0.000000 0.692770 0.000000
0.000000 0.695738 0.000000
0.006740 0.700559 0.000000
0.018873 0.708088 0.000000
0.047411 0.711887 0.000000
0.090173 0.715820 0.000000
0.148529 0.723407 0.000000
0.206625 0.726723 0.000000
0.258732 0.729473 0.000000
0.305388 0.734804 0.000000
0.346277 0.740418 0.000000
0.383800 0.746323 0.000000
0.422105 0.747672 0.000000
0.459946 0.753922 0.000000
0.493382 0.758096 0.000000
0.529637 0.763813 0.000000
0.562745 0.769240 0.000000
0.598652 0.775123 0.000000
0.628294 0.779420 0.000000
0.659682 0.784559 0.000000
0.690472 0.784972 0.000000
0.721128 0.788235 0.000000
0.751547 0.791077 0.000000
0.783326 0.791912 0.001103
0.814706 0.794945 0.007843
0.843988 0.795588 0.017402
0.874801 0.798652 0.035011
0.911052 0.799264 0.070244
0.942647 0.799142 0.110432
0.969362 0.799797 0.162703
0.985608 0.798705 0.208349
0.996078 0.798678 0.261466
0.996078 0.802574 0.313725
0.000000 0.712010 0.000000
0.000000 0.716643 0.000000
0.003677 0.723530 0.000000
0.018137 0.727397 0.000000
0.039798 0.735049 0.000000
0.079289 0.742034 0.000000
0.138618 0.744577 0.000000
0.197541 0.750368 0.000000
0.248468 0.754350 0.000000
0.299395 0.759597 0.000000
0.340472 0.765916 0.000000
0.381855 0.768130 0.000000
0.421630 0.773284 0.000000
0.456074 0.779113 0.000000
0.494363 0.784804 0.000000
0.527673 0.789292 0.000000
0.562745 0.794731 0.000000
0.596936 0.800122 0.000000
0.627865 0.804335 0.000000
0.656916 0.810049 0.000000
0.687776 0.813971 0.000000
0.716774 0.813971 0.000000
0.750000 0.817892 0.000000
0.781089 0.820711 0.003922
0.814154 0.821814 0.008823
0.842647 0.821814 0.018834
0.873070 0.825138 0.041560
