Fujify Luts and XMP/astia.cube
#Generated with Fujify color engine
#Website: https://fujify.me
#LUMIXPHOTOSTYLE STD
LUT_3D_SIZE 5
0.023529 0.027451 0.035294
0.262745 0.050000 0.024510
0.549019 0.072549 0.023529
0.799019 0.078431 0.087255
0.992157 0.062745 0.286275
0.007843 0.219608 0.020588
0.292157 0.263236 0.004167
0.570588 0.300000 0.000981
0.811029 0.329411 0.057353
0.996078 0.321568 0.266667
0.000000 0.460784 0.003922
0.283824 0.500000 0.000000
0.574510 0.543137 0.000000
0.811274 0.563725 0.012745
0.996078 0.570588 0.264706
0.000000 0.669608 0.000000
0.262745 0.707843 0.000000
0.566177 0.743137 0.000000
0.814216 0.768628 0.004902
0.996078 0.776471 0.309804
0.000000 0.862745 0.000000
0.146078 0.920589 0.003922
0.527451 0.962745 0.000000
0.801960 0.979412 0.014706
0.996078 0.980392 0.333333
0.015686 0.027451 0.203922
0.232108 0.050000 0.214706
0.531373 0.067157 0.231373
0.795833 0.069853 0.291912
0.996078 0.053921 0.437255
0.003922 0.219608 0.230392
0.257904 0.260110 0.240441
0.547181 0.299632 0.243627
0.803676 0.322549 0.288174
0.996078 0.316912 0.425980
0.000000 0.452941 0.239215
0.252451 0.496691 0.232721
0.555637 0.533333 0.233824
0.806005 0.561519 0.276838
0.996078 0.564216 0.436275
0.000000 0.662500 0.223775
0.221262 0.708823 0.211703
0.551715 0.747059 0.207353
0.807476 0.772365 0.267892
0.996078 0.779657 0.444853
0.000000 0.869608 0.200980
0.089951 0.928431 0.174510
0.516176 0.970588 0.180882
0.793872 0.984314 0.272549
0.996078 0.984314 0.445098
0.007843 0.023529 0.441176
0.196079 0.033334 0.473039
0.509804 0.046078 0.494118
0.789706 0.058334 0.518627
0.996078 0.047059 0.609804
0.000000 0.219117 0.485784
0.211642 0.256863 0.512378
0.523774 0.288235 0.512500
0.789216 0.316667 0.518995
0.996078 0.317647 0.592157
0.000000 0.450000 0.508823
0.192157 0.494608 0.517892
0.528921 0.529902 0.510784
0.791422 0.556863 0.523284
0.996078 0.566667 0.592157
0.000000 0.659804 0.514216
0.164093 0.707966 0.519608
0.533088 0.743137 0.505392
0.792892 0.768260 0.516054
0.996078 0.779412 0.582353
0.000000 0.874510 0.513726
0.045098 0.932843 0.503431
0.495098 0.969607 0.482353
0.778432 0.984314 0.496569
0.996078 0.988235 0.590196
0.000000 0.019608 0.685294
0.147794 0.023529 0.715686
0.487255 0.033334 0.743627
0.772549 0.048774 0.734314
0.992157 0.050980 0.763725
0.000000 0.215687 0.751961
0.133272 0.254290 0.775490
0.491666 0.285049 0.755882
0.772733 0.314522 0.732537
0.996078 0.325490 0.755882
0.000000 0.449020 0.775000
0.098774 0.494363 0.775245
0.494608 0.528922 0.764706
0.772181 0.555392 0.748039
0.996078 0.570588 0.749020
0.000000 0.662500 0.781373
0.076348 0.705086 0.785784
0.497182 0.738971 0.766299
0.765441 0.759865 0.747059
0.996078 0.783333 0.751961
0.000000 0.878431 0.794117
0.010539 0.930637 0.786275
0.452941 0.964706 0.765196
0.755392 0.981372 0.748284
0.996078 0.992157 0.763725
0.007843 0.023529 0.890196
0.091177 0.019608 0.959804
0.437255 0.033334 0.968627
0.737255 0.055883 0.949020
0.984314 0.062745 0.949020
0.000000 0.225490 0.976471
0.045588 0.256863 0.976471
0.439215 0.293627 0.972059
0.745343 0.324755 0.959804
0.992157 0.338235 0.955882
0.000000 0.452941 0.984314
0.020588 0.499510 0.984314
0.439215 0.533333 0.984314
0.743137 0.556372 0.979412
0.992157 0.576470 0.962745
0.000000 0.665686 0.992157
0.006863 0.703922 0.992157
0.429412 0.732353 0.992157
0.729412 0.752941 0.988235
0.988235 0.776471 0.979412
0.000000 0.878431 0.996078
0.002942 0.909804 0.996078
0.384313 0.937255 0.996078
0.696078 0.959804 0.989216
0.976471 0.988235 0.988235
