Fujify Luts and XMP/astia.cube
#Generated with Fujify color engine
#Website: https://fujify.me
#LUMIXPHOTOSTYLE STD
LUT_3D_SIZE 9
0.023529 0.027451 0.035294
0.115196 0.035294 0.031373
0.262745 0.050000 0.024510
0.417647 0.065196 0.019608
0.549019 0.072549 0.023529
0.682843 0.075980 0.040686
0.799019 0.078431 0.087255
0.907843 0.077941 0.162255
0.992157 0.062745 0.286275
0.023529 0.096569 0.035294
0.130392 0.115686 0.027941
0.284804 0.134926 0.016054
0.428922 0.154902 0.011765
0.562745 0.169117 0.010049
0.691851 0.183333 0.025490
0.803064 0.190074 0.077083
0.918750 0.193627 0.161887
0.996078 0.174510 0.286765
0.007843 0.219608 0.020588
0.117770 0.242525 0.013113
0.292157 0.263236 0.004167
0.436887 0.282598 0.000981
0.570588 0.300000 0.000981
0.696691 0.319118 0.008211
0.811029 0.329411 0.057353
0.923407 0.329657 0.151471
0.996078 0.321568 0.266667
0.000000 0.347059 0.009314
0.090196 0.370098 0.006556
0.286765 0.389216 0.000000
0.431495 0.404412 0.000000
0.571323 0.423530 0.000000
0.699081 0.438725 0.002390
0.815319 0.450000 0.026961
0.933517 0.453125 0.131066
0.996078 0.445098 0.265196
0.000000 0.460784 0.003922
0.077451 0.482108 0.003922
0.283824 0.500000 0.000000
0.433333 0.522794 0.000000
0.574510 0.543137 0.000000
0.700000 0.554412 0.000000
0.811274 0.563725 0.012745
0.935049 0.570833 0.112009
0.996078 0.570588 0.264706
0.000000 0.573039 0.000000
0.066667 0.592647 0.000000
0.274387 0.611642 0.000000
0.426103 0.632782 0.000000
0.571814 0.645588 0.000000
0.693689 0.661397 0.000000
0.809559 0.671079 0.008456
0.937929 0.676777 0.100796
0.996078 0.675000 0.275980
0.000000 0.669608 0.000000
0.054535 0.689093 0.000000
0.262745 0.707843 0.000000
0.423652 0.726961 0.000000
0.566177 0.743137 0.000000
0.690441 0.759804 0.000000
0.814216 0.768628 0.004902
0.941789 0.775980 0.104535
0.996078 0.776471 0.309804
0.000000 0.762255 0.000000
0.025551 0.786213 0.000000
0.229044 0.812378 0.000000
0.411275 0.831557 0.000000
0.550980 0.852696 0.000000
0.682537 0.865993 0.000000
0.809069 0.876961 0.012745
0.947059 0.884252 0.143750
0.996078 0.888236 0.318137
0.000000 0.862745 0.000000
0.007353 0.889706 0.000000
0.146078 0.920589 0.003922
0.367647 0.941176 0.000000
0.527451 0.962745 0.000000
0.668627 0.970098 0.000000
0.801960 0.979412 0.014706
0.954412 0.984314 0.183333
0.996078 0.980392 0.333333
0.019608 0.027451 0.100490
0.103921 0.038726 0.092647
0.247426 0.051348 0.095221
0.400980 0.063235 0.090870
0.539706 0.072794 0.098284
0.677941 0.074694 0.122856
0.796446 0.071814 0.179534
0.912684 0.070098 0.258824
0.996078 0.054902 0.363726
0.019608 0.100062 0.104840
0.115748 0.116115 0.104304
0.266329 0.135999 0.098591
0.416031 0.155170 0.091460
0.554688 0.172549 0.092647
0.686175 0.183035 0.118053
0.803324 0.190074 0.171400
0.919600 0.186535 0.251149
0.996078 0.170588 0.359375
0.007843 0.219975 0.104412
0.107675 0.242326 0.100720
0.278217 0.262745 0.088542
0.421691 0.282491 0.075184
0.558640 0.300429 0.078554
0.690181 0.319118 0.104458
0.807905 0.326471 0.162745
0.924219 0.327742 0.239109
0.996078 0.317647 0.338848
0.000000 0.347059 0.091176
0.079029 0.369095 0.084996
0.276394 0.384467 0.074341
0.420328 0.402267 0.067325
0.562745 0.419792 0.066912
0.694493 0.434988 0.089691
0.811688 0.447733 0.142769
0.932537 0.450414 0.226800
0.996078 0.445098 0.338541
0.000000 0.457108 0.078187
0.064461 0.480147 0.071845
0.269792 0.502328 0.057476
0.421140 0.521752 0.054228
0.566789 0.538358 0.056618
0.693383 0.552451 0.076715
0.809804 0.561764 0.132659
0.937010 0.568382 0.221752
0.996078 0.561029 0.349510
0.000000 0.569302 0.068443
0.053776 0.592050 0.058908
0.257123 0.611596 0.051287
0.418260 0.629235 0.043375
0.561765 0.646385 0.045833
0.689269 0.658042 0.064698
0.809023 0.670864 0.117402
0.939377 0.675613 0.215970
0.996078 0.675000 0.354105
0.000000 0.665686 0.059559
0.040242 0.685999 0.051011
0.245098 0.708731 0.038879
0.415870 0.727819 0.030515
0.557537 0.748529 0.033701
0.686075 0.764047 0.049510
0.811764 0.771293 0.109559
0.941804 0.776731 0.218382
0.996078 0.779412 0.371569
0.000000 0.761826 0.044669
0.018199 0.788840 0.038121
0.208241 0.816176 0.030025
0.397021 0.835087 0.021094
0.546140 0.854841 0.025521
0.676471 0.871094 0.042218
0.804136 0.880775 0.111259
0.943619 0.888182 0.240687
0.996078 0.895160 0.379902
0.000000 0.866667 0.033333
0.003493 0.893628 0.026471
0.126716 0.924510 0.019118
0.356372 0.948836 0.014706
0.521814 0.966421 0.018628
0.664706 0.976471 0.035294
0.801348 0.980392 0.123040
0.950491 0.984314 0.270649
0.996078 0.980392 0.387255
0.015686 0.027451 0.203922
0.092647 0.035294 0.207353
0.232108 0.050000 0.214706
0.384804 0.059804 0.219608
0.531373 0.067157 0.231373
0.672549 0.070588 0.253554
0.795833 0.069853 0.291912
0.915563 0.065319 0.354044
0.996078 0.053921 0.437255
0.015686 0.097794 0.221324
0.100490 0.115686 0.224341
0.247151 0.134436 0.231893
0.398652 0.149740 0.236029
0.542953 0.166666 0.244669
0.678600 0.180576 0.257981
0.799632 0.183333 0.289246
0.919562 0.185462 0.348928
0.996078 0.170588 0.439706
0.003922 0.219608 0.230392
0.083241 0.239767 0.236091
0.257904 0.260110 0.240441
0.405760 0.278431 0.238848
0.547181 0.299632 0.243627
0.682935 0.315625 0.253861
0.803676 0.322549 0.288174
0.925460 0.322059 0.343015
0.996078 0.316912 0.425980
0.000000 0.343505 0.237745
0.063542 0.362745 0.243275
0.260294 0.378523 0.241697
0.405836 0.398652 0.241636
0.550429 0.416605 0.243015
0.687822 0.432399 0.250276
0.808150 0.443995 0.279381
0.933517 0.443535 0.339215
0.996078 0.439338 0.429535
0.000000 0.452941 0.239215
0.052512 0.476410 0.235784
0.252451 0.496691 0.232721
0.407720 0.515931 0.231495
0.555637 0.533333 0.233824
0.686274 0.550429 0.245711
0.806005 0.561519 0.276838
0.937255 0.566238 0.336581
0.996078 0.564216 0.436275
0.000000 0.565196 0.230515
0.038664 0.586673 0.228523
0.240165 0.609069 0.221017
0.406878 0.628860 0.218964
0.554350 0.645037 0.220282
0.684697 0.658303 0.239767
0.808119 0.668964 0.274755
0.938909 0.675122 0.337944
0.996078 0.675000 0.439093
0.000000 0.662500 0.223775
0.025980 0.685110 0.219424
0.221262 0.708823 0.211703
0.402237 0.730423 0.202665
0.551715 0.747059 0.207353
0.681128 0.763266 0.225582
0.807476 0.772365 0.267892
0.938205 0.776348 0.335968
0.996078 0.779657 0.444853
0.000000 0.762255 0.213725
0.010892 0.789261 0.208854
0.181985 0.819240 0.199449
0.388450 0.838986 0.184834
0.535723 0.859253 0.190074
0.669914 0.872687 0.214568
0.796201 0.883916 0.264614
0.942218 0.889032 0.346630
0.996078 0.899510 0.449019
0.000000 0.869608 0.200980
0.000000 0.896691 0.193750
0.089951 0.928431 0.174510
0.343382 0.952451 0.168873
0.516176 0.970588 0.180882
0.656863 0.980392 0.209436
0.793872 0.984314 0.272549
0.946569 0.987377 0.363235
0.996078 0.984314 0.445098
0.011765 0.027451 0.319608
0.084804 0.031373 0.330883
0.211764 0.042157 0.346078
0.371507 0.051899 0.358272
0.519608 0.055637 0.369853
0.668627 0.062745 0.381740
0.793260 0.062745 0.407230
0.913542 0.058518 0.453248
0.996078 0.048529 0.525000
0.007843 0.100000 0.342647
0.085968 0.111826 0.357514
0.232093 0.125842 0.371109
0.383418 0.141666 0.375896
0.531373 0.157751 0.380147
0.673331 0.172733 0.392295
0.797580 0.181465 0.409605
0.919340 0.180469 0.449678
0.996078 0.170588 0.521078
0.000000 0.218995 0.365686
0.057430 0.238005 0.373744
0.240564 0.258548 0.382200
0.391268 0.275521 0.381893
0.533517 0.294669 0.383333
0.673193 0.312806 0.388113
0.799019 0.318536 0.403738
0.922411 0.321660 0.440028
0.996078 0.317647 0.510784
0.000000 0.340686 0.374571
0.037500 0.360968 0.379542
0.236029 0.379427 0.381250
0.391153 0.397488 0.380515
0.535018 0.413082 0.384314
0.675666 0.431112 0.387806
0.800000 0.440395 0.398560
0.930147 0.443490 0.442724
0.996078 0.439645 0.516238
0.000000 0.449755 0.380147
0.030208 0.475031 0.382475
0.229534 0.496691 0.377022
0.395037 0.512531 0.376593
0.543505 0.532720 0.375735
0.677482 0.546569 0.382353
0.801961 0.559069 0.400490
0.935386 0.563388 0.445772
0.996078 0.565196 0.516667
0.000000 0.562745 0.372059
0.021369 0.584429 0.376701
0.217953 0.607353 0.371569
0.392073 0.623652 0.367969
0.543689 0.639400 0.367433
0.676815 0.657207 0.376731
0.803539 0.667387 0.399632
0.939101 0.674678 0.444317
0.996078 0.675000 0.514706
0.000000 0.661152 0.369731
0.012240 0.683839 0.372962
0.202420 0.707843 0.366667
0.390901 0.728401 0.358762
0.543137 0.746875 0.357598
0.674678 0.760861 0.368474
0.802727 0.771721 0.393168
0.934942 0.775843 0.438235
0.996078 0.777574 0.512255
0.000000 0.762561 0.366851
0.003432 0.789974 0.365686
0.155316 0.820098 0.362837
0.374809 0.840395 0.349502
0.530790 0.858579 0.347947
0.663527 0.871691 0.359191
0.790870 0.883349 0.386949
0.935478 0.892157 0.436236
0.996078 0.903432 0.519240
0.000000 0.872059 0.365196
0.000000 0.901471 0.360294
0.071079 0.935171 0.350123
0.324571 0.955392 0.343750
0.501961 0.969853 0.345588
0.648407 0.980392 0.356372
0.785784 0.984314 0.387623
0.933640 0.988235 0.444118
0.996078 0.984314 0.510784
0.007843 0.023529 0.441176
0.069117 0.029167 0.452941
0.196079 0.033334 0.473039
0.352696 0.039216 0.488235
0.509804 0.046078 0.494118
0.663481 0.050980 0.502696
0.789706 0.058334 0.518627
0.915441 0.054902 0.553431
0.996078 0.047059 0.609804
0.003922 0.096323 0.460539
0.066912 0.103952 0.482292
0.210723 0.119179 0.496936
0.369577 0.131372 0.505515
0.520466 0.149020 0.506985
0.667831 0.165533 0.510601
0.794118 0.174816 0.520282
0.919118 0.174970 0.549540
0.996078 0.170343 0.600490
0.000000 0.219117 0.485784
0.034559 0.235294 0.506189
0.211642 0.256863 0.512378
0.376409 0.272120 0.513235
0.523774 0.288235 0.512500
0.666115 0.305392 0.512807
0.789216 0.316667 0.518995
0.922365 0.319976 0.542402
0.996078 0.317647 0.592157
0.000000 0.337990 0.501225
0.017310 0.359222 0.511275
0.205760 0.377328 0.515502
0.377880 0.394884 0.512041
0.524387 0.412868 0.513358
0.666789 0.427145 0.515656
0.791422 0.437622 0.521752
0.926624 0.444148 0.543781
0.996078 0.442402 0.592157
0.000000 0.450000 0.508823
0.010172 0.471323 0.519118
0.192157 0.494608 0.517892
0.375000 0.510417 0.514951
0.528921 0.529902 0.510784
0.664706 0.546079 0.514461
0.791422 0.556863 0.523284
0.931373 0.563235 0.545833
0.996078 0.566667 0.592157
0.000000 0.560049 0.509069
0.007353 0.581373 0.515686
0.180515 0.604105 0.516605
0.373958 0.622365 0.513235
0.532353 0.637868 0.510417
0.666514 0.655668 0.511458
0.794301 0.667524 0.523345
0.934007 0.675000 0.547059
0.996078 0.663971 0.597304
0.000000 0.659804 0.514216
0.003616 0.680943 0.519485
0.164093 0.707966 0.519608
0.374755 0.727328 0.511397
0.533088 0.743137 0.505392
0.666115 0.757108 0.506679
0.792892 0.768260 0.516054
0.927880 0.776409 0.537132
0.996078 0.779412 0.582353
0.000000 0.766177 0.519608
0.000000 0.791176 0.519883
0.117831 0.819669 0.514399
0.358854 0.839308 0.500582
0.519608 0.854779 0.490196
0.654258 0.870251 0.490901
0.785600 0.882966 0.502635
0.927696 0.895803 0.529504
0.996078 0.901961 0.594608
0.000000 0.874510 0.513726
0.000000 0.901716 0.513726
0.045098 0.932843 0.503431
0.300000 0.956863 0.490196
0.495098 0.969607 0.482353
0.641912 0.977941 0.481618
0.778432 0.984314 0.496569
0.926226 0.988235 0.534313
0.996078 0.988235 0.590196
0.003922 0.019608 0.564216
0.052144 0.023529 0.572549
0.173529 0.027451 0.592402
0.334742 0.033824 0.609804
0.496078 0.039216 0.619608
0.655944 0.044056 0.623652
0.782843 0.050980 0.632230
0.910294 0.054902 0.649326
0.996078 0.047059 0.689216
0.000000 0.088542 0.581863
0.043176 0.103002 0.600505
0.185892 0.111764 0.622641
0.352857 0.124334 0.635156
0.508150 0.141176 0.639400
0.659605 0.156242 0.632667
0.784543 0.170113 0.633946
0.914254 0.178661 0.647319
0.996078 0.174020 0.677941
0.000000 0.217524 0.608824
0.013603 0.234927 0.629718
0.175061 0.253922 0.645006
0.355882 0.267356 0.646799
0.510478 0.284314 0.639645
0.655561 0.299525 0.631863
0.783211 0.313725 0.629657
0.917141 0.320282 0.642800
0.996078 0.317647 0.673897
0.000000 0.338297 0.633333
0.003432 0.359138 0.641713
0.158961 0.378370 0.649939
0.355767 0.392854 0.647281
0.511029 0.407843 0.642861
0.658165 0.423821 0.637967
0.785937 0.436565 0.633808
0.921385 0.444791 0.641789
0.996078 0.449020 0.671079
0.000000 0.450490 0.643873
0.000000 0.472243 0.650306
0.144975 0.494363 0.654963
0.349816 0.509069 0.651103
0.512745 0.525858 0.644731
0.654136 0.544608 0.638634
0.782659 0.554841 0.637684
0.922151 0.564308 0.643719
0.996078 0.570588 0.667157
0.000000 0.559804 0.650490
0.000000 0.580461 0.655699
0.139124 0.603799 0.657920
0.351179 0.620121 0.650720
0.516881 0.635018 0.641759
0.654435 0.652022 0.634252
0.782567 0.663833 0.633946
0.923714 0.675000 0.643888
0.996078 0.678922 0.668689
0.000000 0.660049 0.655392
0.000000 0.682046 0.661995
0.121783 0.707935 0.658578
0.349479 0.725123 0.647028
0.519424 0.741238 0.638174
0.653722 0.755698 0.629488
0.779841 0.767371 0.627604
0.916038 0.775980 0.632537
0.996078 0.783333 0.666789
0.000000 0.765074 0.658333
0.000000 0.789238 0.655124
0.083732 0.814890 0.654366
0.326700 0.835670 0.637944
0.506373 0.850980 0.623713
0.643137 0.868444 0.616789
0.772487 0.880377 0.621078
0.919585 0.892647 0.630438
0.996078 0.900184 0.674816
0.000000 0.875980 0.652941
0.000000 0.905208 0.653922
0.023407 0.931863 0.645588
0.261949 0.955392 0.632353
0.474510 0.966666 0.621078
0.627328 0.978003 0.616177
0.768628 0.984314 0.617525
0.915686 0.991667 0.636275
0.996078 0.992157 0.672549
0.000000 0.019608 0.685294
0.032966 0.019608 0.688726
0.147794 0.023529 0.715686
0.314951 0.027451 0.735171
0.487255 0.033334 0.743627
0.644118 0.041422 0.739093
0.772549 0.048774 0.734314
0.900000 0.055392 0.741422
0.992157 0.050980 0.763725
0.000000 0.084314 0.708211
0.021691 0.096446 0.724510
0.156158 0.108854 0.753309
0.330101 0.121324 0.763189
0.493382 0.137255 0.759804
0.645757 0.154902 0.744730
0.776348 0.171814 0.733854
0.904626 0.181924 0.739078
0.995955 0.180147 0.758946
0.000000 0.215687 0.751961
0.002788 0.235601 0.755453
0.133272 0.254290 0.775490
0.329810 0.269394 0.771293
0.491666 0.285049 0.755882
0.643934 0.299510 0.741636
0.772733 0.314522 0.732537
0.914706 0.325061 0.739430
0.996078 0.325490 0.755882
0.000000 0.335661 0.768015
0.000000 0.357368 0.763511
0.111336 0.378983 0.771446
0.328753 0.393321 0.771568
0.494485 0.408762 0.763725
0.646278 0.423422 0.751088
0.775919 0.437102 0.740809
0.915104 0.446783 0.739599
0.996078 0.449020 0.754779
0.000000 0.449020 0.775000
0.000000 0.471017 0.773162
0.098774 0.494363 0.775245
0.325306 0.511275 0.770098
0.494608 0.528922 0.764706
0.640870 0.542953 0.754779
0.772181 0.555392 0.748039
0.912622 0.565196 0.744791
0.996078 0.570588 0.749020
0.000000 0.559436 0.775980
0.000000 0.581204 0.777237
0.090717 0.603799 0.781403
0.321140 0.620328 0.773468
0.496998 0.636826 0.766912
0.640947 0.652022 0.757368
0.769455 0.663235 0.750582
0.912209 0.671569 0.750015
0.996078 0.682230 0.755515
0.000000 0.662500 0.781373
0.000000 0.682874 0.789461
0.076348 0.705086 0.785784
0.317188 0.721201 0.777267
0.497182 0.738971 0.766299
0.636122 0.750123 0.756066
0.765441 0.759865 0.747059
0.906342 0.772916 0.744883
0.996078 0.783333 0.751961
0.000000 0.766544 0.799019
0.000000 0.786964 0.789538
0.041728 0.809681 0.788879
0.287240 0.829412 0.775720
0.481373 0.846569 0.763848
0.624479 0.861750 0.752130
0.759008 0.876195 0.742126
0.905852 0.889155 0.741667
0.996078 0.898652 0.759804
0.000000 0.878431 0.794117
0.000000 0.905882 0.796936
0.010539 0.930637 0.786275
0.217157 0.951471 0.776470
0.452941 0.964706 0.765196
0.609804 0.974020 0.752451
0.755392 0.981372 0.748284
0.903432 0.988235 0.751961
0.996078 0.992157 0.763725
0.000000 0.015686 0.809314
0.018199 0.015686 0.821507
0.120220 0.019608 0.845465
0.290748 0.027451 0.858456
0.464705 0.031618 0.860785
0.623039 0.040686 0.852451
0.756372 0.050980 0.841912
0.884743 0.058824 0.843750
0.988235 0.054902 0.855882
0.000000 0.080821 0.841177
0.007353 0.092042 0.859260
0.120312 0.108165 0.877328
0.303653 0.123529 0.883578
0.470068 0.142463 0.870588
0.626846 0.160233 0.852941
0.760739 0.178385 0.841912
0.892210 0.189384 0.841445
0.992157 0.190196 0.855515
0.000000 0.219608 0.882843
0.000000 0.234850 0.877558
0.086274 0.253983 0.888634
0.299924 0.269256 0.885156
0.466850 0.286029 0.872059
0.625460 0.303110 0.856832
0.761642 0.316789 0.847059
0.903340 0.329457 0.845527
0.996078 0.330392 0.852818
0.000000 0.337622 0.896936
0.000000 0.357207 0.885379
0.067049 0.378952 0.892249
0.299556 0.395182 0.889208
0.470834 0.411121 0.883732
0.627995 0.426478 0.872419
0.762607 0.437914 0.861933
0.904060 0.449778 0.848836
0.996078 0.457904 0.852451
0.000000 0.449020 0.901716
0.000000 0.475521 0.889921
0.056618 0.496507 0.894547
0.290962 0.514369 0.889277
0.470221 0.529657 0.890686
0.623866 0.545098 0.883058
0.758395 0.555821 0.871262
0.898499 0.567126 0.858793
0.996078 0.574755 0.852941
0.000000 0.561458 0.902880
0.000000 0.582437 0.902719
0.046124 0.606051 0.905254
0.283219 0.622618 0.903983
0.468382 0.637347 0.899602
0.620496 0.647549 0.890288
0.756587 0.660294 0.881097
0.898813 0.671079 0.869937
0.995588 0.682843 0.859191
0.000000 0.665686 0.911765
0.000000 0.682552 0.918275
0.035508 0.703922 0.917831
0.267509 0.720588 0.914415
0.465747 0.734314 0.904106
0.614767 0.748039 0.897028
0.750306 0.757077 0.884559
0.892096 0.775444 0.873637
0.992157 0.782843 0.868628
0.000000 0.767096 0.923101
0.000000 0.785792 0.930086
0.013664 0.807598 0.929718
0.224931 0.825490 0.921691
0.453033 0.842892 0.910080
0.604527 0.859866 0.898269
0.743949 0.872288 0.887699
0.887799 0.888121 0.876478
0.992157 0.887745 0.865196
0.000000 0.882353 0.939216
0.000000 0.905392 0.943076
0.002942 0.925490 0.936519
0.153493 0.945098 0.932966
0.415441 0.958824 0.921324
0.586765 0.972059 0.905515
0.732598 0.980392 0.891544
0.877329 0.988235 0.876961
0.992157 0.988235 0.872549
0.007843 0.023529 0.890196
0.007353 0.015686 0.937745
0.091177 0.019608 0.959804
0.257843 0.027451 0.964706
0.437255 0.033334 0.968627
0.599510 0.043137 0.956863
0.737255 0.055883 0.949020
0.868628 0.062745 0.949020
0.984314 0.062745 0.949020
0.000000 0.080392 0.956373
0.000000 0.092096 0.963787
0.081373 0.111642 0.976471
0.265564 0.131005 0.980208
0.443138 0.148775 0.970588
0.605576 0.167953 0.960784
0.744608 0.182966 0.949388
0.873468 0.197120 0.945588
0.988235 0.198039 0.952941
0.000000 0.225490 0.976471
0.000000 0.236519 0.976471
0.045588 0.256863 0.976471
0.257721 0.274755 0.976471
0.439215 0.293627 0.972059
0.603431 0.309803 0.961887
0.745343 0.324755 0.959804
0.887745 0.334559 0.956495
0.992157 0.338235 0.955882
0.000000 0.335294 0.984314
0.000000 0.361948 0.976777
0.027819 0.379534 0.983211
0.257353 0.399510 0.980392
0.441176 0.415196 0.978922
0.605882 0.429963 0.973468
0.745098 0.442157 0.971569
0.888726 0.455576 0.962929
0.992157 0.463235 0.956863
0.000000 0.452941 0.984314
0.000000 0.477696 0.980392
0.020588 0.499510 0.984314
0.244608 0.518137 0.984314
0.439215 0.533333 0.984314
0.602941 0.547059 0.983579
0.743137 0.556372 0.979412
0.888481 0.569118 0.968627
0.992157 0.576470 0.962745
0.000000 0.566667 0.985784
0.000000 0.588235 0.988235
0.013725 0.605515 0.988603
0.225551 0.624020 0.989154
0.436519 0.637745 0.988235
0.596507 0.647549 0.988235
0.737622 0.659314 0.984314
0.880882 0.672365 0.977758
0.992157 0.672549 0.971078
0.000000 0.665686 0.992157
0.000000 0.686152 0.992157
0.006863 0.703922 0.992157
0.181005 0.720588 0.992157
0.429412 0.732353 0.992157
0.589461 0.744485 0.992157
0.729412 0.752941 0.988235
0.873774 0.767770 0.984314
0.988235 0.776471 0.979412
0.000000 0.766667 0.992157
0.000000 0.785784 0.993076
0.002942 0.802206 0.996078
0.159498 0.821691 0.996078
0.419363 0.838726 0.992157
0.578309 0.848530 0.992157
0.718504 0.856495 0.989093
0.856924 0.868138 0.987316
0.984314 0.876471 0.976471
0.000000 0.878431 0.996078
0.000000 0.898039 0.996078
0.002942 0.909804 0.996078
0.109804 0.927941 0.996078
0.384313 0.937255 0.996078
0.554902 0.945098 0.992157
0.696078 0.959804 0.989216
0.845098 0.976471 0.988235
0.976471 0.988235 0.988235
